alisrour97/Franka_experiments/Real_Robot_scripts/servo-franka/Data2/log_dyn_INIT2_5.csv
Time,q1,q2,q3,q4,q5,q6,q7,dq1,dq2,dq3,dq4,dq5,dq6,dq7,t1,t2,t3,t4,t5,t6,t7,ex1,ex2,ex3,ex4,ex5,ex6,ev1,ev2,ev3,ev4,ev5,ev6,xd,yd,zd,uxd,uyd,uzd,x,y,z,ux,uy,uz,vxd,vyd,vzd,vx,vy,vz
2.44141e-07, 1.69142, -1.22797, -1.53959, -0.90047, -1.19243, 1.22788, -1.30252, -0.000171015, 0.00711056, -0.00150194, 0.00266419, 0.000905069, 0.00241113, -0.00565276, -0.317619, 63.4103, 32.1421, 7.44202, 3.06903, 4.04086, -0.311207, 0.000478156, -0.00186825, 0.00217572, 0.00285701, 0.00159965, 0.000602243, 0.000626743, 0.000527163, 0.00424176, 0.00308525, 0.00743796, 0.00263738, 0.471008, -0.543389, 0.335894, -2.08385, -2.16584, -0.129887, 0.469053, -0.542651, 0.333869, -2.08212, -2.1632, -0.128284, -1.48327e-05, 4.00419e-05, -1.29039e-06, -0.000365796, -0.00125314, 0.00410574
0.014176, 1.69139, -1.22794, -1.53961, -0.900427, -1.19243, 1.22789, -1.30253, -0.00531147, 0.00235231, -0.000932067, 0.000269342, -0.000451611, -0.000249338, -0.00018022, -0.508049, 63.45, 32.2175, 7.44202, 3.08826, 4.05551, -0.324025, 0.000448525, -0.00189791, 0.0021573, 0.00283975, 0.0015666, 0.000670991, 0.00255273, 0.00332249, 0.00135799, -9.86565e-05, 0.00255439, -0.00587633, 0.471008, -0.543389, 0.335894, -2.08385, -2.16584, -0.129887, 0.469019, -0.542692, 0.33389, -2.08225, -2.16314, -0.128256, -2.49008e-05, 7.8927e-05, 1.60533e-06, -0.00320281, -0.00278616, 0.00104647
0.015176, 1.69139, -1.22794, -1.53961, -0.900427, -1.19243, 1.22789, -1.30253, -0.00531147, 0.00235231, -0.000932067, 0.000269342, -0.000451611, -0.000249338, -0.00018022, -0.508049, 63.45, 32.2175, 7.44202, 3.08826, 4.05551, -0.324025, 0.000448516, -0.00189791, 0.0021573, 0.00283975, 0.0015666, 0.000670995, 0.0025958, 0.00331313, 0.00136179, -9.86347e-05, 0.00260252, -0.00584562, 0.471008, -0.543389, 0.335894, -2.08385, -2.16584, -0.129887, 0.469019, -0.542692, 0.33389, -2.08225, -2.16314, -0.128256, -3.59273e-05, 0.000121646, 4.81928e-06, -0.00320281, -0.00278616, 0.00104647
0.016176, 1.69139, -1.22794, -1.53961, -0.900427, -1.19243, 1.22789, -1.30253, -0.00531147, 0.00235231, -0.000932067, 0.000269342, -0.000451611, -0.000249338, -0.00018022, -0.508049, 63.45, 32.2175, 7.44202, 3.08826, 4.05551, -0.324025, 0.000448492, -0.0018979, 0.0021573, 0.00283974, 0.00156657, 0.000671006, 0.00264289, 0.00330293, 0.00136591, -9.85381e-05, 0.0026551, -0.00581211, 0.471008, -0.543389, 0.335894, -2.08385, -2.16584, -0.129887, 0.469019, -0.542692, 0.33389, -2.08225, -2.16314, -0.128256, -4.79476e-05, 0.000168349, 8.36616e-06, -0.00320281, -0.00278616, 0.00104647
0.017176, 1.69139, -1.22794, -1.53961, -0.900427, -1.19243, 1.22789, -1.30253, -0.00531147, 0.00235231, -0.000932067, 0.000269342, -0.000451611, -0.000249338, -0.00018022, -0.508049, 63.45, 32.2175, 7.44202, 3.08826, 4.05551, -0.324025, 0.000448446, -0.00189789, 0.0021573, 0.00283973, 0.00156653, 0.000671027, 0.00269415, 0.00329186, 0.00137036, -9.8359e-05, 0.00271227, -0.0057757, 0.471008, -0.543389, 0.335894, -2.08385, -2.16584, -0.129887, 0.469019, -0.542692, 0.33389, -2.08225, -2.16314, -0.128256, -6.09969e-05, 0.000219187, 1.22607e-05, -0.00320281, -0.00278616, 0.00104647
0.018176, 1.69139, -1.22794, -1.53961, -0.900427, -1.19243, 1.22789, -1.30253, -0.00531147, 0.00235231, -0.000932067, 0.000269342, -0.000451611, -0.000249338, -0.00018022, -0.508049, 63.45, 32.2175, 7.44202, 3.08826, 4.05551, -0.324025, 0.000448369, -0.00189788, 0.00215729, 0.00283971, 0.00156646, 0.000671061, 0.00274973, 0.00327989, 0.00137515, -9.80895e-05, 0.00277421, -0.00573631, 0.471008, -0.543389, 0.335894, -2.08385, -2.16584, -0.129887, 0.469019, -0.542692, 0.33389, -2.08225, -2.16314, -0.128256, -7.51097e-05, 0.000274308, 1.65177e-05, -0.00320281, -0.00278616, 0.00104647
0.019176, 1.69139, -1.22794, -1.53961, -0.900427, -1.19243, 1.22789, -1.30253, -0.00531147, 0.00235231, -0.000932067, 0.000269342, -0.000451611, -0.000249338, -0.00018022, -0.508049, 63.45, 32.2175, 7.44202, 3.08826, 4.05551, -0.324025, 0.000448255, -0.00189785, 0.00215728, 0.00283968, 0.00156635, 0.000671112, 0.00280978, 0.003267, 0.00138029, -9.77213e-05, 0.00284107, -0.00569383, 0.471008, -0.543389, 0.335894, -2.08385, -2.16584, -0.129887, 0.469019, -0.542692, 0.33389, -2.08225, -2.16314, -0.128256, -9.03198e-05, 0.000333859, 2.1152e-05, -0.00320281, -0.00278616, 0.00104647
0.020176, 1.69139, -1.22794, -1.53961, -0.900427, -1.19243, 1.22789, -1.30253, -0.00531147, 0.00235231, -0.000932067, 0.000269342, -0.000451611, -0.000249338, -0.00018022, -0.508049, 63.45, 32.2175, 7.44202, 3.08826, 4.05551, -0.324025, 0.000448096, -0.00189782, 0.00215727, 0.00283964, 0.0015662, 0.000671183, 0.00287445, 0.00325315, 0.00138579, -9.72456e-05, 0.00291301, -0.00564816, 0.471008, -0.543389, 0.335894, -2.08385, -2.16584, -0.129887, 0.469019, -0.542692, 0.33389, -2.08225, -2.16314, -0.128256, -0.000106661, 0.000397984, 2.61782e-05, -0.00320281, -0.00278616, 0.00104647
0.021176, 1.69139, -1.22794, -1.53961, -0.900427, -1.19243, 1.22789, -1.30253, -0.00531147, 0.00235231, -0.000932067, 0.000269342, -0.000451611, -0.000249338, -0.00018022, -0.508049, 63.45, 32.2175, 7.44202, 3.08826, 4.05551, -0.324025, 0.000447885, -0.00189777, 0.00215725, 0.00283959, 0.001566, 0.000671277, 0.00294389, 0.00323832, 0.00139165, -9.66537e-05, 0.00299018, -0.00559922, 0.471008, -0.543389, 0.335894, -2.08385, -2.16584, -0.129887, 0.469019, -0.542692, 0.33389, -2.08225, -2.16314, -0.128256, -0.000124165, 0.000466826, 3.16113e-05, -0.00320281, -0.00278616, 0.00104647
0.022176, 1.69139, -1.22794, -1.53961, -0.900427, -1.19243, 1.22789, -1.30253, -0.00531147, 0.00235231, -0.000932067, 0.000269342, -0.000451611, -0.000249338, -0.00018022, -0.508049, 63.45, 32.2175, 7.44202, 3.08826, 4.05551, -0.324025, 0.000447613, -0.00189771, 0.00215722, 0.00283953, 0.00156574, 0.000671398, 0.00301822, 0.00322249, 0.00139789, -9.59362e-05, 0.00307273, -0.0055469, 0.471008, -0.543388, 0.335894, -2.08385, -2.16584, -0.129887, 0.469019, -0.542692, 0.33389, -2.08225, -2.16314, -0.128256, -0.000142864, 0.000540525, 3.74658e-05, -0.00320281, -0.00278616, 0.00104647
0.023176, 1.69136, -1.22795, -1.53967, -0.900443, -1.19243, 1.22789, -1.30254, -0.00464869, -0.00172454, -0.0113208, -0.00313323, 4.4911e-05, -0.000384532, 0.00126738, -0.508049, 63.6325, 32.515, 7.5531, 3.09375, 4.07016, -0.330433, 0.0004274, -0.00191883, 0.00218429, 0.00289696, 0.00156837, 0.000702916, 0.00421882, 0.00380305, -0.00519258, -0.0111274, -0.000385211, -0.00805656, 0.471008, -0.543388, 0.335894, -2.08384, -2.16584, -0.129888, 0.468997, -0.542709, 0.333861, -2.08225, -2.16308, -0.128192, -0.000162789, 0.000619218, 4.37565e-05, -0.00399751, -0.0029021, -0.00562367
0.024176, 1.69137, -1.22795, -1.53967, -0.900443, -1.19243, 1.22789, -1.30255, -0.00248066, -0.0011355, -0.00653134, -0.00141427, 2.99446e-05, 0.000557439, -0.000852705, -0.543754, 63.6325, 32.4396, 7.51739, 3.09375, 4.04819, -0.284657, 0.000427385, -0.00191735, 0.00218471, 0.00289725, 0.0015662, 0.00069604, 0.00290341, 0.00194676, -0.00293487, -0.00559724, 0.000380438, -0.00295564, 0.471008, -0.543388, 0.335894, -2.08384, -2.16584, -0.129888, 0.468999, -0.542708, 0.333861, -2.08224, -2.16309, -0.12819, -0.000183971, 0.000703042, 5.04979e-05, -0.00213033, -0.00179122, -0.0032394
0.025176, 1.69137, -1.22796, -1.53969, -0.900448, -1.19244, 1.22789, -1.30255, -0.00181634, -0.0103845, -0.011392, -0.00413515, 0.0013763, 0.000880246, -0.00179083, -0.543754, 63.5214, 32.3285, 7.51739, 3.05713, 4.03445, -0.251698, 0.000423951, -0.00191747, 0.00219817, 0.00291446, 0.00157245, 0.000697279, 0.00353006, 0.00142809, -0.0104691, -0.011107, -0.00910728, -0.000628999, 0.471008, -0.543387, 0.335894, -2.08384, -2.16584, -0.129888, 0.468998, -0.542709, 0.333847, -2.08223, -2.16308, -0.128178, -0.000206438, 0.000792126, 5.77046e-05, -0.00188435, -0.00113992, -0.0107845
0.026176, 1.69137, -1.22796, -1.53971, -0.900453, -1.19244, 1.22789, -1.30255, -0.00133282, -0.00755524, -0.0141128, -0.00528195, -0.00197745, 0.00377422, -0.00312791, -0.543754, 62.97, 32.031, 7.47772, 2.88501, 3.94839, -0.199513, 0.000421276, -0.00191844, 0.00220606, 0.00293069, 0.00157144, 0.000699329, 0.00433733, 0.00126015, -0.00969531, -0.0129159, -0.00171598, -0.000226706, 0.471007, -0.543387, 0.335894, -2.08384, -2.16584, -0.129889, 0.468997, -0.54271, 0.333839, -2.08222, -2.16307, -0.128159, -0.000230219, 0.000886601, 6.53909e-05, -0.00168362, -0.00195463, -0.0101432
0.027176, 1.69138, -1.22798, -1.53974, -0.900456, -1.19245, 1.22789, -1.30255, 0.00254648, -0.00969247, -0.0205962, -0.00371805, -0.00445926, 0.00492364, -0.00256092, -0.694511, 62.4185, 31.6224, 7.33093, 2.70099, 3.88339, -0.186696, 0.00041795, -0.00191679, 0.00222525, 0.00296712, 0.00157297, 0.000704895, 0.0053366, 0.000586435, -0.0131287, -0.0187839, -0.000728478, -0.00216951, 0.471007, -0.543386, 0.335894, -2.08384, -2.16584, -0.129889, 0.468998, -0.542709, 0.333819, -2.08221, -2.16305, -0.12812, -0.000255341, 0.00098659, 7.35711e-05, -0.0011241, -0.00228512, -0.0137006
0.028176, 1.69139, -1.22799, -1.53978, -0.900468, -1.19247, 1.22789, -1.30255, 0.00162907, -0.0070277, -0.0283787, -0.00768974, -0.00845641, 0.00460485, -0.00391203, -0.694511, 61.7917, 31.2137, 7.25555, 2.56, 3.84768, -0.127186, 0.000408626, -0.00192223, 0.00224751, 0.0030217, 0.00156213, 0.000716781, 0.00679716, 0.00212349, -0.0148436, -0.029248, 0.00597732, -0.00329976, 0.471007, -0.543385, 0.335894, -2.08384, -2.16584, -0.12989, 0.468992, -0.542715, 0.333796, -2.08219, -2.16302, -0.128048, -0.00028183, 0.00109222, 8.22592e-05, -0.00269533, -0.00342033, -0.0155655
0.029176, 1.69139, -1.228, -1.53983, -0.900479, -1.19249, 1.22789, -1.30254, 0.00331582, -0.00690346, -0.0336169, -0.00987986, -0.0119766, 0.00384979, -0.00209991, -0.658806, 61.3513, 30.7654, 7.14447, 2.43091, 3.82663, -0.140919, 0.000396612, -0.00192937, 0.00227673, 0.00308374, 0.0015587, 0.000741606, 0.00720503, 0.00212721, -0.0170767, -0.0374187, 0.00931953, -0.00514772, 0.471007, -0.543384, 0.335894, -2.08384, -2.16584, -0.129891, 0.468984, -0.542721, 0.333766, -2.08219, -2.16298, -0.127974, -0.000309711, 0.0012036, 9.14692e-05, -0.00279295, -0.00336804, -0.0178246
0.030176, 1.6914, -1.22802, -1.53988, -0.900495, -1.19252, 1.22789, -1.30255, 0.00735293, -0.00525645, -0.0401718, -0.0122504, -0.0161826, 0.00310906, -0.00360438, -0.734184, 60.9824, 30.2814, 7.06909, 2.33844, 3.81198, -0.0814099, 0.000387851, -0.00193148, 0.00230642, 0.00315867, 0.00154041, 0.000746085, 0.00679149, 0.00110531, -0.0190286, -0.0473703, 0.0149242, -0.00208721, 0.471007, -0.543383, 0.335894, -2.08384, -2.16584, -0.129891, 0.46898, -0.542724, 0.333735, -2.08216, -2.16295, -0.127873, -0.000339009, 0.00132085, 0.000101215, -0.00188692, -0.00250027, -0.0197088
0.031176, 1.69141, -1.22804, -1.53995, -0.900506, -1.19256, 1.22789, -1.30254, 0.00757966, -0.0113371, -0.047216, -0.0153419, -0.0251378, 0.00498883, 0.000512908, -0.694511, 60.7959, 29.9839, 6.91833, 2.28351, 3.73324, -0.160145, 0.000366542, -0.00194152, 0.00234602, 0.00324005, 0.00152055, 0.000788403, 0.00989399, 0.00206341, -0.0253648, -0.0580856, 0.0180053, -0.00945161, 0.471006, -0.543382, 0.335894, -2.08384, -2.16584, -0.129892, 0.468969, -0.542739, 0.333693, -2.08217, -2.16289, -0.127759, -0.000369746, 0.00144407, 0.00011151, -0.0029923, -0.00450383, -0.0264076
0.032176, 1.69141, -1.22805, -1.54002, -0.900521, -1.19261, 1.2279, -1.30254, 0.00387636, -0.0105916, -0.0522821, -0.0166577, -0.0319713, 0.00600465, 0.000816435, -0.619133, 60.538, 29.5395, 6.84296, 2.23407, 3.66092, -0.172963, 0.00034676, -0.00195097, 0.00237834, 0.00331985, 0.0014863, 0.000820286, 0.0137165, 0.00531514, -0.0266105, -0.0648023, 0.0253151, -0.0169005, 0.471006, -0.543381, 0.335894, -2.08384, -2.16584, -0.129893, 0.468959, -0.542752, 0.333659, -2.08218, -2.16284, -0.127633, -0.000401943, 0.00157338, 0.000122367, -0.0061803, -0.00808949, -0.0281221
0.033176, 1.69142, -1.22807, -1.54009, -0.900547, -1.19265, 1.2279, -1.30254, 0.00440162, -0.00947411, -0.0578677, -0.0202635, -0.041, 0.00664796, 0.000306766, -0.543754, 60.3912, 29.2023, 6.88263, 2.16724, 3.58951, -0.166554, 0.000329391, -0.00195833, 0.00241759, 0.00341607, 0.00145354, 0.000841388, 0.0154592, 0.00609597, -0.0283931, -0.0750353, 0.0349824, -0.0183417, 0.471006, -0.54338, 0.335895, -2.08384, -2.16584, -0.129894, 0.468951, -0.542762, 0.333618, -2.08217, -2.1628, -0.127492, -0.00043562, 0.00170887, 0.000133799, -0.00699584, -0.00943203, -0.0301179
0.034176, 1.69143, -1.22808, -1.54017, -0.900567, -1.19271, 1.22791, -1.30254, 0.0057833, -0.00516128, -0.0659322, -0.0168327, -0.0445498, 0.00680556, -0.00172839, -0.508049, 60.2444, 28.9048, 6.80725, 2.14252, 3.52542, -0.114369, 0.000309474, -0.00196598, 0.00245285, 0.00351205, 0.00140576, 0.000864356, 0.0179973, 0.00793285, -0.0282883, -0.0818281, 0.0426822, -0.0229888, 0.471005, -0.543378, 0.335895, -2.08383, -2.16584, -0.129895, 0.468942, -0.542775, 0.33358, -2.08216, -2.16277, -0.127336, -0.000470796, 0.00185063, 0.00014582, -0.00877098, -0.0118871, -0.0303409
0.035176, 1.69144, -1.22808, -1.54025, -0.900582, -1.19276, 1.22792, -1.30254, 0.00854401, -0.00310988, -0.0715651, -0.0156594, -0.045167, 0.006402, -0.00162707, -0.543754, 60.0223, 28.7183, 6.65649, 2.06195, 3.47507, -0.101552, 0.000291145, -0.00197147, 0.00248342, 0.0036098, 0.0013471, 0.000891131, 0.0183281, 0.00779272, -0.029084, -0.0870919, 0.0455457, -0.0242377, 0.471005, -0.543376, 0.335895, -2.08383, -2.16584, -0.129896, 0.468936, -0.542787, 0.333547, -2.08217, -2.16273, -0.127167, -0.000507488, 0.00199877, 0.000158442, -0.00868461, -0.0119374, -0.0311696
0.036176, 1.69145, -1.22807, -1.54033, -0.900599, -1.19282, 1.22793, -1.30254, 0.00598672, -0.00156111, -0.0728838, -0.0158937, -0.0517747, 0.00640423, -0.000372709, -0.392998, 59.8041, 28.5319, 6.54541, 2.01984, 3.41739, -0.120778, 0.000267385, -0.00198352, 0.00250994, 0.00370721, 0.00127695, 0.000936006, 0.0209862, 0.010152, -0.0285239, -0.0909046, 0.0526999, -0.0305731, 0.471004, -0.543375, 0.335895, -2.08383, -2.16584, -0.129898, 0.468923, -0.542805, 0.333518, -2.0822, -2.16269, -0.126985, -0.000545713, 0.00215336, 0.000171677, -0.0109638, -0.0145896, -0.0309448
0.037176, 1.69147, -1.22807, -1.54041, -0.900627, -1.19289, 1.22795, -1.30254, 0.0118172, 0.00474394, -0.0736396, -0.0155825, -0.056537, 0.0118868, 0.00049746, -0.43267, 59.7644, 28.3851, 6.54541, 1.97681, 3.33133, -0.140919, 0.00025329, -0.00198264, 0.00254029, 0.0038097, 0.00120472, 0.000952696, 0.0197404, 0.00669794, -0.0248561, -0.0892503, 0.0659854, -0.027917, 0.471004, -0.543373, 0.335895, -2.08383, -2.16584, -0.129899, 0.468923, -0.542813, 0.333486, -2.08219, -2.16267, -0.126798, -0.000585484, 0.00231447, 0.000185536, -0.00746611, -0.0136218, -0.02722
0.038176, 1.69148, -1.22806, -1.54048, -0.900653, -1.19295, 1.22796, -1.30253, 0.0116785, 0.00605928, -0.0769674, -0.0182732, -0.0554838, 0.0117184, 0.00547753, -0.281914, 59.6176, 28.3454, 6.54541, 1.93378, 3.23886, -0.153737, 0.000236109, -0.00198793, 0.00256257, 0.00390978, 0.00112291, 0.000981501, 0.0195165, 0.00666703, -0.025628, -0.0929598, 0.0669915, -0.0318296, 0.471003, -0.54337, 0.335895, -2.08383, -2.16584, -0.129901, 0.468917, -0.542824, 0.333462, -2.08221, -2.16265, -0.126603, -0.000626814, 0.0024822, 0.000200032, -0.00751244, -0.013113, -0.0279339
0.039176, 1.6915, -1.22804, -1.54056, -0.900679, -1.19302, 1.22797, -1.30254, 0.0119665, 0.0132866, -0.0781169, -0.0201785, -0.0600705, 0.00944551, 0.00159952, -0.131157, 59.4708, 28.274, 6.54541, 1.91546, 3.20224, -0.0878186, 0.000218686, -0.00199333, 0.0025806, 0.0040117, 0.00102893, 0.00100007, 0.0192387, 0.0073133, -0.0222475, -0.0984147, 0.0772604, -0.0281, 0.471003, -0.543368, 0.335896, -2.08382, -2.16584, -0.129903, 0.468911, -0.542836, 0.333441, -2.08222, -2.16264, -0.126394, -0.000669715, 0.00265659, 0.000215176, -0.00808867, -0.013211, -0.0245182
0.040176, 1.6915, -1.22803, -1.54063, -0.900704, -1.1931, 1.22798, -1.30253, 0.0129797, 0.00907365, -0.0740284, -0.0229677, -0.064346, 0.0114206, 0.00737825, 0.245735, 59.4708, 28.2343, 6.47003, 1.92737, 3.19583, -0.120778, 0.000194199, -0.00200695, 0.00260266, 0.00411452, 0.000943831, 0.0010426, 0.0187403, 0.00540859, -0.023525, -0.0969484, 0.0777689, -0.0296888, 0.471002, -0.543365, 0.335896, -2.08382, -2.16584, -0.129904, 0.468897, -0.542855, 0.333416, -2.08225, -2.1626, -0.126192, -0.000714195, 0.00283772, 0.000230977, -0.00629484, -0.0122633, -0.025744
0.041176, 1.69151, -1.22801, -1.5407, -0.900733, -1.19318, 1.22798, -1.30253, 0.0144897, 0.00788149, -0.072234, -0.0238098, -0.0713235, 0.006057, 0.00601244, 0.475838, 59.3994, 28.274, 6.47003, 1.90906, 3.25259, -0.133595, 0.000177653, -0.00201335, 0.00262148, 0.00422576, 0.000850349, 0.00106992, 0.0185708, 0.00576704, -0.024234, -0.10402, 0.0798562, -0.0274118, 0.471001, -0.543363, 0.335896, -2.08382, -2.16584, -0.129906, 0.46889, -0.542866, 0.333396, -2.08227, -2.16258, -0.125973, -0.000760263, 0.00302564, 0.000247448, -0.00673056, -0.0118134, -0.0263905
0.042176, 1.69152, -1.22799, -1.54077, -0.900772, -1.19326, 1.22798, -1.30252, 0.00953675, 0.0111199, -0.0711832, -0.0301808, -0.0774512, 0.00285352, 0.00521844, 0.85273, 59.2883, 28.3454, 6.58508, 1.91546, 3.29562, -0.153737, 0.00015809, -0.00202362, 0.0026384, 0.00433806, 0.000747143, 0.00109909, 0.019436, 0.00823755, -0.0228407, -0.110715, 0.0870594, -0.0273982, 0.471001, -0.54336, 0.335896, -2.08381, -2.16584, -0.129908, 0.468879, -0.54288, 0.333377, -2.08229, -2.16257, -0.125743, -0.000807924, 0.0032204, 0.000264596, -0.00916428, -0.0127884, -0.0250574
0.043176, 1.69152, -1.22797, -1.54083, -0.900798, -1.19334, 1.22798, -1.30253, 0.0104152, 0.0158458, -0.0655009, -0.0300398, -0.0772912, -0.000706868, 0.00260638, 1.18995, 59.213, 28.3454, 6.5097, 1.92096, 3.37436, -0.120778, 0.000139695, -0.00203271, 0.00265124, 0.00443786, 0.000651906, 0.00112564, 0.0172719, 0.00744981, -0.0183673, -0.108429, 0.0897437, -0.0212128, 0.471, -0.543357, 0.335896, -2.08381, -2.16584, -0.129911, 0.468869, -0.542894, 0.333362, -2.08231, -2.16255, -0.125535, -0.000857184, 0.00342203, 0.000282433, -0.00834271, -0.0111066, -0.0203103
0.044176, 1.69153, -1.22795, -1.54089, -0.900827, -1.19342, 1.22799, -1.30253, 0.00753113, 0.0144022, -0.0619685, -0.0302783, -0.0760158, -0.00264856, 0.000540618, 1.53114, 59.213, 28.4961, 6.43433, 1.90265, 3.43936, -0.0814099, 0.000120941, -0.00204105, 0.00266603, 0.00453914, 0.000556209, 0.00114781, 0.0176374, 0.00853531, -0.0179965, -0.10621, 0.0862265, -0.0194903, 0.470999, -0.543353, 0.335897, -2.08381, -2.16584, -0.129913, 0.46886, -0.542907, 0.333345, -2.08232, -2.16254, -0.125326, -0.000908043, 0.00363059, 0.000300968, -0.0094512, -0.0113604, -0.0199497
0.0451775, 1.69154, -1.22793, -1.54095, -0.900851, -1.19351, 1.22799, -1.30252, 0.0113099, 0.0166285, -0.0601927, -0.0256483, -0.0794934, 0.00151577, 0.00130222, 1.75727, 59.213, 28.6826, 6.28357, 1.88434, 3.48239, -0.101552, 0.000102941, -0.00204701, 0.00267787, 0.0046331, 0.000457389, 0.00117727, 0.0180991, 0.00676048, -0.0152309, -0.100854, 0.0932004, -0.0207748, 0.470998, -0.54335, 0.335897, -2.0838, -2.16584, -0.129916, 0.468853, -0.54292, 0.333331, -2.08235, -2.16253, -0.125122, -0.000960503, 0.00384608, 0.000320207, -0.00761474, -0.0119538, -0.0173249
0.0461775, 1.69156, -1.22792, -1.54099, -0.900876, -1.1936, 1.22799, -1.30252, 0.0119093, 0.0110325, -0.0541169, -0.0225408, -0.0771843, -0.00111299, 0.00247307, 1.9477, 59.3994, 28.8294, 6.13678, 1.84772, 3.5538, -0.140919, 8.58726e-05, -0.00205232, 0.00269271, 0.00472923, 0.000366395, 0.00120276, 0.0175064, 0.00611832, -0.0161785, -0.0958272, 0.0840407, -0.0201238, 0.470997, -0.543346, 0.335897, -2.0838, -2.16584, -0.129919, 0.468847, -0.542931, 0.333314, -2.08237, -2.16252, -0.124923, -0.00101456, 0.00406854, 0.000340161, -0.00708288, -0.0109739, -0.0181679
0.0471775, 1.69157, -1.22791, -1.54104, -0.900894, -1.19369, 1.22799, -1.30251, 0.0131932, 0.0127303, -0.0511769, -0.019383, -0.0812884, 0.00194963, 0.00199622, 2.09846, 59.6176, 29.0555, 5.95032, 1.84131, 3.6188, -0.147328, 6.48884e-05, -0.00205995, 0.00270449, 0.00481973, 0.000268494, 0.0012359, 0.0184684, 0.00546903, -0.0134787, -0.0910564, 0.0904414, -0.0209751, 0.470996, -0.543342, 0.335898, -2.08379, -2.16583, -0.129921, 0.468839, -0.542946, 0.333299, -2.0824, -2.1625, -0.124723, -0.00107022, 0.00429798, 0.000360835, -0.00635817, -0.0120832, -0.0156505
0.0481775, 1.69158, -1.2279, -1.54107, -0.900913, -1.19378, 1.22799, -1.30252, 0.00983575, 0.00792593, -0.0494893, -0.0180206, -0.0889505, -0.000659495, 0.00330732, 2.28492, 59.9866, 29.1666, 5.79956, 1.82941, 3.69021, -0.0750012, 4.58956e-05, -0.0020658, 0.00271719, 0.00490487, 0.000179667, 0.00125481, 0.0219387, 0.00856849, -0.0155427, -0.0946458, 0.0905688, -0.028288, 0.470995, -0.543338, 0.335898, -2.08379, -2.16583, -0.129925, 0.468832, -0.542959, 0.333284, -2.08242, -2.1625, -0.12454, -0.00112746, 0.0045344, 0.000382238, -0.00946123, -0.0150818, -0.0181125
0.0491775, 1.69159, -1.22789, -1.54111, -0.900929, -1.19388, 1.22799, -1.30252, 0.00796691, 0.00804367, -0.0484575, -0.016956, -0.0904878, -0.00257032, 0.00708908, 2.43568, 60.2087, 29.4245, 5.6488, 1.8349, 3.76163, -0.0685925, 2.68552e-05, -0.00207173, 0.00272411, 0.00499411, 7.50658e-05, 0.00128056, 0.0232087, 0.0101501, -0.015006, -0.0953049, 0.0910591, -0.034702, 0.470994, -0.543333, 0.335898, -2.08379, -2.16583, -0.129928, 0.468826, -0.542972, 0.333275, -2.08244, -2.1625, -0.124336, -0.00118629, 0.0047778, 0.000404375, -0.0110348, -0.0162395, -0.01771
0.0501775, 1.6916, -1.22788, -1.54114, -0.900943, -1.19399, 1.22798, -1.30251, 0.0084323, 0.00785283, -0.0454384, -0.0141588, -0.0962889, 0.000724229, 0.00714361, 2.51106, 60.5777, 29.722, 5.53772, 1.8349, 3.83304, -0.114369, 4.94849e-06, -0.00207944, 0.00273369, 0.00508094, -2.44599e-05, 0.00131861, 0.0249661, 0.00997668, -0.0133728, -0.0912555, 0.097107, -0.0370547, 0.470993, -0.543328, 0.335899, -2.08378, -2.16583, -0.129931, 0.468817, -0.542988, 0.333263, -2.08248, -2.16248, -0.124138, -0.00124669, 0.00502817, 0.000427252, -0.0108001, -0.0179684, -0.0163525
0.0511775, 1.69162, -1.22787, -1.54118, -0.900964, -1.19409, 1.22798, -1.3025, 0.0127568, 0.0108371, -0.0411633, -0.0193787, -0.101143, -0.000430222, 0.00577873, 2.55073, 60.8356, 29.9482, 5.6131, 1.85321, 3.87607, -0.127186, -1.21334e-05, -0.00208286, 0.00273971, 0.00516887, -0.000131231, 0.0013392, 0.0214381, 0.00638708, -0.011131, -0.0936659, 0.10409, -0.0263002, 0.470992, -0.543323, 0.335899, -2.08377, -2.16583, -0.129935, 0.468813, -0.542999, 0.333255, -2.08251, -2.16248, -0.123934, -0.00130866, 0.00528549, 0.000450875, -0.00732236, -0.0144264, -0.0136759
0.0521775, 1.69163, -1.22786, -1.5412, -0.900973, -1.1942, 1.22798, -1.30251, 0.0106083, 0.00870867, -0.037002, -0.0172261, -0.104094, -0.00137002, 0.00256327, 2.66181, 61.2759, 30.1346, 5.57739, 1.85962, 3.9191, -0.0814099, -3.75261e-05, -0.00209227, 0.00274811, 0.00524358, -0.000227924, 0.00137214, 0.0231147, 0.00775127, -0.0105541, -0.091031, 0.10368, -0.0258567, 0.47099, -0.543318, 0.3359, -2.08377, -2.16583, -0.129939, 0.468803, -0.543018, 0.333243, -2.08255, -2.16247, -0.123753, -0.00137217, 0.00554973, 0.000475247, -0.00866743, -0.0159619, -0.0133012
0.0531775, 1.69164, -1.22785, -1.54123, -0.900991, -1.19431, 1.22797, -1.30251, 0.0117448, 0.0125641, -0.036663, -0.0189115, -0.104057, -0.00161555, 0.00153878, 2.66181, 61.4981, 30.4322, 5.68848, 1.92737, 3.94839, -0.0685925, -5.78713e-05, -0.00209863, 0.00275036, 0.00533339, -0.000345975, 0.00139709, 0.0219248, 0.00673292, -0.00845847, -0.0915688, 0.107829, -0.0219505, 0.470989, -0.543313, 0.3359, -2.08376, -2.16583, -0.129943, 0.468796, -0.543032, 0.333239, -2.08258, -2.16248, -0.123536, -0.00143722, 0.00582086, 0.000500373, -0.0076823, -0.014797, -0.0110529
0.0541775, 1.69165, -1.22785, -1.54125, -0.901012, -1.19443, 1.22797, -1.3025, 0.00958848, 0.00724435, -0.032135, -0.0193712, -0.107075, -0.00262094, 0.00172906, 2.77686, 61.9385, 30.6901, 5.91064, 1.95209, 3.99783, -0.0814099, -8.35323e-05, -0.00210818, 0.00276424, 0.00542251, -0.000445449, 0.00143259, 0.023071, 0.00741275, -0.00999546, -0.0902063, 0.10449, -0.0224061, 0.470987, -0.543307, 0.335901, -2.08376, -2.16583, -0.129947, 0.468785, -0.54305, 0.333222, -2.08261, -2.16246, -0.123337, -0.00150377, 0.00609884, 0.000526256, -0.00844227, -0.0154417, -0.0127022
0.0551775, 1.69166, -1.22783, -1.54127, -0.901032, -1.19455, 1.22796, -1.3025, 0.011797, 0.012463, -0.0261955, -0.0225953, -0.11006, -0.00393942, 0.00132407, 2.73719, 62.1249, 30.8408, 6.13678, 2.00061, 4.06283, -0.0814099, -0.000102428, -0.0021131, 0.00276565, 0.00550901, -0.000560913, 0.00145334, 0.0201612, 0.00501519, -0.00547515, -0.0889644, 0.111768, -0.0150553, 0.470986, -0.543301, 0.335901, -2.08375, -2.16583, -0.129951, 0.468779, -0.543063, 0.333218, -2.08264, -2.16247, -0.123126, -0.00157182, 0.00638361, 0.000552899, -0.00605669, -0.0128822, -0.00783272
0.0561775, 1.69167, -1.22783, -1.54129, -0.901054, -1.19466, 1.22796, -1.30249, 0.0113489, 0.0111716, -0.0257984, -0.022245, -0.111252, -0.00432972, 0.00199459, 2.77686, 62.3828, 31.0273, 6.39465, 2.01984, 4.11319, -0.10796, -0.000125315, -0.00212022, 0.00277084, 0.00559186, -0.000672257, 0.001485, 0.0209907, 0.00539982, -0.00603039, -0.0893694, 0.111519, -0.0164597, 0.470984, -0.543294, 0.335902, -2.08374, -2.16583, -0.129956, 0.468771, -0.543078, 0.33321, -2.08268, -2.16246, -0.122923, -0.00164135, 0.0066751, 0.000580303, -0.00650066, -0.0133398, -0.0084709
0.0571775, 1.69167, -1.22782, -1.54131, -0.901067, -1.19478, 1.22795, -1.30249, 0.0101223, 0.0112075, -0.0293305, -0.0192184, -0.116428, -0.00435904, 0.0056373, 2.85224, 62.601, 31.2494, 6.54541, 2.03815, 4.15622, -0.0951428, -0.000153657, -0.00213288, 0.00277746, 0.00568179, -0.00078466, 0.00152395, 0.0244826, 0.00792271, -0.00674874, -0.0932528, 0.116041, -0.027188, 0.470983, -0.543288, 0.335902, -2.08374, -2.16583, -0.12996, 0.468758, -0.543099, 0.3332, -2.08272, -2.16245, -0.12271, -0.00171231, 0.00697325, 0.000608468, -0.00899216, -0.0164816, -0.00961836
0.0581775, 1.69169, -1.22782, -1.54133, -0.901088, -1.1949, 1.22794, -1.30249, 0.0137132, 0.0101985, -0.0248585, -0.0178204, -0.119742, -0.00468013, 0.00249166, 2.73719, 62.8589, 31.2891, 6.73187, 2.02533, 4.20657, -0.0484509, -0.000173397, -0.00213524, 0.00278406, 0.00576497, -0.000892938, 0.00153856, 0.0234002, 0.00577998, -0.00575309, -0.0911266, 0.117629, -0.0204562, 0.470981, -0.543281, 0.335903, -2.08373, -2.16582, -0.129965, 0.468754, -0.543111, 0.333191, -2.08274, -2.16246, -0.122511, -0.00178469, 0.00727797, 0.000637396, -0.00692731, -0.0151738, -0.00850295
0.0591775, 1.6917, -1.22782, -1.54135, -0.901105, -1.19503, 1.22794, -1.3025, 0.0111074, 0.0101727, -0.024294, -0.0149636, -0.123098, -0.00515427, 0.00105876, 2.70148, 63.0811, 31.4359, 6.84296, 2.03815, 4.26333, -0.0228162, -0.000199685, -0.00214289, 0.0027941, 0.00585586, -0.00100475, 0.00156675, 0.0262155, 0.00818582, -0.00504708, -0.0908371, 0.120084, -0.0247393, 0.470979, -0.543273, 0.335904, -2.08372, -2.16582, -0.129971, 0.468745, -0.543128, 0.333178, -2.08277, -2.16246, -0.1223, -0.00185846, 0.00758918, 0.000667086, -0.00927745, -0.0178492, -0.00814099
0.0601775, 1.69171, -1.22782, -1.54136, -0.901114, -1.19517, 1.22793, -1.30249, 0.0132055, 0.00794654, -0.0221129, -0.0135673, -0.120925, -0.00497877, 0.00266158, 2.62611, 63.2635, 31.5113, 6.84296, 2.05005, 4.30636, -0.0685925, -0.000227231, -0.00215051, 0.00280092, 0.0059441, -0.00112289, 0.00160556, 0.025362, 0.00655294, -0.00546076, -0.0875956, 0.116335, -0.0234622, 0.470977, -0.543266, 0.335904, -2.08371, -2.16582, -0.129976, 0.468737, -0.543147, 0.333168, -2.08282, -2.16245, -0.122084, -0.00193359, 0.00790677, 0.000697537, -0.00776725, -0.0165583, -0.00843586
0.0611775, 1.69172, -1.22781, -1.54138, -0.901131, -1.1953, 1.22793, -1.30249, 0.0128632, 0.00551092, -0.022219, -0.0144845, -0.124664, -0.00436592, 0.00196962, 2.62611, 63.3389, 31.6581, 6.91833, 2.08118, 4.33566, -0.0685925, -0.000255078, -0.00215816, 0.00281052, 0.00603612, -0.0012407, 0.00163736, 0.0266204, 0.0067619, -0.00695703, -0.0894681, 0.117706, -0.0233356, 0.470975, -0.543258, 0.335905, -2.0837, -2.16582, -0.129982, 0.468728, -0.543165, 0.333155, -2.08286, -2.16244, -0.121865, -0.00201003, 0.00823062, 0.000728745, -0.00806132, -0.0172549, -0.0100714
0.0621775, 1.69174, -1.22782, -1.54141, -0.901146, -1.19544, 1.22793, -1.3025, 0.0145802, 0.000887402, -0.0233773, -0.0134233, -0.126909, -0.00288186, 1.44909e-06, 2.55073, 63.5214, 31.8445, 6.91833, 2.10498, 4.33566, -0.0292249, -0.000285209, -0.0021636, 0.00282873, 0.00613327, -0.00135453, 0.00166546, 0.0277744, 0.00607427, -0.00987157, -0.0903742, 0.116069, -0.0215867, 0.470973, -0.54325, 0.335906, -2.08369, -2.16582, -0.129988, 0.468721, -0.543184, 0.333133, -2.08288, -2.16244, -0.121644, -0.00208776, 0.00856062, 0.000760709, -0.00751623, -0.0175868, -0.0131174
0.0631775, 1.69176, -1.22783, -1.54143, -0.901164, -1.19558, 1.22793, -1.3025, 0.0185545, -5.98758e-05, -0.0215851, -0.0169693, -0.133164, -0.00108588, 0.0044429, 2.47535, 63.5968, 31.9199, 6.95801, 2.14252, 4.31369, -0.0164075, -0.000312641, -0.00216573, 0.0028414, 0.00622551, -0.00147911, 0.00168925, 0.0264421, 0.00302608, -0.010306, -0.0925125, 0.121852, -0.019976, 0.470971, -0.543241, 0.335906, -2.08369, -2.16582, -0.129994, 0.468717, -0.543201, 0.333118, -2.08291, -2.16245, -0.12142, -0.00216672, 0.00889664, 0.000793423, -0.0046143, -0.0157437, -0.0133988
0.0641775, 1.69178, -1.22785, -1.54145, -0.901176, -1.19572, 1.22793, -1.30249, 0.0175973, -0.0106192, -0.021696, -0.0137935, -0.133617, -0.000165215, 0.00537765, 2.43568, 63.819, 31.9199, 6.88263, 2.17273, 4.29904, -0.0685925, -0.000343204, -0.00216981, 0.00285896, 0.00631033, -0.00158732, 0.00172531, 0.0293391, 0.00391939, -0.0159581, -0.0912384, 0.112236, -0.0243939, 0.470969, -0.543232, 0.335907, -2.08368, -2.16582, -0.13, 0.468711, -0.54322, 0.333096, -2.08295, -2.16243, -0.121218, -0.0022469, 0.00923859, 0.000826888, -0.00568707, -0.0174274, -0.0193696
0.0651775, 1.6918, -1.22785, -1.54147, -0.901195, -1.19586, 1.22793, -1.30249, 0.0209735, -0.0102548, -0.0205888, -0.0166066, -0.13792, 0.000410611, 0.00442202, 2.3603, 63.819, 31.9953, 6.88263, 2.18555, 4.28531, -0.0814099, -0.000370847, -0.0021713, 0.00287248, 0.00640782, -0.00171469, 0.00175164, 0.0280083, 0.00151697, -0.0158376, -0.0935774, 0.117078, -0.0183166, 0.470967, -0.543223, 0.335908, -2.08367, -2.16581, -0.130006, 0.468708, -0.543236, 0.33308, -2.08298, -2.16244, -0.120985, -0.00232828, 0.00958644, 0.000861108, -0.0034124, -0.0156857, -0.0190823
0.0661775, 1.69182, -1.22786, -1.5415, -0.901212, -1.196, 1.22793, -1.30249, 0.0234908, -0.0104632, -0.0230549, -0.0145546, -0.14126, 1.15692e-05, 0.00274494, 2.28492, 63.9658, 32.0707, 6.84296, 2.19104, 4.29263, -0.0685925, -0.000400428, -0.00217411, 0.00289121, 0.00650685, -0.00183093, 0.00177824, 0.0290075, 0.00137743, -0.0166838, -0.0970525, 0.119856, -0.0180082, 0.470965, -0.543213, 0.335909, -2.08366, -2.16581, -0.130013, 0.468703, -0.543252, 0.333057, -2.08301, -2.16244, -0.120762, -0.00241084, 0.00994017, 0.000896084, -0.00335033, -0.0161821, -0.0200425
0.0671775, 1.69184, -1.22786, -1.54152, -0.901222, -1.19615, 1.22793, -1.30249, 0.0222432, -0.00712028, -0.0220561, -0.0136445, -0.143158, -0.000222824, -0.000136438, 2.32459, 63.9658, 32.031, 6.69617, 2.19104, 4.29904, -0.00999879, -0.000431775, -0.00217935, 0.00290112, 0.00659623, -0.00195697, 0.00180898, 0.0300272, 0.00235253, -0.0141613, -0.0963408, 0.124825, -0.0171395, 0.470962, -0.543204, 0.33591, -2.08365, -2.16581, -0.13002, 0.468696, -0.543272, 0.333044, -2.08305, -2.16244, -0.120539, -0.00249458, 0.0102997, 0.000931821, -0.00428012, -0.0172576, -0.0176453
0.0681775, 1.69186, -1.22786, -1.54154, -0.901242, -1.19629, 1.22793, -1.30249, 0.0247957, -0.00485544, -0.020407, -0.0159375, -0.144545, 9.39259e-05, 0.00124864, 2.3603, 63.9658, 32.0707, 6.65649, 2.17914, 4.29263, -0.0420422, -0.000461574, -0.00218209, 0.00291203, 0.00669629, -0.002094, 0.00184174, 0.0283415, 0.000182187, -0.0126393, -0.0965315, 0.128962, -0.0134683, 0.47096, -0.543193, 0.335911, -2.08363, -2.16581, -0.130028, 0.468692, -0.54329, 0.333029, -2.08309, -2.16244, -0.120293, -0.00257947, 0.0106651, 0.000968322, -0.00220279, -0.0153735, -0.0159099
0.0691775, 1.69189, -1.22787, -1.54157, -0.901259, -1.19644, 1.22793, -1.30249, 0.0266427, -0.00591686, -0.0211188, -0.0144927, -0.14539, 6.64546e-05, 0.00145566, 2.28492, 64.0768, 32.0707, 6.62079, 2.16083, 4.29263, -0.0557752, -0.000489618, -0.0021805, 0.00292885, 0.00680032, -0.00222405, 0.00186239, 0.0287359, -0.000396125, -0.0133844, -0.097237, 0.128973, -0.0134704, 0.470957, -0.543183, 0.335912, -2.08362, -2.16581, -0.130035, 0.468691, -0.543304, 0.333009, -2.08311, -2.16245, -0.120051, -0.00266552, 0.0110363, 0.00100559, -0.00172399, -0.015253, -0.0166873
0.0701775, 1.69192, -1.22787, -1.5416, -0.901276, -1.1966, 1.22793, -1.30249, 0.0291782, -0.00400565, -0.0256813, -0.0124783, -0.14603, 0.000589716, 0.00200582, 2.28492, 64.0768, 32.1064, 6.54541, 2.14801, 4.27798, -0.0814099, -0.000521835, -0.00218299, 0.00294205, 0.00690648, -0.00236649, 0.00189603, 0.0295402, -0.000621531, -0.0136519, -0.100322, 0.132279, -0.0154695, 0.470954, -0.543172, 0.335913, -2.08361, -2.1658, -0.130043, 0.468687, -0.543323, 0.332992, -2.08315, -2.16245, -0.119793, -0.00275269, 0.0114132, 0.00104363, -0.00156682, -0.0156194, -0.0170454
0.0711775, 1.69195, -1.22787, -1.54163, -0.90129, -1.19676, 1.22793, -1.30249, 0.0311816, -0.00438668, -0.0261326, -0.0142213, -0.150436, 0.0012091, -0.000531099, 2.28492, 64.1483, 32.1421, 6.47003, 2.11139, 4.25601, -0.0292249, -0.000554999, -0.00218402, 0.00295909, 0.00701681, -0.00250889, 0.00192473, 0.0295877, -0.00175231, -0.0142934, -0.103375, 0.136477, -0.0108488, 0.470952, -0.54316, 0.335914, -2.0836, -2.1658, -0.130051, 0.468683, -0.543341, 0.332972, -2.08318, -2.16246, -0.119532, -0.00284098, 0.0117958, 0.00108244, -0.000547215, -0.0151383, -0.0176818
0.0721775, 1.69198, -1.22787, -1.54166, -0.901309, -1.19693, 1.22794, -1.30249, 0.0331098, -0.00212359, -0.0240088, -0.0165209, -0.155426, 0.00240138, -6.83593e-05, 2.24921, 64.1125, 32.0707, 6.43433, 2.1178, 4.21298, -0.0356336, -0.000585386, -0.00218116, 0.00297115, 0.00712474, -0.0026643, 0.00194995, 0.0289057, -0.00341543, -0.0124895, -0.103971, 0.143971, -0.00782512, 0.470949, -0.543148, 0.335915, -2.08359, -2.1658, -0.130059, 0.468684, -0.543358, 0.332956, -2.08321, -2.16247, -0.11926, -0.00293038, 0.0121842, 0.00112203, 0.00106522, -0.0142862, -0.0158056
0.0731775, 1.69201, -1.22788, -1.5417, -0.901327, -1.19709, 1.22794, -1.30249, 0.0289693, -0.00403995, -0.0278722, -0.0149376, -0.157912, 0.0026533, -0.000958748, 2.32459, 64.2236, 32.1064, 6.39465, 2.09308, 4.1846, -0.00999879, -0.00062137, -0.00218309, 0.00299083, 0.00724024, -0.00281101, 0.00198158, 0.0331044, 7.68445e-05, -0.0144902, -0.107039, 0.144622, -0.0147884, 0.470946, -0.543136, 0.335916, -2.08357, -2.1658, -0.130068, 0.46868, -0.543378, 0.332932, -2.08325, -2.16248, -0.118989, -0.00302087, 0.0125781, 0.0011624, -0.00243474, -0.0178718, -0.0182883
0.0741775, 1.69205, -1.22788, -1.54173, -0.901336, -1.19726, 1.22795, -1.30249, 0.0329205, -0.00271263, -0.0307184, -0.0112442, -0.164506, 0.00282094, 0.00155817, 2.24921, 64.2236, 32.1421, 6.24786, 2.06195, 4.15622, -0.0685925, -0.000653982, -0.00217979, 0.00300598, 0.00735544, -0.00296683, 0.00201769, 0.0346396, -0.000149034, -0.0143552, -0.111171, 0.151872, -0.0199675, 0.470943, -0.543124, 0.335917, -2.08356, -2.16579, -0.130077, 0.468681, -0.543395, 0.332913, -2.08329, -2.16248, -0.118708, -0.00311245, 0.0129778, 0.00120355, -0.00224068, -0.018999, -0.0183596
0.0751775, 1.69208, -1.22789, -1.54177, -0.901351, -1.19744, 1.22795, -1.30249, 0.0288651, -0.00349335, -0.0351496, -0.0120707, -0.165493, 0.00401754, 0.00129654, 2.32459, 64.295, 32.1421, 6.24786, 2.06195, 4.09854, -0.0750012, -0.000692705, -0.00218185, 0.003024, 0.00747274, -0.00312575, 0.00205691, 0.0379132, 0.00253434, -0.016146, -0.114274, 0.153159, -0.0251484, 0.47094, -0.543111, 0.335918, -2.08355, -2.16579, -0.130086, 0.468676, -0.543418, 0.332891, -2.08334, -2.16248, -0.118422, -0.00320508, 0.013383, 0.00124549, -0.00496047, -0.0216592, -0.0205142
0.0761775, 1.69213, -1.2279, -1.5418, -0.901366, -1.19762, 1.22796, -1.30249, 0.031811, -0.00973419, -0.0348189, -0.0115527, -0.17069, 0.0040013, -0.000578407, 2.28492, 64.4815, 32.1064, 6.20819, 2.07477, 4.06283, -0.0356336, -0.000726025, -0.00217582, 0.00304753, 0.007593, -0.00327618, 0.00207616, 0.0387108, 0.00133679, -0.0197469, -0.117129, 0.15167, -0.0219889, 0.470937, -0.543097, 0.33592, -2.08353, -2.16579, -0.130095, 0.468679, -0.543433, 0.332863, -2.08336, -2.16249, -0.118144, -0.00329877, 0.0137938, 0.00128822, -0.00395972, -0.0214312, -0.0241875
0.0771775, 1.69216, -1.22791, -1.54184, -0.901373, -1.19779, 1.22797, -1.30249, 0.038168, -0.00842077, -0.0332871, -0.0104397, -0.174456, 0.00507541, -0.00108621, 2.32459, 64.5529, 32.1421, 6.13678, 2.05646, 3.99783, -0.0164075, -0.000765782, -0.00217482, 0.00306594, 0.00770824, -0.00343928, 0.00211363, 0.0370606, -0.00208437, -0.0184794, -0.116919, 0.157072, -0.0164492, 0.470933, -0.543083, 0.335921, -2.08352, -2.16579, -0.130105, 0.468678, -0.543456, 0.33284, -2.0834, -2.1625, -0.117856, -0.00339351, 0.0142102, 0.00133174, -0.000650951, -0.0194405, -0.0227397
0.0781775, 1.69221, -1.22792, -1.54188, -0.901384, -1.19798, 1.22797, -1.30249, 0.0380657, -0.00840796, -0.034801, -0.00816148, -0.17802, 0.00362126, -0.000478175, 2.32459, 64.664, 32.1818, 6.13678, 2.05646, 3.99142, -0.0228162, -0.000802439, -0.00217112, 0.00308805, 0.00783569, -0.00359977, 0.00214588, 0.0390726, -0.000657167, -0.018773, -0.120038, 0.159643, -0.0207951, 0.47093, -0.543069, 0.335922, -2.0835, -2.16578, -0.130115, 0.468679, -0.543474, 0.332814, -2.08343, -2.1625, -0.117559, -0.00348927, 0.0146321, 0.00137605, -0.00211036, -0.0210178, -0.0232554
0.0791775, 1.69226, -1.22793, -1.54192, -0.901391, -1.19816, 1.22797, -1.30249, 0.0370932, -0.00835051, -0.0376905, -0.00848965, -0.180465, 0.00400808, 0.00114573, 2.3603, 64.7751, 32.1421, 6.09711, 2.05005, 3.94839, -0.0621838, -0.000840119, -0.00216711, 0.00310825, 0.0079538, -0.00375918, 0.00218329, 0.040956, 0.000456608, -0.0196844, -0.123334, 0.162552, -0.025008, 0.470926, -0.543055, 0.335924, -2.08349, -2.16578, -0.130125, 0.46868, -0.543494, 0.332789, -2.08348, -2.1625, -0.117273, -0.00358604, 0.0150594, 0.00142116, -0.00328473, -0.0223545, -0.02437
0.0801775, 1.69231, -1.22794, -1.54196, -0.901396, -1.19834, 1.22798, -1.30248, 0.0406815, -0.00827552, -0.0376002, -0.00982245, -0.172877, 0.00348602, 0.00148074, 2.32459, 64.8862, 32.1421, 6.09711, 2.05005, 3.92642, -0.0814099, -0.000876918, -0.00216084, 0.00313041, 0.00807467, -0.00391709, 0.00221632, 0.0378284, -0.00271503, -0.0200066, -0.121314, 0.156861, -0.0177723, 0.470923, -0.543039, 0.335925, -2.08347, -2.16578, -0.130135, 0.468683, -0.543511, 0.332763, -2.08351, -2.16251, -0.116986, -0.00368381, 0.0154923, 0.00146708, -0.000338767, -0.0186539, -0.0242521
0.0811775, 1.69235, -1.22795, -1.54199, -0.901402, -1.19851, 1.22798, -1.30249, 0.041031, -0.0121679, -0.0367708, -0.00751669, -0.171018, 0.00310403, -0.000704632, 2.39997, 65.033, 32.1064, 6.09711, 2.01984, 3.90536, -0.0356336, -0.000914238, -0.00215622, 0.00315198, 0.00818975, -0.00406733, 0.00224267, 0.0385793, -0.00283418, -0.0217068, -0.119317, 0.151496, -0.0158745, 0.470919, -0.543024, 0.335926, -2.08345, -2.16578, -0.130146, 0.468684, -0.543529, 0.332737, -2.08354, -2.16252, -0.116714, -0.00378258, 0.0159305, 0.0015138, -0.000352999, -0.0186893, -0.026005
0.0821775, 1.6924, -1.22795, -1.54203, -0.901404, -1.19869, 1.22798, -1.30249, 0.0472459, -0.0116018, -0.0360549, -0.0049022, -0.174202, 0.00622654, -0.00192509, 2.3603, 65.033, 32.0707, 6.0614, 1.9823, 3.9191, 0.00373412, -0.000948532, -0.00214846, 0.00316732, 0.00830636, -0.00422877, 0.00226974, 0.0378009, -0.00615404, -0.0207737, -0.117096, 0.156634, -0.0112377, 0.470915, -0.543008, 0.335928, -2.08344, -2.16577, -0.130157, 0.468689, -0.543544, 0.332718, -2.08357, -2.16253, -0.116429, -0.00388232, 0.0163742, 0.00156132, 0.00286876, -0.0174843, -0.0250159
0.0831775, 1.69246, -1.22797, -1.54206, -0.90141, -1.19886, 1.22799, -1.30249, 0.0475378, -0.0116744, -0.0343946, -0.00557609, -0.176326, 0.00477727, 0.000651426, 2.3603, 65.1797, 31.9953, 6.13678, 1.94568, 3.91269, -0.0484509, -0.000982005, -0.00213886, 0.00318758, 0.00842261, -0.00438117, 0.00229559, 0.0378571, -0.00634267, -0.0204272, -0.118216, 0.158049, -0.0125586, 0.470911, -0.542992, 0.335929, -2.08342, -2.16577, -0.130169, 0.468695, -0.543557, 0.332694, -2.08359, -2.16254, -0.116155, -0.00398302, 0.0168232, 0.00160966, 0.00297114, -0.0171361, -0.0246404
0.0841775, 1.69251, -1.22798, -1.54211, -0.901411, -1.19903, 1.22799, -1.30248, 0.04817, -0.0115963, -0.038119, -0.00496115, -0.174147, 0.00374777, 0.00141916, 2.3603, 65.3265, 32.1064, 6.17248, 1.92096, 3.90536, -0.0750012, -0.00102063, -0.00213337, 0.00321263, 0.00854684, -0.00453045, 0.00233207, 0.0384456, -0.00603715, -0.0217059, -0.121116, 0.156539, -0.0140044, 0.470907, -0.542975, 0.335931, -2.0834, -2.16577, -0.13018, 0.468697, -0.543574, 0.332665, -2.08362, -2.16254, -0.115873, -0.00408468, 0.0172776, 0.00165881, 0.00253933, -0.0170774, -0.0259368
0.0851775, 1.69256, -1.22798, -1.54214, -0.901409, -1.19921, 1.22799, -1.30249, 0.0529577, -0.00894365, -0.0338046, -0.00361383, -0.178259, 0.00244599, 0.000235178, 2.32459, 65.3662, 32.0707, 6.17248, 1.92737, 3.91269, -0.0557752, -0.00105792, -0.00212669, 0.00322763, 0.00866348, -0.0046943, 0.00236225, 0.0367243, -0.0085274, -0.0187543, -0.120217, 0.162172, -0.00834491, 0.470903, -0.542958, 0.335933, -2.08338, -2.16576, -0.130192, 0.468701, -0.543591, 0.332646, -2.08366, -2.16255, -0.115587, -0.00418727, 0.0177373, 0.00170878, 0.00496895, -0.0152711, -0.0227805
0.0861775, 1.69262, -1.22799, -1.54218, -0.901406, -1.19939, 1.22799, -1.30249, 0.0523359, -0.00868165, -0.0388656, -0.00347424, -0.171585, 0.00047229, -0.00228376, 2.32459, 65.4733, 32.1064, 6.20819, 1.92737, 3.94839, 0.0101428, -0.00109702, -0.00212065, 0.0032499, 0.00878384, -0.00484606, 0.00238933, 0.0370122, -0.00771863, -0.0204877, -0.123037, 0.156774, -0.00646863, 0.470899, -0.54294, 0.335934, -2.08336, -2.16576, -0.130204, 0.468703, -0.543608, 0.332619, -2.08368, -2.16255, -0.115309, -0.00429078, 0.0182023, 0.00175956, 0.00400541, -0.0148556, -0.0244621
0.0871775, 1.69268, -1.228, -1.54222, -0.901405, -1.19956, 1.22799, -1.30249, 0.050282, -0.00771118, -0.0389762, -0.000332733, -0.165661, 0.000437904, -0.000775875, 2.24921, 65.5487, 32.1421, 6.24786, 1.90265, 3.94839, -0.00999879, -0.00113079, -0.00210859, 0.00326766, 0.00890034, -0.0050034, 0.00241461, 0.0380861, -0.00657241, -0.0193916, -0.118477, 0.153046, -0.0105529, 0.470895, -0.542922, 0.335936, -2.08334, -2.16576, -0.130217, 0.468711, -0.54362, 0.332598, -2.08371, -2.16257, -0.11503, -0.00439521, 0.0186725, 0.00181117, 0.0028347, -0.0156612, -0.0234614
0.0881775, 1.69274, -1.22801, -1.54226, -0.901401, -1.19973, 1.22799, -1.30249, 0.0531432, -0.0086946, -0.0382816, -9.41024e-05, -0.167057, 0.000384219, 0.000195311, 2.13416, 65.6955, 32.1421, 6.24786, 1.92096, 3.94839, -0.0292249, -0.00116603, -0.00209549, 0.00328704, 0.00901349, -0.00516014, 0.00244039, 0.0375864, -0.00818766, -0.0198112, -0.118929, 0.15374, -0.0087119, 0.47089, -0.542903, 0.335938, -2.08332, -2.16575, -0.13023, 0.468721, -0.543633, 0.332574, -2.08373, -2.16258, -0.114756, -0.00450054, 0.019148, 0.0018636, 0.0043095, -0.0145608, -0.023795
0.0891775, 1.69274, -1.22801, -1.54226, -0.901401, -1.19973, 1.22799, -1.30249, 0.0531432, -0.0086946, -0.0382816, -9.41024e-05, -0.167057, 0.000384219, 0.000195311, 2.13416, 65.6955, 32.1421, 6.24786, 1.92096, 3.94839, -0.0292249, -0.00118542, -0.00209172, 0.00328575, 0.00900823, -0.00517807, 0.00244838, 0.0380734, -0.00827538, -0.019785, -0.118891, 0.154255, -0.00840687, 0.470886, -0.542884, 0.33594, -2.0833, -2.16575, -0.130243, 0.468721, -0.543633, 0.332574, -2.08373, -2.16258, -0.114756, -0.00460676, 0.0196287, 0.00191686, 0.0043095, -0.0145608, -0.023795
0.0901775, 1.69279, -1.22801, -1.54229, -0.901393, -1.1999, 1.22799, -1.30249, 0.0507383, -0.00505128, -0.0357806, 0.000961075, -0.16655, 0.00502419, 0.000605289, 2.17384, 65.6598, 32.1818, 6.20819, 1.89075, 3.94839, -0.0420422, -0.00122564, -0.00208454, 0.00329859, 0.00911552, -0.0053414, 0.00248665, 0.0394692, -0.00806263, -0.0160455, -0.11121, 0.159958, -0.0104982, 0.470881, -0.542864, 0.335942, -2.08328, -2.16574, -0.130257, 0.468724, -0.543651, 0.332557, -2.08378, -2.16259, -0.114481, -0.00471385, 0.0201145, 0.00197095, 0.00417586, -0.0160384, -0.0202602
0.0911775, 1.69279, -1.22801, -1.54229, -0.901393, -1.1999, 1.22799, -1.30249, 0.0507383, -0.00505128, -0.0357806, 0.000961075, -0.16655, 0.00502419, 0.000605289, 2.17384, 65.6598, 32.1818, 6.20819, 1.89075, 3.94839, -0.0420422, -0.00124602, -0.00208059, 0.00329725, 0.00910998, -0.00536022, 0.00249502, 0.0399667, -0.00815166, -0.0160192, -0.111169, 0.160483, -0.0101878, 0.470877, -0.542844, 0.335944, -2.08326, -2.16574, -0.13027, 0.468724, -0.543651, 0.332557, -2.08378, -2.16259, -0.114481, -0.00482181, 0.0206055, 0.00202587, 0.00417586, -0.0160384, -0.0202602
0.0921775, 1.69298, -1.22802, -1.5424, -0.901385, -1.20041, 1.228, -1.30249, 0.0531402, -0.00585661, -0.0340972, 0.000258978, -0.162989, 0.00254107, -0.000528554, 1.98341, 65.8423, 32.3285, 6.24786, 1.92096, 4.02713, -0.00267457, -0.00131239, -0.00205006, 0.00334917, 0.00945745, -0.00579951, 0.00254504, 0.0379576, -0.0100088, -0.0162978, -0.110905, 0.156118, -0.00374014, 0.470872, -0.542823, 0.335946, -2.08324, -2.16574, -0.130285, 0.46875, -0.543686, 0.332497, -2.08385, -2.16264, -0.113659, -0.00493062, 0.0211016, 0.00208162, 0.00583961, -0.013439, -0.0202236
0.0931775, 1.69304, -1.22803, -1.54243, -0.901383, -1.20058, 1.228, -1.30249, 0.0553081, -0.0075152, -0.0315264, 0.00247459, -0.163621, 0.00132038, 0.000868449, 1.9477, 65.9891, 32.3285, 6.28357, 1.90265, 4.04819, -0.0356336, -0.00134831, -0.00203668, 0.0033678, 0.00955969, -0.00594434, 0.00257023, 0.037777, -0.0110138, -0.0162453, -0.109384, 0.154642, -0.00357019, 0.470867, -0.542802, 0.335948, -2.08322, -2.16573, -0.130299, 0.468759, -0.543697, 0.332474, -2.08387, -2.16265, -0.113411, -0.00504026, 0.0216028, 0.00213822, 0.00672922, -0.0127257, -0.0201181
0.0941775, 1.6931, -1.22804, -1.54247, -0.901384, -1.20074, 1.228, -1.30249, 0.053778, -0.00690622, -0.0365007, 0.000168127, -0.16459, 0.000371122, 0.00132504, 1.9477, 66.0645, 32.4793, 6.35895, 1.90906, 4.07016, -0.0557752, -0.00138456, -0.00202463, 0.00338771, 0.00967613, -0.00609482, 0.00259542, 0.0393537, -0.00957976, -0.0179303, -0.115768, 0.156596, -0.00591198, 0.470862, -0.542781, 0.33595, -2.08319, -2.16573, -0.130314, 0.468767, -0.543708, 0.332451, -2.08389, -2.16266, -0.113142, -0.00515073, 0.022109, 0.00219565, 0.0051824, -0.0135742, -0.0219273
0.0951775, 1.69316, -1.22803, -1.54251, -0.901378, -1.20089, 1.22801, -1.30249, 0.0592423, -0.00294054, -0.034796, 0.00342163, -0.161027, -0.000303976, 0.000137438, 1.90803, 65.9891, 32.5547, 6.35895, 1.90906, 4.09122, -0.0356336, -0.00141884, -0.00200876, 0.00339825, 0.00977925, -0.00625718, 0.00261368, 0.036917, -0.012526, -0.0148601, -0.112113, 0.157632, 5.49452e-05, 0.470857, -0.542759, 0.335952, -2.08317, -2.16572, -0.130329, 0.468778, -0.543717, 0.332437, -2.08391, -2.16269, -0.112876, -0.00526201, 0.0226203, 0.00225393, 0.00803742, -0.0110098, -0.0185482
0.0961775, 1.69322, -1.22804, -1.54255, -0.90138, -1.20106, 1.22801, -1.30249, 0.0573497, -0.00463354, -0.0362733, 0.00409993, -0.158529, -0.000845076, -0.000383044, 1.87232, 66.1002, 32.6261, 6.43433, 1.91546, 4.11319, -0.0228162, -0.00145514, -0.00199455, 0.00341948, 0.00989372, -0.00640621, 0.00263215, 0.0383919, -0.0113519, -0.0162056, -0.112201, 0.154155, -0.00139968, 0.470851, -0.542736, 0.335954, -2.08315, -2.16572, -0.130344, 0.468788, -0.543726, 0.332412, -2.08392, -2.1627, -0.112611, -0.0053741, 0.0231366, 0.00231306, 0.00675724, -0.0117894, -0.0200125
0.0971775, 1.69329, -1.22805, -1.54259, -0.901382, -1.20122, 1.22801, -1.3025, 0.0601525, -0.00230985, -0.0347433, 0.000711082, -0.156851, 0.0037535, -0.00195075, 1.79694, 66.0645, 32.7015, 6.54541, 1.92096, 4.12692, 0.0229602, -0.00148836, -0.00197773, 0.00343501, 0.0100067, -0.00656314, 0.0026415, 0.036289, -0.015044, -0.0144852, -0.107864, 0.158229, 0.00750131, 0.470846, -0.542713, 0.335957, -2.08312, -2.16571, -0.13036, 0.4688, -0.543733, 0.332393, -2.08393, -2.16273, -0.112342, -0.00548698, 0.0236579, 0.00237303, 0.0103185, -0.00930541, -0.0180388
0.0981775, 1.69335, -1.22805, -1.54262, -0.901383, -1.20138, 1.22801, -1.30249, 0.0604733, -0.00325237, -0.0339839, -2.17783e-05, -0.155232, 0.00271888, 0.000869668, 1.79694, 66.1359, 32.6658, 6.58508, 1.92737, 4.13424, -0.0356336, -0.00152382, -0.00196257, 0.00345118, 0.0101127, -0.00671392, 0.00266863, 0.0359647, -0.0156273, -0.0149522, -0.107755, 0.15606, 0.00689091, 0.470841, -0.542689, 0.335959, -2.0831, -2.16571, -0.130376, 0.46881, -0.543741, 0.332374, -2.08395, -2.16274, -0.112085, -0.00560063, 0.0241841, 0.00243385, 0.010759, -0.00836217, -0.018407
0.0991775, 1.69342, -1.22805, -1.54266, -0.901385, -1.20154, 1.22801, -1.30249, 0.0630999, -0.00219977, -0.035614, -0.00136081, -0.160691, 0.00217845, 0.00105452, 1.68189, 66.1359, 32.7015, 6.65649, 1.97681, 4.13424, -0.0484509, -0.00155895, -0.00194546, 0.00346643, 0.0102277, -0.00687811, 0.00268366, 0.0362062, -0.016472, -0.0152315, -0.113079, 0.162209, 0.00818262, 0.470835, -0.542665, 0.335962, -2.08307, -2.16571, -0.130393, 0.468822, -0.543748, 0.332355, -2.08396, -2.16277, -0.111806, -0.00571505, 0.0247152, 0.00249553, 0.0114869, -0.00799078, -0.0186852
0.100177, 1.69348, -1.22806, -1.5427, -0.901389, -1.20171, 1.228, -1.30249, 0.0600855, -0.00325339, -0.041294, -0.00242734, -0.1584, 0.00145543, -9.05017e-06, 1.64619, 66.2112, 32.8126, 6.73187, 1.98871, 4.14157, -0.0292249, -0.00159762, -0.00193194, 0.00348658, 0.010347, -0.00703498, 0.00270245, 0.0385177, -0.0142427, -0.0178826, -0.117699, 0.159854, 0.00561153, 0.470829, -0.54264, 0.335964, -2.08305, -2.1657, -0.13041, 0.468831, -0.543758, 0.332331, -2.08397, -2.16279, -0.111529, -0.00583022, 0.0252512, 0.00255806, 0.00913261, -0.00941797, -0.0215338
0.101177, 1.69353, -1.22805, -1.54274, -0.901402, -1.20187, 1.22801, -1.30249, 0.0569184, -0.00135144, -0.0405702, -0.00579759, -0.157429, 0.00171862, -0.00146408, 1.64619, 66.1755, 32.8522, 6.91833, 2.02533, 4.12692, 0.0101428, -0.00163496, -0.00191759, 0.00350266, 0.0104663, -0.00720191, 0.00271491, 0.0389821, -0.0135642, -0.0167526, -0.117274, 0.161798, 0.00786244, 0.470823, -0.542615, 0.335967, -2.08302, -2.16569, -0.130427, 0.46884, -0.543766, 0.332312, -2.08398, -2.16282, -0.111243, -0.00594613, 0.0257921, 0.00262146, 0.00839708, -0.00953743, -0.0204075
0.102177, 1.6936, -1.22805, -1.54278, -0.90141, -1.20203, 1.228, -1.30249, 0.0569469, -0.000914262, -0.040435, -0.00632677, -0.156933, 0.000757557, 7.29682e-06, 1.57081, 66.1755, 32.8879, 7.02942, 2.06195, 4.14157, -0.0164075, -0.00167153, -0.0019016, 0.00351968, 0.0105856, -0.00736424, 0.00273353, 0.0390994, -0.0136899, -0.0165731, -0.117911, 0.161985, 0.00743921, 0.470817, -0.542589, 0.335969, -2.08299, -2.16569, -0.130444, 0.468851, -0.543773, 0.332291, -2.08399, -2.16284, -0.110962, -0.00606278, 0.0263379, 0.00268571, 0.0084169, -0.0091294, -0.0201891
0.103177, 1.69366, -1.22806, -1.54283, -0.901413, -1.2022, 1.228, -1.30249, 0.0592415, 0.00313049, -0.041064, -0.00504331, -0.156243, 0.000349531, 0.00146293, 1.49146, 66.2866, 32.9633, 7.06909, 2.09308, 4.14889, -0.0557752, -0.0017121, -0.00188776, 0.00354127, 0.0107037, -0.00751852, 0.00276075, 0.0385974, -0.0146064, -0.0143568, -0.117824, 0.165855, 0.00730319, 0.470811, -0.542563, 0.335972, -2.08296, -2.16568, -0.130462, 0.468859, -0.543783, 0.332266, -2.08401, -2.16284, -0.11069, -0.00618014, 0.0268884, 0.00275083, 0.00927756, -0.00838761, -0.0178862
0.104177, 1.69372, -1.22805, -1.54287, -0.901423, -1.20236, 1.22801, -1.30249, 0.0588816, 0.00613502, -0.0375128, -0.00588374, -0.155405, 0.000862376, 0.000466667, 1.38038, 66.1359, 32.999, 7.18018, 2.1178, 4.13424, -0.0420422, -0.00174963, -0.00187222, 0.00355251, 0.0108204, -0.00769273, 0.0027764, 0.037944, -0.0154565, -0.0113529, -0.113899, 0.168838, 0.0109364, 0.470805, -0.542536, 0.335975, -2.08294, -2.16568, -0.13048, 0.468869, -0.543791, 0.332251, -2.08402, -2.16288, -0.1104, -0.0062982, 0.0274437, 0.00281681, 0.0100944, -0.00761615, -0.0147794
0.105177, 1.69378, -1.22805, -1.54291, -0.901429, -1.20252, 1.22801, -1.30249, 0.057941, 0.00355316, -0.0404594, -0.00562804, -0.154433, 0.000640033, -0.00087568, 1.305, 66.1755, 32.999, 7.25555, 2.1297, 4.13424, -0.00999879, -0.00178986, -0.00185777, 0.0035705, 0.0109351, -0.00785164, 0.00279659, 0.039639, -0.014557, -0.013819, -0.116124, 0.166089, 0.0104473, 0.470799, -0.542509, 0.335978, -2.08291, -2.16567, -0.130499, 0.468878, -0.5438, 0.332229, -2.08403, -2.16289, -0.110128, -0.00641697, 0.0280038, 0.00288366, 0.00904901, -0.00838421, -0.0173855
0.106177, 1.69383, -1.22805, -1.54295, -0.901436, -1.20267, 1.22801, -1.3025, 0.0582334, 0.00266215, -0.0413206, -0.005472, -0.152871, 0.000475525, -0.0022792, 1.18995, 66.1755, 32.9633, 7.33093, 2.1297, 4.13424, 0.0357776, -0.00182928, -0.00184302, 0.00358565, 0.0110476, -0.00801234, 0.0028082, 0.0400633, -0.0147925, -0.0146276, -0.116285, 0.16449, 0.0124811, 0.470793, -0.542481, 0.33598, -2.08288, -2.16567, -0.130518, 0.468888, -0.543808, 0.332211, -2.08404, -2.16292, -0.109858, -0.00653641, 0.0285686, 0.00295138, 0.00915098, -0.00810264, -0.0181905
0.107177, 1.6939, -1.22805, -1.543, -0.901449, -1.20283, 1.228, -1.30249, 0.0608143, 0.00375803, -0.0452677, -0.00704922, -0.153182, 8.23767e-05, 0.00088803, 0.963814, 66.1002, 33.0387, 7.47772, 2.15442, 4.14157, -0.0292249, -0.00186625, -0.00182427, 0.00360407, 0.0111741, -0.00818032, 0.00282927, 0.0397692, -0.0158639, -0.0157291, -0.121192, 0.166763, 0.0115829, 0.470786, -0.542452, 0.335983, -2.08285, -2.16566, -0.130537, 0.4689, -0.543812, 0.332189, -2.08404, -2.16294, -0.109565, -0.00665653, 0.0291381, 0.00301998, 0.0100504, -0.00702731, -0.0191971
0.108177, 1.69395, -1.22804, -1.54304, -0.901461, -1.20299, 1.22801, -1.30249, 0.0568205, 0.0035056, -0.0412128, -0.0073664, -0.157346, 0.000353656, 0.000829381, 0.963814, 66.0645, 32.9633, 7.59277, 2.16083, 4.13424, -0.0356336, -0.00191163, -0.0018152, 0.00361714, 0.0112869, -0.00834983, 0.00285633, 0.0420602, -0.0140933, -0.0142112, -0.118839, 0.170294, 0.00888373, 0.470779, -0.542423, 0.335986, -2.08282, -2.16566, -0.130557, 0.468904, -0.543825, 0.332172, -2.08407, -2.16296, -0.109284, -0.0067773, 0.0297122, 0.00308945, 0.0082997, -0.00902194, -0.0179341
0.109177, 1.69401, -1.22805, -1.54308, -0.901474, -1.20315, 1.22801, -1.30249, 0.0591719, 0.00162561, -0.0420451, -0.00832635, -0.155734, 0.000256373, 0.00079028, 0.777352, 66.1002, 32.9236, 7.73956, 2.16724, 4.13424, -0.0420422, -0.00195142, -0.001798, 0.00363585, 0.0114054, -0.00851271, 0.00286999, 0.0413389, -0.0157797, -0.0158513, -0.119808, 0.167897, 0.0126268, 0.470773, -0.542393, 0.335989, -2.08278, -2.16565, -0.130577, 0.468915, -0.543831, 0.33215, -2.08407, -2.16298, -0.109007, -0.00689872, 0.030291, 0.0031598, 0.00977698, -0.00740671, -0.0194226
0.110177, 1.69407, -1.22805, -1.54313, -0.901482, -1.20331, 1.22801, -1.3025, 0.0606351, 0.00201179, -0.0380288, -0.00646523, -0.15493, 0.000457635, -0.002118, 0.586922, 66.0645, 32.9236, 7.77924, 2.17914, 4.12692, 0.0293689, -0.00199276, -0.00178203, 0.00365241, 0.0115176, -0.00867324, 0.00288014, 0.0408242, -0.0171224, -0.0139771, -0.114995, 0.167953, 0.0178832, 0.470766, -0.542363, 0.335993, -2.08275, -2.16564, -0.130597, 0.468925, -0.543838, 0.33213, -2.08407, -2.16301, -0.108739, -0.00702078, 0.0308744, 0.00323103, 0.0110458, -0.00654909, -0.0174627
0.111177, 1.69412, -1.22804, -1.54317, -0.901494, -1.20346, 1.22801, -1.30249, 0.0601396, 0.00400927, -0.0368195, -0.00689834, -0.153429, 0.000554038, -0.000462565, 0.436165, 65.9534, 32.8879, 7.89032, 2.17914, 4.12051, 0.00373412, -0.00203469, -0.00176741, 0.00366373, 0.0116305, -0.00884538, 0.00290238, 0.0407897, -0.0174076, -0.0123692, -0.113031, 0.169339, 0.0175097, 0.470759, -0.542332, 0.335996, -2.08272, -2.16564, -0.130618, 0.468934, -0.543846, 0.332115, -2.08409, -2.16303, -0.108457, -0.00714347, 0.0314625, 0.00330314, 0.0112656, -0.00616338, -0.0158077
0.112177, 1.69418, -1.22803, -1.54321, -0.901513, -1.20362, 1.22801, -1.30249, 0.0579215, 0.00615873, -0.0394198, -0.0121171, -0.155657, 0.000920585, -0.00102045, 0.245735, 65.8066, 32.8522, 8.07678, 2.15442, 4.10586, 0.0229602, -0.00207392, -0.00175084, 0.00367471, 0.0117462, -0.00901778, 0.00291536, 0.0416511, -0.0167421, -0.0125549, -0.117894, 0.174675, 0.018785, 0.470751, -0.542301, 0.335999, -2.08269, -2.16563, -0.130639, 0.468944, -0.543851, 0.3321, -2.08409, -2.16307, -0.108174, -0.00726676, 0.032055, 0.00337613, 0.0105024, -0.00641906, -0.0160336
0.113177, 1.69423, -1.22802, -1.54325, -0.901521, -1.20378, 1.22801, -1.30249, 0.059253, 0.0049802, -0.0418677, -0.0122695, -0.1538, 0.00089151, 0.00077776, 0.059273, 65.7709, 32.8522, 8.11249, 2.13611, 4.09854, -0.0164075, -0.0021201, -0.00173725, 0.00368804, 0.0118586, -0.00919233, 0.00294274, 0.0418686, -0.0174149, -0.0141803, -0.119495, 0.172833, 0.018278, 0.470744, -0.542268, 0.336003, -2.08265, -2.16562, -0.13066, 0.468952, -0.543862, 0.332083, -2.08412, -2.16308, -0.107891, -0.00739066, 0.0326521, 0.00345001, 0.0109993, -0.0057561, -0.0176201
0.114177, 1.69429, -1.22802, -1.54328, -0.901525, -1.20394, 1.22801, -1.30249, 0.0569706, 0.0033495, -0.0388927, -0.0077961, -0.152791, 0.000599229, 0.00123058, -0.131157, 65.7709, 32.7768, 8.07678, 2.1297, 4.09854, -0.0356336, -0.00216798, -0.00172494, 0.00370047, 0.0119642, -0.00936173, 0.0029725, 0.0441155, -0.0158497, -0.0133465, -0.114285, 0.170203, 0.0138027, 0.470737, -0.542236, 0.336006, -2.08262, -2.16562, -0.130682, 0.468958, -0.543874, 0.332066, -2.08414, -2.1631, -0.10762, -0.00751515, 0.0332538, 0.00352478, 0.00942375, -0.00756553, -0.0170271
0.115177, 1.69434, -1.228, -1.54332, -0.901536, -1.20411, 1.22801, -1.30249, 0.056557, 0.00745194, -0.0378276, -0.00945514, -0.15668, 0.000131886, 0.000108313, -0.357292, 65.5487, 32.7372, 8.11249, 2.1178, 4.10586, -0.0164075, -0.00221215, -0.00171074, 0.00370611, 0.0120803, -0.00954983, 0.00299148, 0.0445429, -0.0156805, -0.0107536, -0.115857, 0.177948, 0.0154502, 0.470729, -0.542203, 0.33601, -2.08258, -2.16561, -0.130704, 0.468966, -0.543883, 0.332057, -2.08416, -2.16313, -0.107321, -0.00764022, 0.0338599, 0.00360044, 0.00924011, -0.00778931, -0.0144547
0.116177, 1.69434, -1.228, -1.54332, -0.901536, -1.20411, 1.22801, -1.30249, 0.056557, 0.00745194, -0.0378276, -0.00945514, -0.15668, 0.000131886, 0.000108313, -0.357292, 65.5487, 32.7372, 8.11249, 2.1178, 4.10586, -0.0164075, -0.00224651, -0.00170439, 0.00370409, 0.0120706, -0.00958123, 0.00300517, 0.0451626, -0.0157825, -0.0107283, -0.115789, 0.178589, 0.0158162, 0.470722, -0.542169, 0.336013, -2.08255, -2.1656, -0.130727, 0.468966, -0.543883, 0.332057, -2.08416, -2.16313, -0.107321, -0.00776586, 0.0344704, 0.00367699, 0.00924011, -0.00778931, -0.0144547
0.117177, 1.69445, -1.228, -1.54339, -0.901558, -1.20446, 1.22801, -1.30249, 0.053572, 0.0041706, -0.0335873, -0.00930878, -0.166308, 0.00102325, -0.00108214, -0.734184, 65.513, 32.6658, 8.22754, 2.13611, 4.07748, 0.0229602, -0.00231165, -0.00168382, 0.00373206, 0.0123056, -0.00991632, 0.00304296, 0.0485698, -0.0140628, -0.0108407, -0.115461, 0.183914, 0.0132005, 0.470714, -0.542134, 0.336017, -2.08251, -2.16559, -0.13075, 0.46898, -0.543907, 0.332022, -2.08421, -2.16318, -0.10674, -0.00789206, 0.0350854, 0.00375444, 0.00751625, -0.0105904, -0.0149701
0.118177, 1.6945, -1.22799, -1.54343, -0.901569, -1.20464, 1.22801, -1.30249, 0.0548004, 0.00538815, -0.0362326, -0.0114956, -0.172437, 0.000954981, 0.00144871, -0.884941, 65.4019, 32.7372, 8.29895, 2.14801, 4.07016, -0.0356336, -0.00236384, -0.00167405, 0.00374305, 0.0124297, -0.0101088, 0.00308033, 0.0496486, -0.0141458, -0.0113749, -0.121707, 0.191207, 0.0108396, 0.470706, -0.542099, 0.336021, -2.08248, -2.16559, -0.130773, 0.468983, -0.543921, 0.332006, -2.08424, -2.1632, -0.106426, -0.0080188, 0.0357048, 0.00383279, 0.00749253, -0.0109487, -0.0155921
0.119177, 1.69456, -1.22798, -1.54345, -0.901583, -1.20482, 1.22801, -1.30249, 0.0548751, 0.00796076, -0.0319101, -0.0100469, -0.171909, 0.00118035, 0.000965808, -1.11108, 65.2155, 32.5547, 8.37433, 2.16083, 4.05551, -0.0356336, -0.00240965, -0.00165654, 0.00374449, 0.0125357, -0.0103096, 0.0030962, 0.0494594, -0.0147929, -0.00808359, -0.116501, 0.193697, 0.0126764, 0.470698, -0.542063, 0.336024, -2.08244, -2.16558, -0.130797, 0.468994, -0.54393, 0.332001, -2.08427, -2.16324, -0.106127, -0.00814607, 0.0363285, 0.00391203, 0.00812527, -0.010621, -0.0122554
0.120177, 1.69461, -1.22798, -1.54349, -0.901592, -1.205, 1.22801, -1.30249, 0.0548419, 0.0053124, -0.0345965, -0.0102442, -0.175237, 0.0013303, 0.000169154, -1.22613, 65.2155, 32.5904, 8.37433, 2.13611, 4.04086, -0.0228162, -0.00246348, -0.00164502, 0.00375662, 0.0126501, -0.0104978, 0.00312652, 0.051529, -0.0141404, -0.010561, -0.120514, 0.194716, 0.0116627, 0.47069, -0.542027, 0.336028, -2.0824, -2.16557, -0.130821, 0.468999, -0.543944, 0.331984, -2.0843, -2.16326, -0.10583, -0.00827387, 0.0369566, 0.00399218, 0.00733097, -0.0116776, -0.0149268
0.121177, 1.69466, -1.22797, -1.54352, -0.901607, -1.20518, 1.22801, -1.30249, 0.056325, 0.00354552, -0.0322314, -0.00919816, -0.178249, 0.00220995, -0.00110793, -1.37688, 65.2155, 32.5904, 8.44971, 2.12421, 4.00516, 0.0101428, -0.0025161, -0.00163061, 0.00376843, 0.0127628, -0.0106907, 0.00314808, 0.0521809, -0.0151191, -0.0105826, -0.118887, 0.19633, 0.0140374, 0.470682, -0.54199, 0.336032, -2.08236, -2.16556, -0.130845, 0.469007, -0.543956, 0.331968, -2.08432, -2.1633, -0.105531, -0.00840218, 0.0375891, 0.00407323, 0.00820342, -0.0116437, -0.0150006
0.122177, 1.69472, -1.22798, -1.54354, -0.901612, -1.20537, 1.22802, -1.30249, 0.0579296, 0.0014386, -0.0287368, -0.00885173, -0.179529, 0.00174506, 0.000244722, -1.56335, 65.2551, 32.515, 8.414, 2.08667, 3.99783, -0.0164075, -0.00256992, -0.00161633, 0.00377825, 0.0128674, -0.0108793, 0.00317963, 0.0518916, -0.0164808, -0.0106339, -0.116994, 0.195533, 0.0156312, 0.470673, -0.541953, 0.336036, -2.08232, -2.16556, -0.13087, 0.469014, -0.54397, 0.331953, -2.08435, -2.16332, -0.105246, -0.008531, 0.0382258, 0.00415518, 0.00942268, -0.0106559, -0.0149673
0.123177, 1.69477, -1.22797, -1.54357, -0.901623, -1.20555, 1.22802, -1.30249, 0.0584161, 0.00272451, -0.0249086, -0.0104663, -0.176054, 0.00167236, 0.00185857, -1.7141, 65.1797, 32.515, 8.44971, 2.05005, 3.9841, -0.0621838, -0.00262227, -0.00160148, 0.00378519, 0.0129766, -0.0110759, 0.00321016, 0.0502408, -0.0182622, -0.00876163, -0.112709, 0.194529, 0.0192479, 0.470665, -0.541914, 0.33604, -2.08228, -2.16555, -0.130895, 0.469022, -0.543981, 0.331942, -2.08438, -2.16335, -0.104947, -0.0086603, 0.0388668, 0.00423804, 0.0110815, -0.00860136, -0.0128339
0.124177, 1.69483, -1.22796, -1.54359, -0.901638, -1.20573, 1.22802, -1.30249, 0.0552178, 0.00441645, -0.0239146, -0.012559, -0.17391, 0.00138645, 0.00073042, -1.82915, 65.0687, 32.4793, 8.52509, 2.03815, 3.97677, -0.0484509, -0.00267404, -0.0015859, 0.00379093, 0.0130826, -0.0112723, 0.00323059, 0.0508785, -0.0173739, -0.00753419, -0.11136, 0.194993, 0.0205803, 0.470656, -0.541875, 0.336045, -2.08224, -2.16554, -0.130921, 0.469031, -0.543992, 0.331932, -2.08441, -2.16339, -0.104654, -0.00879009, 0.039512, 0.00432181, 0.0101333, -0.00881216, -0.0116131
0.125177, 1.69488, -1.22797, -1.54361, -0.901652, -1.20591, 1.22802, -1.30249, 0.0565389, 0.00201752, -0.0243117, -0.0130942, -0.173088, 0.00146704, -0.00144583, -1.97991, 65.1083, 32.4793, 8.56079, 2.03815, 3.96213, 0.00373412, -0.00272573, -0.00156806, 0.00380202, 0.0131868, -0.011458, 0.00324326, 0.0509444, -0.0184231, -0.00919871, -0.111841, 0.192764, 0.0250583, 0.470647, -0.541836, 0.336049, -2.0822, -2.16553, -0.130947, 0.469041, -0.544001, 0.331917, -2.08442, -2.16343, -0.104374, -0.00892034, 0.0401615, 0.0044065, 0.0109929, -0.0079247, -0.0132159
0.126177, 1.69493, -1.22796, -1.54363, -0.901662, -1.2061, 1.22802, -1.3025, 0.0540555, 0.00227396, -0.0206142, -0.0127515, -0.172615, 0.00230061, -0.00143861, -2.13067, 65.0687, 32.4396, 8.56079, 2.04364, 3.92642, 0.0165515, -0.0027808, -0.00155214, 0.00380734, 0.0132867, -0.011658, 0.00326724, 0.0520101, -0.0179173, -0.0074625, -0.107006, 0.193367, 0.0246031, 0.470638, -0.541796, 0.336053, -2.08216, -2.16552, -0.130973, 0.46905, -0.544013, 0.331907, -2.08445, -2.16347, -0.104084, -0.00905105, 0.0408151, 0.00449209, 0.0104599, -0.00861269, -0.0115699
0.127177, 1.69499, -1.22796, -1.54364, -0.901682, -1.20628, 1.22802, -1.30249, 0.0525816, 0.00235189, -0.0186315, -0.0151117, -0.177037, 0.00180512, 0.00144843, -2.28143, 65.033, 32.4396, 8.67188, 2.05646, 3.9191, -0.0484509, -0.00283178, -0.00153268, 0.00381332, 0.0133943, -0.0118604, 0.00328859, 0.053037, -0.0174849, -0.00696192, -0.108524, 0.197567, 0.0221827, 0.470629, -0.541755, 0.336058, -2.08212, -2.16551, -0.131, 0.469062, -0.544021, 0.331896, -2.08447, -2.16351, -0.103784, -0.00918221, 0.0414729, 0.0045786, 0.00995324, -0.00906325, -0.0111391
0.128177, 1.69504, -1.22796, -1.54366, -0.901692, -1.20647, 1.22803, -1.30249, 0.0519747, 0.0039012, -0.017105, -0.0133077, -0.179674, 0.00225466, -0.000458536, -2.3211, 65.0687, 32.4396, 8.63617, 2.05005, 3.89071, -0.00999879, -0.00288901, -0.00151623, 0.00381993, 0.0134901, -0.0120593, 0.00331031, 0.054617, -0.0168735, -0.00514497, -0.106863, 0.201893, 0.0221093, 0.47062, -0.541714, 0.336063, -2.08207, -2.1655, -0.131027, 0.469071, -0.544034, 0.331885, -2.0845, -2.16355, -0.103501, -0.00931381, 0.0421348, 0.00466602, 0.00933573, -0.0102677, -0.00948923
0.129177, 1.6951, -1.22796, -1.54367, -0.901713, -1.20667, 1.22803, -1.30249, 0.0526178, 0.00370041, -0.0120608, -0.0187108, -0.18104, 0.00255434, -6.83317e-05, -2.39648, 65.033, 32.4039, 8.74725, 2.04364, 3.86233, -0.0164075, -0.00294281, -0.00149681, 0.00382351, 0.0135908, -0.012269, 0.00332978, 0.0526837, -0.0193611, -0.00420872, -0.105372, 0.203847, 0.0294419, 0.470611, -0.541671, 0.336067, -2.08203, -2.16549, -0.131055, 0.469083, -0.544044, 0.331877, -2.08453, -2.1636, -0.103202, -0.00944583, 0.0428008, 0.00475437, 0.0116527, -0.00773461, -0.00825163
0.130177, 1.69516, -1.22796, -1.54367, -0.90173, -1.20687, 1.22803, -1.30249, 0.0546058, 0.00183001, -0.00916013, -0.017874, -0.186515, 0.00251674, -0.00150362, -2.54723, 65.0687, 32.4039, 8.78693, 2.04364, 3.84036, 0.0229602, -0.00299484, -0.00147458, 0.00383029, 0.013695, -0.0124718, 0.00333729, 0.0533779, -0.0203252, -0.00422996, -0.105388, 0.20696, 0.0320988, 0.470601, -0.541629, 0.336072, -2.08198, -2.16548, -0.131083, 0.469097, -0.54405, 0.331866, -2.08454, -2.16366, -0.102908, -0.00957827, 0.043471, 0.00484363, 0.0125083, -0.00770524, -0.00832388
0.131177, 1.69522, -1.22796, -1.54368, -0.901748, -1.20707, 1.22804, -1.30249, 0.0549644, 0.00220394, -0.00518318, -0.017055, -0.197011, 0.00245776, 0.00069301, -2.65832, 65.033, 32.3285, 8.82263, 2.05646, 3.8193, -0.0228162, -0.00304841, -0.00145225, 0.00383008, 0.0137918, -0.0126905, 0.00335189, 0.0553509, -0.0199559, -0.00244375, -0.106352, 0.216314, 0.0283145, 0.470592, -0.541585, 0.336077, -2.08194, -2.16548, -0.131111, 0.469112, -0.544058, 0.331862, -2.08457, -2.16372, -0.102605, -0.00971111, 0.0441452, 0.00493382, 0.0121447, -0.00927072, -0.00677103
0.132177, 1.69526, -1.22796, -1.54368, -0.901761, -1.20728, 1.22804, -1.30249, 0.0491084, 0.00241605, -0.00324999, -0.014003, -0.20335, 0.00218107, -0.000758696, -2.62261, 64.9973, 32.2928, 8.74725, 2.03815, 3.80466, 0.0101428, -0.00310987, -0.00143913, 0.00383113, 0.0138901, -0.012904, 0.00337746, 0.0603378, -0.0156547, -0.000867869, -0.105417, 0.221666, 0.0204926, 0.470582, -0.541541, 0.336082, -2.08189, -2.16547, -0.13114, 0.469118, -0.544074, 0.331856, -2.08461, -2.16376, -0.102305, -0.00984435, 0.0448234, 0.00502493, 0.00795638, -0.013938, -0.005778
0.133177, 1.69532, -1.22796, -1.54368, -0.901783, -1.20748, 1.22804, -1.30249, 0.0508026, 2.39209e-05, -0.00171096, -0.0144873, -0.203199, 0.00250523, 0.00118962, -2.69799, 65.0687, 32.2532, 8.78693, 2.00702, 3.77627, -0.0356336, -0.00316595, -0.00141831, 0.00383622, 0.0139871, -0.0131117, 0.00339519, 0.060042, -0.0172203, -0.00183617, -0.104293, 0.220056, 0.0218818, 0.470572, -0.541496, 0.336087, -2.08185, -2.16546, -0.131169, 0.46913, -0.544083, 0.331846, -2.08463, -2.16381, -0.102014, -0.00997797, 0.0455056, 0.00511696, 0.00934083, -0.0127471, -0.00664584
0.134177, 1.69536, -1.22797, -1.54367, -0.901799, -1.2077, 1.22804, -1.30249, 0.0502714, -0.00168455, 0.000175562, -0.0160439, -0.203457, 0.00248397, -0.00066498, -2.69799, 65.144, 32.1818, 8.74725, 1.98871, 3.7543, 0.00373412, -0.00322813, -0.00140232, 0.00383906, 0.0140827, -0.0133278, 0.00341925, 0.0603293, -0.0177141, -0.00233772, -0.103486, 0.219258, 0.0258274, 0.470562, -0.541451, 0.336092, -2.0818, -2.16545, -0.131199, 0.469139, -0.544097, 0.331838, -2.08467, -2.16386, -0.101716, -0.010112, 0.0461918, 0.00520992, 0.00969301, -0.0122448, -0.00711085
0.135177, 1.69543, -1.22797, -1.54368, -0.901818, -1.20791, 1.22805, -1.30249, 0.0565569, -0.00274641, -0.00181907, -0.0183166, -0.203195, 0.00216462, -0.000918038, -2.84875, 65.2155, 32.2532, 8.74725, 1.95209, 3.74057, 0.0165515, -0.00328521, -0.00137831, 0.00384475, 0.0141867, -0.0135478, 0.00342795, 0.0580017, -0.021505, -0.00431348, -0.107393, 0.219123, 0.0338431, 0.470552, -0.541404, 0.336097, -2.08175, -2.16543, -0.131229, 0.469154, -0.544106, 0.331828, -2.08468, -2.16393, -0.101406, -0.0102463, 0.0468819, 0.00530381, 0.0131878, -0.00879055, -0.00872031
0.136177, 1.69547, -1.22797, -1.54368, -0.901835, -1.20811, 1.22805, -1.3025, 0.0535177, -0.00272367, -0.000576755, -0.0160062, -0.198175, 0.00198562, -0.000849384, -2.80907, 65.2551, 32.2175, 8.71155, 1.90906, 3.72592, 0.0229602, -0.00334786, -0.00136208, 0.0038475, 0.0142788, -0.013759, 0.00345128, 0.0594648, -0.0201405, -0.00338567, -0.102474, 0.215259, 0.0314034, 0.470542, -0.541358, 0.336102, -2.0817, -2.16542, -0.131259, 0.469162, -0.544119, 0.33182, -2.08472, -2.16397, -0.101118, -0.010381, 0.047576, 0.00539863, 0.0117789, -0.00974095, -0.00790048
0.137177, 1.69553, -1.22798, -1.54368, -0.901851, -1.20832, 1.22805, -1.30249, 0.0533689, -0.00345975, -0.000533947, -0.0143179, -0.199119, 0.00159502, 0.000654447, -2.84875, 65.3265, 32.2175, 8.67188, 1.87793, 3.7186, -0.00999879, -0.00340954, -0.0013438, 0.00385216, 0.0143744, -0.0139685, 0.00347628, 0.0609433, -0.0196282, -0.00356139, -0.102345, 0.215685, 0.0283888, 0.470531, -0.54131, 0.336108, -2.08165, -2.16541, -0.13129, 0.469172, -0.544131, 0.331811, -2.08475, -2.16402, -0.100827, -0.0105161, 0.048274, 0.00549438, 0.0111806, -0.0104952, -0.00819765
0.138177, 1.69558, -1.22798, -1.54367, -0.901867, -1.20852, 1.22805, -1.30249, 0.0508391, -0.00228665, 0.000367171, -0.0153998, -0.201395, 0.00160589, 0.00138573, -2.92413, 65.3265, 32.1818, 8.60046, 1.87793, 3.70395, -0.0356336, -0.00347012, -0.00132367, 0.00385204, 0.0144662, -0.0141862, 0.0034976, 0.062612, -0.0184398, -0.00252514, -0.102511, 0.219406, 0.0261487, 0.470521, -0.541262, 0.336113, -2.0816, -2.1654, -0.131321, 0.469184, -0.544141, 0.331806, -2.08478, -2.16407, -0.100533, -0.0106515, 0.0489759, 0.00559107, 0.00995846, -0.0116503, -0.00730693
0.139177, 1.69563, -1.22798, -1.54367, -0.901894, -1.20873, 1.22806, -1.30249, 0.0487291, -0.00150954, 0.000160719, -0.0197096, -0.202826, 0.00212176, 0.000686464, -2.9995, 65.3265, 32.1818, 8.67188, 1.87244, 3.67557, -0.0292249, -0.00352866, -0.00130105, 0.00385381, 0.0145628, -0.0144057, 0.00350696, 0.0632984, -0.0182108, -0.00254369, -0.104442, 0.222666, 0.0283589, 0.47051, -0.541213, 0.336119, -2.08155, -2.16539, -0.131353, 0.469198, -0.544149, 0.3318, -2.0848, -2.16414, -0.100234, -0.0107872, 0.0496816, 0.00568869, 0.00961947, -0.0116277, -0.00733156
0.140177, 1.69568, -1.22798, -1.54366, -0.901915, -1.20894, 1.22806, -1.30249, 0.0484729, -0.000995195, 0.00180734, -0.0211261, -0.204732, 0.00273694, -0.000254434, -2.9995, 65.3265, 32.1064, 8.67188, 1.89075, 3.63986, -0.00999879, -0.00359375, -0.00128394, 0.00385289, 0.0146538, -0.01463, 0.00353209, 0.0637643, -0.0186763, -0.00175037, -0.103823, 0.22579, 0.0308336, 0.470499, -0.541163, 0.336125, -2.0815, -2.16538, -0.131385, 0.469207, -0.544163, 0.331796, -2.08484, -2.16419, -0.0999345, -0.0109232, 0.0503911, 0.00578725, 0.00999561, -0.0114812, -0.00654054
0.141177, 1.69572, -1.22798, -1.54367, -0.901936, -1.20915, 1.22806, -1.30249, 0.0478705, -0.000655088, 0.000322389, -0.0221306, -0.210095, 0.00314705, -0.000915608, -2.95983, 65.3265, 32.1421, 8.67188, 1.89075, 3.60415, 0.0101428, -0.00366256, -0.00126927, 0.00385703, 0.0147555, -0.0148553, 0.00356095, 0.0658383, -0.0178679, -0.00208802, -0.107503, 0.231635, 0.0296857, 0.470489, -0.541113, 0.33613, -2.08145, -2.16537, -0.131418, 0.469213, -0.544179, 0.331786, -2.08488, -2.16423, -0.0996223, -0.0110595, 0.0511045, 0.00588674, 0.00911653, -0.0127948, -0.00707902
0.142177, 1.69578, -1.22797, -1.54367, -0.901956, -1.20937, 1.22807, -1.30249, 0.0503971, 0.00216801, -0.000748558, -0.019768, -0.209192, 0.00342047, 0.00132237, -3.07488, 65.2155, 32.1818, 8.67188, 1.90265, 3.56845, -0.0420422, -0.00372721, -0.00124974, 0.00385435, 0.0148555, -0.0150923, 0.00358629, 0.0659544, -0.0187782, -0.000551055, -0.10667, 0.234557, 0.0279965, 0.470477, -0.541062, 0.336136, -2.0814, -2.16536, -0.13145, 0.469224, -0.544191, 0.331783, -2.08492, -2.16429, -0.0993009, -0.0111962, 0.0518216, 0.00598718, 0.00995094, -0.0123929, -0.00551096
0.143177, 1.69582, -1.22798, -1.54366, -0.901983, -1.20958, 1.22807, -1.30249, 0.0475267, -0.000313186, 0.000402384, -0.0220806, -0.209285, 0.0125905, 0.00139021, -3.11059, 65.2908, 32.1421, 8.71155, 1.91546, 3.54648, -0.0557752, -0.00379512, -0.00123233, 0.00385855, 0.0149495, -0.015314, 0.00360954, 0.0682335, -0.0197173, -0.000953482, -0.0984979, 0.237485, 0.0282034, 0.470466, -0.54101, 0.336142, -2.08134, -2.16535, -0.131484, 0.469232, -0.544204, 0.331774, -2.08495, -2.16434, -0.0990023, -0.0113331, 0.0525425, 0.00608855, 0.0108217, -0.013818, -0.00619772
0.144177, 1.69586, -1.22798, -1.54367, -0.902008, -1.20979, 1.22807, -1.30248, 0.0484422, 0.00062996, -0.000679712, -0.0235878, -0.208812, 0.0102362, 0.000655539, -3.15026, 65.2551, 32.1818, 8.74725, 1.92096, 3.5181, -0.0484509, -0.00386368, -0.00121672, 0.00386014, 0.0150515, -0.0155425, 0.00363804, 0.0679198, -0.0200911, -0.0012108, -0.101918, 0.23786, 0.0311681, 0.470455, -0.540957, 0.336148, -2.08129, -2.16533, -0.131518, 0.469239, -0.544218, 0.331767, -2.08498, -2.16439, -0.0986879, -0.0114702, 0.0532671, 0.00619087, 0.011038, -0.0127269, -0.00631498
0.145177, 1.69591, -1.22797, -1.54366, -0.902028, -1.21001, 1.22808, -1.30249, 0.0472423, 0.00135064, 0.00129514, -0.022979, -0.209509, 0.00901136, -0.00173311, -3.22564, 65.2155, 32.1064, 8.71155, 1.95209, 3.47507, 0.0101428, -0.00393395, -0.00119926, 0.00385618, 0.0151431, -0.015784, 0.00366057, 0.068904, -0.0194243, -1.33569e-05, -0.100942, 0.239048, 0.0329204, 0.470443, -0.540904, 0.336154, -2.08123, -2.16532, -0.131552, 0.469248, -0.544234, 0.331765, -2.08503, -2.16445, -0.0983726, -0.0116077, 0.0539954, 0.00629413, 0.0103161, -0.0131838, -0.00516794
0.146177, 1.69595, -1.22797, -1.54366, -0.902055, -1.21023, 1.22808, -1.30249, 0.0452726, 0.000902416, 0.000852202, -0.0242148, -0.208422, 0.00750388, -0.000172064, -3.26134, 65.2155, 32.1064, 8.74725, 1.93927, 3.44668, -0.0164075, -0.00400447, -0.00118386, 0.00385833, 0.0152433, -0.0160126, 0.00369031, 0.0699194, -0.0184772, -0.000606709, -0.102324, 0.2378, 0.0310542, 0.470432, -0.54085, 0.336161, -2.08118, -2.16531, -0.131586, 0.469254, -0.544249, 0.331758, -2.08506, -2.1645, -0.0980608, -0.0117453, 0.0547273, 0.00639834, 0.00924924, -0.0133999, -0.00578399
0.147177, 1.69599, -1.22797, -1.54366, -0.90208, -1.21045, 1.22809, -1.30248, 0.0423534, 0.00227354, -0.000275499, -0.0243496, -0.208601, 0.00642152, 0.00205543, -3.22564, 65.144, 32.1421, 8.74725, 1.9704, 3.41739, -0.0750012, -0.00408047, -0.0011724, 0.00385729, 0.0153423, -0.0162539, 0.00373111, 0.071951, -0.0165267, -0.000118595, -0.103699, 0.239528, 0.0258284, 0.47042, -0.540795, 0.336167, -2.08112, -2.1653, -0.131621, 0.469257, -0.544268, 0.331753, -2.08512, -2.16454, -0.0977365, -0.0118833, 0.0554629, 0.00650349, 0.0072573, -0.0148263, -0.00546113
0.148177, 1.69603, -1.22797, -1.54366, -0.902111, -1.21066, 1.22809, -1.30249, 0.0424613, 0.000681592, -0.001118, -0.0294123, -0.211665, 0.00504003, -0.000325135, -3.30102, 65.1797, 32.1818, 8.82263, 1.9704, 3.40365, -0.0292249, -0.0041518, -0.00115547, 0.0038606, 0.0154412, -0.0164833, 0.00375258, 0.071947, -0.017113, -0.00214038, -0.109487, 0.241041, 0.0317762, 0.470408, -0.54074, 0.336174, -2.08106, -2.16528, -0.131657, 0.469264, -0.544282, 0.331744, -2.08515, -2.16459, -0.0974269, -0.0120214, 0.0562022, 0.00660959, 0.00763123, -0.0137414, -0.00737183
0.149177, 1.69606, -1.22798, -1.54366, -0.902139, -1.21087, 1.2281, -1.30248, 0.0378239, -0.00130801, -0.000750065, -0.0313013, -0.210267, 0.00354782, 0.00100395, -3.30102, 65.2551, 32.1818, 8.82263, 1.96399, 3.40365, -0.0621838, -0.00422875, -0.00114433, 0.00386611, 0.0155406, -0.0167072, 0.00379226, 0.0738782, -0.0150217, -0.00330952, -0.110043, 0.23792, 0.0286119, 0.470396, -0.540684, 0.33618, -2.08101, -2.16527, -0.131692, 0.469266, -0.5443, 0.331733, -2.08519, -2.16463, -0.097121, -0.0121598, 0.056945, 0.00671664, 0.00543339, -0.0148083, -0.00866295
0.150177, 1.6961, -1.22798, -1.54366, -0.902162, -1.21108, 1.2281, -1.30249, 0.0362105, -0.00254181, 0.000424426, -0.0309787, -0.209694, 0.00250606, -0.00126348, -3.3764, 65.3265, 32.1421, 8.74725, 1.97681, 3.40365, -0.00999879, -0.00430487, -0.00113059, 0.00386964, 0.0156386, -0.0169351, 0.00381983, 0.0750969, -0.014256, -0.00355861, -0.109259, 0.236289, 0.0301831, 0.470384, -0.540627, 0.336187, -2.08095, -2.16526, -0.131729, 0.46927, -0.544317, 0.331723, -2.08522, -2.16467, -0.0968142, -0.0122984, 0.0576914, 0.00682465, 0.00456715, -0.0152566, -0.00897359
0.151177, 1.69614, -1.22798, -1.54366, -0.902196, -1.2113, 1.2281, -1.30248, 0.0326385, -2.36328e-05, -0.000647732, -0.0312653, -0.213802, 0.000996446, 0.00109046, -3.48748, 65.2551, 32.1818, 8.82263, 1.9704, 3.42471, -0.0621838, -0.00437816, -0.00111476, 0.00387048, 0.0157441, -0.0171745, 0.00385119, 0.0780014, -0.0114369, -0.00237656, -0.112645, 0.24217, 0.0230026, 0.470372, -0.540569, 0.336194, -2.08089, -2.16524, -0.131765, 0.469276, -0.544331, 0.331717, -2.08526, -2.16472, -0.0964875, -0.0124372, 0.0584414, 0.0069336, 0.00176498, -0.0176752, -0.00807379
0.152177, 1.69618, -1.22797, -1.54366, -0.902224, -1.21153, 1.2281, -1.30248, 0.032991, 0.00174784, 0.00132942, -0.0316776, -0.2167, 0.00128606, 0.000726972, -3.48748, 65.1797, 32.1064, 8.78693, 1.97681, 3.41006, -0.0621838, -0.00445824, -0.00110432, 0.00386679, 0.015842, -0.0174234, 0.0038932, 0.0785151, -0.0118843, -0.000639522, -0.111964, 0.247151, 0.02442, 0.470359, -0.54051, 0.336201, -2.08083, -2.16523, -0.131802, 0.469277, -0.544351, 0.331714, -2.08532, -2.16476, -0.0961586, -0.0125762, 0.0591949, 0.00704351, 0.00215749, -0.0176805, -0.00634865
0.153177, 1.6962, -1.22797, -1.54366, -0.902258, -1.21175, 1.2281, -1.30248, 0.0300595, 0.00116549, 4.95638e-05, -0.0299658, -0.219954, 0.000916792, 0.000722007, -3.45177, 65.1797, 32.1421, 8.78693, 2.00061, 3.41006, -0.0685925, -0.0045427, -0.00109745, 0.00386845, 0.0159469, -0.0176705, 0.00393936, 0.0820133, -0.00930163, -0.0010238, -0.113596, 0.24965, 0.0187558, 0.470347, -0.540451, 0.336208, -2.08077, -2.16522, -0.13184, 0.469275, -0.544374, 0.331706, -2.08537, -2.1648, -0.095824, -0.0127154, 0.0599519, 0.00715437, -0.000444682, -0.0204232, -0.00709446
0.154177, 1.69624, -1.22797, -1.54366, -0.9023, -1.21197, 1.2281, -1.30248, 0.0313861, 0.00161241, 3.19192e-05, -0.0344885, -0.221174, 0.000384492, -0.000976724, -3.56683, 65.144, 32.1421, 8.89801, 1.99512, 3.41739, -0.0292249, -0.0046177, -0.00108154, 0.00387035, 0.0160545, -0.0179123, 0.00395761, 0.0810134, -0.0109292, -0.00147538, -0.1168, 0.25207, 0.0257195, 0.470334, -0.540391, 0.336215, -2.0807, -2.1652, -0.131878, 0.469281, -0.544387, 0.331699, -2.08539, -2.16486, -0.0954951, -0.0128547, 0.0607124, 0.00726618, 0.000989424, -0.0185355, -0.00732512
0.155177, 1.69626, -1.22797, -1.54366, -0.90233, -1.2122, 1.22811, -1.30248, 0.0326576, 0.00191031, -0.0017428, -0.0324238, -0.22278, 0.000561019, 0.000332195, -3.56683, 65.1083, 32.2175, 8.78693, 2.01984, 3.41006, -0.0557752, -0.00470585, -0.00107647, 0.00387138, 0.0161589, -0.0181619, 0.00401199, 0.0825126, -0.0108173, -0.0016494, -0.117996, 0.254545, 0.0228841, 0.470321, -0.540331, 0.336222, -2.08064, -2.16519, -0.131916, 0.469276, -0.544413, 0.331691, -2.08546, -2.16489, -0.0951584, -0.0129943, 0.0614763, 0.00737895, 0.000788568, -0.0192272, -0.00762223
0.156177, 1.69629, -1.22796, -1.54366, -0.90237, -1.21242, 1.22811, -1.30248, 0.0303536, 0.00387211, -0.000327281, -0.0368517, -0.219258, 0.000636439, -0.000761881, -3.56683, 64.9973, 32.1818, 8.78693, 2.03174, 3.40365, -0.0292249, -0.00478755, -0.00106595, 0.0038673, 0.0162555, -0.0184128, 0.00404382, 0.0818426, -0.0112561, -0.000467829, -0.116484, 0.254649, 0.0278049, 0.470308, -0.540269, 0.33623, -2.08058, -2.16517, -0.131955, 0.469277, -0.544432, 0.331689, -2.0855, -2.16494, -0.0948317, -0.0131339, 0.0622436, 0.00749268, 0.00110783, -0.0179643, -0.00625476
0.157177, 1.69631, -1.22796, -1.54366, -0.902411, -1.21264, 1.22811, -1.30247, 0.0298221, 0.00174627, -0.0018891, -0.0371835, -0.216155, -6.55327e-05, 0.000712783, -3.60253, 65.033, 32.2532, 8.78693, 2.03174, 3.41739, -0.0621838, -0.0048718, -0.00105714, 0.00387105, 0.0163653, -0.0186571, 0.00408842, 0.0826028, -0.0111227, -0.00234029, -0.117134, 0.250554, 0.0268541, 0.470295, -0.540207, 0.336237, -2.08051, -2.16516, -0.131994, 0.469275, -0.544452, 0.331679, -2.08555, -2.16498, -0.0944963, -0.0132738, 0.0630144, 0.00760737, 0.000795072, -0.0176545, -0.00810901
0.158177, 1.69634, -1.22795, -1.54366, -0.902455, -1.21286, 1.22812, -1.30247, 0.0278001, 0.0037627, -0.00125975, -0.0381966, -0.213179, -0.000572123, 0.00118727, -3.56683, 64.9219, 32.2532, 8.82263, 2.01984, 3.43204, -0.0814099, -0.00495572, -0.00104845, 0.00386844, 0.0164688, -0.0189095, 0.00412837, 0.0830281, -0.0106406, -0.000991323, -0.115489, 0.25064, 0.0269216, 0.470282, -0.540144, 0.336245, -2.08045, -2.16514, -0.132034, 0.469274, -0.544471, 0.331675, -2.0856, -2.16502, -0.0941605, -0.0134137, 0.0637885, 0.00772302, 0.000241198, -0.0175308, -0.00671936
0.159177, 1.69636, -1.22795, -1.54365, -0.902498, -1.21307, 1.22811, -1.30247, 0.0288313, 0.00417895, 0.000830334, -0.0410604, -0.2077, -0.00037084, -0.000157926, -3.6422, 64.8505, 32.1818, 8.82263, 2.03815, 3.43204, -0.0557752, -0.0050361, -0.00103614, 0.00386728, 0.0165678, -0.0191494, 0.00415369, 0.080983, -0.0130014, -0.000449555, -0.112266, 0.247612, 0.0350318, 0.470268, -0.54008, 0.336252, -2.08038, -2.16513, -0.132074, 0.469276, -0.544486, 0.331671, -2.08563, -2.16507, -0.0938445, -0.0135538, 0.064566, 0.00783963, 0.00240497, -0.0147193, -0.00582229
0.160177, 1.69638, -1.22795, -1.54365, -0.902547, -1.21328, 1.22811, -1.30247, 0.0270509, 0.00371402, -0.000281862, -0.0442703, -0.207126, 3.19725e-05, -0.000376551, -3.60253, 64.8108, 32.2175, 8.85834, 2.04364, 3.42471, -0.0484509, -0.00512013, -0.00102724, 0.00387007, 0.016672, -0.019387, 0.00418926, 0.0818234, -0.0127789, -0.00140775, -0.113765, 0.247975, 0.0364108, 0.470255, -0.540016, 0.33626, -2.08032, -2.16511, -0.132115, 0.469274, -0.544504, 0.331662, -2.08566, -2.16511, -0.0935245, -0.013694, 0.0653468, 0.00795721, 0.00203975, -0.0146255, -0.00678153
0.161177, 1.69639, -1.22793, -1.54365, -0.902594, -1.21349, 1.22811, -1.30247, 0.0215171, 0.00674493, -0.00102328, -0.043986, -0.207304, -0.000244004, -0.000963111, -3.52715, 64.6283, 32.2532, 8.78693, 2.04364, 3.43204, -0.0292249, -0.00520657, -0.00102242, 0.00386425, 0.0167715, -0.0196351, 0.00422914, 0.0850336, -0.00944545, 0.000463757, -0.113374, 0.251602, 0.0312028, 0.470241, -0.53995, 0.336268, -2.08025, -2.1651, -0.132156, 0.469269, -0.544524, 0.331662, -2.08571, -2.16516, -0.0931987, -0.0138343, 0.0661309, 0.00807574, -0.00123929, -0.0174428, -0.00522654
0.162177, 1.69641, -1.22793, -1.54365, -0.902645, -1.21369, 1.22811, -1.30247, 0.0213046, 0.00366142, 0.000152921, -0.04466, -0.206953, -0.000158208, 0.00597845, -3.48748, 64.664, 32.2175, 8.74725, 2.03815, 3.43204, -0.0814099, -0.0052917, -0.00101353, 0.00386641, 0.0168701, -0.0198696, 0.00426731, 0.0857135, -0.00990993, -0.000996819, -0.112446, 0.249126, 0.0258222, 0.470227, -0.539884, 0.336276, -2.08018, -2.16508, -0.132197, 0.469267, -0.544541, 0.331653, -2.08574, -2.16519, -0.0928886, -0.0139747, 0.0669183, 0.00819524, -0.000943191, -0.0170759, -0.00667585
0.163177, 1.69642, -1.22792, -1.54365, -0.9027, -1.21391, 1.22811, -1.30246, 0.017545, 0.00503942, 0.000937081, -0.0485244, -0.211902, -0.000373393, 0.00390156, -3.4121, 64.5529, 32.1818, 8.71155, 2.04364, 3.43936, -0.0685925, -0.00537832, -0.00100667, 0.00386351, 0.0169722, -0.0201191, 0.00430326, 0.087707, -0.00828507, -0.000205728, -0.115242, 0.2554, 0.0266805, 0.470213, -0.539817, 0.336284, -2.08012, -2.16506, -0.132239, 0.469263, -0.544559, 0.33165, -2.08578, -2.16524, -0.0925598, -0.0141153, 0.067709, 0.00831571, -0.00260114, -0.0184442, -0.00604579
0.164177, 1.69643, -1.22792, -1.54364, -0.902755, -1.21412, 1.22811, -1.30246, 0.0156166, 0.00419484, 0.000624658, -0.0472375, -0.211397, -0.000517686, 0.00265666, -3.3764, 64.5172, 32.1818, 8.63617, 2.05646, 3.44668, -0.0621838, -0.00546614, -0.000999429, 0.00386508, 0.0170723, -0.0203583, 0.00433757, 0.0897777, -0.00700731, -0.000521682, -0.114455, 0.254697, 0.0253506, 0.470199, -0.539749, 0.336293, -2.08005, -2.16505, -0.132281, 0.46926, -0.544577, 0.331643, -2.08582, -2.16528, -0.0922444, -0.0142558, 0.0685029, 0.00843714, -0.00395079, -0.0196969, -0.00653054
0.165177, 1.69644, -1.22792, -1.54364, -0.902815, -1.21432, 1.22811, -1.30247, 0.0141808, 0.00279657, 0.000416391, -0.0501859, -0.209971, -0.000580601, 5.80677e-05, -3.33672, 64.5172, 32.1818, 8.60046, 2.06195, 3.45309, -0.00999879, -0.00555457, -0.00099262, 0.00386843, 0.0171745, -0.0205956, 0.0043646, 0.0902427, -0.00710984, -0.00174319, -0.115199, 0.253123, 0.029956, 0.470185, -0.539681, 0.336301, -2.07998, -2.16503, -0.132324, 0.469255, -0.544595, 0.331633, -2.08584, -2.16533, -0.09193, -0.0143965, 0.0692999, 0.00855954, -0.00401534, -0.0191609, -0.00769626
0.166177, 1.69645, -1.22792, -1.54364, -0.902883, -1.21453, 1.22811, -1.30246, 0.00910865, 0.00814346, -0.00139288, -0.0567371, -0.21858, 0.000122971, 0.00115295, -3.26134, 64.5172, 32.2532, 8.60046, 2.09949, 3.43936, -0.0356336, -0.00564505, -0.000986896, 0.00387407, 0.0172835, -0.0208386, 0.00440383, 0.093021, -0.00456594, 0.000282854, -0.121846, 0.267209, 0.0261624, 0.47017, -0.539612, 0.33631, -2.0799, -2.16502, -0.132367, 0.46925, -0.544614, 0.331621, -2.08587, -2.16537, -0.0916013, -0.0145372, 0.0701002, 0.0086829, -0.00651572, -0.0215274, -0.00594141
0.167177, 1.69645, -1.22791, -1.54363, -0.902942, -1.21474, 1.22811, -1.30245, 0.00630071, 0.0102211, 0.00369143, -0.0579055, -0.216819, -0.000425587, 0.0023503, -3.22564, 64.3347, 32.1818, 8.44971, 2.1297, 3.45309, -0.0750012, -0.00573328, -0.000980296, 0.00386646, 0.017379, -0.0210911, 0.00444562, 0.0930796, -0.00432665, 0.00325332, -0.116819, 0.268052, 0.0265756, 0.470156, -0.539541, 0.336318, -2.07983, -2.165, -0.132411, 0.469245, -0.544631, 0.331623, -2.08592, -2.16541, -0.0912779, -0.014678, 0.0709037, 0.00880724, -0.00678018, -0.0212583, -0.00289365
0.168177, 1.69646, -1.2279, -1.54363, -0.903011, -1.21494, 1.22811, -1.30245, 0.0049981, 0.00813455, 0.00488749, -0.0617805, -0.209847, -0.000282931, 0.00165957, -3.22564, 64.295, 32.2175, 8.414, 2.14252, 3.45309, -0.0750012, -0.00582012, -0.00097072, 0.00386892, 0.0174811, -0.0213299, 0.00447078, 0.0919208, -0.00564438, 0.00196439, -0.114069, 0.261368, 0.0327601, 0.470141, -0.539471, 0.336327, -2.07976, -2.16498, -0.132455, 0.469244, -0.544645, 0.331615, -2.08594, -2.16546, -0.0909635, -0.0148189, 0.0717102, 0.00893254, -0.00569405, -0.0190484, -0.00390325
0.169177, 1.69646, -1.2279, -1.54362, -0.903089, -1.21514, 1.22811, -1.30245, 0.00300226, 0.00887291, 0.00369399, -0.0653556, -0.205814, -0.000188025, -0.000519516, -3.18597, 64.295, 32.2175, 8.414, 2.17914, 3.45309, -0.0292249, -0.00590819, -0.000962484, 0.00387234, 0.0175853, -0.0215696, 0.00449224, 0.0919691, -0.0056809, 0.00159904, -0.114342, 0.259975, 0.0372929, 0.470126, -0.539399, 0.336336, -2.07969, -2.16496, -0.132499, 0.46924, -0.544659, 0.331606, -2.08595, -2.16552, -0.0906466, -0.0149597, 0.0725199, 0.00905882, -0.0058081, -0.0182261, -0.00415244
0.170177, 1.69646, -1.22789, -1.54362, -0.903162, -1.21534, 1.22811, -1.30245, -0.000148284, 0.00899744, 0.00505382, -0.0658963, -0.201201, -0.000396171, 0.00390596, -3.07488, 64.184, 32.2532, 8.33862, 2.18555, 3.46042, -0.0164075, -0.00599984, -0.000959117, 0.00387155, 0.017684, -0.0218096, 0.00452767, 0.092805, -0.00486092, 0.0022207, -0.110758, 0.256909, 0.0328318, 0.470112, -0.539326, 0.336345, -2.07961, -2.16495, -0.132544, 0.469232, -0.544677, 0.331601, -2.08598, -2.16556, -0.0903346, -0.0151006, 0.0733327, 0.00918606, -0.00671123, -0.0183699, -0.00352537
0.171177, 1.69645, -1.22789, -1.54361, -0.903234, -1.21552, 1.22811, -1.30244, -0.0015256, 0.00803151, 0.00692923, -0.068138, -0.199118, 7.48857e-06, 0.00472807, -2.9995, 64.1125, 32.2532, 8.18787, 2.22217, 3.45309, -0.0621838, -0.00609015, -0.000953297, 0.00386927, 0.0177721, -0.0220431, 0.00456273, 0.0929155, -0.00536261, 0.00211467, -0.108557, 0.255303, 0.0346595, 0.470096, -0.539253, 0.336354, -2.07954, -2.16493, -0.132589, 0.469226, -0.544692, 0.331597, -2.08602, -2.1656, -0.0900413, -0.0152415, 0.0741485, 0.00931428, -0.00634872, -0.0176239, -0.00354125
0.172177, 1.69645, -1.22788, -1.5436, -0.903316, -1.2157, 1.22811, -1.30244, -0.00790397, 0.00646165, 0.00525173, -0.0695098, -0.191807, 5.24362e-06, 0.0032362, -2.95983, 64.0768, 32.2532, 8.15216, 2.22858, 3.45309, -0.0557752, -0.00617509, -0.000943412, 0.00387059, 0.0178654, -0.0222664, 0.00457659, 0.0952227, -0.00274009, 0.000722905, -0.106333, 0.248535, 0.0331659, 0.470081, -0.539179, 0.336364, -2.07946, -2.16491, -0.132635, 0.469224, -0.544701, 0.331591, -2.08602, -2.16566, -0.0897553, -0.0153825, 0.0749674, 0.00944347, -0.00907239, -0.0189726, -0.00507734
0.173177, 1.69644, -1.22787, -1.5436, -0.903396, -1.21588, 1.22811, -1.30244, -0.0122821, 0.00627507, 0.00700608, -0.0728682, -0.186055, 3.68418e-06, 0.00212733, -2.80907, 64.0015, 32.2532, 8.07678, 2.24048, 3.45309, -0.0484509, -0.00626487, -0.00093866, 0.00386732, 0.0179516, -0.0224945, 0.00460365, 0.095525, -0.00210637, 0.000979858, -0.102918, 0.24447, 0.0360822, 0.470066, -0.539104, 0.336373, -2.07939, -2.16489, -0.132681, 0.469217, -0.544714, 0.331589, -2.08604, -2.1657, -0.0894714, -0.0155234, 0.0757893, 0.00957364, -0.00982289, -0.0185153, -0.00472858
0.174177, 1.69642, -1.22786, -1.54359, -0.903478, -1.21604, 1.22811, -1.30244, -0.014487, 0.00517165, 0.00844564, -0.0734069, -0.181898, 0.000239956, 0.00187034, -2.69799, 63.9658, 32.2532, 7.92602, 2.24048, 3.44668, -0.0557752, -0.00635438, -0.000932612, 0.00386714, 0.0180347, -0.0227132, 0.00463034, 0.0961898, -0.00188551, 0.000889923, -0.0993854, 0.240776, 0.0371638, 0.47005, -0.539028, 0.336383, -2.07931, -2.16487, -0.132728, 0.469211, -0.544726, 0.331584, -2.08605, -2.16575, -0.0892009, -0.0156643, 0.0766142, 0.00970477, -0.0101605, -0.0183404, -0.00479182
0.175177, 1.69641, -1.22785, -1.54358, -0.903568, -1.21621, 1.2281, -1.30244, -0.0142602, 0.00532579, 0.00943938, -0.0790478, -0.179119, -7.7282e-05, -0.000821517, -2.65832, 63.8904, 32.2532, 7.85065, 2.24689, 3.45309, 0.00373412, -0.00644027, -0.00092256, 0.00386629, 0.0181219, -0.0229364, 0.00463938, 0.0944691, -0.00382596, 0.000506416, -0.100026, 0.239772, 0.0468537, 0.470035, -0.538951, 0.336392, -2.07923, -2.16485, -0.132775, 0.469209, -0.544734, 0.33158, -2.08605, -2.16581, -0.0889237, -0.0158053, 0.0774421, 0.00983689, -0.0084399, -0.0156702, -0.00483121
0.176177, 1.6964, -1.22786, -1.54357, -0.903661, -1.21638, 1.22811, -1.30244, -0.0176754, 0.00501291, 0.0139508, -0.084016, -0.17237, 0.000728452, -0.00115803, -2.47185, 63.9658, 32.2175, 7.81494, 2.25879, 3.43204, 0.0229602, -0.00653015, -0.000914782, 0.0038697, 0.0182031, -0.0231515, 0.00465278, 0.0932037, -0.00485668, 0.00144158, -0.0939223, 0.235189, 0.0530225, 0.470019, -0.538874, 0.336402, -2.07915, -2.16483, -0.132822, 0.469204, -0.544744, 0.331572, -2.08605, -2.16587, -0.0886612, -0.0159461, 0.0782729, 0.00996998, -0.00756124, -0.0136934, -0.00361257
0.177177, 1.69638, -1.22785, -1.54356, -0.903755, -1.21654, 1.2281, -1.30243, -0.0193189, 0.00664037, 0.0116583, -0.0887734, -0.172285, 0.000756962, 0.000253714, -2.3211, 63.9658, 32.2928, 7.70386, 2.2771, 3.42471, -0.00267457, -0.00662018, -0.000908854, 0.00387181, 0.0182914, -0.0233684, 0.00467525, 0.093691, -0.00468375, 0.00104528, -0.0975256, 0.238133, 0.053491, 0.470003, -0.538796, 0.336412, -2.07907, -2.16481, -0.13287, 0.469197, -0.544754, 0.331565, -2.08605, -2.16591, -0.0883887, -0.016087, 0.0791067, 0.010104, -0.00786905, -0.013284, -0.00394859
0.178177, 1.69636, -1.22784, -1.54354, -0.903857, -1.21671, 1.22811, -1.30242, -0.0196096, 0.0115072, 0.0128684, -0.0922444, -0.172953, 0.000775953, 0.00144707, -2.20605, 63.819, 32.2532, 7.70386, 2.32654, 3.41739, -0.0356336, -0.00670659, -0.000898157, 0.00386556, 0.0183707, -0.0236012, 0.00468806, 0.0930734, -0.00546468, 0.00390562, -0.0977219, 0.244625, 0.055704, 0.469987, -0.538717, 0.336422, -2.07899, -2.16479, -0.132919, 0.469195, -0.54476, 0.331566, -2.08606, -2.16598, -0.0881113, -0.0162278, 0.0799433, 0.0102391, -0.00714306, -0.0122555, -0.000923934
0.179177, 1.69634, -1.22782, -1.54353, -0.903956, -1.21686, 1.22811, -1.30243, -0.0196984, 0.0140502, 0.0150322, -0.0952041, -0.167734, 0.00129723, 0.000295552, -2.091, 63.7079, 32.2928, 7.59277, 2.33844, 3.39633, -0.0164075, -0.00679486, -0.000889199, 0.00386172, 0.0184477, -0.023823, 0.00469666, 0.0914293, -0.00721826, 0.0057894, -0.093941, 0.244099, 0.0625023, 0.469971, -0.538637, 0.336433, -2.07891, -2.16477, -0.132968, 0.469191, -0.544767, 0.331566, -2.08606, -2.16605, -0.0878486, -0.0163686, 0.0807828, 0.0103751, -0.0055208, -0.0100158, 0.00127148
0.180177, 1.69632, -1.22782, -1.54352, -0.904058, -1.21702, 1.22811, -1.30242, -0.0205669, 0.012315, 0.015733, -0.0941891, -0.163906, 0.000864845, -8.13703e-06, -1.94024, 63.7436, 32.3682, 7.47772, 2.35675, 3.39633, -0.00999879, -0.00688468, -0.000881677, 0.00386554, 0.0185347, -0.0240341, 0.00470904, 0.092188, -0.00711856, 0.00515045, -0.0913096, 0.239684, 0.0631351, 0.469954, -0.538556, 0.336443, -2.07883, -2.16475, -0.133017, 0.469186, -0.544774, 0.331557, -2.08605, -2.1661, -0.0875858, -0.0165093, 0.0816252, 0.0105121, -0.00575419, -0.00982395, 0.000653105
0.181177, 1.6963, -1.22782, -1.5435, -0.904161, -1.21717, 1.22811, -1.30242, -0.0204304, 0.00725302, 0.0158252, -0.0999885, -0.156489, 0.00111912, -0.00167671, -1.82915, 63.819, 32.3285, 7.36664, 2.38147, 3.38168, 0.0357776, -0.00697297, -0.000871133, 0.0038664, 0.0186072, -0.0242423, 0.00471115, 0.0903022, -0.00960993, 0.00136052, -0.0905988, 0.230058, 0.0731297, 0.469938, -0.538474, 0.336454, -2.07875, -2.16473, -0.133067, 0.469183, -0.544778, 0.331552, -2.08603, -2.16616, -0.0873435, -0.01665, 0.0824704, 0.0106501, -0.00361801, -0.0064103, -0.00273205
0.182177, 1.69628, -1.22781, -1.54348, -0.904274, -1.21732, 1.22811, -1.30242, -0.0202806, 0.00460481, 0.0181039, -0.104891, -0.155996, 0.00128863, 0.00518953, -1.7141, 63.8547, 32.3285, 7.29126, 2.40619, 3.36703, -0.00999879, -0.00705801, -0.000857844, 0.0038649, 0.0186818, -0.0244562, 0.00471145, 0.0893521, -0.0114525, -7.02574e-05, -0.0905129, 0.228335, 0.0724704, 0.469921, -0.538392, 0.336464, -2.07866, -2.16471, -0.133117, 0.469183, -0.544779, 0.33155, -2.08602, -2.16624, -0.0870937, -0.0167906, 0.0833185, 0.010789, -0.00200586, -0.00431769, -0.00391756
0.183177, 1.69625, -1.2278, -1.54347, -0.904387, -1.21747, 1.22811, -1.30241, -0.0213519, 0.00352338, 0.0180397, -0.107321, -0.15034, 0.000859095, 0.00456816, -1.56335, 63.8547, 32.4039, 7.18018, 2.43091, 3.36703, -0.0292249, -0.0071464, -0.000848425, 0.00386418, 0.0187566, -0.024666, 0.00471768, 0.0889332, -0.012074, -0.00107572, -0.0892265, 0.223439, 0.0764805, 0.469904, -0.538309, 0.336475, -2.07858, -2.16469, -0.133167, 0.469179, -0.544782, 0.331546, -2.086, -2.1663, -0.0868477, -0.0169311, 0.0841693, 0.010929, -0.00157699, -0.00286595, -0.00472913
0.184177, 1.69622, -1.22779, -1.54345, -0.904502, -1.21761, 1.22811, -1.30241, -0.0236768, 0.00486534, 0.0181507, -0.109873, -0.146426, 0.000301471, 0.00286802, -1.33721, 63.8904, 32.4793, 7.06909, 2.45563, 3.37436, -0.0164075, -0.00723706, -0.000841735, 0.00386285, 0.0188306, -0.0248755, 0.00472116, 0.0891013, -0.0117804, -0.000535742, -0.0883755, 0.222261, 0.0798682, 0.469887, -0.538224, 0.336486, -2.07849, -2.16467, -0.133218, 0.469173, -0.544787, 0.331543, -2.08599, -2.16636, -0.0866037, -0.0170715, 0.0850228, 0.0110699, -0.00198148, -0.00227484, -0.00408019
0.185177, 1.69619, -1.22779, -1.54343, -0.904629, -1.21775, 1.22811, -1.30241, -0.0246992, 0.00608112, 0.020002, -0.115212, -0.143468, 0.000709613, 0.000202206, -1.26183, 63.9261, 32.4793, 7.1048, 2.48584, 3.36062, 0.0357776, -0.0073203, -0.00082608, 0.00386194, 0.0189025, -0.0250845, 0.00470137, 0.0878124, -0.0132344, 0.0001719, -0.0871196, 0.22242, 0.0884831, 0.46987, -0.538139, 0.336497, -2.07841, -2.16465, -0.13327, 0.469174, -0.544783, 0.331541, -2.08595, -2.16645, -0.0863653, -0.0172118, 0.0858791, 0.0112118, -0.000689142, -0.00019502, -0.00308656
0.186177, 1.69619, -1.22779, -1.54343, -0.904629, -1.21775, 1.22811, -1.30241, -0.0246992, 0.00608112, 0.020002, -0.115212, -0.143468, 0.000709613, 0.000202206, -1.26183, 63.9261, 32.4793, 7.1048, 2.48584, 3.36062, 0.0357776, -0.00740773, -0.000812368, 0.00385817, 0.0188756, -0.025162, 0.00473314, 0.0886883, -0.0133391, 0.00017978, -0.0869514, 0.223268, 0.0889143, 0.469853, -0.538053, 0.336508, -2.07832, -2.16463, -0.133322, 0.469174, -0.544783, 0.331541, -2.08595, -2.16645, -0.0863653, -0.017352, 0.0867382, 0.0113547, -0.000689142, -0.00019502, -0.00308656
0.187177, 1.69619, -1.22779, -1.54343, -0.904629, -1.21775, 1.22811, -1.30241, -0.0246992, 0.00608112, 0.020002, -0.115212, -0.143468, 0.000709613, 0.000202206, -1.26183, 63.9261, 32.4793, 7.1048, 2.48584, 3.36062, 0.0357776, -0.00749604, -0.000798554, 0.00385439, 0.0188484, -0.0252404, 0.00476518, 0.089567, -0.0134436, 0.000187329, -0.0867817, 0.224119, 0.0893457, 0.469836, -0.537967, 0.33652, -2.07823, -2.1646, -0.133374, 0.469174, -0.544783, 0.331541, -2.08595, -2.16645, -0.0863653, -0.0174921, 0.0875999, 0.0114985, -0.000689142, -0.00019502, -0.00308656
0.188177, 1.69619, -1.22779, -1.54343, -0.904629, -1.21775, 1.22811, -1.30241, -0.0246992, 0.00608112, 0.020002, -0.115212, -0.143468, 0.000709613, 0.000202206, -1.26183, 63.9261, 32.4793, 7.1048, 2.48584, 3.36062, 0.0357776, -0.00758523, -0.00078464, 0.00385058, 0.0188209, -0.0253195, 0.00479748, 0.0904485, -0.0135477, 0.000194546, -0.0866104, 0.224971, 0.0897772, 0.469818, -0.537879, 0.336531, -2.07815, -2.16458, -0.133427, 0.469174, -0.544783, 0.331541, -2.08595, -2.16645, -0.0863653, -0.0176321, 0.0884643, 0.0116434, -0.000689142, -0.00019502, -0.00308656
