alisrour97/Franka_experiments/Real_Robot_scripts/servo-franka/Data2/log_dyn_PI2_4.csv
Time,q1,q2,q3,q4,q5,q6,q7,dq1,dq2,dq3,dq4,dq5,dq6,dq7,t1,t2,t3,t4,t5,t6,t7,ex1,ex2,ex3,ex4,ex5,ex6,ev1,ev2,ev3,ev4,ev5,ev6,xd,yd,zd,uxd,uyd,uzd,x,y,z,ux,uy,uz,vxd,vyd,vzd,vx,vy,vz
4.88281e-07, 1.6914, -1.22526, -1.53769, -0.900097, -1.19203, 1.22829, -1.30255, 0.00137822, 0.00559417, -0.00112628, 0.00580484, 0.000929528, -0.00675353, -0.000544123, -0.619133, 56.7096, 27.1552, 6.62079, 2.12421, 3.42471, -0.317616, 0.00104392, -0.00155893, -0.000180126, 0.000245229, -0.000828502, -6.88424e-05, -0.000176992, 0.00193759, 0.00307496, -0.00337466, 0.00107205, -0.00359408, 0.471008, -0.543389, 0.335894, -2.08385, -2.16584, -0.129887, 0.469433, -0.54244, 0.336275, -2.08405, -2.1663, -0.128792, -1.41255e-05, -9.11997e-05, -6.59526e-05, -0.00184455, -0.000469016, 0.00305619
0.0120652, 1.69137, -1.22525, -1.53771, -0.900077, -1.19202, 1.22829, -1.30255, -0.00206727, -0.00395615, -0.00670981, 0.00109842, -8.25916e-05, -0.000622265, -0.00443046, -0.583427, 56.8207, 27.2663, 6.62079, 2.14252, 3.41739, -0.291066, 0.00102593, -0.00158061, -0.000183099, 0.000245254, -0.000827758, -2.56543e-05, 0.00282313, 0.0026104, -0.00441283, -0.00587323, -0.00390362, -0.00190931, 0.471008, -0.543389, 0.335894, -2.08385, -2.16584, -0.129887, 0.469399, -0.542469, 0.336281, -2.08412, -2.16624, -0.128777, -2.13283e-05, -0.000136675, -0.000102379, -0.0026867, -0.00235136, -0.0048192
0.0130652, 1.69137, -1.22525, -1.53771, -0.900077, -1.19202, 1.22829, -1.30255, -0.00206727, -0.00395615, -0.00670981, 0.00109842, -8.25916e-05, -0.000622265, -0.00443046, -0.583427, 56.8207, 27.2663, 6.62079, 2.14252, 3.41739, -0.291066, 0.00102594, -0.00158061, -0.000183106, 0.000245245, -0.000827756, -2.56558e-05, 0.00276825, 0.00260172, -0.00438089, -0.00584496, -0.00389391, -0.00197014, 0.471008, -0.543389, 0.335894, -2.08385, -2.16584, -0.129887, 0.469399, -0.542469, 0.336281, -2.08412, -2.16624, -0.128777, -2.91898e-05, -0.000186294, -0.000142179, -0.0026867, -0.00235136, -0.0048192
0.0140652, 1.69137, -1.22525, -1.53771, -0.900077, -1.19202, 1.22829, -1.30255, -0.00206727, -0.00395615, -0.00670981, 0.00109842, -8.25916e-05, -0.000622265, -0.00443046, -0.583427, 56.8207, 27.2663, 6.62079, 2.14252, 3.41739, -0.291066, 0.00102597, -0.0015806, -0.000183124, 0.000245219, -0.000827749, -2.56599e-05, 0.00270862, 0.00259229, -0.00434613, -0.00581409, -0.00388319, -0.0020364, 0.471008, -0.543389, 0.335894, -2.08385, -2.16584, -0.129887, 0.469399, -0.542469, 0.336281, -2.08412, -2.16624, -0.128777, -3.77325e-05, -0.000240197, -0.00018547, -0.0026867, -0.00235136, -0.0048192
0.0150652, 1.69137, -1.22525, -1.53771, -0.900077, -1.19202, 1.22829, -1.30255, -0.00206727, -0.00395615, -0.00670981, 0.00109842, -8.25916e-05, -0.000622265, -0.00443046, -0.583427, 56.8207, 27.2663, 6.62079, 2.14252, 3.41739, -0.291066, 0.00102603, -0.00158059, -0.000183158, 0.000245169, -0.000827736, -2.56679e-05, 0.0026441, 0.00258208, -0.00430846, -0.00578053, -0.00387142, -0.00210828, 0.471008, -0.543389, 0.335894, -2.08385, -2.16584, -0.129887, 0.469399, -0.542469, 0.336281, -2.08412, -2.16624, -0.128777, -4.69786e-05, -0.000298522, -0.00023237, -0.0026867, -0.00235136, -0.0048192
0.0160652, 1.69137, -1.22525, -1.53771, -0.900077, -1.19202, 1.22829, -1.30255, -0.00206727, -0.00395615, -0.00670981, 0.00109842, -8.25916e-05, -0.000622265, -0.00443046, -0.583427, 56.8207, 27.2663, 6.62079, 2.14252, 3.41739, -0.291066, 0.00102613, -0.00158058, -0.000183215, 0.000245086, -0.000827715, -2.5681e-05, 0.00257452, 0.00257108, -0.0042678, -0.00574419, -0.00385856, -0.00218596, 0.471008, -0.54339, 0.335894, -2.08385, -2.16584, -0.129887, 0.469399, -0.542469, 0.336281, -2.08412, -2.16624, -0.128777, -5.69498e-05, -0.000361405, -0.000282992, -0.0026867, -0.00235136, -0.0048192
0.0170652, 1.69137, -1.22525, -1.53771, -0.900077, -1.19202, 1.22829, -1.30255, -0.00206727, -0.00395615, -0.00670981, 0.00109842, -8.25916e-05, -0.000622265, -0.00443046, -0.583427, 56.8207, 27.2663, 6.62079, 2.14252, 3.41739, -0.291066, 0.00102628, -0.00158055, -0.0001833, 0.000244963, -0.000827684, -2.57004e-05, 0.00249974, 0.00255925, -0.00422404, -0.00570497, -0.00384456, -0.00226962, 0.471008, -0.54339, 0.335894, -2.08385, -2.16584, -0.129886, 0.469399, -0.542469, 0.336281, -2.08412, -2.16624, -0.128777, -6.7667e-05, -0.000428975, -0.000337449, -0.0026867, -0.00235136, -0.0048192
0.0180652, 1.69137, -1.22525, -1.53771, -0.900077, -1.19202, 1.22829, -1.30255, -0.00206727, -0.00395615, -0.00670981, 0.00109842, -8.25916e-05, -0.000622265, -0.00443046, -0.583427, 56.8207, 27.2663, 6.62079, 2.14252, 3.41739, -0.291066, 0.00102648, -0.00158052, -0.000183418, 0.000244792, -0.00082764, -2.57274e-05, 0.00241962, 0.00254658, -0.0041771, -0.00566277, -0.00382938, -0.00235944, 0.471008, -0.54339, 0.335893, -2.08385, -2.16584, -0.129886, 0.469399, -0.542469, 0.336281, -2.08412, -2.16624, -0.128777, -7.91509e-05, -0.000501362, -0.000395848, -0.0026867, -0.00235136, -0.0048192
0.0190652, 1.69137, -1.22525, -1.53771, -0.900077, -1.19202, 1.22829, -1.30255, -0.00206727, -0.00395615, -0.00670981, 0.00109842, -8.25916e-05, -0.000622265, -0.00443046, -0.583427, 56.8207, 27.2663, 6.62079, 2.14252, 3.41739, -0.291066, 0.00102675, -0.00158048, -0.000183574, 0.000244565, -0.000827583, -2.57632e-05, 0.00233403, 0.00253304, -0.0041269, -0.00561752, -0.00381298, -0.00245559, 0.471008, -0.54339, 0.335893, -2.08385, -2.16584, -0.129886, 0.469399, -0.542469, 0.336281, -2.08412, -2.16624, -0.128777, -9.14213e-05, -0.000578688, -0.000458296, -0.0026867, -0.00235136, -0.0048192
0.0200652, 1.69137, -1.22525, -1.53771, -0.900077, -1.19202, 1.22829, -1.30255, -0.00206727, -0.00395615, -0.00670981, 0.00109842, -8.25916e-05, -0.000622265, -0.00443046, -0.583427, 56.8207, 27.2663, 6.62079, 2.14252, 3.41739, -0.291066, 0.00102709, -0.00158043, -0.000183774, 0.000244273, -0.000827509, -2.5809e-05, 0.00224283, 0.00251862, -0.00407334, -0.00556912, -0.00379531, -0.00255824, 0.471008, -0.54339, 0.335893, -2.08385, -2.16584, -0.129885, 0.469399, -0.542469, 0.336281, -2.08412, -2.16624, -0.128777, -0.000104498, -0.000661074, -0.000524897, -0.0026867, -0.00235136, -0.0048192
0.0210652, 1.69137, -1.22525, -1.53771, -0.900077, -1.19202, 1.22829, -1.30255, -0.00206727, -0.00395615, -0.00670981, 0.00109842, -8.25916e-05, -0.000622265, -0.00443046, -0.583427, 56.8207, 27.2663, 6.62079, 2.14252, 3.41739, -0.291066, 0.00102752, -0.00158036, -0.000184022, 0.00024391, -0.000827418, -2.58659e-05, 0.00214589, 0.00250329, -0.00401636, -0.00551749, -0.00377632, -0.00266756, 0.471008, -0.543391, 0.335893, -2.08385, -2.16584, -0.129885, 0.469399, -0.542469, 0.336281, -2.08412, -2.16624, -0.128777, -0.000118398, -0.000748633, -0.000595748, -0.0026867, -0.00235136, -0.0048192
0.0220652, 1.69136, -1.22528, -1.53776, -0.900072, -1.19203, 1.2283, -1.30255, 0.000520319, -0.00542724, -0.00347379, 0.000474721, -0.000349575, 0.000561274, -0.00159954, -0.43267, 57.2968, 27.5638, 6.54541, 2.17273, 3.41006, -0.278248, 0.00100481, -0.00159729, -0.000147909, 0.000280292, -0.000798703, 1.76822e-05, 0.000350332, 0.000114929, -0.00379121, -0.00254915, -0.00449317, -0.0010174, 0.471008, -0.543391, 0.335892, -2.08385, -2.16584, -0.129884, 0.469382, -0.542487, 0.336242, -2.08413, -2.16616, -0.128761, -0.000133141, -0.000841478, -0.000670947, -0.000372248, -0.000608514, -0.00446539
0.0230652, 1.69135, -1.22528, -1.53776, -0.900072, -1.19203, 1.2283, -1.30255, -0.000621597, -0.0024535, -0.00383713, -0.00516735, -0.0084308, 0.000879171, -0.0020724, -0.392998, 57.1143, 27.4885, 6.5097, 2.14252, 3.39633, -0.251698, 0.00100137, -0.00160094, -0.000146878, 0.000282639, -0.0008012, 2.4272e-05, 0.00050094, 0.000447848, -0.00280421, -0.00855612, 0.00575239, 0.000199836, 0.471008, -0.543392, 0.335892, -2.08385, -2.16584, -0.129884, 0.469378, -0.542491, 0.336241, -2.08414, -2.16616, -0.128754, -0.000148743, -0.000939713, -0.000750586, -0.000679327, -0.00102097, -0.00358378
0.0240652, 1.69135, -1.2253, -1.53778, -0.900074, -1.19203, 1.22829, -1.30255, -0.000444741, -0.00258445, -0.00661326, -0.00617667, -0.00847036, 0.000583385, -0.0033314, -0.392998, 57.0032, 27.3774, 6.47003, 2.06836, 3.39633, -0.199513, 0.000999131, -0.00160392, -0.000136037, 0.000300009, -0.000789998, 2.67278e-05, 0.00057714, 0.000648733, -0.00397277, -0.0117149, 0.00580459, 0.00103746, 0.471008, -0.543393, 0.335891, -2.08385, -2.16584, -0.129883, 0.469375, -0.542493, 0.336229, -2.08413, -2.16614, -0.128745, -0.00016522, -0.00104344, -0.000834754, -0.000935891, -0.00102828, -0.00482758
0.0250652, 1.69135, -1.2253, -1.53778, -0.900074, -1.19204, 1.22829, -1.30255, -0.00115447, -0.00107515, -0.00802438, -0.00300924, -0.00885028, 0.000658144, 0.00151231, -0.357292, 56.8207, 27.2306, 6.39465, 2.00061, 3.38901, -0.180287, 0.00099571, -0.00160609, -0.00013114, 0.000309932, -0.000794624, 3.59962e-05, 0.00194303, 0.00203959, -0.00303151, -0.0112493, 0.00747181, -0.00825001, 0.471007, -0.543393, 0.335891, -2.08385, -2.16584, -0.129882, 0.469373, -0.542496, 0.336223, -2.08413, -2.16613, -0.128728, -0.000182589, -0.00115275, -0.000923534, -0.0022595, -0.00268782, -0.004157
0.0260652, 1.69135, -1.22531, -1.5378, -0.900076, -1.19205, 1.22829, -1.30255, -0.000786714, -0.00133545, -0.0128191, -0.00398453, -0.00543847, -0.000342666, 0.00137014, -0.357292, 56.8207, 27.2306, 6.32324, 1.95758, 3.41006, -0.180287, 0.000990443, -0.00160903, -0.000118481, 0.000329388, -0.000792608, 5.0294e-05, 0.00160901, 0.00223155, -0.00505194, -0.0151946, 0.00435692, -0.00819656, 0.471007, -0.543394, 0.33589, -2.08385, -2.16584, -0.129881, 0.469369, -0.5425, 0.336209, -2.08414, -2.1661, -0.128705, -0.000200863, -0.00126774, -0.00101701, -0.00255438, -0.00216993, -0.00618787
0.0270652, 1.69135, -1.22532, -1.53781, -0.90008, -1.19207, 1.22829, -1.30255, -0.000537277, -0.00478799, -0.0120552, -0.00328777, -0.00842455, -0.00077213, -0.000273184, -0.357292, 56.9675, 27.1909, 6.32324, 1.93378, 3.42471, -0.140919, 0.000987528, -0.00161023, -0.000108476, 0.000349025, -0.000795813, 5.49302e-05, 0.00228767, 0.00244402, -0.00668238, -0.016213, 0.00307376, -0.00764332, 0.471007, -0.543395, 0.335889, -2.08384, -2.16584, -0.129879, 0.469368, -0.542503, 0.336198, -2.08413, -2.16609, -0.128679, -0.000220057, -0.00138849, -0.00111525, -0.00282036, -0.00271842, -0.00799497
0.0280652, 1.69135, -1.22532, -1.53782, -0.900083, -1.19208, 1.2283, -1.30255, -0.0012958, -0.00613846, -0.00849569, -0.00266541, -0.0113251, 2.69183e-05, 2.14648e-05, -0.317619, 57.0786, 27.1552, 6.32324, 1.93378, 3.41006, -0.140919, 0.000983947, -0.00161285, -0.000104672, 0.000360793, -0.000806513, 6.3566e-05, 0.00271219, 0.00251722, -0.00593327, -0.0133806, 0.00421997, -0.0086264, 0.471007, -0.543396, 0.335888, -2.08384, -2.16584, -0.129878, 0.469365, -0.542507, 0.336193, -2.08414, -2.16608, -0.128652, -0.000240182, -0.00151507, -0.00121833, -0.00287138, -0.00338241, -0.00742203
0.0290652, 1.69135, -1.22533, -1.53783, -0.900081, -1.1921, 1.22831, -1.30255, -0.00263431, -0.00778699, -0.00746959, -0.000368876, -0.018535, 0.00184835, -0.000578985, -0.242241, 57.2253, 27.1909, 6.24786, 1.94568, 3.36062, -0.120778, 0.00097628, -0.00161686, -0.000100532, 0.000368318, -0.000822092, 7.73047e-05, 0.0054, 0.00402651, -0.00589914, -0.0130145, 0.00910277, -0.0134222, 0.471007, -0.543398, 0.335887, -2.08384, -2.16584, -0.129876, 0.469361, -0.542515, 0.336187, -2.08416, -2.16608, -0.128625, -0.000261251, -0.00164757, -0.00132632, -0.00430246, -0.00623541, -0.00786796
0.0300652, 1.69135, -1.22533, -1.53784, -0.90009, -1.19212, 1.22831, -1.30255, -0.00259682, -0.00798554, -0.00747089, -0.00311075, -0.0189599, 0.00258809, 0.000949231, -0.206535, 57.3364, 27.2663, 6.35895, 1.95209, 3.324, -0.153737, 0.00097248, -0.00161884, -9.433e-05, 0.000386211, -0.000838037, 8.38623e-05, 0.00459751, 0.00327802, -0.00624265, -0.0138132, 0.00989483, -0.0128292, 0.471007, -0.543399, 0.335886, -2.08384, -2.16584, -0.129874, 0.469358, -0.54252, 0.336179, -2.08416, -2.16607, -0.128587, -0.000283275, -0.00178604, -0.00143928, -0.00361806, -0.00549814, -0.00821812
0.0310652, 1.69135, -1.22533, -1.53785, -0.900096, -1.19214, 1.22831, -1.30254, 0.0011375, -0.00630573, -0.00645456, -0.00403686, -0.0237907, 0.00118249, 0.00217677, -0.206535, 57.3721, 27.306, 6.43433, 1.95209, 3.33865, -0.193104, 0.000971828, -0.0016186, -9.21499e-05, 0.000399432, -0.000853969, 8.84538e-05, 0.00294267, 0.00160397, -0.00524909, -0.0171862, 0.0149932, -0.0109053, 0.471006, -0.543401, 0.335885, -2.08384, -2.16584, -0.129872, 0.469358, -0.542522, 0.336175, -2.08417, -2.16607, -0.128553, -0.000306264, -0.00193055, -0.00155726, -0.00199247, -0.00409337, -0.00714866
0.0320652, 1.69135, -1.22533, -1.53785, -0.900098, -1.19216, 1.22831, -1.30254, 0.000994695, -0.00347871, -0.00554772, -0.00284108, -0.0268142, -2.57473e-05, 0.00127824, -0.206535, 57.3364, 27.3417, 6.43433, 1.93927, 3.36062, -0.186696, 0.000970409, -0.00161973, -9.2021e-05, 0.000414392, -0.000874035, 9.524e-05, 0.00320732, 0.00237845, -0.00310085, -0.0179331, 0.0195559, -0.0120146, 0.471006, -0.543402, 0.335883, -2.08384, -2.16584, -0.12987, 0.469357, -0.542525, 0.336174, -2.08418, -2.16607, -0.128513, -0.000330225, -0.00208114, -0.00168032, -0.00270289, -0.00486756, -0.00516823
0.0330652, 1.69135, -1.22533, -1.53785, -0.900101, -1.19219, 1.22831, -1.30254, 0.00284056, -0.000638489, -0.00317036, -0.00284165, -0.0282409, -0.00106853, 0.00436015, -0.166862, 57.261, 27.306, 6.47003, 1.90265, 3.38901, -0.153737, 0.00096992, -0.00162131, -9.48482e-05, 0.00042538, -0.000894295, 9.59803e-05, 0.00162083, 0.0013008, -0.00067616, -0.017378, 0.0229797, -0.0128573, 0.471006, -0.543404, 0.335882, -2.08384, -2.16584, -0.129868, 0.469355, -0.542528, 0.336175, -2.08418, -2.16607, -0.128478, -0.000355167, -0.00223786, -0.0018085, -0.00162075, -0.00378715, -0.00268848
0.0340652, 1.69136, -1.22533, -1.53785, -0.900099, -1.19221, 1.22831, -1.30255, 0.00319869, -0.00132282, -0.00494235, -0.0011435, -0.0303306, -0.000983775, 0.00163761, -0.206535, 57.2968, 27.417, 6.43433, 1.89075, 3.39633, -0.10796, 0.000966162, -0.00162385, -9.27024e-05, 0.000443098, -0.000914812, 0.000105154, 0.00264188, 0.00196933, -0.00137326, -0.0190308, 0.0240654, -0.0130188, 0.471005, -0.543406, 0.33588, -2.08384, -2.16584, -0.129865, 0.469352, -0.542533, 0.336171, -2.08419, -2.16607, -0.128434, -0.000381096, -0.00240075, -0.00194184, -0.00230301, -0.00487812, -0.00364845
0.0350652, 1.69135, -1.22533, -1.53786, -0.900099, -1.19224, 1.22831, -1.30254, -0.00111129, -9.31131e-05, -0.00430286, -0.00402373, -0.0351328, -0.00170713, 0.00563, -0.0557783, 57.261, 27.4528, 6.43433, 1.84131, 3.42471, -0.0951428, 0.000960529, -0.00163023, -9.52769e-05, 0.000454255, -0.000938841, 0.000123675, 0.00413886, 0.00429762, -0.000548376, -0.0218317, 0.0289897, -0.0202903, 0.471005, -0.543408, 0.335878, -2.08384, -2.16584, -0.129862, 0.469346, -0.542541, 0.336171, -2.08422, -2.16605, -0.128392, -0.000408018, -0.00256985, -0.00208038, -0.00457191, -0.0067473, -0.00313459
0.0360652, 1.69135, -1.22533, -1.53786, -0.900104, -1.19227, 1.22831, -1.30254, 0.000582768, 0.000284861, -0.00299813, -0.00383163, -0.0351508, -0.000866903, 0.00533365, 0.0196001, 57.3721, 27.4528, 6.47003, 1.81659, 3.41739, -0.120778, 0.000958312, -0.00163145, -9.43101e-05, 0.000466949, -0.000960965, 0.000133071, 0.00303194, 0.00298544, 0.000263571, -0.02, 0.0297905, -0.0180976, 0.471005, -0.543411, 0.335877, -2.08384, -2.16583, -0.129859, 0.469344, -0.542546, 0.336168, -2.08423, -2.16605, -0.128352, -0.000435936, -0.00274516, -0.00222414, -0.0032996, -0.00590111, -0.00234439
0.0370652, 1.69136, -1.22534, -1.53786, -0.900107, -1.1923, 1.22831, -1.30254, 0.00377842, -0.00577722, -0.00293114, -0.00278986, -0.0343965, -0.000578, 0.00331685, 0.0196001, 57.3721, 27.4885, 6.47003, 1.77356, 3.41739, -0.101552, 0.000957649, -0.00163081, -9.28043e-05, 0.000483659, -0.000984441, 0.000134282, 0.00216602, 0.00113359, -0.00314943, -0.0197306, 0.0233217, -0.0136773, 0.471004, -0.543413, 0.335874, -2.08384, -2.16583, -0.129855, 0.469345, -0.542549, 0.336164, -2.08424, -2.16606, -0.128306, -0.000464854, -0.00292672, -0.00237315, -0.00163329, -0.00462674, -0.00578493
0.0380652, 1.69135, -1.22534, -1.53786, -0.900112, -1.19234, 1.22831, -1.30254, 0.002334, -0.00596383, -0.00202697, -0.00517795, -0.0398413, -0.000927917, 0.00327818, 0.170357, 57.4475, 27.4885, 6.47003, 1.76166, 3.43204, -0.120778, 0.000952069, -0.00163622, -9.0361e-05, 0.000503015, -0.00100966, 0.000149111, 0.00276184, 0.00189262, -0.00309878, -0.0225909, 0.0275772, -0.0146069, 0.471004, -0.543416, 0.335872, -2.08384, -2.16583, -0.129852, 0.469339, -0.542557, 0.336158, -2.08426, -2.16605, -0.128254, -0.000494774, -0.00311453, -0.00252743, -0.00239813, -0.00544161, -0.00595877
0.0390652, 1.69136, -1.22535, -1.53786, -0.900117, -1.19238, 1.22831, -1.30253, 0.00408448, -0.00674338, -0.00233399, -0.00805378, -0.0391536, -0.000889915, 0.00319759, 0.21003, 57.5546, 27.5281, 6.5097, 1.74884, 3.43936, -0.140919, 0.000949569, -0.00163599, -8.60241e-05, 0.000523206, -0.00103671, 0.0001595, 0.000923489, 0.000189366, -0.00402446, -0.0240885, 0.0266331, -0.0104344, 0.471003, -0.543419, 0.33587, -2.08384, -2.16583, -0.129848, 0.469339, -0.542562, 0.336151, -2.08427, -2.16604, -0.128199, -0.000525695, -0.00330858, -0.00268698, -0.000827179, -0.00360863, -0.00679844
0.0400652, 1.69136, -1.22535, -1.53786, -0.900118, -1.19243, 1.22831, -1.30253, 0.00353834, -0.00385674, -0.00159698, -0.00732388, -0.0387649, -0.0013732, 0.00158536, 0.325081, 57.5189, 27.5281, 6.43433, 1.74335, 3.46042, -0.120778, 0.000946109, -0.00163945, -8.91274e-05, 0.000541608, -0.00107252, 0.000169508, 0.000603622, 0.000591452, -0.00184764, -0.0228861, 0.0288745, -0.00982461, 0.471003, -0.543422, 0.335867, -2.08384, -2.16583, -0.129843, 0.469335, -0.542569, 0.336151, -2.08429, -2.16604, -0.128137, -0.000557617, -0.00350887, -0.00285182, -0.00119347, -0.00384462, -0.00475205
0.0410652, 1.69136, -1.22535, -1.53786, -0.900117, -1.19247, 1.22831, -1.30254, 0.0013661, -0.00448168, -0.0010954, -0.00380849, -0.0433009, -0.000915486, -0.000963523, 0.400459, 57.5943, 27.5281, 6.35895, 1.74335, 3.46042, -0.0621838, 0.000940508, -0.00164234, -8.85638e-05, 0.000557051, -0.00110615, 0.000180244, 0.00328097, 0.00288714, -0.00125507, -0.0220763, 0.0318361, -0.0140347, 0.471002, -0.543426, 0.335864, -2.08384, -2.16583, -0.129839, 0.469332, -0.542578, 0.336147, -2.08431, -2.16604, -0.12808, -0.000590537, -0.00371538, -0.00302192, -0.00340199, -0.00687943, -0.00468328
0.0420652, 1.69137, -1.22536, -1.53785, -0.900121, -1.19252, 1.22832, -1.30254, 0.0035499, -0.00653192, 0.00184513, -0.00222063, -0.0467538, -0.000101713, -0.000767424, 0.436165, 57.7411, 27.417, 6.32324, 1.74335, 3.44668, -0.0557752, 0.000939296, -0.00164068, -8.71108e-05, 0.00056974, -0.00113519, 0.000183042, 0.00289636, 0.00166548, -0.0010966, -0.0200248, 0.0328153, -0.013446, 0.471002, -0.543429, 0.335861, -2.08384, -2.16583, -0.129834, 0.469333, -0.542583, 0.336143, -2.08432, -2.16605, -0.128031, -0.000624453, -0.00392809, -0.0031973, -0.00222386, -0.00668684, -0.00467933
0.0430652, 1.69138, -1.22537, -1.53786, -0.900117, -1.19257, 1.22832, -1.30253, 0.00211334, -0.00527268, -0.000457643, -0.00237626, -0.0445642, 0.00101725, 0.00103066, 0.475838, 57.7768, 27.4885, 6.20819, 1.74884, 3.41739, -0.0951428, 0.000934105, -0.00164201, -8.55623e-05, 0.000590976, -0.001174, 0.000201931, 0.00328811, 0.00237462, -0.000875165, -0.0196524, 0.0330075, -0.0172062, 0.471001, -0.543433, 0.335858, -2.08384, -2.16582, -0.129829, 0.469331, -0.542591, 0.336137, -2.08434, -2.16604, -0.127961, -0.000659358, -0.00414696, -0.00337792, -0.00294498, -0.00735556, -0.00468068
0.0440652, 1.69138, -1.22537, -1.53786, -0.900118, -1.19263, 1.22833, -1.30253, 0.00385106, -0.00357725, -0.000318065, -0.0013063, -0.0535078, 0.000678158, 0.000750265, 0.511544, 57.7768, 27.4885, 6.17248, 1.77997, 3.41739, -0.0951428, 0.00093061, -0.00164184, -8.98498e-05, 0.000608397, -0.00122605, 0.000214905, 0.00412804, 0.00267497, 0.000350489, -0.0234639, 0.0418616, -0.0194057, 0.471, -0.543437, 0.335855, -2.08383, -2.16582, -0.129823, 0.469331, -0.5426, 0.336138, -2.08437, -2.16605, -0.127882, -0.000695248, -0.00437195, -0.00356376, -0.00320652, -0.00861068, -0.00377756
0.0450652, 1.69139, -1.22538, -1.53786, -0.900113, -1.19269, 1.22833, -1.30252, 0.00515057, -0.00502989, -0.00198501, 0.00130957, -0.0542651, 0.000180831, 0.00125962, 0.551216, 57.8879, 27.5638, 6.0614, 1.78638, 3.42471, -0.114369, 0.000923967, -0.00164361, -8.53218e-05, 0.000632804, -0.00126526, 0.000234788, 0.0046542, 0.0029326, -0.000686952, -0.0246351, 0.0407667, -0.0222539, 0.471, -0.543442, 0.335851, -2.08383, -2.16582, -0.129818, 0.469328, -0.54261, 0.336129, -2.0844, -2.16604, -0.127808, -0.000732114, -0.004603, -0.00375481, -0.00351937, -0.00921205, -0.00506685
0.0460652, 1.6914, -1.22537, -1.53786, -0.900119, -1.19275, 1.22833, -1.30253, 0.00153486, -0.00255299, -0.000495417, -0.0012037, -0.0543866, -0.000150718, -0.0010575, 0.6623, 57.8522, 27.5281, 6.13678, 1.77997, 3.43204, -0.0621838, 0.000920929, -0.00164477, -9.06885e-05, 0.000655659, -0.00132257, 0.000238655, 0.00469398, 0.0042161, 0.00126681, -0.0239577, 0.0432494, -0.0209853, 0.470999, -0.543446, 0.335848, -2.08383, -2.16582, -0.129812, 0.469327, -0.542618, 0.33613, -2.08442, -2.16606, -0.127718, -0.000769946, -0.00484006, -0.003951, -0.00476699, -0.00984158, -0.00330127
0.0470652, 1.69141, -1.22537, -1.53786, -0.900115, -1.19281, 1.22834, -1.30253, 0.00445076, -0.00172821, -0.00117097, 0.000725639, -0.0552692, -0.000100482, -0.0016617, 0.6623, 57.8522, 27.5638, 6.0614, 1.78638, 3.43204, -0.0356336, 0.000917282, -0.00164426, -9.24111e-05, 0.000676807, -0.00137177, 0.000251568, 0.00394346, 0.00319251, 0.00179429, -0.0242234, 0.0448471, -0.0201446, 0.470998, -0.543451, 0.335844, -2.08383, -2.16582, -0.129805, 0.469327, -0.542627, 0.336127, -2.08445, -2.16606, -0.127636, -0.000808735, -0.00508306, -0.00415231, -0.00379128, -0.00938294, -0.00289614
0.0480652, 1.69142, -1.22537, -1.53786, -0.900117, -1.19287, 1.22835, -1.30253, 0.00473175, -0.0011718, 0.00181371, -0.000527808, -0.0587548, 0.00501489, -0.000850458, 0.737679, 57.8522, 27.4528, 6.09711, 1.74335, 3.42471, -0.0420422, 0.000916295, -0.00164155, -9.9351e-05, 0.000689213, -0.00142826, 0.000258316, 0.00371696, 0.00165382, 0.003609, -0.019223, 0.050781, -0.0196471, 0.470997, -0.543456, 0.33584, -2.08383, -2.16582, -0.129798, 0.469329, -0.542634, 0.33613, -2.08448, -2.16608, -0.127558, -0.000848468, -0.00533191, -0.00435868, -0.00223678, -0.00962451, -0.00132191
0.0490652, 1.69143, -1.22537, -1.53785, -0.900113, -1.19294, 1.22836, -1.30253, 0.00797127, -0.00163116, 0.00820888, 0.000351084, -0.0619033, 0.009234, 0.000668719, 0.813057, 57.8879, 27.417, 6.0614, 1.71222, 3.40365, -0.0750012, 0.000910693, -0.00164259, -0.000103513, 0.000705077, -0.00148379, 0.000275516, 0.00202813, -0.00156109, 0.0061013, -0.0113864, 0.0546674, -0.0170372, 0.470997, -0.543461, 0.335835, -2.08383, -2.16581, -0.129791, 0.469327, -0.542645, 0.336129, -2.08451, -2.16608, -0.127475, -0.000889131, -0.00558652, -0.00457004, 0.000963096, -0.00846388, 0.00109266
0.0500652, 1.69144, -1.22537, -1.53786, -0.900117, -1.19301, 1.22836, -1.30252, 0.00643692, -0.0010985, 0.00431381, -0.00162838, -0.0639214, 0.00766296, 0.000931772, 0.928108, 57.8879, 27.4885, 6.13678, 1.66919, 3.38168, -0.0878186, 0.000906317, -0.00164367, -0.000105189, 0.000731608, -0.0015421, 0.000292234, 0.00283132, 2.06579e-05, 0.00487825, -0.0175861, 0.0565272, -0.01999, 0.470996, -0.543467, 0.335831, -2.08383, -2.16581, -0.129784, 0.469326, -0.542656, 0.336125, -2.08454, -2.16608, -0.127377, -0.00093071, -0.0058468, -0.00478633, -0.000673682, -0.00939358, -0.000408158
0.0510652, 1.69144, -1.22538, -1.53786, -0.900112, -1.19308, 1.22838, -1.30252, 0.00646174, -0.000740627, 0.00409483, 0.000603255, -0.0661285, 0.00562851, 0.000392253, 1.00349, 57.8879, 27.4528, 6.0614, 1.65729, 3.38168, -0.0814099, 0.000898018, -0.00164654, -0.000109401, 0.000748354, -0.00160431, 0.000314646, 0.00342304, 0.00112485, 0.00532097, -0.0193127, 0.0575774, -0.0225847, 0.470995, -0.543473, 0.335826, -2.08383, -2.16581, -0.129776, 0.469322, -0.54267, 0.336123, -2.08459, -2.16609, -0.127285, -0.000973186, -0.00611264, -0.00500747, -0.00178173, -0.0103569, -0.000250599
0.0520652, 1.69145, -1.22538, -1.53786, -0.900109, -1.19316, 1.22838, -1.30253, 0.00920605, -0.00133519, 0.0030177, 0.000346372, -0.0685238, 0.00803655, -0.000444252, 1.07887, 57.9236, 27.4528, 6.0614, 1.65088, 3.40365, -0.0621838, 0.000892444, -0.00164763, -0.00011259, 0.000769967, -0.00166532, 0.000329376, 0.00283294, -0.000512267, 0.00480702, -0.0196945, 0.0603911, -0.0204825, 0.470994, -0.543479, 0.335821, -2.08382, -2.16581, -0.129768, 0.469321, -0.542683, 0.33612, -2.08462, -2.16609, -0.12719, -0.00101654, -0.00638391, -0.00523338, -0.000229746, -0.00989951, -0.000941882
0.0530652, 1.69147, -1.22539, -1.53786, -0.900103, -1.19323, 1.22839, -1.30253, 0.0102479, -0.00349325, 0.00139244, 0.0019523, -0.073829, 0.00915316, -0.00174949, 1.07887, 58.0347, 27.4885, 5.98602, 1.62616, 3.44668, -0.0228162, 0.000887675, -0.00164711, -0.000111862, 0.000796952, -0.00172154, 0.000340771, 0.0042498, -0.000146723, 0.00342017, -0.0220108, 0.0632113, -0.0224451, 0.470993, -0.543485, 0.335816, -2.08382, -2.1658, -0.129759, 0.46932, -0.542693, 0.336114, -2.08465, -2.1661, -0.127093, -0.00106076, -0.00666049, -0.00546395, -0.000638552, -0.0113764, -0.00275069
0.0540652, 1.69147, -1.22538, -1.53786, -0.900103, -1.19331, 1.2284, -1.30253, 0.00538875, -0.00149711, 0.00109018, 0.00127015, -0.0788194, 0.0118221, -0.000925409, 1.18995, 57.999, 27.4885, 5.98602, 1.62067, 3.44668, -0.0292249, 0.000881925, -0.00164877, -0.000118244, 0.000819901, -0.00179326, 0.000359725, 0.00702919, 0.00254201, 0.00507512, -0.0214994, 0.07062, -0.0296994, 0.470992, -0.543492, 0.33581, -2.08382, -2.1658, -0.12975, 0.469318, -0.542707, 0.336114, -2.08469, -2.16611, -0.126984, -0.00110581, -0.00694224, -0.0056991, -0.00320959, -0.0147667, -0.00170168
0.0550652, 1.69149, -1.22538, -1.53786, -0.900106, -1.19339, 1.22841, -1.30253, 0.00654129, -0.00183592, 0.00168343, -1.19915e-05, -0.0781407, 0.0136275, 0.000606431, 1.22962, 58.0347, 27.4528, 6.02173, 1.62067, 3.44668, -0.0621838, 0.000879583, -0.00164659, -0.000123368, 0.000843332, -0.00186318, 0.000373336, 0.00578079, 0.00104126, 0.00520193, -0.0197195, 0.0708157, -0.0288312, 0.470991, -0.543499, 0.335805, -2.08382, -2.1658, -0.12974, 0.469319, -0.542717, 0.336113, -2.08473, -2.16612, -0.126876, -0.00115168, -0.007229, -0.00593872, -0.00179666, -0.0137791, -0.00166771
0.0560652, 1.6915, -1.22537, -1.53785, -0.900098, -1.19348, 1.22842, -1.30252, 0.00898289, 0.00304298, 0.00204857, 0.00484679, -0.0819407, 0.00977552, 0.000881006, 1.18995, 57.8522, 27.417, 5.95032, 1.61426, 3.46042, -0.0750012, 0.000877007, -0.00164537, -0.000136594, 0.000864043, -0.00194538, 0.000394025, 0.00562211, 0.00186397, 0.00860451, -0.021981, 0.0765908, -0.0325286, 0.47099, -0.543506, 0.335799, -2.08382, -2.16579, -0.129731, 0.46932, -0.542729, 0.336119, -2.08478, -2.16614, -0.126758, -0.00119834, -0.00752062, -0.00618267, -0.00254739, -0.0144714, 0.00149765
0.0570652, 1.69151, -1.22538, -1.53785, -0.900092, -1.19357, 1.22843, -1.30252, 0.0108977, -0.00057128, -0.00476506, 0.00524802, -0.0854033, 0.0162863, 0.00106356, 1.26533, 57.9633, 27.417, 5.87494, 1.62067, 3.47507, -0.0878186, 0.000867682, -0.00164808, -0.000138052, 0.000889289, -0.00201682, 0.000421864, 0.0076891, 0.00115777, 0.00480036, -0.0240986, 0.0795981, -0.035938, 0.470988, -0.543514, 0.335793, -2.08381, -2.16579, -0.12972, 0.469316, -0.542746, 0.336113, -2.08483, -2.16613, -0.126644, -0.00124576, -0.00781692, -0.00643084, -0.00195337, -0.016194, -0.00284891
0.0580652, 1.69153, -1.22538, -1.53785, -0.900087, -1.19366, 1.22844, -1.30252, 0.014224, 0.00054606, 0.00257163, 0.0046169, -0.0871766, 0.0120452, 0.000235445, 1.26533, 57.9236, 27.417, 5.83527, 1.60785, 3.48239, -0.0750012, 0.000862608, -0.00164777, -0.000145578, 0.00091585, -0.00209899, 0.000439933, 0.00396438, -0.00119583, 0.00762734, -0.0227147, 0.0798407, -0.0287649, 0.470987, -0.543521, 0.335786, -2.08381, -2.16579, -0.12971, 0.469316, -0.54276, 0.336114, -2.08487, -2.16615, -0.126519, -0.00129392, -0.00811772, -0.00668309, 0.000318344, -0.0131563, 0.000197015
0.0590652, 1.69154, -1.22538, -1.53786, -0.900087, -1.19376, 1.22845, -1.30253, 0.0154883, 0.000363209, 0.00104799, 0.00229256, -0.0888989, 0.0135648, -0.00224969, 1.305, 57.9236, 27.4528, 5.87494, 1.60785, 3.48971, -0.00999879, 0.000857345, -0.00164769, -0.000148144, 0.000950559, -0.00217857, 0.000450936, 0.00320899, -0.00229807, 0.00693557, -0.0246393, 0.0822568, -0.0247132, 0.470986, -0.54353, 0.335779, -2.08381, -2.16578, -0.129699, 0.469315, -0.542773, 0.336109, -2.0849, -2.16616, -0.126387, -0.00134278, -0.00842284, -0.00693927, 0.00131829, -0.0125641, -0.000658406
0.0600652, 1.69156, -1.22538, -1.53785, -0.900084, -1.19386, 1.22846, -1.30253, 0.0148415, 0.00191195, 0.00258848, 0.000800137, -0.095121, 0.0157269, -0.00177043, 1.305, 57.8522, 27.3774, 5.91064, 1.60785, 3.46774, -0.00267457, 0.000851887, -0.00164665, -0.000158913, 0.000972669, -0.00227225, 0.00046913, 0.0036968, -0.00225963, 0.00862483, -0.0245796, 0.0900735, -0.0263149, 0.470984, -0.543538, 0.335772, -2.08381, -2.16578, -0.129687, 0.469315, -0.542789, 0.336111, -2.08496, -2.16619, -0.126254, -0.00139231, -0.00873205, -0.00719924, 0.00130908, -0.0136164, 0.000675107
0.0610652, 1.69158, -1.22538, -1.53786, -0.900081, -1.19396, 1.22848, -1.30253, 0.0141502, -0.000396268, 0.000892577, 0.000613663, -0.0936439, 0.0166406, -0.000908543, 1.305, 57.9236, 27.417, 5.91064, 1.58313, 3.46042, -0.00999879, 0.000845493, -0.00164527, -0.000161529, 0.00100213, -0.00235611, 0.000490101, 0.00397655, -0.00204578, 0.0069742, -0.0245413, 0.08722, -0.0283961, 0.470983, -0.543547, 0.335765, -2.0838, -2.16578, -0.129675, 0.469316, -0.542804, 0.336106, -2.085, -2.1662, -0.126122, -0.00144249, -0.00904515, -0.00746282, 0.000995569, -0.0139604, -0.00125529
0.0620652, 1.69159, -1.22537, -1.53786, -0.900077, -1.19407, 1.22849, -1.30252, 0.014632, 0.00483958, 0.000666257, 0.000469287, -0.0985241, 0.0171613, 0.00109008, 1.38038, 57.7054, 27.417, 5.91064, 1.57764, 3.46042, -0.0557752, 0.000839093, -0.00164677, -0.000177567, 0.00102971, -0.00246476, 0.000520143, 0.00393446, -0.00181359, 0.0101926, -0.0260429, 0.0968345, -0.0320633, 0.470982, -0.543556, 0.335758, -2.0838, -2.16577, -0.129663, 0.469313, -0.542822, 0.336113, -2.08507, -2.16621, -0.125966, -0.00149327, -0.00936199, -0.00772991, 0.000828146, -0.0147404, 0.00166909
0.0630652, 1.6916, -1.22537, -1.53786, -0.900074, -1.19418, 1.2285, -1.30252, 0.010342, 0.00239091, 0.000497576, 0.000357992, -0.101148, 0.0172779, 0.00120171, 1.41608, 57.7411, 27.417, 5.91064, 1.55932, 3.46774, -0.0685925, 0.000831333, -0.00164778, -0.000183258, 0.00106074, -0.00255783, 0.000546004, 0.00624928, 0.00077289, 0.00913827, -0.0266872, 0.0965921, -0.037667, 0.47098, -0.543565, 0.33575, -2.0838, -2.16577, -0.12965, 0.469311, -0.54284, 0.33611, -2.08513, -2.16622, -0.125821, -0.00154466, -0.00968246, -0.00800043, -0.0017618, -0.0172898, 7.67396e-05
0.0640652, 1.69163, -1.22538, -1.53786, -0.900069, -1.19429, 1.22851, -1.30252, 0.0164442, -0.00100472, 0.00037177, 0.000272512, -0.107987, 0.0160779, 0.000801338, 1.305, 57.8522, 27.417, 5.91064, 1.53461, 3.51077, -0.0685925, 0.000827174, -0.00164441, -0.00018425, 0.00109633, -0.00264223, 0.000562755, 0.00473331, -0.00177806, 0.00688999, -0.032064, 0.0985254, -0.0339036, 0.470979, -0.543575, 0.335742, -2.0838, -2.16576, -0.129636, 0.469313, -0.542854, 0.336102, -2.08517, -2.16623, -0.125681, -0.00159663, -0.0100065, -0.00827433, 0.000598218, -0.0156668, -0.00225928
0.0650652, 1.69164, -1.22537, -1.53786, -0.900065, -1.19441, 1.22853, -1.30252, 0.0172238, 0.0019285, 0.00120591, -0.000720958, -0.112623, 0.0160766, -0.000686328, 1.34071, 57.7411, 27.3774, 5.95032, 1.50989, 3.53274, -0.0356336, 0.00082105, -0.00164539, -0.000196063, 0.00112892, -0.00274771, 0.000586651, 0.00419154, -0.00206527, 0.00896115, -0.0336141, 0.105409, -0.0324324, 0.470977, -0.543585, 0.335734, -2.08379, -2.16576, -0.129623, 0.469311, -0.542872, 0.336105, -2.08523, -2.16625, -0.125522, -0.00164918, -0.0103339, -0.00855153, 0.000888377, -0.0157664, -0.000416028
0.0660652, 1.69166, -1.22537, -1.53786, -0.900064, -1.19453, 1.22854, -1.30253, 0.0166765, 0.00128555, 0.00166169, -0.00129682, -0.112395, 0.0211179, -0.00167814, 1.305, 57.7411, 27.3417, 5.98602, 1.49707, 3.54648, -0.00267457, 0.000815441, -0.00164408, -0.000202634, 0.00116405, -0.00284899, 0.00060151, 0.0043402, -0.00298447, 0.00936855, -0.0287416, 0.107189, -0.0316146, 0.470975, -0.543595, 0.335725, -2.08379, -2.16576, -0.129608, 0.469312, -0.542889, 0.336102, -2.08527, -2.16627, -0.125364, -0.00170228, -0.0106648, -0.00883197, 0.00177347, -0.016269, -0.00034517
0.0670652, 1.69168, -1.22537, -1.53785, -0.900055, -1.19465, 1.22855, -1.30252, 0.0162546, 0.00262019, 0.00288793, 0.00312766, -0.112836, 0.0206976, -0.000610051, 1.26533, 57.6657, 27.2663, 5.95032, 1.49707, 3.54648, -0.0164075, 0.000808974, -0.00164389, -0.000214954, 0.00119255, -0.00295691, 0.000631482, 0.00512632, -0.00188033, 0.0114197, -0.0257256, 0.108298, -0.0370151, 0.470974, -0.543606, 0.335716, -2.08379, -2.16575, -0.129594, 0.469311, -0.542908, 0.336104, -2.08534, -2.16628, -0.125205, -0.00175593, -0.0109989, -0.0091156, 0.000719789, -0.0177399, 0.00130809
0.0680652, 1.6917, -1.22537, -1.53785, -0.90005, -1.19477, 1.22857, -1.30252, 0.0158031, 0.00174673, 0.00277317, 0.00473087, -0.117496, 0.0201133, 0.00030544, 1.22962, 57.6657, 27.2306, 5.98602, 1.48517, 3.5538, -0.0356336, 0.000802504, -0.00164379, -0.000223883, 0.00122459, -0.00306103, 0.000656464, 0.00639439, -0.000690587, 0.0113, -0.0275062, 0.11092, -0.0418496, 0.470972, -0.543617, 0.335707, -2.08378, -2.16575, -0.129578, 0.46931, -0.542926, 0.336103, -2.0854, -2.1663, -0.125046, -0.0018101, -0.0113362, -0.00940234, -0.000481513, -0.0193593, 0.000742554
0.0690652, 1.69172, -1.22537, -1.53785, -0.900043, -1.1949, 1.22858, -1.30252, 0.0162546, -0.000443964, 0.00185829, 0.0067747, -0.116447, 0.0146314, 0.000949659, 1.15424, 57.5943, 27.2306, 5.98602, 1.50348, 3.56845, -0.0557752, 0.000795503, -0.0016442, -0.00023456, 0.00126352, -0.00317609, 0.000686067, 0.00604263, 0.000459235, 0.0097038, -0.0316223, 0.105174, -0.0443642, 0.47097, -0.543628, 0.335698, -2.08378, -2.16574, -0.129563, 0.469308, -0.542946, 0.336103, -2.08547, -2.16631, -0.124867, -0.00186479, -0.0116765, -0.00969213, -0.00175498, -0.0191539, -0.00103387
0.0700652, 1.69174, -1.22536, -1.53785, -0.900036, -1.19503, 1.22859, -1.30252, 0.0158853, -0.00185784, 0.00124599, 0.00429753, -0.115738, 0.0160705, 0.000633142, 1.11457, 57.5189, 27.2306, 6.02173, 1.50348, 3.56112, -0.0557752, 0.00078961, -0.0016434, -0.000245075, 0.00129721, -0.00328723, 0.000714668, 0.00536186, -0.000209058, 0.00869974, -0.0315716, 0.104265, -0.0427475, 0.470968, -0.54364, 0.335688, -2.08378, -2.16574, -0.129546, 0.469308, -0.542965, 0.336103, -2.08553, -2.16633, -0.124698, -0.00191999, -0.0120199, -0.00998491, -0.00120345, -0.0186433, -0.00223276
0.0710652, 1.69177, -1.22536, -1.53785, -0.900032, -1.19516, 1.22861, -1.30252, 0.0180973, -0.000862617, 0.00259924, 0.00239921, -0.119222, 0.0157439, -0.00178193, 0.963814, 57.4832, 27.1552, 6.0614, 1.50348, 3.58951, 0.00373412, 0.000785603, -0.00164077, -0.00025436, 0.00133663, -0.00340044, 0.000730055, 0.00370972, -0.00170349, 0.00960277, -0.0332072, 0.108217, -0.0375051, 0.470966, -0.543652, 0.335678, -2.08377, -2.16573, -0.12953, 0.469309, -0.542983, 0.336101, -2.08558, -2.16635, -0.124521, -0.00197567, -0.0123662, -0.0102806, 0.000207276, -0.0174363, -0.0014259
0.0720652, 1.69179, -1.22536, -1.53784, -0.900034, -1.19529, 1.22861, -1.30252, 0.0177588, -8.43151e-05, 0.00517051, 0.00166645, -0.121324, 0.0113843, -0.00118793, 0.888436, 57.4475, 27.0084, 6.20819, 1.47876, 3.60415, 0.00373412, 0.000784414, -0.00163716, -0.00026447, 0.00137426, -0.00351027, 0.000745217, 0.00260637, -0.00114169, 0.0107511, -0.0357033, 0.108569, -0.0377711, 0.470964, -0.543664, 0.335668, -2.08377, -2.16572, -0.129512, 0.469311, -0.542998, 0.3361, -2.08563, -2.16638, -0.124349, -0.00203183, -0.0127153, -0.0105792, -0.000407465, -0.0168957, -0.000402359
0.0730652, 1.69181, -1.22536, -1.53785, -0.90002, -1.19542, 1.22863, -1.30252, 0.0186623, 0.000613469, -0.000370027, 0.00246901, -0.123926, 0.0125304, -4.59535e-05, 0.888436, 57.4078, 27.0441, 6.17248, 1.47876, 3.62521, -0.0164075, 0.000773498, -0.00164252, -0.000272963, 0.001413, -0.00361969, 0.000785037, 0.00377301, -0.000460043, 0.0096151, -0.0402072, 0.112405, -0.0427634, 0.470962, -0.543677, 0.335657, -2.08377, -2.16572, -0.129495, 0.469304, -0.543023, 0.336097, -2.08571, -2.16638, -0.124173, -0.00208844, -0.0130671, -0.0108805, -0.00114437, -0.0182524, -0.00198566
0.0740652, 1.69183, -1.22536, -1.53785, -0.900017, -1.19556, 1.22864, -1.30252, 0.0202159, 0.00281368, -0.000493164, 0.00264422, -0.121449, 0.0100545, 0.0016648, 0.85273, 57.2968, 27.0441, 6.28357, 1.47876, 3.61148, -0.0621838, 0.000768002, -0.00164289, -0.000283847, 0.00145615, -0.00374024, 0.000819429, 0.00180805, -0.00111923, 0.0108388, -0.0410221, 0.111513, -0.0428632, 0.47096, -0.54369, 0.335646, -2.08376, -2.16571, -0.129476, 0.469302, -0.543043, 0.336096, -2.08578, -2.16639, -0.123981, -0.00214551, -0.0134215, -0.0111846, -0.000568615, -0.0168282, -0.000796722
0.0750652, 1.69185, -1.22536, -1.53785, -0.90001, -1.19569, 1.22865, -1.30252, 0.0222947, 0.0010719, 0.000321582, 0.00461716, -0.123321, 0.00732586, 0.000601247, 0.777352, 57.1896, 27.0084, 6.32324, 1.45404, 3.6188, -0.0484509, 0.000763704, -0.00164213, -0.000295716, 0.00149112, -0.00385416, 0.000844709, 0.0011545, -0.00137212, 0.0102829, -0.0428219, 0.109926, -0.0421874, 0.470958, -0.543704, 0.335635, -2.08376, -2.16571, -0.129457, 0.469302, -0.543062, 0.336096, -2.08584, -2.1664, -0.123805, -0.00220301, -0.0137786, -0.0114914, -0.000416988, -0.0164441, -0.00155874
0.0760652, 1.69187, -1.22536, -1.53784, -0.900009, -1.19583, 1.22866, -1.30252, 0.0237648, 0.00210516, 0.00360222, 0.00347642, -0.126284, 0.00531717, -7.38805e-05, 0.701973, 57.1143, 26.8577, 6.47003, 1.46686, 3.62521, -0.0356336, 0.000763606, -0.00163848, -0.000308645, 0.00152511, -0.00396656, 0.000860096, -0.000642068, -0.00237201, 0.0118984, -0.0434936, 0.112455, -0.0390118, 0.470956, -0.543717, 0.335624, -2.08375, -2.1657, -0.129438, 0.469303, -0.543078, 0.336097, -2.08589, -2.16643, -0.123632, -0.00226092, -0.014138, -0.0118008, 0.000518532, -0.0152375, -2.47096e-05
0.0770652, 1.6919, -1.22535, -1.53785, -0.899993, -1.19596, 1.22867, -1.30252, 0.0250299, 0.000555676, -0.00181142, 0.00807065, -0.127042, 0.00350521, -0.00221939, 0.626595, 57.0032, 26.8934, 6.39465, 1.45404, 3.63986, 0.0229602, 0.000756504, -0.00164098, -0.000318533, 0.00156826, -0.00408046, 0.000890352, 0.000991445, -0.000776359, 0.00974024, -0.0480382, 0.110749, -0.0429844, 0.470954, -0.543731, 0.335612, -2.08375, -2.16569, -0.129418, 0.469299, -0.543101, 0.336094, -2.08595, -2.16644, -0.123445, -0.00231925, -0.0144999, -0.0121127, -0.00115351, -0.0169453, -0.00267246
0.0780652, 1.69192, -1.22535, -1.53785, -0.899991, -1.19609, 1.22868, -1.30252, 0.0258396, -0.00159437, 0.000112028, 0.00669995, -0.127788, 0.00217149, 0.000215833, 0.551216, 56.9318, 26.822, 6.5097, 1.43573, 3.65451, -0.0228162, 0.000754944, -0.00163968, -0.00032803, 0.00160915, -0.00418993, 0.000917026, -0.000367185, -0.00165128, 0.00906846, -0.0485416, 0.10872, -0.0432272, 0.470951, -0.543746, 0.3356, -2.08374, -2.16569, -0.129398, 0.469299, -0.543118, 0.336091, -2.08601, -2.16645, -0.123266, -0.00237796, -0.014864, -0.0124272, -0.000411303, -0.015829, -0.00346617
0.0790652, 1.69194, -1.22536, -1.53785, -0.899985, -1.19623, 1.22868, -1.30252, 0.0256718, -0.000753516, -0.00224726, 0.00687193, -0.132494, 0.00122195, 0.00109333, 0.511544, 56.8921, 26.7823, 6.58508, 1.40552, 3.66824, -0.0484509, 0.000751474, -0.00164049, -0.000336568, 0.00165569, -0.00430105, 0.000947832, 0.00059324, -0.000447648, 0.0089437, -0.053167, 0.113215, -0.047676, 0.470949, -0.543761, 0.335587, -2.08374, -2.16568, -0.129377, 0.469296, -0.543138, 0.336086, -2.08607, -2.16646, -0.123077, -0.00243706, -0.0152304, -0.012744, -0.00164258, -0.0171735, -0.0040185
0.0800652, 1.69197, -1.22535, -1.53785, -0.899977, -1.19637, 1.22869, -1.30251, 0.0309223, 0.000971084, -0.00110918, 0.00790832, -0.131462, 0.00102682, 0.00147487, 0.360787, 56.6739, 26.7466, 6.62079, 1.37439, 3.66824, -0.0685925, 0.000750714, -0.0016384, -0.000352571, 0.0016977, -0.00442646, 0.000974632, -0.0024687, -0.00347761, 0.0104758, -0.0517488, 0.114132, -0.0434468, 0.470946, -0.543776, 0.335575, -2.08373, -2.16567, -0.129355, 0.469296, -0.543156, 0.336089, -2.08613, -2.16648, -0.122879, -0.00249652, -0.0155988, -0.0130633, 0.0012707, -0.0146307, -0.00244248
0.0810652, 1.692, -1.22535, -1.53785, -0.89997, -1.19651, 1.2287, -1.30252, 0.0293594, -0.000799695, -0.00247761, 0.00448833, -0.131845, 0.00111496, 0.000983249, 0.325081, 56.7096, 26.6712, 6.69617, 1.37439, 3.66092, -0.0685925, 0.000748046, -0.00163736, -0.00036028, 0.0017412, -0.00453785, 0.000997017, -0.00266224, -0.00319565, 0.00883319, -0.0543013, 0.113216, -0.0427891, 0.470944, -0.543792, 0.335562, -2.08373, -2.16567, -0.129333, 0.469295, -0.543176, 0.336083, -2.08619, -2.16649, -0.122693, -0.00255634, -0.0159693, -0.0133848, 0.000862599, -0.014569, -0.0043474
0.0820652, 1.69202, -1.22535, -1.53785, -0.899962, -1.19666, 1.2287, -1.30252, 0.0262504, 0.00244164, -0.000403396, 0.00916942, -0.135413, 0.00580627, -0.000802561, 0.245735, 56.5628, 26.5958, 6.73187, 1.34967, 3.65451, -0.0292249, 0.000746551, -0.00163658, -0.000373756, 0.00178391, -0.00465833, 0.0010211, 0.000138753, -0.00122605, 0.0129707, -0.0468236, 0.12118, -0.0489633, 0.470941, -0.543808, 0.335548, -2.08372, -2.16566, -0.129311, 0.469294, -0.543195, 0.336083, -2.08625, -2.16651, -0.122498, -0.0026165, -0.0163418, -0.0137086, -0.000913311, -0.0184237, -0.000960036
0.0830652, 1.69205, -1.22535, -1.53785, -0.899953, -1.19681, 1.22871, -1.30252, 0.02867, 0.00388204, -0.00214765, 0.00939793, -0.138804, 0.00462382, -0.00223046, 0.0949785, 56.4517, 26.5244, 6.77154, 1.32587, 3.64718, 0.0165515, 0.000745414, -0.00163462, -0.000385679, 0.00183072, -0.00478097, 0.00104268, -0.000511927, -0.00166699, 0.0132758, -0.0508125, 0.125124, -0.0478941, 0.470939, -0.543824, 0.335534, -2.08372, -2.16565, -0.129287, 0.469294, -0.543214, 0.336081, -2.0863, -2.16653, -0.122296, -0.00267698, -0.0167161, -0.0140346, -0.000545279, -0.0181844, -0.000897319
0.0840652, 1.69208, -1.22535, -1.53785, -0.899941, -1.19696, 1.22872, -1.30252, 0.0285886, 0.00409314, 0.0015415, 0.0105382, -0.146353, 0.00371509, -0.00148697, 0.0196001, 56.3763, 26.3736, 6.77154, 1.31305, 3.63986, 0.0165515, 0.000741101, -0.00163483, -0.000398449, 0.0018727, -0.00490693, 0.00107565, 5.11558e-05, -0.00105789, 0.0150697, -0.051027, 0.130873, -0.0510339, 0.470936, -0.543841, 0.33552, -2.08371, -2.16564, -0.129264, 0.469291, -0.543237, 0.336079, -2.08637, -2.16654, -0.122094, -0.00273778, -0.0170921, -0.0143627, -0.00112845, -0.0194172, 0.000477224
0.0850652, 1.69211, -1.22535, -1.53785, -0.899931, -1.19711, 1.22873, -1.30252, 0.0283117, 0.00420559, -0.000222461, 0.0104118, -0.146777, 0.00329022, 0.000466747, -0.0557783, 56.3049, 26.4094, 6.80725, 1.28833, 3.62521, -0.0228162, 0.000736561, -0.00163576, -0.000406224, 0.00192388, -0.00502842, 0.00111396, 0.000110922, -0.000558369, 0.0147465, -0.0528486, 0.131396, -0.0546939, 0.470933, -0.543858, 0.335506, -2.08371, -2.16563, -0.129239, 0.469288, -0.54326, 0.336071, -2.08644, -2.16654, -0.121886, -0.00279888, -0.0174699, -0.0146928, -0.00169782, -0.0198246, -0.000166106
0.0860652, 1.69214, -1.22536, -1.53786, -0.89992, -1.19727, 1.22873, -1.30252, 0.0290157, 0.00265853, -0.00177273, 0.0103146, -0.152672, 0.00263406, 0.00176923, -0.166862, 56.3049, 26.3379, 6.84296, 1.28284, 3.6188, -0.0621838, 0.000733721, -0.00163466, -0.000412976, 0.00197342, -0.00514694, 0.00114781, 0.000914126, -1.25185e-05, 0.0134637, -0.0575046, 0.134647, -0.0584676, 0.470931, -0.543875, 0.335491, -2.0837, -2.16563, -0.129214, 0.469287, -0.543281, 0.336063, -2.08651, -2.16654, -0.121682, -0.00286026, -0.0178492, -0.015025, -0.00232235, -0.0208219, -0.00187275
0.0870652, 1.69217, -1.22536, -1.53785, -0.899912, -1.19743, 1.22874, -1.30251, 0.028757, 0.00206084, 0.00102741, 0.0133832, -0.150725, 0.00272225, 0.00141684, -0.242241, 56.1581, 26.2229, 6.88263, 1.2453, 3.59683, -0.0685925, 0.000732173, -0.00163383, -0.000426724, 0.00201915, -0.00527654, 0.00117734, 0.000608568, 1.5483e-05, 0.0148256, -0.0523324, 0.132192, -0.0596095, 0.470928, -0.543893, 0.335476, -2.0837, -2.16562, -0.129189, 0.469285, -0.543303, 0.336061, -2.08657, -2.16656, -0.121471, -0.00292192, -0.0182301, -0.0153591, -0.00237275, -0.0211116, -0.000813916
0.0880652, 1.6922, -1.22536, -1.53786, -0.899898, -1.19759, 1.22874, -1.30252, 0.0285941, 0.00456567, 0.00115864, 0.0166055, -0.150742, 0.00220041, -0.00149684, -0.317619, 56.0074, 26.1872, 6.88263, 1.2334, 3.58951, -0.00267457, 0.000729305, -0.00163518, -0.000441245, 0.00207071, -0.0054091, 0.00120534, 0.000889665, 0.00088419, 0.0170342, -0.0506238, 0.134296, -0.0602364, 0.470925, -0.543911, 0.335461, -2.08369, -2.16561, -0.129163, 0.469282, -0.543326, 0.33606, -2.08664, -2.16658, -0.12125, -0.00298385, -0.0186124, -0.0156951, -0.00321099, -0.0221466, 0.00101399
0.0890652, 1.69222, -1.22536, -1.53785, -0.89989, -1.19775, 1.22875, -1.30252, 0.0255145, 0.00529841, 0.00309974, 0.0174055, -0.149254, 0.0020613, -0.00123525, -0.392998, 55.9003, 26.0761, 6.95801, 1.20868, 3.57577, 0.00373412, 0.000728169, -0.00163443, -0.00045301, 0.00211886, -0.00553597, 0.00123353, 0.00128055, 0.00225719, 0.0186914, -0.0471403, 0.133604, -0.0633928, 0.470922, -0.54393, 0.335445, -2.08368, -2.1656, -0.129136, 0.46928, -0.543348, 0.336056, -2.0867, -2.16659, -0.121038, -0.00304602, -0.0189961, -0.016033, -0.00456932, -0.0232271, 0.00229403
0.0900652, 1.69226, -1.22537, -1.53786, -0.89988, -1.1979, 1.22875, -1.30252, 0.0298895, 0.00510724, -0.00211406, 0.0180538, -0.152683, 0.00170977, 0.000634559, -0.508049, 55.8249, 26.1118, 7.02942, 1.16565, 3.56845, -0.0356336, 0.000726995, -0.00163329, -0.000461719, 0.00217458, -0.0056626, 0.00126874, 0.000846097, 0.0012424, 0.0168522, -0.0536678, 0.136637, -0.0657318, 0.470919, -0.543949, 0.335429, -2.08368, -2.16559, -0.129109, 0.469279, -0.543369, 0.336048, -2.08676, -2.16659, -0.120817, -0.00310843, -0.019381, -0.0163726, -0.00370084, -0.0228587, 0.000174595
0.0910652, 1.69229, -1.22537, -1.53786, -0.899873, -1.19807, 1.22875, -1.30252, 0.0293382, 0.00187009, -0.00416272, 0.0142952, -0.157552, 0.00118807, 0.00140638, -0.583427, 55.7495, 26.0761, 7.14447, 1.17206, 3.56845, -0.0621838, 0.000725726, -0.00163402, -0.000472117, 0.00223025, -0.00579045, 0.00130308, 0.00119071, 0.00158741, 0.0139778, -0.0598397, 0.137765, -0.0668898, 0.470916, -0.543968, 0.335413, -2.08367, -2.16558, -0.129081, 0.469275, -0.543391, 0.336042, -2.08683, -2.1666, -0.120593, -0.00317106, -0.0197671, -0.0167139, -0.00420088, -0.0231571, -0.00304779
0.0920652, 1.69231, -1.22538, -1.53786, -0.899859, -1.19822, 1.22876, -1.30252, 0.028962, -0.00132212, 0.00101127, 0.0135173, -0.159691, 0.00137075, 0.000428963, -0.658806, 55.7138, 25.8896, 7.18018, 1.14093, 3.5538, -0.0484509, 0.000726134, -0.00163325, -0.000482522, 0.00226984, -0.00590143, 0.00133047, 0.000361814, 0.000796042, 0.0141478, -0.0564228, 0.136316, -0.0643576, 0.470912, -0.543988, 0.335396, -2.08366, -2.16557, -0.129052, 0.469273, -0.543412, 0.336035, -2.08689, -2.16661, -0.120405, -0.00323391, -0.0201544, -0.0170569, -0.00349641, -0.0227197, -0.00311864
0.0930652, 1.69234, -1.22538, -1.53786, -0.899841, -1.19838, 1.22876, -1.30252, 0.0286713, 0.000737618, -0.00102084, 0.0169198, -0.157174, 0.00172085, -0.0016468, -0.734184, 55.4916, 25.8143, 7.18018, 1.12262, 3.53274, 0.00373412, 0.000725375, -0.00163376, -0.000500482, 0.00231093, -0.0060321, 0.00136081, 0.000828383, 0.00170331, 0.0154416, -0.0545893, 0.136466, -0.0663029, 0.470909, -0.544008, 0.335379, -2.08366, -2.16556, -0.129023, 0.46927, -0.543436, 0.336036, -2.08696, -2.16662, -0.120195, -0.00329695, -0.0205426, -0.0174015, -0.00440102, -0.0238046, -0.00223009
0.0940652, 1.69238, -1.22538, -1.53786, -0.899827, -1.19853, 1.22876, -1.30252, 0.032214, -0.00163844, -0.00125639, 0.0153069, -0.155793, 0.00171012, -0.000589243, -0.845268, 55.4202, 25.8143, 7.21588, 1.12262, 3.5181, -0.00999879, 0.000726261, -0.00163234, -0.000509582, 0.00235991, -0.00614939, 0.00139298, -0.00165646, -0.000873424, 0.0138385, -0.0553469, 0.133413, -0.0626385, 0.470906, -0.544029, 0.335362, -2.08365, -2.16555, -0.128993, 0.469269, -0.543457, 0.336028, -2.08702, -2.16662, -0.119988, -0.00336018, -0.0209318, -0.0177477, -0.00203812, -0.0213886, -0.00385322
0.0950652, 1.69241, -1.22539, -1.53786, -0.899814, -1.19869, 1.22876, -1.30252, 0.0350742, -0.00629609, 0.00216421, 0.0162979, -0.153032, 0.0014266, 8.1889e-05, -0.960319, 55.3448, 25.6675, 7.29126, 1.10431, 3.51077, -0.0228162, 0.000729108, -0.00163032, -0.000521857, 0.00240242, -0.00626552, 0.00142151, -0.00391384, -0.00327399, 0.0125571, -0.0513558, 0.126329, -0.0592878, 0.470903, -0.54405, 0.335344, -2.08364, -2.16554, -0.128963, 0.469268, -0.543477, 0.336022, -2.08708, -2.16663, -0.119789, -0.00342359, -0.0213219, -0.0180953, 0.000168556, -0.0192547, -0.00519022
0.0960652, 1.69243, -1.2254, -1.53786, -0.8998, -1.19884, 1.22876, -1.30252, 0.0315024, -0.00665397, -0.00288428, 0.013965, -0.148068, 0.000962513, 0.0012753, -0.960319, 55.2734, 25.7032, 7.36664, 1.10431, 3.51077, -0.0557752, 0.000727778, -0.00163377, -0.00053051, 0.00245227, -0.00637815, 0.00146334, -0.00340101, -0.00145227, 0.0106669, -0.0541345, 0.122284, -0.0633078, 0.470899, -0.544071, 0.335326, -2.08363, -2.16553, -0.128932, 0.469261, -0.543501, 0.336013, -2.08714, -2.16662, -0.119584, -0.00348715, -0.0217127, -0.0184443, -0.00176532, -0.0199357, -0.00742903
0.0970652, 1.69247, -1.2254, -1.53786, -0.899784, -1.19899, 1.22876, -1.30252, 0.0362693, -0.00290223, -0.000666537, 0.0122024, -0.147676, 0.000378991, 0.000104212, -1.15075, 55.1624, 25.6278, 7.44202, 1.086, 3.5181, -0.0356336, 0.000733279, -0.00162928, -0.00054154, 0.00249904, -0.00649274, 0.00148549, -0.00743626, -0.00485234, 0.0134077, -0.0534366, 0.125761, -0.0553616, 0.470896, -0.544093, 0.335307, -2.08363, -2.16552, -0.1289, 0.469262, -0.543519, 0.336006, -2.08719, -2.16663, -0.119382, -0.00355087, -0.0221042, -0.0187947, 0.00152392, -0.0166256, -0.00455252
0.0980652, 1.6925, -1.22541, -1.53786, -0.899767, -1.19915, 1.22877, -1.30252, 0.0332108, -0.00317833, -0.0022961, 0.0119112, -0.148599, 0.000259098, -0.00210066, -1.18645, 55.0513, 25.5564, 7.47772, 1.086, 3.5181, 0.0229602, 0.000732965, -0.00163084, -0.000554542, 0.00254174, -0.00661314, 0.00151657, -0.00606876, -0.00285916, 0.0130729, -0.0547747, 0.126399, -0.0576112, 0.470892, -0.544115, 0.335289, -2.08362, -2.16551, -0.128868, 0.469258, -0.543543, 0.336, -2.08726, -2.16664, -0.119177, -0.00361472, -0.0224964, -0.0191465, -0.00049372, -0.0183978, -0.00538547
0.0990652, 1.69253, -1.22541, -1.53787, -0.899743, -1.1993, 1.22877, -1.30252, 0.0329021, 0.00129749, -0.00114969, 0.0156219, -0.156349, 0.000991362, 0.000769696, -1.30151, 54.8688, 25.5167, 7.47772, 1.0741, 3.49612, -0.0356336, 0.000734728, -0.00163019, -0.000570247, 0.00257959, -0.00673326, 0.00155945, -0.0043318, -0.00129764, 0.0170138, -0.0542181, 0.137336, -0.0667824, 0.470888, -0.544138, 0.335269, -2.08361, -2.1655, -0.128835, 0.469255, -0.543567, 0.335997, -2.08733, -2.16664, -0.118975, -0.00367869, -0.0228891, -0.0194995, -0.00190949, -0.021175, -0.00206816
0.100065, 1.69257, -1.22542, -1.53787, -0.899728, -1.19946, 1.22877, -1.30252, 0.0287835, -0.00255932, 0.000586544, 0.0165399, -0.155263, 0.000901888, 3.84128e-05, -1.37688, 54.722, 25.4413, 7.5531, 1.086, 3.48971, -0.0228162, 0.000739875, -0.00162719, -0.000583473, 0.00262331, -0.00685137, 0.00158569, -0.00289097, 0.000671713, 0.0159861, -0.0512118, 0.132419, -0.0702617, 0.470885, -0.54416, 0.33525, -2.0836, -2.16549, -0.128801, 0.469255, -0.543586, 0.335991, -2.08739, -2.16665, -0.11877, -0.00374278, -0.0232822, -0.0198537, -0.00392645, -0.0229132, -0.00359959
0.101065, 1.6926, -1.22542, -1.53787, -0.899699, -1.19961, 1.22877, -1.30252, 0.0285233, -0.00300777, 0.00175379, 0.0207949, -0.158266, 0.000603974, 2.56086e-05, -1.45226, 54.4641, 25.3699, 7.47772, 1.06769, 3.48971, -0.0228162, 0.000742108, -0.00162853, -0.000603072, 0.00265722, -0.00696947, 0.00162647, -0.00159574, 0.00188565, 0.0170124, -0.0494991, 0.134004, -0.0752899, 0.470881, -0.544184, 0.33523, -2.08359, -2.16547, -0.128767, 0.46925, -0.54361, 0.335991, -2.08747, -2.16665, -0.118574, -0.00380697, -0.0236758, -0.020209, -0.00511846, -0.0247928, -0.00310476
0.102065, 1.69264, -1.22543, -1.53787, -0.899684, -1.19976, 1.22877, -1.30252, 0.032219, -0.00641735, -0.00223077, 0.0195251, -0.15729, 0.000167327, 0.000966508, -1.56335, 54.4641, 25.3699, 7.59277, 1.086, 3.49612, -0.0484509, 0.00074653, -0.0016259, -0.000608994, 0.0027072, -0.00707843, 0.00165808, -0.00313725, 6.15107e-05, 0.0134863, -0.0540243, 0.130284, -0.0735976, 0.470877, -0.544207, 0.33521, -2.08358, -2.16546, -0.128732, 0.469249, -0.543631, 0.335977, -2.08752, -2.16664, -0.11837, -0.00387125, -0.0240696, -0.0205654, -0.00354585, -0.023048, -0.00676048
0.103065, 1.69267, -1.22544, -1.53786, -0.899657, -1.19992, 1.22878, -1.30252, 0.0330584, -0.00678178, -0.00142586, 0.0244761, -0.155547, 0.00143551, 0.000915606, -1.60302, 54.3887, 25.2192, 7.59277, 1.07959, 3.46042, -0.0557752, 0.000748493, -0.00162465, -0.000623655, 0.00273139, -0.00718892, 0.00169584, -0.00283384, 5.64553e-05, 0.0146041, -0.0488868, 0.128842, -0.0766918, 0.470873, -0.544231, 0.335189, -2.08357, -2.16545, -0.128697, 0.469247, -0.543655, 0.335972, -2.08759, -2.16664, -0.118191, -0.00393561, -0.0244637, -0.0209229, -0.0035526, -0.0239132, -0.00606141
0.104065, 1.69267, -1.22544, -1.53786, -0.899657, -1.19992, 1.22878, -1.30252, 0.0330584, -0.00678178, -0.00142586, 0.0244761, -0.155547, 0.00143551, 0.000915606, -1.60302, 54.3887, 25.2192, 7.59277, 1.07959, 3.46042, -0.0557752, 0.000775749, -0.00162039, -0.000640661, 0.00270288, -0.00718479, 0.00169232, -0.00327625, -1.24458e-05, 0.0148999, -0.0485452, 0.129041, -0.077312, 0.470869, -0.544256, 0.335168, -2.08357, -2.16544, -0.128661, 0.469247, -0.543655, 0.335972, -2.08759, -2.16664, -0.118191, -0.00400003, -0.0248579, -0.0212814, -0.0035526, -0.0239132, -0.00606141
0.105065, 1.69274, -1.22546, -1.53787, -0.899613, -1.20022, 1.22878, -1.30252, 0.0363517, -0.0076209, -0.00320067, 0.0204615, -0.152753, 0.00152125, -0.00178581, -1.78948, 54.2419, 25.1835, 7.70386, 1.0741, 3.43204, 0.0165515, 0.000758312, -0.00161982, -0.000646215, 0.00281333, -0.00741264, 0.00175351, -0.00646429, -0.00286761, 0.0133606, -0.0508613, 0.126746, -0.0683574, 0.470865, -0.544281, 0.335147, -2.08356, -2.16543, -0.128624, 0.469245, -0.543698, 0.335953, -2.08771, -2.16665, -0.117794, -0.0040645, -0.0252522, -0.0216408, -0.000935873, -0.0208065, -0.00753537
0.106065, 1.69277, -1.22547, -1.53788, -0.899581, -1.20038, 1.22879, -1.30252, 0.0334149, -0.00982013, -0.00272415, 0.0229649, -0.151935, 0.00101481, 0.000504882, -1.82915, 54.1309, 25.1835, 7.66418, 1.06128, 3.43204, -0.0292249, 0.000759106, -0.00162108, -0.000661034, 0.00284645, -0.00752803, 0.00180406, -0.00496737, -0.000846819, 0.0129879, -0.0487107, 0.123486, -0.0758261, 0.470861, -0.544306, 0.335125, -2.08355, -2.16541, -0.128586, 0.46924, -0.543725, 0.335946, -2.08779, -2.16663, -0.117597, -0.00412902, -0.0256465, -0.022001, -0.00297858, -0.022704, -0.0084328
0.107065, 1.69281, -1.22549, -1.53787, -0.899557, -1.20053, 1.22879, -1.30252, 0.0340789, -0.0148746, 0.00210282, 0.0251434, -0.150712, 0.000677022, 9.92291e-05, -1.86486, 54.1666, 24.997, 7.73956, 1.03656, 3.43204, -0.0228162, 0.000764929, -0.00161883, -0.000673445, 0.00287251, -0.00762855, 0.00183497, -0.00586121, -0.00181897, 0.0122545, -0.0433676, 0.116994, -0.0744828, 0.470857, -0.544332, 0.335103, -2.08354, -2.1654, -0.128548, 0.469238, -0.543746, 0.335937, -2.08785, -2.16664, -0.117425, -0.00419356, -0.0260407, -0.0223621, -0.00213093, -0.0220631, -0.00940992
0.108065, 1.69285, -1.2255, -1.53787, -0.899528, -1.20068, 1.22879, -1.30252, 0.0336659, -0.010996, 0.0010698, 0.0255046, -0.154912, 0.00126551, 0.00128686, -1.97991, 54.0198, 24.997, 7.73956, 1.03107, 3.41006, -0.0557752, 0.000770075, -0.00161568, -0.000687893, 0.00290538, -0.00774387, 0.00187524, -0.00527815, -0.000952055, 0.0146071, -0.0447951, 0.124821, -0.0790077, 0.470853, -0.544358, 0.335081, -2.08353, -2.16539, -0.128509, 0.469238, -0.543769, 0.33593, -2.08792, -2.16663, -0.117228, -0.00425812, -0.0264347, -0.0227239, -0.00295269, -0.0234298, -0.00751209
0.109065, 1.69289, -1.22551, -1.53788, -0.899495, -1.20084, 1.22879, -1.30252, 0.0368921, -0.0123264, 0.000464142, 0.0288374, -0.154063, 0.000843947, -0.000837517, -2.13067, 53.9087, 24.997, 7.73956, 1.03656, 3.41006, -0.00999879, 0.000776421, -0.00161254, -0.000703778, 0.00293959, -0.00785834, 0.00190718, -0.00612634, -0.00202213, 0.0141669, -0.0439803, 0.12264, -0.0772329, 0.470849, -0.544384, 0.335058, -2.08352, -2.16537, -0.12847, 0.469237, -0.543792, 0.335924, -2.08799, -2.16663, -0.117031, -0.00432269, -0.0268285, -0.0230865, -0.0019947, -0.0228747, -0.00821134
0.110065, 1.69292, -1.22553, -1.53787, -0.899463, -1.20099, 1.2288, -1.30252, 0.0384607, -0.0159553, 0.00272109, 0.0303209, -0.152339, 0.000800194, -0.00106697, -2.13067, 53.9087, 24.8859, 7.77924, 1.00635, 3.40365, 0.00373412, 0.000778476, -0.00161362, -0.000716015, 0.00296264, -0.00795976, 0.00194912, -0.00729635, -0.00329032, 0.0132475, -0.0407361, 0.117572, -0.0756602, 0.470844, -0.544411, 0.335035, -2.08351, -2.16536, -0.12843, 0.469232, -0.543819, 0.335913, -2.08806, -2.16662, -0.116858, -0.00438725, -0.027222, -0.0234497, -0.000868171, -0.0219198, -0.00934079
0.111065, 1.69296, -1.22554, -1.53787, -0.89943, -1.20115, 1.2288, -1.30252, 0.0396579, -0.0128869, -0.000447137, 0.0323842, -0.156335, 0.00107615, -0.00118603, -2.24175, 53.7976, 24.8462, 7.77924, 1.00635, 3.38901, 0.0165515, 0.000784395, -0.00160967, -0.000731344, 0.00299041, -0.00807437, 0.00198481, -0.00647465, -0.0025512, 0.014494, -0.043717, 0.124313, -0.079727, 0.47084, -0.544438, 0.335012, -2.08349, -2.16534, -0.128389, 0.469232, -0.543842, 0.335906, -2.08813, -2.16663, -0.116666, -0.00445179, -0.0276151, -0.0238135, -0.00159471, -0.0233458, -0.00857817
0.112065, 1.69299, -1.22555, -1.53787, -0.899391, -1.20131, 1.22881, -1.30252, 0.0405882, -0.0124315, 0.000177961, 0.0349258, -0.154832, 0.00126008, 0.00137945, -2.24175, 53.7619, 24.8105, 7.73956, 0.999938, 3.37436, -0.0420422, 0.000785353, -0.00161076, -0.000745077, 0.00301387, -0.00818282, 0.00204062, -0.00703038, -0.00287477, 0.0156041, -0.0408438, 0.123606, -0.0834485, 0.470836, -0.544466, 0.334988, -2.08348, -2.16533, -0.128348, 0.469227, -0.543871, 0.335896, -2.08822, -2.1666, -0.116482, -0.00451631, -0.0280078, -0.0241779, -0.001314, -0.0233471, -0.00777053
0.113065, 1.69303, -1.22556, -1.53788, -0.899364, -1.20147, 1.22882, -1.30252, 0.0407726, -0.012721, 0.000684485, 0.0322495, -0.153034, 0.00111141, 0.00166562, -2.3211, 53.6151, 24.7748, 7.89032, 1.00635, 3.36703, -0.0621838, 0.000792956, -0.00160641, -0.000761686, 0.00304551, -0.00830382, 0.00207713, -0.00879514, -0.00391822, 0.015524, -0.0406472, 0.122211, -0.0809996, 0.470831, -0.544494, 0.334964, -2.08347, -2.16531, -0.128305, 0.469227, -0.543894, 0.335889, -2.08829, -2.1666, -0.116278, -0.00458078, -0.0283999, -0.0245428, -0.000401677, -0.0219418, -0.00797381
0.114065, 1.69307, -1.22559, -1.53788, -0.899318, -1.20164, 1.22882, -1.30252, 0.0387855, -0.018172, -0.00375639, 0.0390035, -0.1576, 0.000978363, -0.000585008, -2.3211, 53.6905, 24.8105, 7.81494, 1.01276, 3.36062, -0.0164075, 0.000790245, -0.00160952, -0.000769676, 0.00307705, -0.0084115, 0.00213031, -0.00402377, -0.000130656, 0.0120803, -0.0434057, 0.120282, -0.0908304, 0.470826, -0.544522, 0.334939, -2.08346, -2.1653, -0.128263, 0.46922, -0.543926, 0.335872, -2.08838, -2.16658, -0.116085, -0.00464521, -0.0287914, -0.0249081, -0.00420682, -0.0266697, -0.0123602
0.115065, 1.69311, -1.2256, -1.53788, -0.89928, -1.2018, 1.22883, -1.30252, 0.0421322, -0.0152135, -0.00208519, 0.0379473, -0.161639, 0.00588995, -0.00113599, -2.39648, 53.6151, 24.7748, 7.85065, 1.03656, 3.34598, 0.00373412, 0.000793911, -0.00160669, -0.00078521, 0.00310007, -0.00853001, 0.00217241, -0.0055857, -0.00299695, 0.0148443, -0.0399422, 0.129291, -0.0872921, 0.470822, -0.544551, 0.334914, -2.08345, -2.16528, -0.128219, 0.469218, -0.543954, 0.335863, -2.08846, -2.16658, -0.115891, -0.00470957, -0.0291822, -0.0252738, -0.00136055, -0.0258258, -0.00984478
0.116065, 1.69316, -1.22562, -1.53789, -0.899246, -1.20197, 1.22884, -1.30252, 0.0443588, -0.0170533, -0.00253745, 0.0364472, -0.163917, 0.009563, -0.000994686, -2.47185, 53.5794, 24.8105, 7.92602, 1.04297, 3.33133, 0.0101428, 0.000798686, -0.00160276, -0.00079674, 0.00313002, -0.00864652, 0.00221331, -0.00635794, -0.00502349, 0.0139156, -0.0390431, 0.131614, -0.0854968, 0.470817, -0.54458, 0.334889, -2.08344, -2.16527, -0.128175, 0.469218, -0.54398, 0.33585, -2.08853, -2.16657, -0.115691, -0.00477385, -0.0295723, -0.0256399, 0.000537305, -0.0252277, -0.0110721
0.117065, 1.69319, -1.22564, -1.53789, -0.899203, -1.20213, 1.22885, -1.30252, 0.0407592, -0.0224298, -0.00250272, 0.0403678, -0.165192, 0.0117319, 0.00126966, -2.43218, 53.5794, 24.6995, 7.92602, 1.05578, 3.33133, -0.0420422, 0.000799661, -0.00160396, -0.000811725, 0.00314394, -0.00875417, 0.00227146, -0.00305832, -0.00254407, 0.0119878, -0.035416, 0.128129, -0.0957014, 0.470812, -0.54461, 0.334863, -2.08342, -2.16525, -0.12813, 0.469212, -0.544011, 0.335839, -2.08863, -2.16655, -0.115515, -0.00483806, -0.0299616, -0.0260062, -0.00195727, -0.0286798, -0.0137755
0.118065, 1.69323, -1.22566, -1.53789, -0.899162, -1.20229, 1.22886, -1.30252, 0.0399337, -0.0215291, -0.00294388, 0.0421989, -0.165697, 0.00845328, 0.00159242, -2.47185, 53.504, 24.7352, 7.9657, 1.04938, 3.33865, -0.0621838, 0.000804095, -0.00160154, -0.000825524, 0.00316839, -0.00886723, 0.00231718, -0.00282369, -0.000982246, 0.0126771, -0.0374491, 0.127883, -0.0995146, 0.470808, -0.54464, 0.334837, -2.08341, -2.16524, -0.128084, 0.46921, -0.544038, 0.335828, -2.08871, -2.16654, -0.115322, -0.00490216, -0.0303499, -0.0263728, -0.00354648, -0.0294696, -0.0134487
0.119065, 1.69327, -1.22568, -1.53789, -0.899122, -1.20246, 1.22888, -1.30252, 0.0403279, -0.0235708, -0.00145751, 0.0428448, -0.161338, 0.0117714, 0.000552989, -2.54723, 53.5397, 24.6995, 8.03711, 1.03107, 3.31759, -0.0484509, 0.000808735, -0.00159613, -0.000836987, 0.00318661, -0.00898008, 0.00236046, -0.00387849, -0.00252463, 0.0126597, -0.0308021, 0.124014, -0.0970761, 0.470803, -0.54467, 0.334811, -2.0834, -2.16522, -0.128038, 0.469211, -0.544066, 0.335813, -2.08879, -2.16653, -0.115136, -0.00496616, -0.0307373, -0.0267396, -0.00210786, -0.0287497, -0.0137179
0.120065, 1.69331, -1.2257, -1.53789, -0.899078, -1.20262, 1.22888, -1.30252, 0.0424152, -0.0222713, -0.000291256, 0.0445732, -0.163322, 0.00796569, 0.0001313, -2.58294, 53.4683, 24.6598, 8.07678, 1.02466, 3.33865, -0.0420422, 0.000812381, -0.00159568, -0.000852858, 0.00320533, -0.00909163, 0.00241129, -0.00510011, -0.00263512, 0.0139444, -0.0330253, 0.125118, -0.0969212, 0.470798, -0.544701, 0.334784, -2.08339, -2.1652, -0.127991, 0.469207, -0.544095, 0.335803, -2.08887, -2.16652, -0.11495, -0.00503004, -0.0311236, -0.0271065, -0.00205611, -0.0281227, -0.0126306
0.121065, 1.69336, -1.22573, -1.5379, -0.899026, -1.20278, 1.2289, -1.30252, 0.0438915, -0.024766, -0.000379873, 0.0442238, -0.164404, 0.00652648, -0.00137053, -2.62261, 53.5397, 24.6598, 8.03711, 1.01825, 3.324, -0.00267457, 0.000812291, -0.00159457, -0.000862113, 0.00322048, -0.00919709, 0.00246431, -0.0059746, -0.00325621, 0.0125017, -0.0350924, 0.123131, -0.0946762, 0.470793, -0.544732, 0.334757, -2.08337, -2.16519, -0.127943, 0.469204, -0.544128, 0.335785, -2.08896, -2.1665, -0.114773, -0.0050938, -0.0315088, -0.0274735, -0.0015844, -0.0273973, -0.0143065
0.122065, 1.6934, -1.22575, -1.5379, -0.898972, -1.20294, 1.22891, -1.30252, 0.0442657, -0.0199493, 0.000442693, 0.0470111, -0.164467, 0.00951453, -0.00186312, -2.62261, 53.4683, 24.6241, 8.0014, 0.981627, 3.324, 0.0229602, 0.000814862, -0.00159346, -0.000880138, 0.00322781, -0.00930885, 0.00251721, -0.00605956, -0.00349582, 0.0165688, -0.0297574, 0.129405, -0.0966345, 0.470788, -0.544764, 0.33473, -2.08336, -2.16517, -0.127895, 0.4692, -0.54416, 0.335775, -2.08906, -2.16648, -0.114597, -0.00515741, -0.0318928, -0.0278405, -0.00125816, -0.0283123, -0.0106521
0.123065, 1.69344, -1.22577, -1.53791, -0.898925, -1.2031, 1.22893, -1.30252, 0.0446109, -0.0236124, 0.000190671, 0.0462747, -0.164548, 0.0115506, -0.000292645, -2.62261, 53.4326, 24.6241, 8.07678, 0.969725, 3.33133, -0.00267457, 0.000818, -0.00159183, -0.000893708, 0.00324251, -0.00941866, 0.00257321, -0.00623605, -0.00430986, 0.0146903, -0.028578, 0.127176, -0.0979445, 0.470782, -0.544796, 0.334702, -2.08335, -2.16515, -0.127846, 0.469197, -0.54419, 0.335761, -2.08915, -2.16646, -0.114414, -0.00522087, -0.0322756, -0.0282076, -0.000585054, -0.0281989, -0.0128727
0.124065, 1.69349, -1.2258, -1.53791, -0.898871, -1.20327, 1.22894, -1.30252, 0.0436802, -0.0242029, 0.00181201, 0.0444071, -0.161072, 0.0136496, 0.00224631, -2.69799, 53.4326, 24.5487, 8.07678, 0.956908, 3.324, -0.0685925, 0.000823235, -0.00158641, -0.000907399, 0.00325105, -0.00952564, 0.00262695, -0.00755855, -0.00534491, 0.0151927, -0.0241168, 0.125067, -0.0984654, 0.470777, -0.544828, 0.334674, -2.08333, -2.16513, -0.127796, 0.469198, -0.544219, 0.335747, -2.08924, -2.16644, -0.11424, -0.00528417, -0.032657, -0.0285745, 0.000357844, -0.0273093, -0.0125718
0.125065, 1.69353, -1.22582, -1.53793, -0.898816, -1.20343, 1.22896, -1.30252, 0.0468145, -0.0284017, -0.00450224, 0.0462131, -0.162642, 0.0151581, 0.00126018, -2.69799, 53.4683, 24.6598, 8.07678, 0.932189, 3.31759, -0.0621838, 0.000824227, -0.00158493, -0.000917421, 0.00326518, -0.00963296, 0.0026878, -0.00666678, -0.0058351, 0.0110186, -0.0286758, 0.123526, -0.100082, 0.470772, -0.54486, 0.334645, -2.08332, -2.16511, -0.127746, 0.469194, -0.544253, 0.335729, -2.08934, -2.16642, -0.114058, -0.0053473, -0.0330371, -0.0289414, 0.000658991, -0.0279085, -0.0172142
0.126065, 1.69357, -1.22585, -1.53792, -0.89876, -1.20359, 1.22898, -1.30252, 0.0482284, -0.0283554, -0.000701527, 0.0475706, -0.163355, 0.0165793, -0.00136393, -2.65832, 53.504, 24.5487, 8.07678, 0.908385, 3.30295, -0.00267457, 0.000825416, -0.00158276, -0.000931859, 0.00326505, -0.00974155, 0.00274011, -0.00783002, -0.00723549, 0.0129385, -0.0236422, 0.124779, -0.096338, 0.470766, -0.544894, 0.334616, -2.0833, -2.1651, -0.127694, 0.469192, -0.544287, 0.335714, -2.08944, -2.1664, -0.113891, -0.00541024, -0.0334157, -0.0293081, 0.00202626, -0.027376, -0.0155499
0.127065, 1.69362, -1.22587, -1.53793, -0.898698, -1.20376, 1.229, -1.30252, 0.0484551, -0.0275098, -0.00386326, 0.0525957, -0.168205, 0.0167566, -0.001384, -2.69799, 53.504, 24.5487, 8.03711, 0.901976, 3.31027, 0.0101428, 0.000826386, -0.00158093, -0.000946753, 0.00327266, -0.00985571, 0.00280159, -0.00531924, -0.00520568, 0.013335, -0.025724, 0.12969, -0.104329, 0.470761, -0.544927, 0.334587, -2.08329, -2.16508, -0.127643, 0.469189, -0.544321, 0.3357, -2.08954, -2.16638, -0.113708, -0.00547299, -0.0337927, -0.0296745, 4.12272e-05, -0.0303759, -0.0158494
0.128065, 1.69367, -1.2259, -1.53794, -0.898648, -1.20394, 1.22902, -1.30252, 0.0496294, -0.0275636, -0.00533548, 0.0519234, -0.172962, 0.0168822, -0.00116003, -2.77337, 53.5397, 24.513, 8.18787, 0.889159, 3.31759, 0.0165515, 0.000831724, -0.00157406, -0.000957327, 0.00328891, -0.00997238, 0.0028498, -0.00520178, -0.00530857, 0.0129619, -0.0292282, 0.134054, -0.105773, 0.470756, -0.544961, 0.334557, -2.08327, -2.16506, -0.12759, 0.46919, -0.544351, 0.335681, -2.08963, -2.16637, -0.113514, -0.00553554, -0.0341681, -0.0300408, 7.2061e-05, -0.0308056, -0.0166058
0.129065, 1.69372, -1.22593, -1.53794, -0.898583, -1.20412, 1.22904, -1.30252, 0.0501544, -0.0267769, -0.00552347, 0.0590877, -0.172396, 0.0129409, 0.00163415, -2.84875, 53.5397, 24.4376, 8.15216, 0.889159, 3.31027, -0.0484509, 0.000832482, -0.00157092, -0.000974331, 0.0032932, -0.0100953, 0.00292031, -0.00429821, -0.00334647, 0.0142759, -0.0287872, 0.132053, -0.114943, 0.47075, -0.544995, 0.334527, -2.08326, -2.16504, -0.127537, 0.469189, -0.544387, 0.335668, -2.08975, -2.16634, -0.113323, -0.00559787, -0.0345419, -0.0304067, -0.0018672, -0.0323535, -0.0157517
0.130065, 1.69376, -1.22596, -1.53796, -0.898517, -1.2043, 1.22906, -1.30252, 0.049046, -0.0289158, -0.00698341, 0.0636665, -0.176337, 0.0143688, 0.00183542, -2.7337, 53.6508, 24.5487, 8.15216, 0.877257, 3.31027, -0.0685925, 0.000824396, -0.00157636, -0.000982956, 0.00330611, -0.0102122, 0.00300125, -0.00144257, -0.00135136, 0.0136287, -0.0281363, 0.133756, -0.122899, 0.470744, -0.545029, 0.334497, -2.08324, -2.16502, -0.127483, 0.469178, -0.544431, 0.335645, -2.08987, -2.16629, -0.113127, -0.00565998, -0.0349139, -0.0307722, -0.00384421, -0.0355271, -0.017135
0.131065, 1.69381, -1.22599, -1.53797, -0.898453, -1.20448, 1.22908, -1.30252, 0.0529355, -0.0301022, -0.00518258, 0.0629902, -0.174965, 0.0157444, 0.00146097, -2.80907, 53.6151, 24.5487, 8.18787, 0.889159, 3.30295, -0.0750012, 0.000823786, -0.00157355, -0.000997466, 0.0033137, -0.0103388, 0.00307045, -0.00418127, -0.00450128, 0.0136996, -0.0253415, 0.132473, -0.11741, 0.470739, -0.545064, 0.334466, -2.08323, -2.165, -0.127428, 0.469176, -0.544469, 0.335629, -2.08998, -2.16627, -0.112928, -0.00572185, -0.0352841, -0.0311374, -0.000854401, -0.0330752, -0.017107
0.132065, 1.69386, -1.22602, -1.53798, -0.898392, -1.20467, 1.22911, -1.30252, 0.0522364, -0.0328189, -0.00794627, 0.061478, -0.179335, 0.0164474, -0.00119616, -2.7337, 53.6508, 24.5884, 8.26324, 0.908385, 3.30295, -0.0164075, 0.00081899, -0.00157541, -0.00100795, 0.00332802, -0.0104645, 0.00313946, -0.00296871, -0.00371059, 0.0113305, -0.0296545, 0.13426, -0.117519, 0.470733, -0.5451, 0.334435, -2.08321, -2.16498, -0.127372, 0.469169, -0.54451, 0.335607, -2.0901, -2.16624, -0.112722, -0.00578347, -0.0356524, -0.0315021, -0.00175211, -0.0343092, -0.0199736
0.133065, 1.69391, -1.22606, -1.53799, -0.898317, -1.20485, 1.22913, -1.30252, 0.0525909, -0.0332147, -0.00492991, 0.0644902, -0.179526, 0.0167448, -0.00154342, -2.80907, 53.7619, 24.5487, 8.18787, 0.858946, 3.31027, 0.00373412, 0.000817436, -0.00157126, -0.00101957, 0.00332798, -0.0105825, 0.00320719, -0.003175, -0.00386187, 0.0128919, -0.025122, 0.133971, -0.118757, 0.470727, -0.545135, 0.334403, -2.08319, -2.16496, -0.127316, 0.469168, -0.544549, 0.335587, -2.09021, -2.16621, -0.112538, -0.00584484, -0.0360188, -0.0318663, -0.00160971, -0.0347054, -0.0187691
0.134065, 1.69396, -1.22609, -1.538, -0.898248, -1.20505, 1.22916, -1.30252, 0.0528432, -0.0348014, -0.00601124, 0.0666272, -0.181774, 0.0214679, 0.000666471, -2.77337, 53.7976, 24.513, 8.22754, 0.852538, 3.324, -0.0420422, 0.000813228, -0.00157113, -0.00103445, 0.00333219, -0.0107139, 0.00328797, -0.00176206, -0.00403153, 0.0125855, -0.0217799, 0.136732, -0.124483, 0.470721, -0.545171, 0.334371, -2.08318, -2.16494, -0.127259, 0.469163, -0.544592, 0.335569, -2.09034, -2.16618, -0.112334, -0.00590595, -0.0363832, -0.0322299, -0.00146231, -0.0364107, -0.0196598
0.135065, 1.69402, -1.22612, -1.538, -0.898173, -1.20523, 1.22919, -1.30252, 0.0540028, -0.0313135, -0.00365634, 0.0684146, -0.182099, 0.0254663, 0.000444314, -2.77337, 53.7619, 24.4733, 8.26324, 0.827819, 3.324, -0.0420422, 0.000811138, -0.00156929, -0.00105193, 0.00333249, -0.0108442, 0.00336232, -0.00250557, -0.00538079, 0.0163239, -0.0150277, 0.142446, -0.124401, 0.470716, -0.545208, 0.334339, -2.08316, -2.16492, -0.127202, 0.46916, -0.544633, 0.335554, -2.09047, -2.16615, -0.112136, -0.00596678, -0.0367455, -0.032593, -5.87052e-05, -0.0365575, -0.0162601
0.136065, 1.69407, -1.22616, -1.53802, -0.898089, -1.20543, 1.22922, -1.30252, 0.0519688, -0.0353448, -0.00790971, 0.0746798, -0.177571, 0.0281234, 0.00127955, -2.77337, 53.873, 24.5487, 8.22754, 0.791197, 3.33865, -0.0685925, 0.000803098, -0.00156933, -0.0010614, 0.00333258, -0.010968, 0.00344827, 0.000485613, -0.00320887, 0.0139361, -0.0110453, 0.135954, -0.133829, 0.47071, -0.545245, 0.334306, -2.08314, -2.16489, -0.127143, 0.469154, -0.544679, 0.33553, -2.09061, -2.16611, -0.111942, -0.00602732, -0.0371056, -0.0329554, -0.00227259, -0.0395931, -0.0193737
0.137065, 1.69412, -1.22619, -1.53803, -0.898014, -1.20562, 1.22924, -1.30252, 0.0478674, -0.0332721, -0.00950551, 0.076629, -0.179659, 0.0296008, -0.000605026, -2.65832, 53.9087, 24.4376, 8.29895, 0.766478, 3.36703, -0.0292249, 0.000797773, -0.00157103, -0.00107867, 0.00332863, -0.011098, 0.00352449, 0.0031722, -0.000229395, 0.015516, -0.0100356, 0.140522, -0.139887, 0.470704, -0.545282, 0.334273, -2.08313, -2.16487, -0.127084, 0.469148, -0.544724, 0.335513, -2.09074, -2.16608, -0.111747, -0.00608756, -0.0374636, -0.0333171, -0.00515174, -0.042968, -0.0184953
0.138065, 1.69417, -1.22622, -1.53804, -0.897932, -1.20581, 1.22927, -1.30252, 0.0545072, -0.0300025, -0.0122358, 0.0805485, -0.182183, 0.0267603, -0.000403351, -2.69799, 53.873, 24.513, 8.29895, 0.766478, 3.37436, -0.0292249, 0.000794014, -0.00156946, -0.00109349, 0.00332967, -0.0112276, 0.00360519, 0.00143628, -0.0017918, 0.0167413, -0.0145326, 0.144767, -0.139883, 0.470697, -0.545319, 0.33424, -2.08311, -2.16485, -0.127025, 0.469144, -0.544767, 0.335494, -2.09087, -2.16604, -0.111546, -0.0061475, -0.0378192, -0.0336781, -0.00366527, -0.0417338, -0.0174282
0.139065, 1.69423, -1.22625, -1.53806, -0.897845, -1.206, 1.2293, -1.30252, 0.0542465, -0.0284561, -0.0130382, 0.0829387, -0.188419, 0.0286335, -0.00125224, -2.65832, 53.873, 24.5487, 8.29895, 0.766478, 3.40365, -0.00267457, 0.000786976, -0.00157099, -0.00110912, 0.00332787, -0.0113588, 0.00369469, 0.00329821, -0.000625805, 0.0182003, -0.014819, 0.152448, -0.144573, 0.470691, -0.545357, 0.334206, -2.08309, -2.16483, -0.126964, 0.469137, -0.544815, 0.335474, -2.09101, -2.166, -0.111344, -0.00620712, -0.0381726, -0.0340383, -0.0047664, -0.044197, -0.0165983
0.140065, 1.69428, -1.22629, -1.53807, -0.897764, -1.20619, 1.22933, -1.30252, 0.0543661, -0.0292283, -0.0146692, 0.0820075, -0.187632, 0.0256437, -0.00130955, -2.62261, 53.9484, 24.6241, 8.414, 0.736266, 3.42471, 0.0101428, 0.000782287, -0.00157008, -0.00112012, 0.00332805, -0.0114827, 0.00377687, 0.00251348, -0.000230885, 0.0170737, -0.0186018, 0.150042, -0.144775, 0.470685, -0.545395, 0.334172, -2.08307, -2.1648, -0.126903, 0.469132, -0.544859, 0.335451, -2.09114, -2.16596, -0.111148, -0.00626642, -0.0385235, -0.0343977, -0.00529033, -0.0436163, -0.0179358
0.141065, 1.69434, -1.22633, -1.53809, -0.897667, -1.2064, 1.22936, -1.30252, 0.0513797, -0.0328564, -0.0138387, 0.0870114, -0.191266, 0.028266, 0.00156837, -2.58294, 54.0198, 24.6241, 8.29895, 0.723448, 3.43936, -0.0557752, 0.00077236, -0.00157274, -0.00113421, 0.00332401, -0.0116133, 0.00388184, 0.0060789, 0.00224314, 0.0166083, -0.014395, 0.150374, -0.156413, 0.470679, -0.545434, 0.334138, -2.08305, -2.16478, -0.126841, 0.469125, -0.54491, 0.335429, -2.0913, -2.1659, -0.110947, -0.00632538, -0.038872, -0.0347562, -0.00771054, -0.0475148, -0.0192255
0.142065, 1.69439, -1.22636, -1.5381, -0.89758, -1.20661, 1.22939, -1.30252, 0.054155, -0.0321007, -0.0116249, 0.0834469, -0.194823, 0.025555, 0.00128294, -2.50756, 53.9484, 24.5487, 8.33862, 0.705138, 3.45309, -0.0621838, 0.000766369, -0.00157267, -0.00115525, 0.00332186, -0.011763, 0.00397112, 0.00328491, 0.00034349, 0.0172812, -0.0180833, 0.153265, -0.151114, 0.470673, -0.545473, 0.334103, -2.08303, -2.16476, -0.126778, 0.469119, -0.544958, 0.335414, -2.09146, -2.16586, -0.110724, -0.006384, -0.0392179, -0.0351138, -0.00594442, -0.0451275, -0.0185477
0.143065, 1.69446, -1.2264, -1.53811, -0.897486, -1.20682, 1.22943, -1.30252, 0.0563145, -0.0334541, -0.012702, 0.0860015, -0.198309, 0.0287065, 0.000855295, -2.54723, 53.9484, 24.5884, 8.29895, 0.705138, 3.45309, -0.0621838, 0.000757489, -0.0015727, -0.00116933, 0.00332318, -0.011906, 0.00406282, 0.00405326, -0.000367572, 0.0169342, -0.0167555, 0.156539, -0.153116, 0.470666, -0.545512, 0.334068, -2.08301, -2.16473, -0.126715, 0.469114, -0.545008, 0.335391, -2.09161, -2.16582, -0.110504, -0.00644226, -0.0395612, -0.0354704, -0.00527786, -0.0461469, -0.0193892
0.144065, 1.69451, -1.22644, -1.53813, -0.89739, -1.20703, 1.22946, -1.30252, 0.0549574, -0.0387304, -0.0125377, 0.0900562, -0.209468, 0.0311413, -0.00112522, -2.47185, 54.1309, 24.5884, 8.29895, 0.699645, 3.45309, -0.0164075, 0.000744705, -0.00157649, -0.00117785, 0.00332603, -0.0120398, 0.00415884, 0.00838358, 0.00194869, 0.0150478, -0.0176638, 0.161485, -0.160265, 0.47066, -0.545551, 0.334033, -2.08299, -2.16471, -0.126651, 0.469104, -0.545061, 0.335363, -2.09175, -2.16577, -0.110291, -0.00650015, -0.0399019, -0.035826, -0.00756736, -0.0505683, -0.0222022
0.145065, 1.69458, -1.22648, -1.53815, -0.897298, -1.20725, 1.22949, -1.30252, 0.0587539, -0.0373355, -0.0147891, 0.0921845, -0.213143, 0.0324683, -0.00149613, -2.47185, 54.0952, 24.5487, 8.33862, 0.674925, 3.46042, 0.00373412, 0.000738023, -0.00157531, -0.00119385, 0.00332886, -0.0121882, 0.00425046, 0.00813524, 0.000835712, 0.0156065, -0.0192362, 0.166927, -0.161025, 0.470653, -0.545591, 0.333997, -2.08297, -2.16469, -0.126586, 0.4691, -0.54511, 0.335342, -2.0919, -2.16573, -0.110062, -0.00655767, -0.0402399, -0.0361806, -0.00649985, -0.0507011, -0.022003
0.146065, 1.69465, -1.22651, -1.53817, -0.897195, -1.20747, 1.22952, -1.30252, 0.0622141, -0.0330594, -0.0193625, 0.094241, -0.216531, 0.0341536, 0.00120662, -2.50756, 54.0555, 24.6241, 8.22754, 0.668517, 3.44668, -0.0557752, 0.000727576, -0.00157521, -0.0012093, 0.0033321, -0.0123422, 0.00435638, 0.00820592, 0.000264371, 0.0170871, -0.022108, 0.175341, -0.166196, 0.470647, -0.545631, 0.333961, -2.08295, -2.16466, -0.12652, 0.469095, -0.545163, 0.335319, -2.09207, -2.16567, -0.109824, -0.00661481, -0.0405751, -0.036534, -0.00592574, -0.0513097, -0.0209242
0.147065, 1.6947, -1.22657, -1.53819, -0.897092, -1.20771, 1.22956, -1.30252, 0.063134, -0.0355672, -0.0208274, 0.097663, -0.215373, 0.0311339, 0.000533149, -2.3568, 54.2419, 24.6241, 8.15216, 0.699645, 3.42471, -0.0484509, 0.000708629, -0.00158318, -0.00121655, 0.00334021, -0.0124884, 0.00447159, 0.00842362, 0.00109866, 0.0155396, -0.0238292, 0.170512, -0.168574, 0.47064, -0.545672, 0.333924, -2.08293, -2.16464, -0.126454, 0.469081, -0.545224, 0.335287, -2.09224, -2.1656, -0.109588, -0.00667155, -0.0409074, -0.0368864, -0.00686708, -0.0516537, -0.0228107
0.148065, 1.69477, -1.2266, -1.53821, -0.896986, -1.20793, 1.22959, -1.30252, 0.0681934, -0.0380509, -0.0210546, 0.100356, -0.217437, 0.0276914, 0.000864059, -2.39648, 54.2062, 24.5884, 8.07678, 0.680419, 3.43204, -0.0621838, 0.000701034, -0.0015813, -0.00123399, 0.00333929, -0.0126393, 0.00457097, 0.00692502, -0.000340416, 0.0141041, -0.0272773, 0.168268, -0.167725, 0.470633, -0.545713, 0.333887, -2.08291, -2.16461, -0.126387, 0.469077, -0.545275, 0.335266, -2.0924, -2.16556, -0.109358, -0.00672789, -0.0412368, -0.0372375, -0.0055944, -0.0502242, -0.0243946
0.149065, 1.69484, -1.22664, -1.53823, -0.896887, -1.20815, 1.22962, -1.30252, 0.0688398, -0.0408815, -0.0220412, 0.10286, -0.219365, 0.0302322, -0.00135674, -2.28143, 54.2062, 24.5884, 8.11249, 0.680419, 3.43204, -0.00999879, 0.00069001, -0.0015844, -0.00124559, 0.00334508, -0.012783, 0.00467218, 0.00811633, -0.000315802, 0.012923, -0.0256148, 0.168451, -0.168789, 0.470627, -0.545754, 0.33385, -2.08289, -2.16458, -0.126319, 0.469068, -0.545329, 0.335239, -2.09256, -2.1655, -0.109126, -0.00678382, -0.0415633, -0.0375874, -0.00567794, -0.0515465, -0.0260943
0.150065, 1.6949, -1.22669, -1.53825, -0.896775, -1.20838, 1.22965, -1.30252, 0.0702822, -0.041583, -0.0187879, 0.105067, -0.224414, 0.0312517, -0.00117576, -2.20605, 54.2776, 24.5487, 8.0014, 0.674925, 3.45309, -0.00267457, 0.000678537, -0.00158597, -0.00125704, 0.00334469, -0.0129228, 0.0047797, 0.00824546, -0.000876788, 0.0142878, -0.0230602, 0.172327, -0.170297, 0.47062, -0.545796, 0.333812, -2.08287, -2.16456, -0.126251, 0.469061, -0.545384, 0.335211, -2.09272, -2.16544, -0.108905, -0.00683932, -0.0418868, -0.0379361, -0.00511478, -0.0521838, -0.025134
0.151065, 1.69497, -1.22672, -1.53827, -0.896672, -1.2086, 1.22968, -1.30252, 0.0716766, -0.0377794, -0.0196762, 0.101387, -0.224619, 0.027918, -0.000512573, -2.13067, 54.1666, 24.513, 8.0014, 0.680419, 3.46042, -0.00999879, 0.000668648, -0.00158846, -0.00127443, 0.0033519, -0.0130805, 0.00488302, 0.00568436, -0.00168095, 0.0156556, -0.028004, 0.1754, -0.167633, 0.470613, -0.545838, 0.333774, -2.08285, -2.16453, -0.126182, 0.469053, -0.545438, 0.335189, -2.09288, -2.16539, -0.108656, -0.0068944, -0.0422071, -0.0382834, -0.00440332, -0.0501523, -0.0237609
0.152065, 1.69505, -1.22677, -1.5383, -0.896558, -1.20884, 1.2297, -1.30252, 0.0731514, -0.0395403, -0.0228084, 0.106429, -0.225107, 0.0255374, 0.00159106, -2.091, 54.2419, 24.5884, 7.92602, 0.686827, 3.46774, -0.0621838, 0.000655336, -0.00159077, -0.00128121, 0.00336589, -0.0132262, 0.00500036, 0.0068152, -0.000411453, 0.0142106, -0.0306338, 0.172978, -0.175023, 0.470606, -0.54588, 0.333736, -2.08282, -2.1645, -0.126112, 0.469044, -0.545495, 0.335155, -2.09305, -2.16531, -0.108409, -0.00694903, -0.0425243, -0.0386293, -0.00574127, -0.0514163, -0.0256666
0.153065, 1.69512, -1.22682, -1.53832, -0.89645, -1.20907, 1.22974, -1.30252, 0.0745442, -0.0460056, -0.021517, 0.110619, -0.229991, 0.0293012, 0.00129807, -2.05529, 54.2776, 24.513, 7.9657, 0.680419, 3.44668, -0.0685925, 0.000646518, -0.00158859, -0.00129258, 0.00337223, -0.0133784, 0.00510205, 0.00876786, -0.000783744, 0.0119879, -0.0269212, 0.172294, -0.17858, 0.470599, -0.545922, 0.333697, -2.0828, -2.16448, -0.126041, 0.46904, -0.545548, 0.335127, -2.09321, -2.16526, -0.108166, -0.00700322, -0.0428383, -0.0389739, -0.00544081, -0.0533018, -0.0285205
0.154065, 1.69519, -1.22686, -1.53835, -0.896333, -1.20931, 1.22977, -1.30252, 0.0736479, -0.0428846, -0.0243352, 0.113519, -0.228918, 0.0319149, -0.0010674, -1.94024, 54.2419, 24.5884, 7.89032, 0.686827, 3.43204, -0.0164075, 0.000631377, -0.00159367, -0.00130511, 0.00338436, -0.0135365, 0.00521939, 0.0100059, 0.00029291, 0.0138065, -0.0244589, 0.17603, -0.181362, 0.470592, -0.545965, 0.333659, -2.08278, -2.16445, -0.12597, 0.46903, -0.545607, 0.335098, -2.09338, -2.16519, -0.107907, -0.00705695, -0.0431491, -0.039317, -0.00645389, -0.055158, -0.0272238
0.155065, 1.69527, -1.22691, -1.53837, -0.896217, -1.20956, 1.22979, -1.30252, 0.0743171, -0.0462488, -0.0237103, 0.11352, -0.236458, 0.0285834, -0.00122023, -1.86486, 54.3134, 24.5487, 7.89032, 0.686827, 3.43204, -0.00267457, 0.00061876, -0.00159504, -0.00131545, 0.0033948, -0.0136915, 0.00533124, 0.0106802, 0.00115804, 0.0120245, -0.0303039, 0.177503, -0.18342, 0.470585, -0.546008, 0.333619, -2.08275, -2.16442, -0.125898, 0.469022, -0.545665, 0.335067, -2.09355, -2.16513, -0.107654, -0.00711021, -0.0434565, -0.0396587, -0.00741643, -0.0558932, -0.0294005
0.156065, 1.69535, -1.22695, -1.5384, -0.89609, -1.2098, 1.22982, -1.30252, 0.0745547, -0.0437988, -0.02319, 0.116373, -0.238985, 0.025832, -6.74994e-05, -1.78948, 54.3134, 24.513, 7.81494, 0.693236, 3.43936, -0.0228162, 0.000604421, -0.00160025, -0.00132813, 0.00340761, -0.0138444, 0.00545628, 0.0109328, 0.00237563, 0.014092, -0.0314699, 0.180677, -0.188207, 0.470578, -0.546052, 0.33358, -2.08273, -2.16439, -0.125825, 0.469011, -0.545725, 0.335038, -2.09372, -2.16504, -0.107398, -0.007163, -0.0437605, -0.0399988, -0.00859417, -0.0568136, -0.0276975
0.157065, 1.69542, -1.227, -1.53843, -0.895966, -1.21005, 1.22984, -1.30252, 0.0772963, -0.0453009, -0.0268075, 0.115902, -0.238108, 0.0236963, 0.0011757, -1.7141, 54.3134, 24.513, 7.81494, 0.668517, 3.45309, -0.0557752, 0.000589546, -0.00160565, -0.00134005, 0.00342627, -0.0140046, 0.0055796, 0.00972087, 0.00157451, 0.011826, -0.0364271, 0.178125, -0.188416, 0.470571, -0.546096, 0.33354, -2.08271, -2.16437, -0.125751, 0.468999, -0.545785, 0.335008, -2.0939, -2.16497, -0.107127, -0.0072153, -0.0440611, -0.0403373, -0.00797781, -0.0555372, -0.0301125
0.158065, 1.69551, -1.22704, -1.53847, -0.89584, -1.2103, 1.22987, -1.30252, 0.0806364, -0.0488807, -0.0282854, 0.118711, -0.240367, 0.0273805, 0.000783802, -1.6784, 54.2776, 24.5884, 7.81494, 0.674925, 3.44668, -0.0557752, 0.000574549, -0.00160965, -0.00135264, 0.00344155, -0.0141683, 0.00570565, 0.0101914, 5.6374e-05, 0.0100267, -0.0346692, 0.178529, -0.18923, 0.470564, -0.54614, 0.333499, -2.08268, -2.16434, -0.125677, 0.468989, -0.545846, 0.334978, -2.09408, -2.16489, -0.106856, -0.0072671, -0.0443582, -0.0406742, -0.0065673, -0.0559605, -0.0323496
0.159065, 1.69558, -1.22709, -1.5385, -0.895713, -1.21055, 1.22988, -1.30252, 0.0774712, -0.0477792, -0.0283918, 0.120165, -0.240962, 0.0299469, 0.000522535, -1.52764, 54.353, 24.6241, 7.85065, 0.686827, 3.44668, -0.0557752, 0.000558963, -0.00161627, -0.00136057, 0.00346452, -0.0143214, 0.00583258, 0.0119796, 0.00177151, 0.0115193, -0.0311521, 0.18148, -0.194317, 0.470556, -0.546184, 0.333458, -2.08266, -2.16431, -0.125602, 0.468976, -0.545907, 0.334943, -2.09426, -2.1648, -0.106586, -0.00731841, -0.0446518, -0.0410095, -0.00820853, -0.0583188, -0.0314302
0.160065, 1.69567, -1.22714, -1.53853, -0.895575, -1.21079, 1.2299, -1.30252, 0.0817426, -0.0499284, -0.0255686, 0.130086, -0.241501, 0.0266603, -0.00209305, -1.52764, 54.4244, 24.5487, 7.77924, 0.674925, 3.46042, 0.0101428, 0.000546793, -0.0016178, -0.00137305, 0.00347596, -0.014475, 0.00594741, 0.0120536, 0.00169582, 0.0123744, -0.027567, 0.177497, -0.1957, 0.470549, -0.546229, 0.333417, -2.08263, -2.16428, -0.125526, 0.468968, -0.545966, 0.334912, -2.09442, -2.16473, -0.106328, -0.0073692, -0.0449417, -0.0413431, -0.00814661, -0.0588098, -0.0309334
0.161065, 1.69575, -1.22718, -1.53856, -0.895439, -1.21104, 1.22992, -1.30252, 0.0792707, -0.0465476, -0.0295657, 0.133656, -0.242347, 0.0244811, -0.00115801, -1.37688, 54.4244, 24.5884, 7.73956, 0.668517, 3.46774, 0.00373412, 0.000528762, -0.00162785, -0.00138711, 0.00349238, -0.0146345, 0.00608527, 0.0143129, 0.00512943, 0.0136754, -0.0305967, 0.180662, -0.205173, 0.470542, -0.546274, 0.333376, -2.08261, -2.16425, -0.12545, 0.468952, -0.546031, 0.334882, -2.09462, -2.16464, -0.106056, -0.00741948, -0.0452279, -0.0416749, -0.0114935, -0.061667, -0.0302143
0.162065, 1.69584, -1.22723, -1.53859, -0.895306, -1.2113, 1.22994, -1.30252, 0.0857364, -0.0490626, -0.0274005, 0.1368, -0.247259, 0.0267601, -0.000263379, -1.37688, 54.4998, 24.5487, 7.81494, 0.668517, 3.49612, -0.00999879, 0.00051633, -0.00162998, -0.00139667, 0.0035163, -0.0147949, 0.00620848, 0.0130313, 0.00186641, 0.0135562, -0.0282964, 0.183438, -0.203676, 0.470534, -0.546319, 0.333334, -2.08258, -2.16422, -0.125373, 0.468944, -0.54609, 0.334848, -2.09479, -2.16455, -0.105776, -0.00746922, -0.0455105, -0.042005, -0.00833403, -0.0605319, -0.0305736
0.163065, 1.69593, -1.22727, -1.53863, -0.895154, -1.21157, 1.22996, -1.30252, 0.0878847, -0.0451956, -0.029986, 0.139591, -0.254453, 0.0243179, 0.00077385, -1.26183, 54.4641, 24.5487, 7.73956, 0.668517, 3.51077, -0.0356336, 0.000495153, -0.00164202, -0.00141384, 0.0035368, -0.0149667, 0.00635669, 0.0139033, 0.00305027, 0.0153012, -0.0342732, 0.192297, -0.209479, 0.470527, -0.546364, 0.333292, -2.08255, -2.16419, -0.125295, 0.468926, -0.54616, 0.334821, -2.09499, -2.16445, -0.105484, -0.00751843, -0.0457892, -0.0423333, -0.00946436, -0.0619878, -0.0292737
0.164065, 1.69602, -1.22732, -1.53866, -0.895012, -1.21184, 1.22997, -1.30252, 0.0904085, -0.0447668, -0.0320149, 0.141981, -0.257773, 0.0222486, 0.00197396, -1.30151, 54.5355, 24.5487, 7.77924, 0.686827, 3.53274, -0.0750012, 0.000479902, -0.00164599, -0.00142345, 0.00356654, -0.015135, 0.00649127, 0.0139797, 0.00325383, 0.0151514, -0.0381853, 0.194766, -0.213073, 0.470519, -0.54641, 0.33325, -2.08253, -2.16416, -0.125216, 0.468915, -0.546222, 0.334786, -2.09518, -2.16436, -0.105187, -0.00756709, -0.0460641, -0.0426597, -0.00971863, -0.0623234, -0.0297526
0.165065, 1.6961, -1.22737, -1.5387, -0.89486, -1.21212, 1.22998, -1.30252, 0.0901698, -0.0445073, -0.0342344, 0.144833, -0.259423, 0.0173816, 0.000332631, -1.15075, 54.6109, 24.5884, 7.77924, 0.693236, 3.5181, -0.0484509, 0.000455362, -0.00166021, -0.00143484, 0.00359602, -0.0153074, 0.00664639, 0.0148565, 0.00547555, 0.0147799, -0.0433302, 0.194173, -0.216507, 0.470512, -0.546456, 0.333207, -2.0825, -2.16412, -0.125137, 0.468895, -0.546295, 0.334751, -2.09538, -2.16425, -0.104882, -0.0076152, -0.0463352, -0.0429842, -0.0119682, -0.0634943, -0.0305039
0.166065, 1.69621, -1.22741, -1.53875, -0.894696, -1.21239, 1.23, -1.30252, 0.0947918, -0.0415531, -0.0336219, 0.146577, -0.260415, 0.0178788, -0.00171103, -1.18645, 54.5712, 24.6598, 7.66418, 0.686827, 3.5181, 0.00373412, 0.000436246, -0.00166787, -0.00145007, 0.00362155, -0.0154815, 0.00678999, 0.0128401, 0.00320423, 0.0170833, -0.0420151, 0.198479, -0.21222, 0.470504, -0.546503, 0.333164, -2.08247, -2.16409, -0.125057, 0.468881, -0.546363, 0.334721, -2.09558, -2.16415, -0.104581, -0.00766275, -0.0466022, -0.0433068, -0.00972587, -0.0620304, -0.0283171
0.167065, 1.6963, -1.22746, -1.53879, -0.894543, -1.21266, 1.23001, -1.30252, 0.0943078, -0.0429986, -0.0323143, 0.150439, -0.264766, 0.0131754, -0.00137804, -1.07537, 54.6823, 24.6995, 7.70386, 0.699645, 3.52542, 0.0101428, 0.000415079, -0.00167858, -0.00145766, 0.00365749, -0.0156491, 0.00693862, 0.0141121, 0.00541894, 0.0171132, -0.0448129, 0.198137, -0.217957, 0.470496, -0.546549, 0.333121, -2.08245, -2.16406, -0.124976, 0.468864, -0.546432, 0.334682, -2.09578, -2.16404, -0.104274, -0.00770973, -0.0468653, -0.0436274, -0.0119372, -0.0636447, -0.0287292
0.168065, 1.6964, -1.22751, -1.53883, -0.89438, -1.21293, 1.23002, -1.30252, 0.0972156, -0.0463787, -0.0334205, 0.154226, -0.273184, 0.0146226, 0.00152271, -1.07537, 54.7577, 24.6995, 7.70386, 0.711547, 3.52542, -0.0557752, 0.000399075, -0.00168314, -0.00146752, 0.00368637, -0.0158123, 0.00708456, 0.0159847, 0.00542706, 0.0155257, -0.0469801, 0.202562, -0.225263, 0.470489, -0.546596, 0.333077, -2.08242, -2.16403, -0.124894, 0.468853, -0.546496, 0.334646, -2.09597, -2.16393, -0.103978, -0.00775613, -0.0471243, -0.043946, -0.0119882, -0.0655096, -0.0309044
0.169065, 1.6965, -1.22756, -1.53887, -0.894214, -1.2132, 1.23003, -1.30252, 0.0945482, -0.0455289, -0.0356319, 0.155894, -0.269767, 0.0107275, 0.00172722, -0.884941, 54.8291, 24.6241, 7.66418, 0.699645, 3.53274, -0.0750012, 0.00037833, -0.00169495, -0.00148101, 0.00370549, -0.0159721, 0.00724289, 0.0166497, 0.00801165, 0.0155294, -0.0490374, 0.198928, -0.230201, 0.470481, -0.546643, 0.333034, -2.08239, -2.164, -0.124812, 0.468835, -0.546566, 0.334612, -2.09618, -2.16381, -0.103695, -0.00780194, -0.0473792, -0.0442625, -0.0145903, -0.0665276, -0.0312311
0.170065, 1.69661, -1.22761, -1.53893, -0.894035, -1.21347, 1.23003, -1.30252, 0.100084, -0.0438608, -0.0426349, 0.165459, -0.263037, 0.00785205, -0.000543943, -0.884941, 54.8688, 24.7748, 7.51739, 0.686827, 3.53915, -0.0292249, 0.000357566, -0.00170451, -0.00149117, 0.00374135, -0.0161382, 0.00739807, 0.0163755, 0.0080591, 0.0150716, -0.0503385, 0.193787, -0.232663, 0.470473, -0.546691, 0.332989, -2.08236, -2.16396, -0.124729, 0.468818, -0.546636, 0.334575, -2.09637, -2.16369, -0.103386, -0.00784715, -0.04763, -0.044577, -0.01471, -0.0664394, -0.0319529
0.171065, 1.69671, -1.22766, -1.53897, -0.893864, -1.21374, 1.23004, -1.30252, 0.100686, -0.0435796, -0.0425525, 0.164604, -0.268104, 0.0100539, -0.000599987, -0.734184, 54.9402, 24.6995, 7.5531, 0.680419, 3.5538, -0.0228162, 0.00033733, -0.00171463, -0.00150345, 0.00376639, -0.0163026, 0.0075492, 0.0167392, 0.00766333, 0.0156108, -0.0507604, 0.199768, -0.233595, 0.470465, -0.546738, 0.332945, -2.08233, -2.16393, -0.124645, 0.468802, -0.546706, 0.33454, -2.09657, -2.16358, -0.103091, -0.00789177, -0.0478765, -0.0448893, -0.0143238, -0.0671114, -0.0318021
0.172065, 1.69682, -1.22771, -1.53902, -0.893688, -1.21403, 1.23004, -1.30252, 0.103019, -0.0447391, -0.0470495, 0.168238, -0.266504, 0.00629588, -0.00138334, -0.658806, 54.9402, 24.8105, 7.5531, 0.668517, 3.58951, 0.00373412, 0.000316084, -0.00172557, -0.00151278, 0.00381028, -0.0164752, 0.00770851, 0.0168121, 0.00841613, 0.0136512, -0.0555633, 0.195853, -0.235973, 0.470457, -0.546786, 0.3329, -2.0823, -2.16389, -0.124561, 0.468784, -0.546777, 0.334502, -2.09677, -2.16345, -0.102765, -0.00793577, -0.0481188, -0.0451995, -0.0151951, -0.0671561, -0.0340319
0.173065, 1.69692, -1.22776, -1.53907, -0.893498, -1.21431, 1.23005, -1.30252, 0.10377, -0.0475142, -0.0467451, 0.174208, -0.271316, 0.00434149, 0.00101056, -0.543754, 55.0156, 24.7748, 7.40631, 0.686827, 3.60415, -0.0484509, 0.000291326, -0.00173842, -0.00152511, 0.00384006, -0.0166456, 0.00788534, 0.0188903, 0.0101235, 0.0129972, -0.0563809, 0.195858, -0.244982, 0.470449, -0.546834, 0.332855, -2.08227, -2.16386, -0.124476, 0.468765, -0.546852, 0.334466, -2.097, -2.16331, -0.102454, -0.00797915, -0.0483568, -0.0455074, -0.0168957, -0.0694158, -0.0352474
0.174065, 1.69704, -1.2278, -1.53912, -0.893319, -1.21459, 1.23005, -1.30252, 0.108803, -0.0458843, -0.0484083, 0.176442, -0.274742, 0.00262951, 0.00118233, -0.468376, 54.9402, 24.8105, 7.40631, 0.693236, 3.62521, -0.0621838, 0.000273676, -0.00174687, -0.00153881, 0.003881, -0.0168208, 0.00804345, 0.0177146, 0.00879273, 0.0135644, -0.0600434, 0.19989, -0.244813, 0.470441, -0.546883, 0.332809, -2.08224, -2.16383, -0.12439, 0.46875, -0.54692, 0.334431, -2.0972, -2.16319, -0.102127, -0.00802191, -0.0485903, -0.0458132, -0.0156272, -0.0685209, -0.0348565
0.175065, 1.69716, -1.22785, -1.53918, -0.89313, -1.21488, 1.23005, -1.30252, 0.110782, -0.0478548, -0.0501769, 0.179312, -0.27751, 0.00186805, 0.00078822, -0.357292, 54.9799, 24.8859, 7.44202, 0.723448, 3.63254, -0.0621838, 0.00025029, -0.00175743, -0.00154662, 0.0039249, -0.0169953, 0.00820875, 0.0184159, 0.00903058, 0.0122751, -0.0622674, 0.200108, -0.247391, 0.470433, -0.546931, 0.332763, -2.08221, -2.16379, -0.124304, 0.468733, -0.546993, 0.33439, -2.09741, -2.16306, -0.101796, -0.00806403, -0.0488195, -0.0461166, -0.0159336, -0.0692546, -0.0365326
0.176065, 1.69728, -1.2279, -1.53924, -0.892931, -1.21516, 1.23005, -1.30252, 0.111524, -0.0482721, -0.0508161, 0.189784, -0.275153, 0.00180636, -0.00116994, -0.317619, 54.9799, 24.9216, 7.40631, 0.754576, 3.62521, -0.0164075, 0.000228069, -0.00176688, -0.00155766, 0.00396169, -0.0171675, 0.00837558, 0.0205936, 0.0108275, 0.013434, -0.0566506, 0.197168, -0.254088, 0.470425, -0.54698, 0.332717, -2.08218, -2.16375, -0.124217, 0.468716, -0.547066, 0.334352, -2.09762, -2.16293, -0.101475, -0.00810551, -0.0490442, -0.0464177, -0.0176446, -0.0718808, -0.0359632
0.177065, 1.6974, -1.22794, -1.53931, -0.892726, -1.21544, 1.23005, -1.30252, 0.116864, -0.047661, -0.056197, 0.195175, -0.272246, 0.00220144, -0.0017633, -0.242241, 54.9402, 25.0327, 7.33093, 0.784789, 3.60415, 0.0101428, 0.000205041, -0.00177779, -0.0015678, 0.00400007, -0.0173351, 0.00854824, 0.0200607, 0.00957452, 0.0126594, -0.0574762, 0.196035, -0.255209, 0.470417, -0.547029, 0.332671, -2.08215, -2.16372, -0.124129, 0.468699, -0.54714, 0.334312, -2.09783, -2.16279, -0.101155, -0.00814634, -0.0492643, -0.0467165, -0.0164837, -0.0714046, -0.0369871
0.178065, 1.69752, -1.228, -1.53937, -0.892513, -1.21572, 1.23005, -1.30252, 0.115964, -0.0541117, -0.0624563, 0.199938, -0.271113, -0.00764714, 0.000757243, -0.0914839, 55.0513, 25.1081, 7.21588, 0.804015, 3.59683, -0.0420422, 0.000178326, -0.00179282, -0.00157312, 0.00403557, -0.0174865, 0.00873901, 0.0222458, 0.0137857, 0.00669547, -0.0688019, 0.184121, -0.26599, 0.470409, -0.547078, 0.332624, -2.08211, -2.16368, -0.12404, 0.468677, -0.547217, 0.334267, -2.09806, -2.16262, -0.100852, -0.00818651, -0.0494799, -0.0470129, -0.0208948, -0.0730366, -0.0433621
0.179065, 1.69764, -1.22805, -1.53943, -0.892309, -1.21599, 1.23004, -1.30252, 0.117388, -0.0520354, -0.0627435, 0.204327, -0.269845, -0.00631415, -0.000953233, -0.0161054, 55.0156, 24.997, 7.21588, 0.815917, 3.61148, -0.00267457, 0.000159085, -0.00180192, -0.00158666, 0.00406398, -0.0176476, 0.00890326, 0.0223925, 0.0136711, 0.00872506, -0.0648708, 0.185842, -0.267153, 0.470401, -0.547128, 0.332577, -2.08208, -2.16365, -0.123951, 0.468661, -0.547288, 0.334231, -2.09826, -2.16248, -0.100549, -0.00822601, -0.0496909, -0.0473069, -0.0207312, -0.0736988, -0.0416778
0.180065, 1.69777, -1.2281, -1.5395, -0.892095, -1.21627, 1.23004, -1.30251, 0.115864, -0.0483464, -0.0667245, 0.209153, -0.267801, -0.00471457, 0.00204328, 0.059273, 55.0156, 25.0327, 7.14447, 0.822325, 3.61148, -0.0750012, 0.000134503, -0.00181354, -0.00159532, 0.00410026, -0.0178122, 0.00909253, 0.0244652, 0.0158746, 0.01064, -0.0627658, 0.188792, -0.27784, 0.470393, -0.547178, 0.33253, -2.08205, -2.16361, -0.123861, 0.468642, -0.547364, 0.334189, -2.09849, -2.16232, -0.100231, -0.00826484, -0.0498971, -0.0475984, -0.0228183, -0.0763356, -0.0403208
0.181065, 1.6979, -1.22815, -1.53957, -0.891878, -1.21655, 1.23004, -1.30252, 0.119377, -0.0480295, -0.0689096, 0.210813, -0.271177, -0.00403053, 0.00159954, 0.170357, 54.9799, 25.0327, 7.14447, 0.815917, 3.62521, -0.0814099, 0.00010937, -0.00182614, -0.00160495, 0.00413834, -0.0179794, 0.00927451, 0.0242951, 0.0149043, 0.010445, -0.0649608, 0.192726, -0.278223, 0.470384, -0.547228, 0.332482, -2.08201, -2.16357, -0.12377, 0.468623, -0.547441, 0.334148, -2.09871, -2.16217, -0.0999076, -0.00830299, -0.0500987, -0.0478874, -0.0219008, -0.0762995, -0.0408089
0.182065, 1.69803, -1.2282, -1.53964, -0.891653, -1.21683, 1.23004, -1.30252, 0.122944, -0.050711, -0.0679009, 0.216452, -0.278818, -0.00324243, -0.000629059, 0.245735, 54.9402, 24.9216, 7.02942, 0.809508, 3.63254, -0.0356336, 8.47998e-05, -0.00183652, -0.0016148, 0.00416912, -0.0181427, 0.00945594, 0.0257511, 0.014659, 0.0101458, -0.0647101, 0.196599, -0.280124, 0.470376, -0.547278, 0.332434, -2.08198, -2.16353, -0.123678, 0.468606, -0.547517, 0.334106, -2.09894, -2.16201, -0.0995958, -0.00834046, -0.0502955, -0.0481739, -0.0216537, -0.0778779, -0.0416234
0.183065, 1.69817, -1.22826, -1.53972, -0.891426, -1.21711, 1.23004, -1.30252, 0.128811, -0.0538299, -0.0693215, 0.218697, -0.273453, -0.00291726, -0.000656732, 0.285408, 54.9402, 24.9216, 7.06909, 0.760985, 3.64718, -0.0292249, 5.95653e-05, -0.00184642, -0.00161764, 0.00421125, -0.0183016, 0.00964231, 0.0231267, 0.0113496, 0.00806716, -0.0628596, 0.189774, -0.275722, 0.470368, -0.547328, 0.332386, -2.08195, -2.1635, -0.123586, 0.468589, -0.547593, 0.334058, -2.09915, -2.16185, -0.0992748, -0.00837722, -0.0504874, -0.0484579, -0.0185635, -0.0750241, -0.0436694
0.184065, 1.69832, -1.22832, -1.53979, -0.891182, -1.21739, 1.23004, -1.30253, 0.133855, -0.0540274, -0.0724013, 0.225817, -0.27661, -0.00156213, -0.00189588, 0.325081, 54.9799, 24.8462, 7.02942, 0.772887, 3.63254, 0.0101428, 3.18039e-05, -0.0018564, -0.00162372, 0.00423716, -0.018458, 0.00982937, 0.0241583, 0.0107667, 0.00796382, -0.0629045, 0.192952, -0.278926, 0.470359, -0.547378, 0.332338, -2.08191, -2.16346, -0.123493, 0.468572, -0.547672, 0.334011, -2.09938, -2.16169, -0.0989734, -0.00841329, -0.0506745, -0.0487392, -0.0179848, -0.07619, -0.0442321
