alisrour97/Franka_experiments/Real_Robot_scripts/servo-franka/Data2/log_dyn_INIT2_8.csv
Time,q1,q2,q3,q4,q5,q6,q7,dq1,dq2,dq3,dq4,dq5,dq6,dq7,t1,t2,t3,t4,t5,t6,t7,ex1,ex2,ex3,ex4,ex5,ex6,ev1,ev2,ev3,ev4,ev5,ev6,xd,yd,zd,uxd,uyd,uzd,x,y,z,ux,uy,uz,vxd,vyd,vzd,vx,vy,vz
4.88281e-07, 1.69088, -1.22906, -1.54014, -0.900371, -1.19227, 1.22775, -1.30261, -0.000332351, -0.0037625, -0.0049854, -0.000686176, 0.00233968, -0.00030092, -0.000389655, 0.586922, 67.1317, 33.5584, 7.36664, 2.54718, 4.33566, -0.186696, 3.77732e-05, -0.0022791, 0.00298074, 0.00333555, 0.00287343, 0.00133295, 0.000869284, 0.000625061, -0.00407496, -0.00412705, -0.00539315, -0.000840227, 0.471008, -0.543389, 0.335894, -2.08385, -2.16584, -0.129887, 0.468623, -0.542987, 0.333031, -2.08202, -2.1615, -0.128984, -1.48327e-05, 4.00419e-05, -1.29039e-06, -0.000755092, -0.000216517, -0.00414107
0.0122175, 1.6909, -1.2291, -1.54021, -0.9004, -1.19225, 1.22776, -1.30261, 0.00108431, -0.00332728, -0.00456, -0.00394465, 0.00561946, 0.00980546, -0.00119453, 0.511544, 67.207, 33.5584, 7.5531, 2.53528, 4.31369, -0.193104, 4.2311e-05, -0.00226772, 0.00303039, 0.00339897, 0.00291475, 0.00130938, -0.000406196, -0.00319401, -0.00330928, 0.00482613, -0.00229793, 0.00553345, 0.471008, -0.543389, 0.335894, -2.08385, -2.16584, -0.129887, 0.468632, -0.542974, 0.332976, -2.08193, -2.16148, -0.128937, -2.49008e-05, 7.8927e-05, 1.60533e-06, 0.00303101, 0.00111995, -0.00329926
0.0132175, 1.6909, -1.2291, -1.54021, -0.9004, -1.19225, 1.22776, -1.30261, 0.00108431, -0.00332728, -0.00456, -0.00394465, 0.00561946, 0.00980546, -0.00119453, 0.511544, 67.207, 33.5584, 7.5531, 2.53528, 4.31369, -0.193104, 4.23021e-05, -0.00226772, 0.00303039, 0.00339897, 0.00291474, 0.00130939, -0.00036313, -0.00320338, -0.00330548, 0.00482614, -0.00224979, 0.00556415, 0.471008, -0.543389, 0.335894, -2.08385, -2.16584, -0.129887, 0.468632, -0.542974, 0.332976, -2.08193, -2.16148, -0.128937, -3.59273e-05, 0.000121646, 4.81928e-06, 0.00303101, 0.00111995, -0.00329926
0.0142175, 1.6909, -1.2291, -1.54021, -0.9004, -1.19225, 1.22776, -1.30261, 0.00108431, -0.00332728, -0.00456, -0.00394465, 0.00561946, 0.00980546, -0.00119453, 0.511544, 67.207, 33.5584, 7.5531, 2.53528, 4.31369, -0.193104, 4.22782e-05, -0.00226771, 0.00303039, 0.00339897, 0.00291472, 0.0013094, -0.000316042, -0.00321358, -0.00330136, 0.00482623, -0.0021972, 0.00559765, 0.471008, -0.543389, 0.335894, -2.08385, -2.16584, -0.129887, 0.468632, -0.542974, 0.332976, -2.08193, -2.16148, -0.128937, -4.79476e-05, 0.000168349, 8.36616e-06, 0.00303101, 0.00111995, -0.00329926
0.0152175, 1.6909, -1.2291, -1.54021, -0.9004, -1.19225, 1.22776, -1.30261, 0.00108431, -0.00332728, -0.00456, -0.00394465, 0.00561946, 0.00980546, -0.00119453, 0.511544, 67.207, 33.5584, 7.5531, 2.53528, 4.31369, -0.193104, 4.22316e-05, -0.0022677, 0.00303038, 0.00339895, 0.00291467, 0.00130942, -0.000264782, -0.00322465, -0.00329691, 0.00482641, -0.00214002, 0.00563404, 0.471008, -0.543389, 0.335894, -2.08385, -2.16584, -0.129887, 0.468632, -0.542974, 0.332976, -2.08193, -2.16148, -0.128937, -6.09969e-05, 0.000219187, 1.22607e-05, 0.00303101, 0.00111995, -0.00329926
0.0162175, 1.6909, -1.2291, -1.54021, -0.9004, -1.19225, 1.22776, -1.30261, 0.00108431, -0.00332728, -0.00456, -0.00394465, 0.00561946, 0.00980546, -0.00119453, 0.511544, 67.207, 33.5584, 7.5531, 2.53528, 4.31369, -0.193104, 4.21549e-05, -0.00226769, 0.00303038, 0.00339894, 0.0029146, 0.00130945, -0.000209199, -0.00323662, -0.00329212, 0.00482667, -0.00207807, 0.00567341, 0.471008, -0.543389, 0.335894, -2.08385, -2.16584, -0.129887, 0.468632, -0.542974, 0.332976, -2.08193, -2.16148, -0.128937, -7.51097e-05, 0.000274308, 1.65177e-05, 0.00303101, 0.00111995, -0.00329926
0.0172175, 1.6909, -1.2291, -1.54021, -0.9004, -1.19225, 1.22776, -1.30261, 0.00108431, -0.00332728, -0.00456, -0.00394465, 0.00561946, 0.00980546, -0.00119453, 0.511544, 67.207, 33.5584, 7.5531, 2.53528, 4.31369, -0.193104, 4.20406e-05, -0.00226766, 0.00303037, 0.00339891, 0.00291449, 0.00130951, -0.000149144, -0.00324951, -0.00328698, 0.00482703, -0.0020112, 0.00571588, 0.471008, -0.543389, 0.335894, -2.08385, -2.16584, -0.129887, 0.468632, -0.542974, 0.332976, -2.08193, -2.16148, -0.128937, -9.03198e-05, 0.000333859, 2.1152e-05, 0.00303101, 0.00111995, -0.00329926
0.0182175, 1.6909, -1.2291, -1.54021, -0.9004, -1.19225, 1.22776, -1.30261, 0.00108431, -0.00332728, -0.00456, -0.00394465, 0.00561946, 0.00980546, -0.00119453, 0.511544, 67.207, 33.5584, 7.5531, 2.53528, 4.31369, -0.193104, 4.18814e-05, -0.00226763, 0.00303035, 0.00339887, 0.00291434, 0.00130958, -8.44728e-05, -0.00326336, -0.00328148, 0.0048275, -0.00193925, 0.00576153, 0.471008, -0.543389, 0.335894, -2.08385, -2.16584, -0.129887, 0.468632, -0.542974, 0.332976, -2.08193, -2.16148, -0.128937, -0.000106661, 0.000397984, 2.61782e-05, 0.00303101, 0.00111995, -0.00329926
0.0192175, 1.6909, -1.2291, -1.54021, -0.9004, -1.19225, 1.22776, -1.30261, 0.00108431, -0.00332728, -0.00456, -0.00394465, 0.00561946, 0.00980546, -0.00119453, 0.511544, 67.207, 33.5584, 7.5531, 2.53528, 4.31369, -0.193104, 4.16698e-05, -0.00226758, 0.00303033, 0.00339882, 0.00291414, 0.00130967, -1.50396e-05, -0.00327819, -0.00327562, 0.00482808, -0.00186206, 0.00581045, 0.471008, -0.543389, 0.335894, -2.08385, -2.16584, -0.129887, 0.468632, -0.542974, 0.332976, -2.08193, -2.16148, -0.128937, -0.000124165, 0.000466826, 3.16113e-05, 0.00303101, 0.00111995, -0.00329926
0.0202175, 1.6909, -1.2291, -1.54021, -0.9004, -1.19225, 1.22776, -1.30261, 0.00108431, -0.00332728, -0.00456, -0.00394465, 0.00561946, 0.00980546, -0.00119453, 0.511544, 67.207, 33.5584, 7.5531, 2.53528, 4.31369, -0.193104, 4.13986e-05, -0.00226752, 0.00303031, 0.00339875, 0.00291388, 0.00130979, 5.92971e-05, -0.00329402, -0.00326938, 0.00482879, -0.00177949, 0.00586274, 0.471008, -0.543388, 0.335894, -2.08385, -2.16584, -0.129887, 0.468632, -0.542974, 0.332976, -2.08193, -2.16148, -0.128937, -0.000142864, 0.000540525, 3.74658e-05, 0.00303101, 0.00111995, -0.00329926
0.0212175, 1.6909, -1.2291, -1.54021, -0.9004, -1.19225, 1.22776, -1.30261, 0.00108431, -0.00332728, -0.00456, -0.00394465, 0.00561946, 0.00980546, -0.00119453, 0.511544, 67.207, 33.5584, 7.5531, 2.53528, 4.31369, -0.193104, 4.10603e-05, -0.00226745, 0.00303028, 0.00339867, 0.00291356, 0.00130994, 0.000138677, -0.00331089, -0.00326276, 0.00482963, -0.00169139, 0.0059185, 0.471008, -0.543388, 0.335894, -2.08384, -2.16584, -0.129888, 0.468632, -0.542974, 0.332976, -2.08193, -2.16148, -0.128937, -0.000162789, 0.000619218, 4.37565e-05, 0.00303101, 0.00111995, -0.00329926
0.0222175, 1.6909, -1.2291, -1.54021, -0.9004, -1.19225, 1.22776, -1.30261, 0.00108431, -0.00332728, -0.00456, -0.00394465, 0.00561946, 0.00980546, -0.00119453, 0.511544, 67.207, 33.5584, 7.5531, 2.53528, 4.31369, -0.193104, 4.06477e-05, -0.00226736, 0.00303025, 0.00339856, 0.00291317, 0.00131013, 0.000223236, -0.00332882, -0.00325575, 0.00483061, -0.00159761, 0.00597779, 0.471008, -0.543388, 0.335894, -2.08384, -2.16584, -0.129888, 0.468632, -0.542974, 0.332976, -2.08193, -2.16148, -0.128937, -0.000183971, 0.000703042, 5.04979e-05, 0.00303101, 0.00111995, -0.00329926
0.0232175, 1.6909, -1.2291, -1.54021, -0.9004, -1.19225, 1.22776, -1.30261, 0.00108431, -0.00332728, -0.00456, -0.00394465, 0.00561946, 0.00980546, -0.00119453, 0.511544, 67.207, 33.5584, 7.5531, 2.53528, 4.31369, -0.193104, 4.01535e-05, -0.00226725, 0.0030302, 0.00339844, 0.0029127, 0.00131034, 0.000313107, -0.00334783, -0.00324834, 0.00483175, -0.00149801, 0.00604072, 0.471008, -0.543387, 0.335894, -2.08384, -2.16584, -0.129888, 0.468632, -0.542974, 0.332976, -2.08193, -2.16148, -0.128937, -0.000206438, 0.000792126, 5.77046e-05, 0.00303101, 0.00111995, -0.00329926
0.0242175, 1.6909, -1.2291, -1.54021, -0.9004, -1.19225, 1.22776, -1.30261, 0.00108431, -0.00332728, -0.00456, -0.00394465, 0.00561946, 0.00980546, -0.00119453, 0.511544, 67.207, 33.5584, 7.5531, 2.53528, 4.31369, -0.193104, 3.95705e-05, -0.00226713, 0.00303015, 0.0033983, 0.00291215, 0.0013106, 0.000408422, -0.00336795, -0.00324053, 0.00483306, -0.00139245, 0.00610736, 0.471007, -0.543387, 0.335894, -2.08384, -2.16584, -0.129889, 0.468632, -0.542974, 0.332976, -2.08193, -2.16148, -0.128937, -0.000230219, 0.000886601, 6.53909e-05, 0.00303101, 0.00111995, -0.00329926
0.0252175, 1.69095, -1.22915, -1.54026, -0.900417, -1.1922, 1.22777, -1.3026, 0.00553772, -0.00596026, -0.002247, 0.000599279, 0.00230578, 0.000919841, -0.000637668, 0.245735, 67.7228, 33.6695, 7.5531, 2.4126, 4.19925, -0.205922, 5.88684e-05, -0.00223464, 0.00308048, 0.00342292, 0.00298756, 0.00125529, -0.000627046, -0.00333019, -0.00433918, -0.00117118, -0.00599053, 0.00609384, 0.471007, -0.543386, 0.335894, -2.08384, -2.16584, -0.129889, 0.468662, -0.542945, 0.332929, -2.08182, -2.16149, -0.128992, -0.000255341, 0.00098659, 7.35711e-05, 0.0028915, 0.00240975, -0.00421407
0.0262175, 1.69095, -1.22914, -1.54026, -0.900425, -1.19219, 1.22777, -1.30261, 0.00497283, -0.00235855, -0.00256142, -0.00136605, 0.00185459, 0.00117426, -0.00235789, 0.21003, 67.6474, 33.7052, 7.62848, 2.40619, 4.1846, -0.153737, 6.33861e-05, -0.00222915, 0.00308163, 0.00342752, 0.00298617, 0.00123734, -0.0010043, -0.00334979, -0.00254536, -0.00197495, -0.00161846, 0.00868193, 0.471007, -0.543385, 0.335894, -2.08384, -2.16584, -0.12989, 0.468667, -0.54294, 0.332928, -2.0818, -2.16151, -0.128988, -0.00028183, 0.00109222, 8.22592e-05, 0.00293584, 0.00261253, -0.00237616
0.0272175, 1.69096, -1.22916, -1.54027, -0.900419, -1.19219, 1.22778, -1.30261, 0.00364958, -0.00903991, -0.0037137, 0.00261403, 0.0040091, -0.00673493, -0.000113866, 0.21003, 67.4252, 33.5187, 7.47772, 2.33295, 4.13424, -0.193104, 6.12181e-05, -0.00222773, 0.00308996, 0.00342527, 0.00300228, 0.00124349, 0.000476995, -0.000453091, -0.00693997, -0.00731307, -0.0141413, 0.0020207, 0.471007, -0.543384, 0.335894, -2.08384, -2.16584, -0.129891, 0.468668, -0.542939, 0.33292, -2.08179, -2.16149, -0.129007, -0.000309711, 0.0012036, 9.14692e-05, -9.06626e-05, 0.00181943, -0.0068489
0.0282175, 1.69097, -1.22916, -1.54028, -0.900427, -1.19219, 1.22778, -1.30261, 0.00537508, -0.0110268, -0.01004, -0.000511139, 0.00234993, -0.00156658, -0.00105925, 0.0949785, 66.6516, 33.1498, 7.44202, 2.21576, 4.03445, -0.166554, 6.23908e-05, -0.0022228, 0.00309934, 0.00344167, 0.00300148, 0.00123613, 0.00126535, -0.00182028, -0.0104157, -0.0110464, -0.0113418, 0.00393132, 0.471007, -0.543383, 0.335894, -2.08384, -2.16584, -0.129891, 0.468672, -0.542936, 0.332911, -2.08178, -2.16149, -0.128989, -0.000339009, 0.00132085, 0.000101215, 0.00114819, 0.00174932, -0.0104348
0.0292175, 1.69098, -1.22917, -1.54031, -0.900433, -1.19218, 1.22779, -1.30261, 0.00813315, -0.0112993, -0.0165416, -0.00110745, 0.00802364, -0.00258168, -0.00287631, -0.0914839, 65.6241, 32.5547, 7.33093, 2.03174, 3.93374, -0.10796, 6.36035e-05, -0.00221624, 0.00311483, 0.00346184, 0.00300949, 0.00122561, 0.000132887, -0.00283743, -0.0131869, -0.015701, -0.0160704, 0.00785881, 0.471006, -0.543382, 0.335894, -2.08384, -2.16584, -0.129892, 0.468678, -0.542931, 0.332895, -2.08175, -2.16149, -0.128977, -0.000369746, 0.00144407, 0.00011151, 0.00199275, 0.00345874, -0.0130157
0.0302175, 1.691, -1.22917, -1.54035, -0.900448, -1.19218, 1.22778, -1.30261, 0.0100177, -0.00258503, -0.0230076, -0.00571237, 0.00986125, -0.000681417, -0.00483366, -0.281914, 64.295, 31.9953, 7.25555, 1.90265, 3.88339, -0.0292249, 6.56461e-05, -0.00221126, 0.0031326, 0.00350694, 0.00300744, 0.00121257, -0.00156763, -0.00420613, -0.0109189, -0.020596, -0.00693591, 0.0131425, 0.471006, -0.543381, 0.335894, -2.08384, -2.16584, -0.129893, 0.468682, -0.542924, 0.332878, -2.08171, -2.16149, -0.128927, -0.000401943, 0.00157338, 0.000122367, 0.00334855, 0.00497376, -0.0105426
0.0312175, 1.69101, -1.22921, -1.54041, -0.900458, -1.19218, 1.22778, -1.30261, 0.0111459, -0.0102057, -0.0313756, -0.00735867, 0.00546314, -0.00416727, -0.00200174, -0.468376, 63.3746, 31.4359, 7.1048, 1.79828, 3.84036, -0.0621838, 5.96372e-05, -0.00221157, 0.00317508, 0.00357286, 0.00303829, 0.00122178, 0.000521312, -0.0027572, -0.0189468, -0.0345936, -0.0117804, 0.00761898, 0.471006, -0.54338, 0.335895, -2.08384, -2.16584, -0.129894, 0.46868, -0.542922, 0.332835, -2.08167, -2.16144, -0.128885, -0.00043562, 0.00170887, 0.000133799, 0.00165271, 0.00422341, -0.0187387
0.0322175, 1.69102, -1.22923, -1.54046, -0.900472, -1.19219, 1.22778, -1.30261, 0.0134943, -0.0103274, -0.0381569, -0.00577929, 0.00421189, -0.00153071, -0.000859775, -0.583427, 62.3431, 30.7654, 6.95801, 1.76807, 3.7836, -0.0750012, 5.29665e-05, -0.00220898, 0.00321025, 0.00362999, 0.00304493, 0.00122287, 0.00202928, -0.00289611, -0.0210884, -0.0384464, -0.00903923, 0.00383743, 0.471005, -0.543378, 0.335895, -2.08383, -2.16584, -0.129895, 0.468681, -0.542922, 0.3328, -2.08164, -2.16141, -0.12883, -0.000470796, 0.00185063, 0.00014582, 0.00173287, 0.00321181, -0.0210795
0.0332175, 1.69104, -1.22927, -1.54053, -0.900487, -1.1922, 1.22779, -1.30261, 0.0110934, -0.0179435, -0.0446464, -0.00843446, 0.00195523, 0.00152578, 0.00064752, -0.658806, 61.6092, 30.2457, 6.84296, 1.77997, 3.69754, -0.10796, 4.01725e-05, -0.00221055, 0.0032601, 0.00370308, 0.00306487, 0.00123827, 0.00526581, -0.00146424, -0.027831, -0.0440404, -0.0125282, -0.00133631, 0.471005, -0.543376, 0.335895, -2.08383, -2.16584, -0.129896, 0.468678, -0.542925, 0.332749, -2.0816, -2.16135, -0.128769, -0.000507488, 0.00199877, 0.000158442, 0.00013849, 0.00114407, -0.0281839
0.0342175, 1.69105, -1.22931, -1.54059, -0.900502, -1.19221, 1.2278, -1.30261, 0.0109326, -0.0289451, -0.0489687, -0.0105917, 0.000994573, 0.00480879, -0.000789023, -0.658806, 60.9824, 29.5752, 6.73187, 1.77997, 3.58218, -0.0750012, 2.76253e-05, -0.00220933, 0.00330971, 0.0037664, 0.00308486, 0.00124322, 0.00729296, -0.00181165, -0.0358238, -0.0473301, -0.0204487, -0.000247149, 0.471004, -0.543375, 0.335895, -2.08383, -2.16584, -0.129898, 0.468677, -0.542928, 0.332698, -2.08156, -2.16131, -0.12872, -0.000545713, 0.00215336, 0.000171677, 0.000231177, 0.000541971, -0.036388
0.0352175, 1.69106, -1.22937, -1.54066, -0.900523, -1.19222, 1.22782, -1.30261, 0.0130163, -0.0387544, -0.0543538, -0.0161724, 0.000872173, 0.00762631, -0.00100073, -0.619133, 60.5777, 28.9802, 6.65649, 1.76807, 3.45309, -0.0621838, 1.51779e-05, -0.00220582, 0.00336858, 0.00382958, 0.00311891, 0.00124527, 0.00721068, -0.00398425, -0.0441249, -0.0534414, -0.0276512, 0.00458426, 0.471004, -0.543373, 0.335895, -2.08383, -2.16584, -0.129899, 0.468679, -0.542929, 0.332638, -2.08151, -2.16127, -0.128685, -0.000585484, 0.00231447, 0.000185536, 0.00205856, 0.0021511, -0.0446236
0.0362175, 1.69108, -1.22941, -1.54074, -0.900536, -1.19222, 1.22783, -1.30261, 0.0150607, -0.0405366, -0.0585376, -0.0177865, 0.00132321, 0.00932354, -0.000667156, -0.583427, 60.0977, 28.5319, 6.47003, 1.74335, 3.33133, -0.0621838, -3.87076e-07, -0.00220504, 0.003424, 0.0039001, 0.00313966, 0.00126026, 0.00711031, -0.00517843, -0.0468277, -0.0566493, -0.0282947, 0.00597705, 0.471003, -0.54337, 0.335895, -2.08383, -2.16584, -0.129901, 0.468677, -0.542934, 0.332581, -2.08147, -2.16121, -0.128628, -0.000626814, 0.0024822, 0.000200032, 0.00310868, 0.00288292, -0.0472983
0.0372175, 1.6911, -1.22945, -1.54082, -0.900554, -1.19223, 1.22785, -1.30261, 0.0134298, -0.0390058, -0.0608307, -0.0177836, -0.00212578, 0.0102514, 0.000267306, -0.543754, 59.6573, 28.0478, 6.35895, 1.69391, 3.21689, -0.0814099, -1.04273e-05, -0.00219833, 0.00347513, 0.00396332, 0.00315654, 0.00126726, 0.00912052, -0.00364375, -0.0465627, -0.0590723, -0.0231957, 0.00127116, 0.471003, -0.543368, 0.335896, -2.08382, -2.16584, -0.129903, 0.468682, -0.542933, 0.332529, -2.08144, -2.16117, -0.128576, -0.000669715, 0.00265659, 0.000215176, 0.00161453, 0.000969285, -0.0472872
0.0382175, 1.69112, -1.22949, -1.54089, -0.900567, -1.19223, 1.22787, -1.30261, 0.0184639, -0.037174, -0.0627561, -0.0191067, 0.00104272, 0.0153635, -0.000533873, -0.508049, 59.324, 27.7146, 6.17248, 1.61426, 3.10977, -0.0621838, -2.15455e-05, -0.00219202, 0.00352453, 0.00402575, 0.00317017, 0.00127174, 0.00681479, -0.00772085, -0.0461585, -0.056095, -0.020835, 0.00842485, 0.471002, -0.543365, 0.335896, -2.08382, -2.16584, -0.129904, 0.468686, -0.542934, 0.332478, -2.0814, -2.16113, -0.128522, -0.000714195, 0.00283772, 0.000230977, 0.00557397, 0.00353144, -0.0466374
0.0392175, 1.69115, -1.22952, -1.54097, -0.900583, -1.19223, 1.2279, -1.30261, 0.0233023, -0.0326941, -0.0662567, -0.0197453, -0.00208097, 0.0186601, -0.00205134, -0.508049, 59.1415, 27.4885, 6.09711, 1.55292, 3.01639, -0.0164075, -2.89466e-05, -0.00218048, 0.0035751, 0.00408955, 0.00318261, 0.00126258, 0.00594323, -0.0101676, -0.04481, -0.0584315, -0.0115399, 0.0125995, 0.471001, -0.543363, 0.335896, -2.08382, -2.16584, -0.129906, 0.468696, -0.54293, 0.332427, -2.08134, -2.16111, -0.128467, -0.000760263, 0.00302564, 0.000247448, 0.00798901, 0.00447246, -0.0452278
0.0402175, 1.69117, -1.22954, -1.54104, -0.900602, -1.19224, 1.22792, -1.30261, 0.0201971, -0.0299981, -0.0650002, -0.0168407, -0.000221989, 0.0211599, -0.000418122, -0.357292, 58.8837, 27.3774, 6.02173, 1.50348, 2.923, -0.0420422, -3.54375e-05, -0.00217018, 0.00361389, 0.00414744, 0.00317688, 0.00126151, 0.00776226, -0.00865603, -0.0419826, -0.0522003, -0.00935213, 0.00666403, 0.471001, -0.54336, 0.335896, -2.08381, -2.16584, -0.129908, 0.468704, -0.542927, 0.332388, -2.08131, -2.16109, -0.128399, -0.000807924, 0.0032204, 0.000264596, 0.00659881, 0.00237443, -0.0426556
0.0412175, 1.6912, -1.22956, -1.5411, -0.900622, -1.19224, 1.22794, -1.3026, 0.0246055, -0.02354, -0.0603247, -0.0195075, 0.000709047, 0.0269684, 0.00117931, -0.206535, 58.844, 27.2663, 6.02173, 1.46686, 2.85159, -0.0814099, -3.73118e-05, -0.00215622, 0.00364791, 0.0041962, 0.00317279, 0.00125155, 0.00408224, -0.0136474, -0.0366088, -0.0440411, -0.000505059, 0.0143238, 0.471, -0.543357, 0.335896, -2.08381, -2.16584, -0.129911, 0.468716, -0.54292, 0.332354, -2.08127, -2.16109, -0.128344, -0.000857184, 0.00342203, 0.000282433, 0.0115968, 0.00558623, -0.0369108
0.0422175, 1.69122, -1.22957, -1.54116, -0.90065, -1.19224, 1.22797, -1.30261, 0.0243778, -0.01821, -0.0608698, -0.0240707, 0.00192928, 0.0290063, 0.000311492, 0.0949785, 58.8083, 27.3417, 6.13678, 1.41742, 2.84427, -0.0685925, -3.90628e-05, -0.0021438, 0.00367428, 0.00424436, 0.00315253, 0.00123603, 0.00263516, -0.0148985, -0.0340964, -0.043853, 0.00546591, 0.0191516, 0.470999, -0.543353, 0.335897, -2.08381, -2.16584, -0.129913, 0.468727, -0.542914, 0.332327, -2.08124, -2.16109, -0.128275, -0.000908043, 0.00363059, 0.000300968, 0.0128344, 0.00688793, -0.0342245
0.0432175, 1.69123, -1.22958, -1.54122, -0.900677, -1.19225, 1.22799, -1.30261, 0.0179069, -0.0192851, -0.0601522, -0.0238057, 0.000767973, 0.0242716, -0.00196248, 0.551216, 59.1415, 27.5281, 6.24786, 1.42383, 2.8873, -0.00999879, -4.56813e-05, -0.00213779, 0.00370481, 0.00429185, 0.00314551, 0.0012248, 0.00548415, -0.0103976, -0.0344934, -0.0468212, 0.00295657, 0.0149348, 0.470998, -0.54335, 0.335897, -2.0838, -2.16584, -0.129916, 0.468731, -0.542912, 0.332296, -2.0812, -2.16109, -0.128219, -0.000960503, 0.00384608, 0.000320207, 0.00837439, 0.00416787, -0.0349039
0.0442175, 1.69125, -1.22958, -1.54126, -0.90071, -1.19225, 1.22801, -1.30261, 0.0195821, -0.0142945, -0.0535676, -0.0251403, -0.000139469, 0.0249659, -0.00181694, 0.888436, 59.3994, 27.7503, 6.43433, 1.43573, 2.95138, 0.00373412, -4.35943e-05, -0.00212323, 0.00372552, 0.00433358, 0.00312366, 0.00119983, 0.00300163, -0.0127823, -0.0294204, -0.0413515, 0.00900796, 0.0205274, 0.470997, -0.543346, 0.335897, -2.0838, -2.16584, -0.129919, 0.468744, -0.542902, 0.332276, -2.08116, -2.16111, -0.128156, -0.00101456, 0.00406854, 0.000340161, 0.0107963, 0.00615788, -0.0295613
0.0452175, 1.69126, -1.22959, -1.5413, -0.900747, -1.19226, 1.22803, -1.30261, 0.0142582, -0.0125982, -0.0498403, -0.029771, -0.00610082, 0.0252112, 9.40658e-06, 1.38038, 59.7644, 28.0478, 6.65649, 1.46686, 3.03012, -0.0292249, -4.41813e-05, -0.00211129, 0.00374315, 0.00436558, 0.00309828, 0.00118347, 0.0044979, -0.0108752, -0.0274257, -0.0418746, 0.0159476, 0.0174288, 0.470996, -0.543342, 0.335898, -2.08379, -2.16583, -0.129921, 0.468754, -0.542896, 0.332258, -2.08114, -2.16113, -0.128099, -0.00107022, 0.00429798, 0.000360835, 0.00896153, 0.00452513, -0.0277458
0.0462175, 1.69127, -1.22958, -1.54133, -0.900774, -1.19227, 1.22806, -1.30261, 0.00866936, -0.00998531, -0.0452961, -0.0317234, -0.00661162, 0.0248342, 0.00024363, 1.83265, 60.0977, 28.4208, 6.69617, 1.52179, 3.13083, -0.0356336, -4.80526e-05, -0.00210202, 0.00375465, 0.00439035, 0.00306473, 0.00117372, 0.00551695, -0.00885277, -0.0242703, -0.0382883, 0.0187393, 0.0155119, 0.470995, -0.543338, 0.335898, -2.08379, -2.16583, -0.129925, 0.468762, -0.542893, 0.332247, -2.08112, -2.16115, -0.128042, -0.00112746, 0.0045344, 0.000382238, 0.00703483, 0.00318704, -0.0247059
0.0472175, 1.69128, -1.22958, -1.54137, -0.900804, -1.19228, 1.22809, -1.30261, 0.010308, -0.00796996, -0.0431934, -0.0344119, -0.00638387, 0.0256913, -0.00129564, 2.17384, 60.5777, 28.8691, 6.77154, 1.56482, 3.20956, 0.00373412, -5.05798e-05, -0.00208954, 0.0037698, 0.00441255, 0.0030367, 0.00115239, 0.00366317, -0.0109407, -0.0227065, -0.03695, 0.0213995, 0.0222379, 0.470994, -0.543333, 0.335898, -2.08379, -2.16583, -0.129928, 0.468773, -0.542888, 0.332231, -2.0811, -2.16118, -0.127994, -0.00118629, 0.0047778, 0.000404375, 0.00905136, 0.00510535, -0.0229148
0.0482175, 1.6913, -1.22959, -1.5414, -0.900829, -1.19229, 1.22812, -1.30261, 0.0139778, -0.00682778, -0.0419994, -0.0305842, -0.00661114, 0.0260158, 0.000356942, 2.39997, 61.0934, 29.3531, 6.73187, 1.62067, 3.29562, -0.0292249, -5.24014e-05, -0.0020741, 0.00378314, 0.00442948, 0.00300559, 0.00113756, 0.00315099, -0.0124218, -0.0212283, -0.0343867, 0.0228745, 0.0215018, 0.470993, -0.543328, 0.335899, -2.08378, -2.16583, -0.129931, 0.468787, -0.542883, 0.332218, -2.08109, -2.16121, -0.127949, -0.00124669, 0.00502817, 0.000427252, 0.0105052, 0.00569452, -0.0213975
0.0492175, 1.69131, -1.22959, -1.54141, -0.900849, -1.1923, 1.22816, -1.30261, 0.0125178, -0.0071293, -0.0372065, -0.0263651, -0.0112002, 0.0259254, -0.000474116, 2.66181, 61.6806, 29.6863, 6.62079, 1.66919, 3.39633, -0.00999879, -5.79708e-05, -0.00206214, 0.00379313, 0.00442995, 0.00297871, 0.00112405, 0.00524334, -0.0110329, -0.0190341, -0.0301979, 0.0258497, 0.0181481, 0.470992, -0.543323, 0.335899, -2.08377, -2.16583, -0.129935, 0.468797, -0.542881, 0.332207, -2.08108, -2.16124, -0.127926, -0.00130866, 0.00528549, 0.000450875, 0.00921022, 0.00349164, -0.0194904
0.0502175, 1.69133, -1.2296, -1.54144, -0.90087, -1.1923, 1.22819, -1.30261, 0.0133732, -0.00810409, -0.0371848, -0.0202848, -0.00894203, 0.0299985, -7.87182e-05, 2.70148, 62.3074, 30.1703, 6.5097, 1.69391, 3.51077, -0.0164075, -5.93027e-05, -0.0020431, 0.00380662, 0.00443555, 0.00295162, 0.00110303, 0.00699779, -0.0112314, -0.0184295, -0.0229081, 0.0248369, 0.014233, 0.47099, -0.543318, 0.3359, -2.08377, -2.16583, -0.129939, 0.468814, -0.542874, 0.332193, -2.08106, -2.16127, -0.127898, -0.00137217, 0.00554973, 0.000475247, 0.00942947, 0.00193899, -0.0191473
0.0512175, 1.69134, -1.22961, -1.54146, -0.900878, -1.19232, 1.22823, -1.30261, 0.0138309, -0.00538706, -0.0343072, -0.015527, -0.00729666, 0.0323509, 0.00113432, 2.85224, 62.9343, 30.5433, 6.24786, 1.71863, 3.63986, -0.0484509, -6.86776e-05, -0.00203305, 0.00381597, 0.00443385, 0.00292422, 0.00110555, 0.00755553, -0.0115589, -0.0149523, -0.0151573, 0.0270802, 0.0113655, 0.470989, -0.543313, 0.3359, -2.08376, -2.16583, -0.129943, 0.468823, -0.542876, 0.332183, -2.08107, -2.16128, -0.127876, -0.00143722, 0.00582086, 0.000500373, 0.00983712, 0.0011376, -0.0157853
0.0522175, 1.69135, -1.22962, -1.54149, -0.900892, -1.19233, 1.22827, -1.30261, 0.0177067, -0.00556182, -0.0330256, -0.011955, -0.00585745, 0.0349412, 0.000518852, 2.85224, 63.6682, 30.9519, 6.09711, 1.73694, 3.76163, -0.0420422, -7.6078e-05, -0.00201792, 0.00383368, 0.00443856, 0.00290282, 0.00109813, 0.00691361, -0.0138602, -0.0140646, -0.0100295, 0.0270481, 0.0139653, 0.470987, -0.543307, 0.335901, -2.08376, -2.16583, -0.129947, 0.468836, -0.542874, 0.332164, -2.08107, -2.1613, -0.127854, -0.00150377, 0.00609884, 0.000526256, 0.012078, 0.00200696, -0.0148527
0.0532175, 1.69137, -1.22962, -1.54152, -0.900902, -1.19234, 1.22831, -1.30261, 0.020396, -0.00636722, -0.031187, -0.0125584, -0.0106765, 0.0379063, -0.00158688, 2.85224, 64.184, 31.3248, 5.95032, 1.78638, 3.85501, 0.0101428, -8.65241e-05, -0.00200551, 0.00384202, 0.00444053, 0.00285904, 0.00108884, 0.00678598, -0.0159012, -0.0138337, -0.00885368, 0.0319905, 0.0187401, 0.470986, -0.543301, 0.335901, -2.08375, -2.16583, -0.129951, 0.468847, -0.542877, 0.332155, -2.08107, -2.16133, -0.127813, -0.00157182, 0.00638361, 0.000552899, 0.014052, 0.00246587, -0.0146398
0.0542175, 1.69138, -1.22964, -1.54154, -0.900917, -1.19236, 1.22835, -1.30261, 0.0175633, -0.00924802, -0.0272513, -0.0124329, -0.00948397, 0.0460259, -0.00082056, 2.77686, 64.9219, 31.5867, 5.91064, 1.8349, 3.91269, 0.00373412, -9.53345e-05, -0.00198838, 0.00385888, 0.00443571, 0.00283259, 0.00108062, 0.00843487, -0.016712, -0.0132392, 0.00247489, 0.0321281, 0.0176078, 0.470984, -0.543294, 0.335902, -2.08374, -2.16583, -0.129956, 0.468863, -0.542876, 0.332137, -2.08107, -2.16136, -0.127797, -0.00164135, 0.0066751, 0.000580303, 0.0148727, 0.00107132, -0.0143058
0.0552175, 1.6914, -1.22964, -1.54156, -0.900929, -1.19238, 1.2284, -1.30261, 0.0181404, -0.00744882, -0.0285394, -0.0130819, -0.00902136, 0.0442481, 0.00114838, 2.70148, 65.3662, 31.8842, 5.91064, 1.89624, 3.92642, -0.0420422, -0.000106239, -0.0019736, 0.00386775, 0.00443282, 0.00278599, 0.00107934, 0.0081119, -0.0167062, -0.0128923, -0.000218239, 0.0331508, 0.0164818, 0.470983, -0.543288, 0.335902, -2.08374, -2.16583, -0.12996, 0.468876, -0.542878, 0.332126, -2.08109, -2.16139, -0.127758, -0.00171231, 0.00697325, 0.000608468, 0.0147969, 0.0016348, -0.0138849
0.0562175, 1.69141, -1.22965, -1.54159, -0.900945, -1.19241, 1.22845, -1.30261, 0.013584, -0.00802282, -0.0304414, -0.0119725, -0.0146898, 0.0471769, 0.00100295, 2.70148, 65.878, 32.2175, 5.98602, 1.99512, 3.94839, -0.0484509, -0.000121597, -0.00196297, 0.00387991, 0.00443909, 0.00273492, 0.00108218, 0.0126427, -0.0135313, -0.0132359, -0.000777396, 0.0388849, 0.00857461, 0.470981, -0.543281, 0.335903, -2.08373, -2.16582, -0.129965, 0.468885, -0.542884, 0.332112, -2.08111, -2.16141, -0.127704, -0.00178469, 0.00727797, 0.000637396, 0.0117035, -0.0026104, -0.0148032
0.0572175, 1.69142, -1.22965, -1.54161, -0.900956, -1.19244, 1.22849, -1.30261, 0.0150963, -0.00659492, -0.026094, -0.0148005, -0.0217142, 0.0482917, -0.00102679, 2.62611, 66.1755, 32.4396, 6.09711, 2.04364, 3.99142, -0.00267457, -0.000133489, -0.00194901, 0.0038831, 0.00443586, 0.00267549, 0.00107813, 0.0119227, -0.01523, -0.0112073, -0.000724156, 0.0469645, 0.0145047, 0.470979, -0.543273, 0.335904, -2.08372, -2.16582, -0.129971, 0.468897, -0.542887, 0.332107, -2.08113, -2.16145, -0.127653, -0.00185846, 0.00758918, 0.000667086, 0.0133738, -0.00183108, -0.01271
0.0582175, 1.69144, -1.22965, -1.54164, -0.900972, -1.19247, 1.22854, -1.30261, 0.0160858, -0.00550289, -0.0278565, -0.0153244, -0.0227094, 0.0483555, -0.00115924, 2.55073, 66.5802, 32.7372, 6.28357, 2.10498, 4.05551, 0.0101428, -0.000144784, -0.00193428, 0.00389401, 0.00444416, 0.00262451, 0.00107172, 0.0121174, -0.0155327, -0.0112879, -0.00297219, 0.0494375, 0.0150908, 0.470977, -0.543266, 0.335904, -2.08371, -2.16582, -0.129976, 0.46891, -0.542888, 0.332095, -2.08114, -2.16148, -0.127598, -0.00193359, 0.00790677, 0.000697537, 0.013605, -0.0016807, -0.0127986
0.0592175, 1.69146, -1.22965, -1.54165, -0.900989, -1.1925, 1.22857, -1.30261, 0.0160174, -0.00356085, -0.0235258, -0.0153997, -0.0254978, 0.042781, 0.000685232, 2.51106, 66.8024, 32.9236, 6.47003, 2.09308, 4.14889, -0.0292249, -0.000154673, -0.00192008, 0.00389739, 0.00444839, 0.00256615, 0.00106916, 0.0113473, -0.0149727, -0.00907881, -0.00517674, 0.0509824, 0.0145762, 0.470975, -0.543258, 0.335905, -2.0837, -2.16582, -0.129982, 0.468923, -0.542889, 0.33209, -2.08115, -2.16151, -0.12754, -0.00201003, 0.00823062, 0.000728745, 0.0130215, -0.000959665, -0.0104497
0.0602175, 1.69147, -1.22966, -1.54167, -0.900998, -1.19253, 1.22861, -1.3026, 0.0126035, -0.0017602, -0.01882, -0.013574, -0.0276061, 0.0385781, 0.0011689, 2.47535, 67.1317, 33.0387, 6.58508, 2.07477, 4.24228, -0.0484509, -0.000167135, -0.0019068, 0.0039041, 0.00444723, 0.00251815, 0.00106885, 0.0125752, -0.0125083, -0.00626063, -0.00412831, 0.0522152, 0.0108669, 0.470973, -0.54325, 0.335906, -2.08369, -2.16582, -0.129988, 0.468934, -0.542891, 0.332082, -2.08117, -2.16154, -0.127498, -0.00208776, 0.00856062, 0.000760709, 0.0106284, -0.00237682, -0.00775153
0.0612175, 1.69149, -1.22966, -1.54168, -0.901013, -1.19257, 1.22865, -1.30261, 0.0119111, -0.00126063, -0.0203196, -0.0138733, -0.0327998, 0.0359676, -0.000407529, 2.3603, 67.3538, 33.2212, 6.77154, 2.02533, 4.32834, -0.0164075, -0.000176671, -0.00189047, 0.00391005, 0.00445119, 0.00246387, 0.00105527, 0.0141523, -0.0109135, -0.00670812, -0.0101052, 0.0561398, 0.00978975, 0.470971, -0.543241, 0.335906, -2.08369, -2.16582, -0.129994, 0.468948, -0.542891, 0.332075, -2.08117, -2.16158, -0.127447, -0.00216672, 0.00889664, 0.000793423, 0.00899712, -0.00359406, -0.00835768
0.0622175, 1.6915, -1.22966, -1.54169, -0.901027, -1.1926, 1.22868, -1.30261, 0.0117156, -0.00338897, -0.0149889, -0.0130292, -0.0320526, 0.0338953, -0.00220447, 2.3603, 67.5363, 33.2609, 6.91833, 1.9704, 4.4144, 0.0357776, -0.000187782, -0.00187723, 0.00391243, 0.00445298, 0.00240811, 0.00104331, 0.0135618, -0.0113706, -0.00609831, -0.00662072, 0.0523293, 0.0137324, 0.470969, -0.543232, 0.335907, -2.08368, -2.16582, -0.13, 0.46896, -0.542892, 0.332072, -2.08118, -2.16162, -0.127396, -0.0022469, 0.00923859, 0.000826888, 0.00937432, -0.00274431, -0.00764428
0.0632175, 1.69153, -1.22967, -1.54169, -0.901033, -1.19264, 1.22872, -1.30261, 0.0172782, -0.00616598, -0.0135489, -0.00987418, -0.0314771, 0.033646, -4.54904e-05, 2.24921, 67.7585, 33.2609, 6.95801, 1.90906, 4.46383, -0.00267457, -0.000197716, -0.00185974, 0.00391724, 0.00444997, 0.00235853, 0.00103812, 0.0121984, -0.0141817, -0.00707426, -0.00490063, 0.0491682, 0.0154704, 0.470967, -0.543223, 0.335908, -2.08367, -2.16581, -0.130006, 0.468975, -0.542891, 0.332066, -2.08119, -2.16165, -0.127356, -0.00232828, 0.00958644, 0.000861108, 0.0120164, -0.000784734, -0.00844681
0.0642175, 1.69154, -1.22968, -1.54171, -0.901048, -1.19268, 1.22875, -1.30261, 0.0188919, -0.0100103, -0.0152316, -0.0102115, -0.0360915, 0.0399084, 0.000478299, 2.24921, 68.0521, 33.3719, 7.1048, 1.85321, 4.46383, -0.0164075, -0.000211133, -0.00184526, 0.00393063, 0.0044572, 0.00231448, 0.00103314, 0.014007, -0.0156289, -0.00949583, -0.00380132, 0.0527951, 0.0148042, 0.470965, -0.543213, 0.335909, -2.08366, -2.16581, -0.130013, 0.468987, -0.542892, 0.332051, -2.08119, -2.16168, -0.12731, -0.00241084, 0.00994017, 0.000896084, 0.0133564, -0.00178388, -0.0111277
0.0652175, 1.69157, -1.2297, -1.54172, -0.901057, -1.19272, 1.22879, -1.30261, 0.0212518, -0.0119799, -0.0148205, -0.00788192, -0.0356253, 0.0398605, 0.000556225, 2.20954, 68.3099, 33.4076, 7.14447, 1.81659, 4.46383, -0.0228162, -0.000223873, -0.0018281, 0.00394343, 0.00446156, 0.00227004, 0.00102564, 0.0140124, -0.0166559, -0.0102901, -0.00267637, 0.0506688, 0.0156468, 0.470962, -0.543204, 0.33591, -2.08365, -2.16581, -0.13002, 0.469002, -0.542892, 0.332036, -2.08119, -2.16171, -0.127268, -0.00249458, 0.0102997, 0.000931821, 0.0142698, -0.00126503, -0.0119082
0.0662175, 1.69159, -1.22972, -1.54173, -0.90107, -1.19276, 1.22882, -1.30261, 0.019581, -0.0134744, -0.0164133, -0.00619952, -0.0410552, 0.0365793, -0.00207059, 2.17384, 68.5678, 33.5187, 7.18018, 1.81018, 4.4208, 0.0431018, -0.000236561, -0.0018092, 0.00395738, 0.00446753, 0.00222105, 0.0010074, 0.0168198, -0.0139442, -0.0116742, -0.00849848, 0.0523008, 0.0128515, 0.47096, -0.543193, 0.335911, -2.08363, -2.16581, -0.130028, 0.469018, -0.542891, 0.332021, -2.08119, -2.16175, -0.127221, -0.00257947, 0.0106651, 0.000968322, 0.0115273, -0.00356876, -0.0135928
0.0672175, 1.69161, -1.22973, -1.54174, -0.901082, -1.19281, 1.22886, -1.30261, 0.0199487, -0.0120084, -0.0149125, -0.00816716, -0.0437828, 0.033779, -0.00015969, 2.20954, 68.7146, 33.5187, 7.21588, 1.77356, 4.37778, 0.0101428, -0.000249942, -0.00179373, 0.00396747, 0.00447551, 0.0021704, 0.00100406, 0.0162499, -0.014081, -0.0107911, -0.0117393, 0.055104, 0.0130589, 0.470957, -0.543183, 0.335912, -2.08362, -2.16581, -0.130035, 0.469031, -0.542891, 0.33201, -2.08119, -2.16178, -0.127169, -0.00266552, 0.0110363, 0.00100559, 0.0115894, -0.00276531, -0.0125994
0.0682175, 1.69163, -1.22975, -1.54175, -0.901094, -1.19285, 1.22889, -1.30261, 0.0201114, -0.0137315, -0.009996, -0.00806929, -0.0426395, 0.0372947, 0.000368258, 2.24921, 68.9725, 33.483, 7.18018, 1.77356, 4.30636, -0.00267457, -0.000264115, -0.00177607, 0.00398112, 0.00447864, 0.00212443, 0.000996622, 0.015868, -0.0158991, -0.00972558, -0.00395093, 0.0542822, 0.0156305, 0.470954, -0.543172, 0.335913, -2.08361, -2.1658, -0.130043, 0.469046, -0.542892, 0.331994, -2.08119, -2.16181, -0.127127, -0.00275269, 0.0114132, 0.00104363, 0.0133428, -0.00210084, -0.0115049
0.0692175, 1.69165, -1.22975, -1.54176, -0.901105, -1.1929, 1.22893, -1.30261, 0.0257428, -0.00808949, -0.00733118, -0.00821611, -0.0406929, 0.0387418, 0.000754132, 2.32459, 68.9368, 33.483, 7.14447, 1.74884, 4.25601, -0.0164075, -0.000277477, -0.00175977, 0.00398249, 0.00448475, 0.00205429, 0.000992199, 0.0124107, -0.0200235, -0.00562861, 9.27256e-05, 0.0594654, 0.0230041, 0.470952, -0.54316, 0.335914, -2.0836, -2.1658, -0.130051, 0.46906, -0.542892, 0.331991, -2.08121, -2.16185, -0.127058, -0.00284098, 0.0117958, 0.00108244, 0.0173979, 0.00123279, -0.00700817
0.0702175, 1.69168, -1.22977, -1.54177, -0.901117, -1.19294, 1.22896, -1.30261, 0.0281168, -0.00948966, -0.00852615, -0.00830096, -0.0442443, 0.0352283, -0.00119267, 2.3603, 69.1193, 33.483, 7.1048, 1.73053, 4.20657, 0.0293689, -0.000290721, -0.00174239, 0.00399376, 0.00449576, 0.00200279, 0.000977765, 0.012436, -0.0202189, -0.00729357, -0.00616689, 0.0598208, 0.0258981, 0.470949, -0.543148, 0.335915, -2.08359, -2.1658, -0.130059, 0.469075, -0.542891, 0.331979, -2.0812, -2.16189, -0.127003, -0.00293038, 0.0121842, 0.00112203, 0.0174444, 0.00186102, -0.00862254
0.0712175, 1.69171, -1.22977, -1.54178, -0.901125, -1.19299, 1.22899, -1.30261, 0.0274749, -0.0111222, -0.0104388, -0.00771215, -0.0417805, 0.0418027, -0.000557752, 2.3603, 69.1946, 33.5187, 7.02942, 1.70032, 4.16354, 0.0229602, -0.000302532, -0.00172098, 0.00400035, 0.004504, 0.001938, 0.000966359, 0.0140376, -0.0209749, -0.00822063, -0.000711925, 0.0599099, 0.0243119, 0.470946, -0.543136, 0.335916, -2.08357, -2.1658, -0.130068, 0.469093, -0.542889, 0.331971, -2.08121, -2.16193, -0.126938, -0.00302087, 0.0125781, 0.0011624, 0.0181328, 0.000847985, -0.00976949
0.0722175, 1.69173, -1.22977, -1.54179, -0.901135, -1.19303, 1.22902, -1.30261, 0.0243682, -0.00758143, -0.0100245, -0.00429278, -0.0448494, 0.0420626, 0.000577601, 2.47535, 69.1946, 33.483, 6.95801, 1.68201, 4.12051, -0.00267457, -0.000316095, -0.00170399, 0.00400278, 0.00451221, 0.0018703, 0.00096209, 0.0170586, -0.0182554, -0.0053051, 0.000872461, 0.0660949, 0.0164863, 0.470943, -0.543124, 0.335917, -2.08356, -2.16579, -0.130077, 0.469108, -0.542888, 0.331967, -2.08122, -2.16197, -0.12687, -0.00311245, 0.0129778, 0.00120355, 0.0155391, -0.00229551, -0.00723732
0.0732175, 1.69177, -1.22977, -1.5418, -0.901143, -1.19307, 1.22906, -1.30261, 0.0279936, -0.003416, -0.0113887, -0.00698114, -0.0463424, 0.0415326, 0.000147708, 2.47535, 69.1193, 33.5187, 6.84296, 1.64447, 4.09122, 0.00373412, -0.000327052, -0.00168274, 0.00400382, 0.00451921, 0.0017997, 0.000949415, 0.015203, -0.0203862, -0.00392359, -0.00294257, 0.072082, 0.0218871, 0.47094, -0.543111, 0.335918, -2.08355, -2.16579, -0.130086, 0.469126, -0.542885, 0.331965, -2.08122, -2.16202, -0.126801, -0.00320508, 0.013383, 0.00124549, 0.017558, -0.000183713, -0.00560738
0.0742175, 1.6918, -1.22977, -1.54182, -0.901144, -1.19312, 1.22909, -1.3026, 0.0285965, -0.00153583, -0.00939358, -0.00443257, -0.0493208, 0.036554, 0.00155653, 2.55073, 69.0836, 33.5584, 6.65649, 1.65088, 4.06283, -0.0356336, -0.000342705, -0.00166467, 0.00400702, 0.0045281, 0.00172944, 0.000951585, 0.0155912, -0.0193063, -0.00219525, -0.00561495, 0.0740521, 0.0190384, 0.470937, -0.543097, 0.33592, -2.08353, -2.16579, -0.130095, 0.469141, -0.542886, 0.33196, -2.08124, -2.16205, -0.126729, -0.00329877, 0.0137938, 0.00128822, 0.0164623, -0.000466739, -0.00388612
0.0752175, 1.69183, -1.22976, -1.54184, -0.901152, -1.19316, 1.22913, -1.30261, 0.0303713, -0.000258951, -0.00775242, -0.00538633, -0.0452642, 0.0372721, -0.000657731, 2.58643, 69.0479, 33.5941, 6.58508, 1.61426, 4.04086, 0.0101428, -0.000354056, -0.00164254, 0.004009, 0.0045351, 0.00165956, 0.000933473, 0.0137569, -0.0214518, -0.00100049, -0.00225417, 0.0728352, 0.0262276, 0.470933, -0.543083, 0.335921, -2.08352, -2.16579, -0.130105, 0.46916, -0.542882, 0.331957, -2.08124, -2.1621, -0.126662, -0.00339351, 0.0142102, 0.00133174, 0.0184878, 0.00166445, -0.00244275
0.0762175, 1.69187, -1.22976, -1.54185, -0.901149, -1.19321, 1.22916, -1.30261, 0.03141, -0.00476824, -0.00870045, -0.00321846, -0.0430683, 0.0374974, -0.000913206, 2.62611, 68.9725, 33.5941, 6.39465, 1.60144, 4.02713, 0.0229602, -0.000368116, -0.00162011, 0.00400866, 0.00453489, 0.00158494, 0.00092521, 0.014564, -0.0218323, -0.00369835, -0.00134893, 0.0670186, 0.0262504, 0.47093, -0.543069, 0.335922, -2.0835, -2.16578, -0.130115, 0.46918, -0.542881, 0.331956, -2.08126, -2.16215, -0.126597, -0.00348927, 0.0146321, 0.00137605, 0.0187034, 0.00172144, -0.00519946
0.0772175, 1.6919, -1.22975, -1.54186, -0.901149, -1.19325, 1.2292, -1.30261, 0.0337476, -0.00290866, -0.00958255, -0.00366655, -0.0417564, 0.0380855, 0.000340632, 2.73719, 68.9368, 33.5941, 6.28357, 1.59595, 4.00516, -0.00267457, -0.000383698, -0.00159938, 0.00400791, 0.00453072, 0.00151215, 0.00092332, 0.0136398, -0.0233912, -0.00302617, -0.00139033, 0.0687234, 0.0279553, 0.470926, -0.543055, 0.335924, -2.08349, -2.16578, -0.130125, 0.469198, -0.542881, 0.331955, -2.08128, -2.16219, -0.126539, -0.00358604, 0.0150594, 0.00142116, 0.0201547, 0.00302165, -0.00439428
0.0782175, 1.69194, -1.22976, -1.54188, -0.901146, -1.19329, 1.22924, -1.3026, 0.0391604, -0.00412613, -0.0112016, -0.0039678, -0.0409662, 0.0379673, 0.00144779, 2.70148, 69.0121, 33.6338, 6.17248, 1.59595, 3.99783, -0.0356336, -0.00039574, -0.00157199, 0.00401447, 0.00453256, 0.00144888, 0.000912771, 0.011864, -0.0263807, -0.00462866, -0.0036025, 0.067581, 0.0322498, 0.470923, -0.543039, 0.335925, -2.08347, -2.16578, -0.130135, 0.469222, -0.542876, 0.331947, -2.08128, -2.16224, -0.126484, -0.00368381, 0.0154923, 0.00146708, 0.0229209, 0.00557774, -0.00574497
0.0792175, 1.69199, -1.22977, -1.54189, -0.901139, -1.19333, 1.22928, -1.30261, 0.0400063, -0.00557424, -0.00968145, -0.000140529, -0.0413108, 0.0424522, 1.57584e-05, 2.66181, 69.1193, 33.5584, 6.02173, 1.62616, 3.99783, -0.00999879, -0.000410633, -0.00154567, 0.00401908, 0.00452647, 0.00138263, 0.00090015, 0.0134209, -0.0271617, -0.00403864, 0.00305579, 0.0687094, 0.0320941, 0.470919, -0.543024, 0.335926, -2.08345, -2.16578, -0.130146, 0.469245, -0.542873, 0.331941, -2.08129, -2.16229, -0.126436, -0.00378258, 0.0159305, 0.0015138, 0.0236794, 0.00442039, -0.00538167
0.0802175, 1.69203, -1.22977, -1.54191, -0.901136, -1.19338, 1.22933, -1.30261, 0.0417848, -0.00395454, -0.00816109, -2.48239e-05, -0.0416255, 0.0410975, -0.0012102, 2.70148, 69.1193, 33.5941, 5.98602, 1.66369, 3.99783, 0.0229602, -0.000426433, -0.00151971, 0.00402426, 0.00452667, 0.0013101, 0.000887531, 0.0125717, -0.0281743, -0.0027161, 0.00300867, 0.070336, 0.0358564, 0.470915, -0.543008, 0.335928, -2.08344, -2.16577, -0.130157, 0.469267, -0.542871, 0.331934, -2.0813, -2.16234, -0.126374, -0.00388232, 0.0163742, 0.00156132, 0.0246084, 0.00554028, -0.00392707
0.0812175, 1.69208, -1.22978, -1.54193, -0.901129, -1.19342, 1.22937, -1.3026, 0.0456518, -0.0054136, -0.0133658, 0.000243902, -0.0463868, 0.040649, 0.000413905, 2.62611, 69.2303, 33.6338, 5.95032, 1.69391, 3.9841, -0.00999879, -0.000441601, -0.00148938, 0.00403443, 0.00452394, 0.00124473, 0.000881671, 0.0134957, -0.0288528, -0.00559934, -0.00472491, 0.0734894, 0.0340567, 0.470911, -0.542992, 0.335929, -2.08342, -2.16577, -0.130169, 0.469294, -0.542866, 0.331922, -2.08131, -2.16238, -0.126323, -0.00398302, 0.0168232, 0.00160966, 0.0251141, 0.00555009, -0.00689008
0.0822175, 1.69213, -1.22978, -1.54196, -0.901118, -1.19347, 1.22942, -1.3026, 0.0476713, -0.00374316, -0.0206096, 0.00452764, -0.0459478, 0.0394651, 0.00170009, 2.58643, 69.2303, 33.8202, 5.87494, 1.74335, 3.99142, -0.0484509, -0.000461731, -0.00146421, 0.00404211, 0.00453109, 0.00116549, 0.000884469, 0.0154674, -0.0276324, -0.0067751, -0.0100011, 0.074866, 0.0279466, 0.470907, -0.542975, 0.335931, -2.0834, -2.16577, -0.13018, 0.469315, -0.542867, 0.331912, -2.08133, -2.16242, -0.126246, -0.00408468, 0.0172776, 0.00165881, 0.0238219, 0.00418974, -0.00827201
0.0832175, 1.69217, -1.22979, -1.54198, -0.901104, -1.19351, 1.22947, -1.30261, 0.047111, -0.00352402, -0.021232, 0.0070339, -0.0449725, 0.0429433, -0.00029076, 2.62611, 69.27, 33.8202, 5.83527, 1.77997, 4.01248, -0.00999879, -0.000481568, -0.00143687, 0.00404761, 0.00452147, 0.00109148, 0.000877173, 0.017203, -0.0274761, -0.00616067, -0.00573964, 0.0763031, 0.0275111, 0.470903, -0.542958, 0.335933, -2.08338, -2.16576, -0.130192, 0.469339, -0.542867, 0.331905, -2.08135, -2.16247, -0.126195, -0.00418727, 0.0177373, 0.00170878, 0.0236479, 0.00283521, -0.00788106
0.0842175, 1.69223, -1.22979, -1.54201, -0.901092, -1.19356, 1.22952, -1.30261, 0.0507673, -0.00242477, -0.0204816, 0.00799419, -0.0443077, 0.0449595, -0.000702466, 2.51106, 69.27, 33.8917, 5.83527, 1.81659, 4.04819, 0.00373412, -0.000497005, -0.00140419, 0.00405597, 0.00452918, 0.00101178, 0.0008668, 0.0161573, -0.029958, -0.00510557, -0.00300779, 0.0783388, 0.0315538, 0.470899, -0.54294, 0.335934, -2.08336, -2.16576, -0.130204, 0.469368, -0.542862, 0.331895, -2.08135, -2.16252, -0.126119, -0.00429078, 0.0182023, 0.00175956, 0.0260237, 0.00427206, -0.00670116
0.0852175, 1.69228, -1.2298, -1.54204, -0.901083, -1.19361, 1.22957, -1.30261, 0.0532201, -0.00662881, -0.0237768, 0.00792753, -0.043024, 0.0476698, -0.00070567, 2.55073, 69.3414, 34.0027, 5.87494, 1.8349, 4.05551, 0.0101428, -0.000519236, -0.00137718, 0.00406794, 0.00453517, 0.000934471, 0.000863594, 0.0166204, -0.0315684, -0.00862458, -0.0036707, 0.0752449, 0.0332739, 0.470895, -0.542922, 0.335936, -2.08334, -2.16576, -0.130217, 0.469391, -0.542863, 0.331881, -2.08137, -2.16256, -0.126047, -0.00439521, 0.0186725, 0.00181117, 0.0274168, 0.00489484, -0.0102452
0.0862175, 1.69234, -1.22981, -1.54208, -0.901078, -1.19367, 1.22962, -1.3026, 0.0500627, -0.00649865, -0.0296032, 0.00634367, -0.0427884, 0.0504561, 0.00122497, 2.51106, 69.4168, 34.1178, 5.98602, 1.87244, 4.04086, -0.0356336, -0.000539844, -0.00134592, 0.00408268, 0.00454901, 0.000849753, 0.000860778, 0.0194712, -0.0297372, -0.0103987, -0.00644867, 0.0774879, 0.0272091, 0.47089, -0.542903, 0.335938, -2.08332, -2.16575, -0.13023, 0.469418, -0.542861, 0.331864, -2.08138, -2.1626, -0.125958, -0.00450054, 0.019148, 0.0018636, 0.0255209, 0.00275515, -0.0123332
0.0872175, 1.6924, -1.22981, -1.54211, -0.901065, -1.19372, 1.22967, -1.3026, 0.0554308, -0.00456958, -0.0318909, 0.00802131, -0.0454492, 0.0466359, 0.00081665, 2.39997, 69.4168, 34.1535, 5.98602, 1.85962, 4.05551, -0.0356336, -0.00055807, -0.00131309, 0.00409378, 0.00455931, 0.00076882, 0.000854613, 0.0184973, -0.031024, -0.0104306, -0.0128533, 0.0803955, 0.0297361, 0.470886, -0.542884, 0.33594, -2.0833, -2.16575, -0.130243, 0.469446, -0.542857, 0.331851, -2.08139, -2.16264, -0.125879, -0.00460676, 0.0196287, 0.00191686, 0.0266637, 0.0042556, -0.0121991
0.0882175, 1.69245, -1.22982, -1.54215, -0.90106, -1.19378, 1.22973, -1.3026, 0.0536745, -0.00582271, -0.030756, 0.00668499, -0.0476043, 0.0450738, -0.000405003, 2.39997, 69.5279, 34.1892, 6.09711, 1.84772, 4.04086, -0.00999879, -0.000581799, -0.0012836, 0.00411126, 0.00457708, 0.000684571, 0.000849997, 0.0195141, -0.0301193, -0.0109667, -0.0146474, 0.0806451, 0.0305606, 0.470881, -0.542864, 0.335942, -2.08328, -2.16574, -0.130257, 0.469471, -0.542857, 0.331831, -2.0814, -2.16269, -0.125788, -0.00471385, 0.0201145, 0.00197095, 0.0256703, 0.00378374, -0.0128058
0.0892175, 1.69252, -1.22984, -1.54219, -0.901047, -1.19384, 1.22978, -1.30261, 0.0554179, -0.00485042, -0.0321161, 0.00838253, -0.0507942, 0.0475626, -0.0014907, 2.28492, 69.5636, 34.1892, 6.09711, 1.87244, 4.04819, 0.0229602, -0.000604389, -0.00125011, 0.00412706, 0.00459252, 0.000595361, 0.000841812, 0.0208233, -0.0306456, -0.0104884, -0.0145083, 0.0859848, 0.030468, 0.470877, -0.542844, 0.335944, -2.08326, -2.16574, -0.13027, 0.4695, -0.542855, 0.331813, -2.0814, -2.16273, -0.125695, -0.00482181, 0.0206055, 0.00202587, 0.0261524, 0.0029307, -0.0124989
0.0902175, 1.69257, -1.22985, -1.54224, -0.90105, -1.1939, 1.22983, -1.30261, 0.0537744, -0.0106544, -0.0380575, 0.00440826, -0.0518349, 0.0445339, -0.00123116, 2.28492, 69.7461, 34.2646, 6.32324, 1.86603, 4.06283, 0.0293689, -0.00062969, -0.00122279, 0.00415324, 0.00463077, 0.000516373, 0.000838751, 0.0225276, -0.0290772, -0.0167129, -0.0249018, 0.0807661, 0.0293082, 0.470872, -0.542823, 0.335946, -2.08324, -2.16574, -0.130285, 0.469523, -0.542854, 0.331784, -2.0814, -2.16276, -0.125587, -0.00493062, 0.0211016, 0.00208162, 0.0243129, 0.0026417, -0.0188073
0.0912175, 1.69263, -1.22987, -1.5423, -0.901043, -1.19395, 1.22987, -1.3026, 0.0560277, -0.012233, -0.042414, 0.00537048, -0.0523331, 0.0466608, 0.00134936, 2.28492, 69.8215, 34.34, 6.39465, 1.85962, 4.08389, -0.0292249, -0.000657945, -0.00119594, 0.00417908, 0.00466401, 0.000437801, 0.000850483, 0.0236872, -0.0298061, -0.0189602, -0.0270876, 0.0814735, 0.0262121, 0.470867, -0.542802, 0.335948, -2.08322, -2.16573, -0.130299, 0.469545, -0.542856, 0.331755, -2.08141, -2.16278, -0.125484, -0.00504026, 0.0216028, 0.00213822, 0.0248915, 0.00237605, -0.0211727
0.0922175, 1.69269, -1.22988, -1.54235, -0.90104, -1.19402, 1.22993, -1.3026, 0.0571169, -0.0108709, -0.0463998, 0.00417976, -0.053309, 0.0490151, 0.00113693, 2.17384, 69.7858, 34.3043, 6.54541, 1.85962, 4.09122, -0.0356336, -0.00068096, -0.00116244, 0.00419879, 0.00469708, 0.000342233, 0.000843285, 0.0245014, -0.0303636, -0.0195624, -0.0295603, 0.0857366, 0.0266121, 0.470862, -0.542781, 0.33595, -2.08319, -2.16573, -0.130314, 0.469573, -0.542852, 0.331734, -2.08141, -2.16282, -0.125366, -0.00515073, 0.022109, 0.00219565, 0.0253453, 0.00219526, -0.021854
0.0932175, 1.69275, -1.2299, -1.54241, -0.901038, -1.19409, 1.22997, -1.30261, 0.0576238, -0.0103822, -0.0470945, 0.004286, -0.0585692, 0.0460677, -0.00164954, 2.05878, 69.8929, 34.3043, 6.65649, 1.85321, 4.09854, 0.0293689, -0.000708552, -0.00113199, 0.00422808, 0.00474171, 0.000255129, 0.000835263, 0.0256571, -0.0294505, -0.0197604, -0.0351264, 0.0896733, 0.0280423, 0.470857, -0.542759, 0.335952, -2.08317, -2.16572, -0.130329, 0.469598, -0.542851, 0.331702, -2.0814, -2.16286, -0.125244, -0.00526201, 0.0226203, 0.00225393, 0.0243566, 0.00155944, -0.0221443
0.0942175, 1.69282, -1.22991, -1.54246, -0.901041, -1.19416, 1.23002, -1.3026, 0.0568769, -0.00982299, -0.0499643, 0.00257682, -0.063325, 0.0473988, 0.000595727, 1.98341, 69.8572, 34.2646, 6.84296, 1.86603, 4.13424, -0.0164075, -0.000733899, -0.00110166, 0.00425132, 0.00479085, 0.000157019, 0.000835733, 0.0276265, -0.0286926, -0.0205011, -0.0392993, 0.095658, 0.0239259, 0.470851, -0.542736, 0.335954, -2.08315, -2.16572, -0.130344, 0.469623, -0.542849, 0.331676, -2.0814, -2.16289, -0.125105, -0.0053741, 0.0231366, 0.00231306, 0.0235317, 0.000215725, -0.023101
0.0952175, 1.69288, -1.22991, -1.54252, -0.901041, -1.19423, 1.23007, -1.3026, 0.0606436, -0.0125508, -0.0523166, 0.00314377, -0.0608574, 0.0452268, 0.00063451, 1.87232, 69.8215, 34.2289, 6.95801, 1.84772, 4.13424, -0.0228162, -0.00076223, -0.00107187, 0.00427661, 0.00484146, 5.60494e-05, 0.000836758, 0.0266721, -0.0302848, -0.0232242, -0.0425985, 0.0906311, 0.0271879, 0.470846, -0.542713, 0.335957, -2.08312, -2.16571, -0.13036, 0.469648, -0.542849, 0.331648, -2.0814, -2.16292, -0.124963, -0.00548698, 0.0236579, 0.00237303, 0.0248758, 0.00216641, -0.0256297
0.0962175, 1.69295, -1.22993, -1.54259, -0.90105, -1.1943, 1.23011, -1.3026, 0.0641602, -0.0126513, -0.0572508, 0.00191629, -0.0694465, 0.0473698, 0.000897725, 1.72157, 69.8215, 34.1892, 7.14447, 1.85321, 4.15622, -0.0356336, -0.000787504, -0.00103952, 0.00430674, 0.00490512, -4.17645e-05, 0.00082949, 0.0282325, -0.0311759, -0.0251707, -0.0501511, 0.0997421, 0.0265988, 0.470841, -0.542689, 0.335959, -2.0831, -2.16571, -0.130376, 0.469674, -0.542844, 0.331616, -2.08139, -2.16296, -0.12481, -0.00560063, 0.0241841, 0.00243385, 0.0256376, 0.00149082, -0.0277615
0.0972175, 1.69301, -1.22993, -1.54266, -0.901051, -1.19438, 1.23015, -1.3026, 0.0658198, -0.0100101, -0.0602991, 0.000631722, -0.0662995, 0.0500985, -0.00062222, 1.60651, 69.7104, 34.1178, 7.21588, 1.85321, 4.14889, -0.00267457, -0.000817909, -0.00101159, 0.00433213, 0.00496615, -0.000149959, 0.000830149, 0.0277032, -0.0327538, -0.0246991, -0.0495739, 0.102074, 0.0307608, 0.470835, -0.542665, 0.335962, -2.08307, -2.16571, -0.130393, 0.469697, -0.542844, 0.331588, -2.08139, -2.16299, -0.124649, -0.00571505, 0.0247152, 0.00249553, 0.0270971, 0.00253758, -0.0272002
0.0982175, 1.69307, -1.22994, -1.54273, -0.901063, -1.19445, 1.23019, -1.30261, 0.0670948, -0.00827627, -0.0662893, -0.00410009, -0.0678449, 0.0472852, -0.00112689, 1.49146, 69.5993, 34.0781, 7.44202, 1.8349, 4.14157, 0.0165515, -0.000846805, -0.000983287, 0.00436024, 0.00504136, -0.000261991, 0.000826733, 0.0273703, -0.0328349, -0.0267434, -0.0602232, 0.10509, 0.0335964, 0.470829, -0.54264, 0.335964, -2.08305, -2.1657, -0.13041, 0.469719, -0.542843, 0.331557, -2.08137, -2.16302, -0.124469, -0.00583022, 0.0252512, 0.00255806, 0.0269768, 0.00372261, -0.0291073
0.0992175, 1.69315, -1.22994, -1.54281, -0.901067, -1.19453, 1.23024, -1.3026, 0.0673972, -0.00571547, -0.0728621, -0.00299226, -0.0696523, 0.0409076, 0.00118152, 1.26533, 69.5636, 34.0027, 7.47772, 1.82941, 4.12051, -0.0356336, -0.000875357, -0.000951023, 0.00439157, 0.0051183, -0.000372191, 0.000830061, 0.0289339, -0.030265, -0.0279541, -0.0716149, 0.1069, 0.0271539, 0.470823, -0.542615, 0.335967, -2.08302, -2.16569, -0.130427, 0.469746, -0.542839, 0.331523, -2.08137, -2.16305, -0.124289, -0.00594613, 0.0257921, 0.00262146, 0.0243067, 0.00280241, -0.0304059
0.100218, 1.69321, -1.22994, -1.54289, -0.901075, -1.19461, 1.23027, -1.3026, 0.0672607, -0.00420456, -0.0742834, -0.00951077, -0.0702855, 0.0400302, 0.00078768, 1.18995, 69.4168, 33.8917, 7.5531, 1.80469, 4.12051, -0.0356336, -0.000906506, -0.000924411, 0.00441681, 0.00519532, -0.000490271, 0.000837756, 0.0278021, -0.0312264, -0.0285149, -0.0767976, 0.109723, 0.0325539, 0.470817, -0.542589, 0.335969, -2.08299, -2.16569, -0.130444, 0.469766, -0.542839, 0.331495, -2.08137, -2.16307, -0.124101, -0.00606278, 0.0263379, 0.00268571, 0.025089, 0.00459283, -0.0307487
0.101218, 1.69328, -1.22994, -1.54298, -0.90109, -1.19469, 1.23031, -1.3026, 0.0682017, -0.00104017, -0.0812157, -0.0100582, -0.0701323, 0.0398829, -0.000695583, 1.07887, 69.3057, 33.8917, 7.70386, 1.76166, 4.10586, -0.00267457, -0.000935723, -0.000894944, 0.00444751, 0.005284, -0.000607436, 0.000829832, 0.0288817, -0.0306727, -0.0292194, -0.083005, 0.113795, 0.0324648, 0.470811, -0.542563, 0.335972, -2.08296, -2.16568, -0.130462, 0.46979, -0.542836, 0.331462, -2.08134, -2.16311, -0.123902, -0.00618014, 0.0268884, 0.00275083, 0.0244321, 0.00416499, -0.0315315
0.102218, 1.69334, -1.22993, -1.54306, -0.901102, -1.19477, 1.23035, -1.3026, 0.0649168, 0.00304156, -0.0818963, -0.00861212, -0.071476, 0.034251, -0.0011758, 1.00349, 69.1193, 33.7052, 7.77924, 1.75525, 4.11319, 0.0165515, -0.000965802, -0.00086803, 0.00446933, 0.00536528, -0.000732293, 0.000831766, 0.0307801, -0.0272224, -0.0271426, -0.0875218, 0.116583, 0.0279234, 0.470805, -0.542536, 0.335975, -2.08294, -2.16568, -0.13048, 0.469811, -0.542834, 0.331438, -2.08134, -2.16314, -0.123704, -0.0062982, 0.0274437, 0.00281681, 0.0210123, 0.00238384, -0.0296075
0.103218, 1.69341, -1.22993, -1.54315, -0.901113, -1.19484, 1.23038, -1.3026, 0.063434, 0.00239291, -0.0829698, -0.0075194, -0.0701133, 0.03424, 0.00162363, 0.888436, 69.0836, 33.6695, 7.85065, 1.69391, 4.13424, -0.0484509, -0.000999068, -0.000843291, 0.00450061, 0.00545933, -0.000847381, 0.000843376, 0.032342, -0.0262132, -0.0276475, -0.0870852, 0.115349, 0.0230067, 0.470799, -0.542509, 0.335978, -2.08291, -2.16567, -0.130499, 0.469829, -0.542833, 0.331404, -2.08133, -2.16315, -0.1235, -0.00641697, 0.0280038, 0.00288366, 0.0199237, 0.00143968, -0.0302531
0.104218, 1.69346, -1.22991, -1.54323, -0.901124, -1.19492, 1.23041, -1.30259, 0.0593868, 0.00551165, -0.0861056, -0.00993824, -0.0752647, 0.030114, 0.00108242, 0.888436, 68.9011, 33.5941, 7.92602, 1.66369, 4.14157, -0.0484509, -0.00103407, -0.000822662, 0.00452186, 0.00555158, -0.000978207, 0.000859082, 0.0349495, -0.0226256, -0.0273701, -0.0960075, 0.121521, 0.0187479, 0.470793, -0.542481, 0.33598, -2.08288, -2.16567, -0.130518, 0.469844, -0.542836, 0.33138, -2.08133, -2.16317, -0.123283, -0.00653641, 0.0285686, 0.00295138, 0.0163257, -0.000759326, -0.0302104
0.105218, 1.69354, -1.22989, -1.54331, -0.901138, -1.195, 1.23044, -1.3026, 0.0656189, 0.00860696, -0.0843809, -0.0118165, -0.075074, 0.0272302, 9.53734e-06, 0.626595, 68.6789, 33.483, 8.0014, 1.65088, 4.14157, -0.0292249, -0.00106043, -0.000791127, 0.00454188, 0.00564253, -0.00111098, 0.000850128, 0.0312226, -0.0263848, -0.0257492, -0.0984478, 0.123883, 0.0287989, 0.470786, -0.542452, 0.335983, -2.08285, -2.16566, -0.130537, 0.469869, -0.542828, 0.331358, -2.08131, -2.16321, -0.123068, -0.00665653, 0.0291381, 0.00301998, 0.0198843, 0.00339461, -0.0280748
0.106218, 1.69359, -1.22988, -1.5434, -0.901153, -1.19508, 1.23047, -1.3026, 0.0619039, 0.00813814, -0.0870791, -0.014079, -0.074506, 0.0252613, -0.00168906, 0.586922, 68.5678, 33.4076, 8.11249, 1.62616, 4.14157, 0.0165515, -0.00109576, -0.000770418, 0.00456642, 0.0057368, -0.00123445, 0.000855867, 0.0330692, -0.024132, -0.0272422, -0.102729, 0.122831, 0.0280744, 0.470779, -0.542423, 0.335986, -2.08282, -2.16566, -0.130557, 0.469883, -0.542829, 0.33133, -2.0813, -2.16323, -0.122857, -0.0067773, 0.0297122, 0.00308945, 0.0175261, 0.00228518, -0.0297002
0.107218, 1.69365, -1.22987, -1.54348, -0.901167, -1.19516, 1.23049, -1.3026, 0.0610526, 0.00871039, -0.0850771, -0.0148647, -0.0693816, 0.0241793, 0.000569379, 0.475838, 68.421, 33.2966, 8.18787, 1.60144, 4.12692, -0.0292249, -0.00112643, -0.000743968, 0.00458788, 0.00582573, -0.00135882, 0.000861193, 0.0322074, -0.0246517, -0.0263299, -0.0996535, 0.119196, 0.0286693, 0.470773, -0.542393, 0.335989, -2.08278, -2.16565, -0.130577, 0.469903, -0.542825, 0.331307, -2.08129, -2.16325, -0.122652, -0.00689872, 0.030291, 0.0031598, 0.0179259, 0.00359605, -0.0286113
0.108218, 1.69371, -1.22986, -1.54357, -0.901185, -1.19524, 1.23052, -1.30259, 0.0605973, 0.00736582, -0.0849276, -0.0172678, -0.0710171, 0.0230384, 0.000379586, 0.360787, 68.3496, 33.3719, 8.33862, 1.60144, 4.12051, -0.0292249, -0.00116187, -0.000722013, 0.00461592, 0.00592873, -0.00148236, 0.000872914, 0.0325853, -0.0246869, -0.0274482, -0.102394, 0.119437, 0.0304328, 0.470766, -0.542363, 0.335993, -2.08275, -2.16564, -0.130597, 0.469919, -0.542825, 0.331276, -2.08128, -2.16327, -0.122432, -0.00702078, 0.0308744, 0.00323103, 0.017812, 0.00398233, -0.0297052
0.109218, 1.69378, -1.22984, -1.54364, -0.901196, -1.19531, 1.23053, -1.30259, 0.0607978, 0.0100238, -0.0775801, -0.0154227, -0.0730881, 0.0268245, 0.00147376, 0.21003, 68.1274, 33.1498, 8.33862, 1.63257, 4.11319, -0.0621838, -0.00119094, -0.000695512, 0.0046293, 0.00601149, -0.0016104, 0.000875525, 0.0326767, -0.0262062, -0.0226724, -0.0925009, 0.125653, 0.0310668, 0.470759, -0.542332, 0.335996, -2.08272, -2.16564, -0.130618, 0.469938, -0.542819, 0.331261, -2.08127, -2.1633, -0.122231, -0.00714347, 0.0314625, 0.00330314, 0.019384, 0.00380457, -0.0249795
0.110218, 1.69384, -1.22982, -1.54372, -0.901211, -1.19539, 1.23055, -1.3026, 0.0619379, 0.0141545, -0.0802121, -0.0160716, -0.0741761, 0.0200699, -0.00122154, 0.0196001, 67.941, 33.2609, 8.414, 1.64447, 4.11319, -0.00267457, -0.00122347, -0.000671259, 0.00465126, 0.00611156, -0.00173746, 0.000869188, 0.0322603, -0.025186, -0.0218805, -0.101249, 0.128206, 0.0341025, 0.470751, -0.542301, 0.335999, -2.08269, -2.16563, -0.130639, 0.469956, -0.542815, 0.331236, -2.08124, -2.16333, -0.122013, -0.00726676, 0.032055, 0.00337613, 0.0182557, 0.00464439, -0.0240297
0.111218, 1.6939, -1.22981, -1.54379, -0.901223, -1.19546, 1.23057, -1.3026, 0.0616443, 0.0121593, -0.0773413, -0.0155763, -0.0742626, 0.0194292, -0.000543093, -0.131157, 67.8339, 33.1855, 8.44971, 1.64447, 4.12051, -0.00999879, -0.00125526, -0.000646368, 0.00466867, 0.00619329, -0.00185652, 0.000869478, 0.0326809, -0.0254295, -0.0219814, -0.0991555, 0.126369, 0.0344512, 0.470744, -0.542268, 0.336003, -2.08265, -2.16562, -0.13066, 0.469974, -0.542811, 0.331217, -2.08123, -2.16336, -0.121823, -0.00739066, 0.0326521, 0.00345001, 0.0183866, 0.00485322, -0.0241296
0.112218, 1.69396, -1.2298, -1.54385, -0.901233, -1.19553, 1.23059, -1.30259, 0.058212, 0.0100325, -0.0721741, -0.0121624, -0.0755036, 0.0194954, 0.000587374, -0.281914, 67.7585, 33.1101, 8.48541, 1.66919, 4.11319, -0.0356336, -0.00128846, -0.000622771, 0.00468539, 0.00627116, -0.00197245, 0.000874971, 0.0352041, -0.0236698, -0.0207107, -0.0931176, 0.125197, 0.0294122, 0.470737, -0.542236, 0.336006, -2.08262, -2.16562, -0.130682, 0.469991, -0.542807, 0.331198, -2.08122, -2.16338, -0.12164, -0.00751515, 0.0332538, 0.00352478, 0.0166426, 0.0026957, -0.0231423
0.113218, 1.69401, -1.22978, -1.54391, -0.901242, -1.19561, 1.2306, -1.30259, 0.0566381, 0.0126943, -0.0685569, -0.0119823, -0.0711138, 0.019555, 0.00113757, -0.468376, 67.6474, 33.0387, 8.48541, 1.68201, 4.10586, -0.0557752, -0.00132074, -0.000598149, 0.00469816, 0.00634668, -0.00209339, 0.00087836, 0.0347156, -0.0239483, -0.0177242, -0.0872243, 0.124615, 0.030653, 0.470729, -0.542203, 0.33601, -2.08258, -2.16561, -0.130704, 0.470008, -0.542803, 0.331183, -2.08121, -2.16341, -0.121456, -0.00764022, 0.0338599, 0.00360044, 0.016887, 0.00333378, -0.0200514
0.114218, 1.69407, -1.22977, -1.54397, -0.901255, -1.19568, 1.23062, -1.3026, 0.0545557, 0.0104988, -0.0683887, -0.0137113, -0.0728786, 0.0198501, -0.00144567, -0.619133, 67.576, 33.0744, 8.56079, 1.70032, 4.09122, 0.00373412, -0.00135316, -0.000574497, 0.00471152, 0.00642474, -0.00221206, 0.000875368, 0.0362931, -0.0231902, -0.019033, -0.0882584, 0.124727, 0.0326089, 0.470722, -0.542169, 0.336013, -2.08255, -2.1656, -0.130727, 0.470025, -0.542798, 0.331168, -2.08119, -2.16345, -0.121272, -0.00776586, 0.0344704, 0.00367699, 0.016014, 0.00255984, -0.0214918
0.115218, 1.69412, -1.22976, -1.54402, -0.901264, -1.19575, 1.23063, -1.30259, 0.0529153, 0.0103144, -0.0601252, -0.0131048, -0.0744204, 0.0148176, -0.00072642, -0.76989, 67.576, 33.0387, 8.56079, 1.73053, 4.09122, -0.00267457, -0.00138623, -0.000551187, 0.00472389, 0.00649333, -0.00232308, 0.000877717, 0.0359089, -0.0226136, -0.0164522, -0.0855173, 0.12332, 0.0335465, 0.470714, -0.542134, 0.336017, -2.08251, -2.16559, -0.13075, 0.470041, -0.542793, 0.331153, -2.08117, -2.16347, -0.121106, -0.00789206, 0.0350854, 0.00375444, 0.0153923, 0.00313109, -0.0187901
0.116218, 1.69418, -1.22975, -1.54407, -0.901277, -1.19582, 1.23064, -1.30259, 0.055655, 0.00966923, -0.0537312, -0.0122384, -0.0700077, 0.0110665, 0.000261705, -0.960319, 67.6117, 32.999, 8.67188, 1.73694, 4.09122, -0.0228162, -0.00141581, -0.000523813, 0.00473654, 0.0065611, -0.00243182, 0.000871292, 0.0330457, -0.0250209, -0.0148974, -0.0811189, 0.117457, 0.0394049, 0.470706, -0.542099, 0.336021, -2.08248, -2.16559, -0.130773, 0.470061, -0.542784, 0.331139, -2.08115, -2.16351, -0.120945, -0.0080188, 0.0357048, 0.00383279, 0.0176229, 0.00643632, -0.0168034
0.117218, 1.69423, -1.22973, -1.54411, -0.901282, -1.19588, 1.23064, -1.30259, 0.0527543, 0.0120799, -0.0505899, -0.00883644, -0.0681767, 0.0131767, 0.000886547, -1.07537, 67.5363, 33.0387, 8.67188, 1.77997, 4.08389, -0.0420422, -0.00144988, -0.000502148, 0.00474254, 0.00662477, -0.00254785, 0.000877208, 0.0349617, -0.0238444, -0.0115276, -0.0733402, 0.119465, 0.0353756, 0.470698, -0.542063, 0.336024, -2.08244, -2.16558, -0.130797, 0.470076, -0.54278, 0.331131, -2.08114, -2.16353, -0.12078, -0.00814607, 0.0363285, 0.00391203, 0.0165134, 0.00459839, -0.0136626
0.118218, 1.69428, -1.22971, -1.54415, -0.901291, -1.19595, 1.23066, -1.30259, 0.0548886, 0.0176033, -0.0490057, -0.00732712, -0.070722, 0.0106191, 0.000591031, -1.22613, 67.4252, 33.1101, 8.71155, 1.80469, 4.06283, -0.0420422, -0.00148263, -0.000478491, 0.00474508, 0.00668282, -0.00266848, 0.000876664, 0.0345023, -0.0242356, -0.00780749, -0.074429, 0.126288, 0.0366261, 0.47069, -0.542027, 0.336028, -2.0824, -2.16557, -0.130821, 0.470092, -0.542774, 0.331126, -2.08113, -2.16357, -0.120617, -0.00827387, 0.0369566, 0.00399218, 0.0168958, 0.00511997, -0.00985127
0.119218, 1.69433, -1.22969, -1.54419, -0.9013, -1.19602, 1.23066, -1.30259, 0.0531761, 0.0158413, -0.0429646, -0.00610107, -0.072392, 0.0122869, -0.0013014, -1.37688, 67.4252, 33.1101, 8.74725, 1.823, 4.07016, 0.00373412, -0.00151488, -0.000453978, 0.00474673, 0.00673442, -0.00278463, 0.000867782, 0.0356789, -0.0243291, -0.00627074, -0.067701, 0.126826, 0.0385107, 0.470682, -0.54199, 0.336032, -2.08236, -2.16556, -0.130845, 0.47011, -0.542768, 0.331123, -2.08112, -2.16362, -0.120468, -0.00840218, 0.0375891, 0.00407323, 0.01696, 0.00435729, -0.00844146
0.120218, 1.69438, -1.22967, -1.54422, -0.901314, -1.19609, 1.23067, -1.30259, 0.05224, 0.017133, -0.0361345, -0.00695167, -0.0705449, 0.00998898, -0.00110496, -1.52764, 67.4649, 33.1498, 8.85834, 1.88434, 4.04819, 0.0101428, -0.00154827, -0.000429805, 0.00474955, 0.00678943, -0.00290471, 0.000865528, 0.0343471, -0.0250777, -0.00333652, -0.0629247, 0.125722, 0.042365, 0.470673, -0.541953, 0.336036, -2.08232, -2.16556, -0.13087, 0.470127, -0.542761, 0.331118, -2.08111, -2.16366, -0.12031, -0.008531, 0.0382258, 0.00415518, 0.0176381, 0.00588494, -0.00527855
0.121218, 1.69442, -1.22966, -1.54425, -0.901322, -1.19616, 1.23068, -1.30259, 0.0502741, 0.0164908, -0.0327096, -0.00577684, -0.0719952, 0.00817715, 9.34587e-06, -1.63873, 67.576, 33.2609, 8.89801, 1.90265, 4.02713, -0.00999879, -0.00158603, -0.000409058, 0.00475583, 0.00684116, -0.00301372, 0.000870192, 0.0356655, -0.0239416, -0.00236367, -0.0612908, 0.125659, 0.0398285, 0.470665, -0.541914, 0.33604, -2.08228, -2.16555, -0.130895, 0.47014, -0.542758, 0.33111, -2.0811, -2.16369, -0.120167, -0.0086603, 0.0388668, 0.00423804, 0.0164581, 0.00502714, -0.00440856
0.122218, 1.69447, -1.22965, -1.54427, -0.901322, -1.19623, 1.23069, -1.30259, 0.0476459, 0.0152533, -0.0329094, -0.00308399, -0.0690885, 0.00708996, 0.000718307, -1.82915, 67.7228, 33.3719, 8.85834, 1.93378, 3.99783, -0.0292249, -0.00162441, -0.00038727, 0.00475743, 0.00688679, -0.00313004, 0.000880871, 0.037754, -0.0220839, -0.00272063, -0.0594001, 0.121876, 0.0354375, 0.470656, -0.541875, 0.336045, -2.08224, -2.16554, -0.130921, 0.470154, -0.542756, 0.331106, -2.08111, -2.16372, -0.120023, -0.00879009, 0.039512, 0.00432181, 0.0145363, 0.00358993, -0.00494917
0.123218, 1.69451, -1.22964, -1.54429, -0.901328, -1.19631, 1.2307, -1.30259, 0.0456243, 0.0107232, -0.0281439, -0.0031046, -0.0711505, 0.00619289, -0.00121655, -2.01562, 67.9053, 33.4076, 8.89801, 1.95209, 3.96945, 0.0165515, -0.00166158, -0.000362885, 0.0047598, 0.00692601, -0.00324312, 0.000875721, 0.0390444, -0.021592, -0.00364813, -0.0569768, 0.118904, 0.0374688, 0.470647, -0.541836, 0.336049, -2.0822, -2.16553, -0.130947, 0.470171, -0.542752, 0.331101, -2.0811, -2.16376, -0.119892, -0.00892034, 0.0401615, 0.0044065, 0.0139282, 0.00309006, -0.00596883
0.124218, 1.69455, -1.22962, -1.54432, -0.901334, -1.19638, 1.2307, -1.30259, 0.0421431, 0.0149761, -0.026498, -0.00299539, -0.073367, 0.00521981, -0.00128575, -2.13067, 67.9053, 33.5187, 8.93372, 1.98871, 3.94839, 0.0293689, -0.00170099, -0.00034363, 0.0047549, 0.00697166, -0.00336992, 0.000881928, 0.0408928, -0.0195061, -0.000414706, -0.0563737, 0.124924, 0.0343538, 0.470638, -0.541796, 0.336053, -2.08216, -2.16552, -0.130973, 0.470183, -0.54275, 0.331103, -2.0811, -2.1638, -0.119738, -0.00905105, 0.0408151, 0.00449209, 0.0119003, 0.00133099, -0.00291895
0.125218, 1.6946, -1.2296, -1.54433, -0.901332, -1.19646, 1.23071, -1.30259, 0.0486645, 0.0169947, -0.0234021, -0.000301517, -0.0739156, 0.00948617, 9.22686e-05, -2.3568, 67.941, 33.5584, 8.85834, 1.99512, 3.9191, 0.00373412, -0.00173758, -0.000317539, 0.00474658, 0.00700141, -0.00349684, 0.000884491, 0.039185, -0.0239084, 0.00229767, -0.0496871, 0.129974, 0.0387129, 0.470629, -0.541755, 0.336058, -2.08212, -2.16551, -0.131, 0.470202, -0.542746, 0.33111, -2.08111, -2.16385, -0.119603, -0.00918221, 0.0414729, 0.0045786, 0.0162035, 0.00343669, -2.31057e-05
0.126218, 1.69464, -1.22959, -1.54434, -0.901336, -1.19654, 1.23073, -1.30258, 0.046745, 0.0157751, -0.018011, -0.0011799, -0.0746474, 0.00848357, 0.00175693, -2.43218, 68.0917, 33.5941, 8.89801, 2.01343, 3.87607, -0.0420422, -0.00178017, -0.000297803, 0.00474224, 0.00703169, -0.00361834, 0.000897995, 0.0394807, -0.0238489, 0.00340551, -0.0463136, 0.129214, 0.0386737, 0.47062, -0.541714, 0.336063, -2.08207, -2.1655, -0.131027, 0.470214, -0.542746, 0.331111, -2.08113, -2.16389, -0.119472, -0.00931381, 0.0421348, 0.00466602, 0.0160643, 0.00363274, 0.00111167
0.127218, 1.69469, -1.22958, -1.54435, -0.901334, -1.19662, 1.23074, -1.30259, 0.0451028, 0.0128886, -0.0149514, -0.000824756, -0.0740393, 0.0117933, -0.000524132, -2.62261, 68.1989, 33.6695, 8.89801, 2.00702, 3.84768, 0.00373412, -0.00182063, -0.000273356, 0.00473649, 0.00706196, -0.00374477, 0.000896936, 0.0408435, -0.0242264, 0.00323661, -0.0402195, 0.127876, 0.0411512, 0.470611, -0.541671, 0.336067, -2.08203, -2.16549, -0.131055, 0.47023, -0.542743, 0.331114, -2.08113, -2.16394, -0.119338, -0.00944583, 0.0428008, 0.00475437, 0.0163533, 0.00299629, 0.000806284
0.128218, 1.69473, -1.22955, -1.54436, -0.901334, -1.1967, 1.23075, -1.30259, 0.0435018, 0.0181121, -0.0148476, -0.000578453, -0.0795972, 0.00962009, -0.000824139, -2.80907, 68.1274, 33.7052, 8.89801, 2.01984, 3.8193, 0.0165515, -0.00186122, -0.000249638, 0.00472433, 0.00709219, -0.00388402, 0.000899893, 0.0426807, -0.0222777, 0.00631588, -0.0437031, 0.137177, 0.0381389, 0.470601, -0.541629, 0.336072, -2.08198, -2.16548, -0.131083, 0.470247, -0.542741, 0.331124, -2.08115, -2.16399, -0.119191, -0.00957827, 0.043471, 0.00484363, 0.0144551, 0.0012937, 0.00370469
0.129218, 1.69477, -1.22954, -1.54436, -0.901339, -1.19679, 1.23076, -1.30259, 0.044546, 0.0127113, -0.0148861, -0.00217033, -0.0825287, 0.00802852, -0.00102414, -2.95983, 68.3099, 33.7449, 8.97339, 2.00061, 3.79001, 0.0293689, -0.00190479, -0.000226699, 0.0047211, 0.00712335, -0.00401137, 0.000902905, 0.0433465, -0.0227946, 0.00273222, -0.0477773, 0.13429, 0.0402779, 0.470592, -0.541585, 0.336077, -2.08194, -2.16548, -0.131111, 0.470262, -0.54274, 0.331124, -2.08115, -2.16404, -0.119056, -0.00971111, 0.0441452, 0.00493382, 0.0147321, 0.00189025, 0.000135066
0.130218, 1.69482, -1.22952, -1.54437, -0.901339, -1.19688, 1.23077, -1.30259, 0.0444714, 0.0156703, -0.0134791, -0.00146299, -0.0857397, 0.00625852, 0.00125002, -3.07488, 68.1989, 33.8559, 8.97339, 2.00702, 3.77627, -0.0228162, -0.00194835, -0.000204183, 0.00470814, 0.00715438, -0.00415682, 0.000916928, 0.0441648, -0.0222121, 0.00495281, -0.048881, 0.139553, 0.0372467, 0.470582, -0.541541, 0.336082, -2.08189, -2.16547, -0.13114, 0.470276, -0.54274, 0.331135, -2.08118, -2.16409, -0.118901, -0.00984435, 0.0448234, 0.00502493, 0.0141291, 0.00139159, 0.00230555
0.131218, 1.69482, -1.22952, -1.54437, -0.901339, -1.19688, 1.23077, -1.30259, 0.0444714, 0.0156703, -0.0134791, -0.00146299, -0.0857397, 0.00625852, 0.00125002, -3.07488, 68.1989, 33.8559, 8.97339, 2.00702, 3.77627, -0.0228162, -0.00199392, -0.000196041, 0.00470568, 0.00714127, -0.00419821, 0.00093448, 0.0448576, -0.0223191, 0.00497517, -0.0487936, 0.140258, 0.0376444, 0.470572, -0.541496, 0.336087, -2.08185, -2.16546, -0.131169, 0.470276, -0.54274, 0.331135, -2.08118, -2.16409, -0.118901, -0.00997797, 0.0455056, 0.00511696, 0.0141291, 0.00139159, 0.00230555
0.132218, 1.69482, -1.22952, -1.54437, -0.901339, -1.19688, 1.23077, -1.30259, 0.0444714, 0.0156703, -0.0134791, -0.00146299, -0.0857397, 0.00625852, 0.00125002, -3.07488, 68.1989, 33.8559, 8.97339, 2.00702, 3.77627, -0.0228162, -0.0020402, -0.000187792, 0.0047032, 0.00712793, -0.00424021, 0.000952274, 0.0455545, -0.0224262, 0.00499734, -0.0487048, 0.140967, 0.0380437, 0.470562, -0.541451, 0.336092, -2.0818, -2.16545, -0.131199, 0.470276, -0.54274, 0.331135, -2.08118, -2.16409, -0.118901, -0.010112, 0.0461918, 0.00520992, 0.0141291, 0.00139159, 0.00230555
0.133218, 1.69494, -1.22949, -1.54437, -0.901333, -1.19715, 1.23081, -1.30259, 0.0464805, 0.0102973, -0.0053534, 0.000208256, -0.0907606, 0.00750979, -0.000733532, -3.33672, 68.3496, 33.8559, 8.89801, 1.96399, 3.68289, 0.0229602, -0.00209076, -0.000136608, 0.00468507, 0.00722033, -0.00456086, 0.000942292, 0.0457832, -0.0244981, 0.00497814, -0.042726, 0.140456, 0.0432877, 0.470552, -0.541404, 0.336097, -2.08175, -2.16543, -0.131229, 0.47032, -0.542744, 0.331148, -2.08123, -2.16423, -0.118505, -0.0102463, 0.0468819, 0.00530381, 0.0160723, 0.00194621, 0.00227905
0.134218, 1.69498, -1.22948, -1.54437, -0.901328, -1.19724, 1.23083, -1.30259, 0.0454334, 0.00946291, -0.00387162, 0.00189698, -0.0951566, 0.0110907, 0.000731682, -3.4121, 68.421, 33.8559, 8.82263, 1.93378, 3.65451, -0.00999879, -0.00213957, -0.000111578, 0.00467966, 0.00723847, -0.00469344, 0.000955229, 0.0484634, -0.0240807, 0.00564603, -0.039376, 0.145449, 0.0389929, 0.470542, -0.541358, 0.336102, -2.0817, -2.16542, -0.131259, 0.470337, -0.542745, 0.33115, -2.08126, -2.16428, -0.118379, -0.010381, 0.047576, 0.00539863, 0.0156439, -0.000125719, 0.00262259
0.135218, 1.69504, -1.22948, -1.54437, -0.901333, -1.19733, 1.23084, -1.30259, 0.0505366, 0.00739716, -0.00507249, 0.000425617, -0.0944198, 0.0129623, 0.000487788, -3.60253, 68.421, 33.8202, 8.85834, 1.91546, 3.64718, -0.00999879, -0.00218199, -7.9403e-05, 0.00467588, 0.00726484, -0.00482896, 0.000947122, 0.0469556, -0.0276335, 0.00371148, -0.0400244, 0.144815, 0.0456902, 0.470531, -0.54131, 0.336108, -2.08165, -2.16541, -0.13129, 0.47036, -0.542738, 0.331152, -2.08125, -2.16434, -0.118244, -0.0105161, 0.048274, 0.00549438, 0.0189316, 0.00251102, 0.000934599
0.136218, 1.69507, -1.22948, -1.54437, -0.901331, -1.19743, 1.23086, -1.30259, 0.0490152, 0.00491263, -0.00204698, 0.0011161, -0.093589, 0.015525, 0.00079991, -3.56683, 68.4567, 33.7449, 8.82263, 1.88434, 3.61148, -0.0228162, -0.00223454, -5.6731e-05, 0.00466998, 0.00727804, -0.00496305, 0.000961029, 0.0482495, -0.0278809, 0.0037403, -0.0343147, 0.143341, 0.0454616, 0.470521, -0.541262, 0.336113, -2.0816, -2.1654, -0.131321, 0.470374, -0.542742, 0.331154, -2.08128, -2.16439, -0.118123, -0.0106515, 0.0489759, 0.00559107, 0.0190925, 0.00194257, 0.000846368
0.137218, 1.69511, -1.22947, -1.54437, -0.901329, -1.19752, 1.23087, -1.30259, 0.0492923, 0.00472262, -0.00168608, 0.00157713, -0.0881996, 0.0207405, -0.00214549, -3.56683, 68.421, 33.7449, 8.78693, 1.85321, 3.61148, 0.0495105, -0.00228529, -3.22838e-05, 0.00466422, 0.00729925, -0.00509914, 0.00096248, 0.0483969, -0.029674, 0.00427382, -0.0267057, 0.141975, 0.0506679, 0.47051, -0.541213, 0.336119, -2.08155, -2.16539, -0.131353, 0.47039, -0.542742, 0.331157, -2.08129, -2.16444, -0.117993, -0.0107872, 0.0496816, 0.00568869, 0.0207733, 0.0024955, 0.00139005
0.138218, 1.69517, -1.22947, -1.54436, -0.901327, -1.19762, 1.23089, -1.30259, 0.0478674, 0.00277243, -0.00664104, 0.00104981, -0.0950689, 0.025672, 0.000502452, -3.6422, 68.4567, 33.7052, 8.78693, 1.85962, 3.58951, -0.00267457, -0.00233431, -1.62039e-06, 0.00466187, 0.00731685, -0.00523446, 0.00096912, 0.0526747, -0.0283821, 0.00183972, -0.0300467, 0.149174, 0.0428969, 0.470499, -0.541163, 0.336125, -2.0815, -2.16538, -0.131385, 0.470412, -0.54274, 0.331156, -2.0813, -2.16449, -0.117868, -0.0109232, 0.0503911, 0.00578725, 0.0194148, -0.000690345, -0.00154987
0.139218, 1.69522, -1.22948, -1.54436, -0.901323, -1.19771, 1.23091, -1.30259, 0.0457609, 0.000429471, -0.00512515, 0.0024619, -0.0941195, 0.0237574, 0.000843594, -3.67791, 68.5321, 33.7052, 8.71155, 1.8349, 3.58951, -0.0164075, -0.00238577, 2.76197e-05, 0.00466498, 0.00733581, -0.00535874, 0.000974908, 0.0542676, -0.0270604, 0.00115855, -0.0290473, 0.145556, 0.0407296, 0.470489, -0.541113, 0.33613, -2.08145, -2.16537, -0.131418, 0.470432, -0.542738, 0.331149, -2.08131, -2.16454, -0.117753, -0.0110595, 0.0511045, 0.00588674, 0.0179927, -0.00149717, -0.00233565
0.140218, 1.69526, -1.22948, -1.54437, -0.901328, -1.1978, 1.23093, -1.30259, 0.0417481, 0.00230787, -0.00570335, -0.000122875, -0.0939264, 0.0182087, 5.37699e-05, -3.60253, 68.4567, 33.7806, 8.78693, 1.823, 3.57577, -0.00267457, -0.00243811, 5.4296e-05, 0.00466295, 0.00735902, -0.00549714, 0.000979, 0.0553459, -0.0243595, 0.00145296, -0.0346217, 0.145382, 0.0399603, 0.470477, -0.541062, 0.336136, -2.0814, -2.16536, -0.13145, 0.470449, -0.542738, 0.331148, -2.08132, -2.16459, -0.117619, -0.0111962, 0.0518216, 0.00598718, 0.0152102, -0.00200237, -0.00203444
0.141218, 1.69531, -1.22949, -1.54437, -0.901323, -1.1979, 1.23095, -1.30259, 0.0475399, -0.00170135, -0.00419474, 0.00168064, -0.0986876, 0.0181275, -0.000201512, -3.6422, 68.6035, 33.7806, 8.71155, 1.81659, 3.57577, 0.00373412, -0.00248952, 8.63144e-05, 0.00466694, 0.00737785, -0.00562221, 0.000979449, 0.0550275, -0.0271086, -0.000409982, -0.0358744, 0.14594, 0.0439923, 0.470466, -0.54101, 0.336142, -2.08134, -2.16535, -0.131484, 0.470472, -0.542735, 0.331141, -2.08132, -2.16464, -0.117505, -0.0113331, 0.0525425, 0.00608855, 0.0177393, -0.000560274, -0.00380898
0.142218, 1.69536, -1.2295, -1.54436, -0.901326, -1.19799, 1.23098, -1.3026, 0.0472454, -0.00358739, 0.000342797, 0.0002847, -0.0983956, 0.0181953, -0.00230448, -3.60253, 68.7146, 33.6338, 8.74725, 1.8349, 3.57577, 0.0623279, -0.00254173, 0.000117451, 0.00466793, 0.00738892, -0.0057503, 0.000972078, 0.0546586, -0.0282525, -6.92454e-05, -0.0323839, 0.144403, 0.0497503, 0.470455, -0.540957, 0.336148, -2.08129, -2.16533, -0.131518, 0.470493, -0.542732, 0.331137, -2.08132, -2.16471, -0.117397, -0.0114702, 0.0532671, 0.00619087, 0.0187445, 0.000524209, -0.00335032
0.143218, 1.69541, -1.2295, -1.54436, -0.901323, -1.19808, 1.231, -1.30259, 0.0462978, -0.0014474, 7.74531e-06, 0.00195266, -0.0925282, 0.018637, -0.000552976, -3.52715, 68.6789, 33.6338, 8.67188, 1.82941, 3.56845, 0.0357776, -0.00259681, 0.000146042, 0.00466533, 0.00739892, -0.00588425, 0.000986134, 0.0550717, -0.0281006, 0.00140638, -0.0283277, 0.142538, 0.0477578, 0.470443, -0.540904, 0.336154, -2.08123, -2.16532, -0.131552, 0.470512, -0.542732, 0.331136, -2.08134, -2.16475, -0.117283, -0.0116077, 0.0539954, 0.00629413, 0.0185259, 0.000609108, -0.001854
0.144218, 1.69545, -1.2295, -1.54437, -0.901331, -1.19817, 1.23102, -1.30259, 0.0458878, -0.00171842, -0.00183086, -0.000461754, -0.0879922, 0.0183339, 0.0010555, -3.45177, 68.7146, 33.7052, 8.74725, 1.823, 3.57577, -0.00267457, -0.0026516, 0.00017411, 0.00466876, 0.00742466, -0.00601627, 0.000992031, 0.0547604, -0.0286523, 0.000266739, -0.0290759, 0.13947, 0.0489073, 0.470432, -0.54085, 0.336161, -2.08118, -2.16531, -0.131586, 0.470531, -0.54273, 0.331129, -2.08134, -2.1648, -0.117155, -0.0117453, 0.0547273, 0.00639834, 0.0188868, 0.00185057, -0.00284564
0.145218, 1.69549, -1.22951, -1.54437, -0.901335, -1.19825, 1.23104, -1.30259, 0.0445691, -0.00284755, -0.00367627, -0.00123607, -0.0904704, 0.0178857, 0.00144965, -3.33672, 68.79, 33.6695, 8.78693, 1.84131, 3.58951, -0.0228162, -0.00270706, 0.000202948, 0.00467067, 0.00743754, -0.00614197, 0.000997155, 0.0567962, -0.0275238, -0.00110229, -0.0323834, 0.141056, 0.0466247, 0.47042, -0.540795, 0.336167, -2.08112, -2.1653, -0.131621, 0.47055, -0.542728, 0.331124, -2.08135, -2.16485, -0.117047, -0.0118833, 0.0554629, 0.00650349, 0.017647, 0.000744852, -0.0043811
0.146218, 1.69554, -1.22951, -1.54436, -0.901336, -1.19833, 1.23106, -1.30259, 0.0455401, -0.00101717, -0.00104464, -0.00305173, -0.0864248, 0.0230888, -0.00147497, -3.30102, 68.7543, 33.5941, 8.74725, 1.8349, 3.58218, 0.0431018, -0.00275644, 0.000237706, 0.00466601, 0.00744175, -0.00626846, 0.000985169, 0.0555993, -0.0304309, 0.00106807, -0.0244209, 0.142896, 0.0551042, 0.470408, -0.54074, 0.336174, -2.08106, -2.16528, -0.131657, 0.470574, -0.54272, 0.331126, -2.08134, -2.16492, -0.116951, -0.0120214, 0.0562022, 0.00660959, 0.0204492, 0.00244946, -0.00203663
0.147218, 1.69558, -1.22951, -1.54437, -0.901347, -1.19841, 1.23108, -1.30259, 0.0451286, -0.00147885, -0.00356266, -0.00717378, -0.0838874, 0.0215736, -0.00145803, -3.22564, 68.79, 33.7052, 8.82263, 1.84131, 3.59683, 0.0559192, -0.0028122, 0.00026691, 0.00467135, 0.00746488, -0.00639473, 0.000982892, 0.0552223, -0.0307985, -0.000765903, -0.0285727, 0.140873, 0.0583558, 0.470396, -0.540684, 0.33618, -2.08101, -2.16527, -0.131692, 0.470593, -0.542717, 0.331118, -2.08133, -2.16497, -0.116834, -0.0121598, 0.056945, 0.00671664, 0.0205974, 0.00386768, -0.00369486
0.148218, 1.69563, -1.2295, -1.54437, -0.901356, -1.19848, 1.2311, -1.30259, 0.0439391, -0.00148892, -0.00257594, -0.00831704, -0.0815565, 0.0154105, 0.000248682, -3.11059, 68.6789, 33.7052, 8.82263, 1.8349, 3.6188, 0.0229602, -0.00286503, 0.000296966, 0.00466628, 0.00747705, -0.00652558, 0.000983843, 0.054866, -0.0298037, -0.00104203, -0.0322157, 0.136663, 0.0581139, 0.470384, -0.540627, 0.336187, -2.08095, -2.16526, -0.131729, 0.470613, -0.542711, 0.33112, -2.08134, -2.16503, -0.116724, -0.0122984, 0.0576914, 0.00682465, 0.019443, 0.00496825, -0.0037759
0.149218, 1.69567, -1.22951, -1.54438, -0.90137, -1.19855, 1.23112, -1.30259, 0.0442041, -0.00206904, -0.00363116, -0.0130587, -0.0803998, 0.0162227, 0.00162385, -3.03521, 68.7146, 33.7806, 8.85834, 1.84772, 3.62521, -0.0164075, -0.00291896, 0.000327808, 0.00467056, 0.00749455, -0.0066442, 0.000983275, 0.0542329, -0.0312241, -0.00234647, -0.034107, 0.136798, 0.0614755, 0.470372, -0.540569, 0.336194, -2.08089, -2.16524, -0.131765, 0.470634, -0.542705, 0.331113, -2.08133, -2.16507, -0.116621, -0.0124372, 0.0584414, 0.0069336, 0.0206522, 0.00660821, -0.0049015
0.150218, 1.6957, -1.22951, -1.54438, -0.901377, -1.19863, 1.23114, -1.30259, 0.042596, -0.00306405, -0.00346176, -0.0142562, -0.074247, 0.0111666, -0.00135884, -2.88445, 68.6432, 33.8202, 8.78693, 1.84131, 3.65451, 0.0495105, -0.00297712, 0.000353153, 0.00466825, 0.0075087, -0.00676992, 0.000986457, 0.0536743, -0.0305127, -0.00339019, -0.035785, 0.129051, 0.0664611, 0.470359, -0.54051, 0.336201, -2.08083, -2.16523, -0.131802, 0.470649, -0.542703, 0.331112, -2.08133, -2.16512, -0.116514, -0.0125762, 0.0591949, 0.00704351, 0.0197445, 0.00804767, -0.00571497
0.151218, 1.69574, -1.2295, -1.54438, -0.901392, -1.19869, 1.23115, -1.30259, 0.0379206, -0.00151488, -0.000629329, -0.0170542, -0.070585, 0.012699, -0.000668534, -2.84875, 68.6035, 33.7449, 8.78693, 1.85962, 3.66824, 0.0431018, -0.00303038, 0.000384298, 0.00466539, 0.0075174, -0.00689309, 0.00097794, 0.0543933, -0.0297918, -0.00147165, -0.030613, 0.129014, 0.066575, 0.470347, -0.540451, 0.336208, -2.08077, -2.16522, -0.13184, 0.470669, -0.542695, 0.331113, -2.08132, -2.16518, -0.116418, -0.0127154, 0.0599519, 0.00715437, 0.018984, 0.00776586, -0.00380523
0.152218, 1.69577, -1.22951, -1.54439, -0.901409, -1.19876, 1.23117, -1.30259, 0.0365113, -0.00223809, -0.00131832, -0.0159352, -0.0685378, 0.0141963, 6.29369e-05, -2.77337, 68.6432, 33.7806, 8.78693, 1.90265, 3.67557, 0.0293689, -0.00308798, 0.000410435, 0.00466958, 0.00753737, -0.00700768, 0.000978848, 0.0560855, -0.0292552, -0.00176486, -0.0281565, 0.128033, 0.0642662, 0.470334, -0.540391, 0.336215, -2.0807, -2.1652, -0.131878, 0.470685, -0.54269, 0.331106, -2.0813, -2.16523, -0.116318, -0.0128547, 0.0607124, 0.00726618, 0.0183613, 0.00688119, -0.00423702
0.153218, 1.6958, -1.22951, -1.54439, -0.901433, -1.19882, 1.23118, -1.30259, 0.0344509, -0.00255239, -0.00567001, -0.0199162, -0.0609762, 0.0110346, 0.000991394, -2.65832, 68.6789, 33.8559, 8.85834, 1.90906, 3.66824, 0.00373412, -0.00314581, 0.000436356, 0.00467459, 0.00755679, -0.00712025, 0.000979959, 0.0557103, -0.0286002, -0.00421014, -0.0326612, 0.121292, 0.0656372, 0.470321, -0.540331, 0.336222, -2.08064, -2.16519, -0.131916, 0.4707, -0.542684, 0.331098, -2.08129, -2.16527, -0.116221, -0.0129943, 0.0614763, 0.00737895, 0.0174642, 0.00837214, -0.00646168
0.154218, 1.69583, -1.22951, -1.54439, -0.901446, -1.19888, 1.23119, -1.30259, 0.0317427, 0.000728026, -0.0040641, -0.018383, -0.0658817, 0.0080595, -0.00103449, -2.62261, 68.5678, 33.8559, 8.74725, 1.94568, 3.67557, 0.0495105, -0.00320377, 0.000461854, 0.0046711, 0.00756963, -0.00724036, 0.000980286, 0.0581732, -0.0259726, -0.00157928, -0.0345802, 0.127553, 0.0631254, 0.470308, -0.540269, 0.33623, -2.08058, -2.16517, -0.131955, 0.470714, -0.542679, 0.331099, -2.08128, -2.16532, -0.116124, -0.0131339, 0.0622436, 0.00749268, 0.0148901, 0.00618734, -0.00406335
0.155218, 1.69586, -1.22952, -1.5444, -0.90147, -1.19894, 1.2312, -1.30259, 0.0306295, -0.00400297, -0.00375769, -0.0194093, -0.0642317, 0.0110481, -0.00116438, -2.62261, 68.7543, 33.8917, 8.71155, 1.9704, 3.66824, 0.0623279, -0.00326187, 0.000489398, 0.00468258, 0.00759131, -0.00733945, 0.000974839, 0.0595048, -0.0265613, -0.00406977, -0.0315486, 0.123778, 0.0642923, 0.470295, -0.540207, 0.336237, -2.08051, -2.16516, -0.131994, 0.47073, -0.542671, 0.331085, -2.08125, -2.16535, -0.116039, -0.0132738, 0.0630144, 0.00760737, 0.015296, 0.00606091, -0.00663904
0.156218, 1.69589, -1.22951, -1.54441, -0.901496, -1.199, 1.23121, -1.30259, 0.0294805, -0.00016516, -0.00359295, -0.0209464, -0.0590862, 0.0128384, 0.00044445, -2.62261, 68.6432, 33.9313, 8.71155, 2.01343, 3.67557, 0.0293689, -0.00331893, 0.000514002, 0.00468092, 0.00761203, -0.00745595, 0.000972602, 0.0591254, -0.0272368, -0.00174027, -0.0275383, 0.125138, 0.0650361, 0.470282, -0.540144, 0.336245, -2.08045, -2.16514, -0.132034, 0.470744, -0.542663, 0.331084, -2.08123, -2.1654, -0.115938, -0.0134137, 0.0637885, 0.00772302, 0.0159042, 0.00687409, -0.00418897
0.157218, 1.69591, -1.22951, -1.5444, -0.90152, -1.19905, 1.23121, -1.30259, 0.0254641, -0.000181334, 8.33014e-05, -0.0234977, -0.0544658, 0.00993392, 0.00175436, -2.62261, 68.6432, 33.8202, 8.63617, 2.04364, 3.66824, -0.00999879, -0.00337701, 0.000538552, 0.00467995, 0.00762178, -0.00756249, 0.000972335, 0.0589656, -0.0263038, -0.000839703, -0.025148, 0.120525, 0.0657021, 0.470268, -0.54008, 0.336252, -2.08038, -2.16513, -0.132074, 0.470757, -0.542655, 0.331083, -2.08121, -2.16544, -0.115859, -0.0135538, 0.064566, 0.00783963, 0.0148611, 0.00762991, -0.00313333
0.158218, 1.69593, -1.22951, -1.54441, -0.901554, -1.1991, 1.23122, -1.30259, 0.025577, -0.00017431, -0.000869574, -0.0249213, -0.0554122, 0.00636531, -0.000525846, -2.62261, 68.6432, 33.8559, 8.67188, 2.06836, 3.69754, 0.0357776, -0.00343557, 0.000561914, 0.00468565, 0.00764852, -0.00766594, 0.000961617, 0.0593036, -0.0258634, -0.00167097, -0.0300951, 0.120515, 0.0689816, 0.470255, -0.540016, 0.33626, -2.08032, -2.16511, -0.132115, 0.470769, -0.542646, 0.331075, -2.08117, -2.16549, -0.115767, -0.013694, 0.0653468, 0.00795721, 0.014264, 0.0081904, -0.00387994
0.159218, 1.69595, -1.22952, -1.54441, -0.901586, -1.19914, 1.23122, -1.30259, 0.0241341, -0.000156272, -0.00241037, -0.0273067, -0.0509156, 0.00486437, 0.000361513, -2.69799, 68.6432, 33.9313, 8.63617, 2.07477, 3.69754, 0.0165515, -0.00349429, 0.000585617, 0.00469042, 0.00767193, -0.00776694, 0.000961865, 0.0593105, -0.025652, -0.0025873, -0.0314267, 0.117156, 0.0699363, 0.470241, -0.53995, 0.336268, -2.08025, -2.1651, -0.132156, 0.470781, -0.542637, 0.331068, -2.08115, -2.16552, -0.115679, -0.0138343, 0.0661309, 0.00807574, 0.0138799, 0.00910406, -0.00466423
0.160218, 1.69595, -1.22951, -1.5444, -0.901615, -1.19919, 1.23122, -1.30259, 0.0194079, 0.00162901, 0.000940979, -0.0282121, -0.0483942, 0.00425107, -0.00121705, -2.62261, 68.5678, 33.8202, 8.56079, 2.09949, 3.68289, 0.0559192, -0.0035576, 0.000603293, 0.00468581, 0.00767947, -0.0078739, 0.000960309, 0.0605175, -0.0240446, -0.000266931, -0.0272705, 0.117044, 0.0704697, 0.470227, -0.539884, 0.336276, -2.08018, -2.16508, -0.132197, 0.470787, -0.542633, 0.33107, -2.08113, -2.16556, -0.115604, -0.0139747, 0.0669183, 0.00819524, 0.0122666, 0.00826928, -0.00240033
0.161218, 1.69596, -1.2295, -1.54441, -0.901657, -1.19923, 1.23122, -1.30259, 0.0146421, 0.0027339, -0.00108104, -0.0325096, -0.0459291, 0.00372579, 0.00163004, -2.62261, 68.4964, 33.8917, 8.63617, 2.11139, 3.66824, -0.00999879, -0.00361814, 0.000623209, 0.00468749, 0.00770839, -0.00798262, 0.000963128, 0.0619436, -0.0222379, -0.000712278, -0.0294058, 0.117012, 0.0669394, 0.470213, -0.539817, 0.336284, -2.08012, -2.16506, -0.132239, 0.470795, -0.542624, 0.331066, -2.0811, -2.1656, -0.115504, -0.0141153, 0.067709, 0.00831571, 0.0103595, 0.00764752, -0.00289361
0.162218, 1.69597, -1.2295, -1.54441, -0.901698, -1.19928, 1.23121, -1.30259, 0.0128022, 0.0018057, 8.60834e-05, -0.0338095, -0.0488895, 0.00247451, 0.000103347, -2.69799, 68.4964, 33.8559, 8.63617, 2.12421, 3.67557, 0.0165515, -0.00367858, 0.000643244, 0.00468967, 0.00773011, -0.00808033, 0.000957702, 0.0634828, -0.0212653, -0.0010173, -0.0311326, 0.118664, 0.0678087, 0.470199, -0.539749, 0.336293, -2.08005, -2.16505, -0.132281, 0.470803, -0.542614, 0.331062, -2.08107, -2.16563, -0.115424, -0.0142558, 0.0685029, 0.00843714, 0.00929462, 0.00693064, -0.00329136
0.163218, 1.69596, -1.22949, -1.5444, -0.901749, -1.19931, 1.23121, -1.30259, 0.00596656, 0.00378958, 0.0017993, -0.0373524, -0.040979, 0.00130357, -0.00138916, -2.54723, 68.3853, 33.7806, 8.74725, 2.1178, 3.69021, 0.0559192, -0.00374084, 0.000658766, 0.0046861, 0.00774415, -0.00818178, 0.000947623, 0.0640545, -0.0192718, 0.00052198, -0.0272877, 0.114323, 0.069485, 0.470185, -0.539681, 0.336301, -2.07998, -2.16503, -0.132324, 0.470807, -0.542607, 0.331063, -2.08103, -2.16568, -0.115349, -0.0143965, 0.0692999, 0.00855954, 0.00724322, 0.00683822, -0.0016832
0.164218, 1.69597, -1.2295, -1.5444, -0.901792, -1.19935, 1.2312, -1.3026, 0.00553159, 0.00251688, 0.00118353, -0.0363215, -0.0402523, 0.000507745, -0.00140083, -2.58294, 68.3853, 33.7806, 8.71155, 2.12421, 3.70395, 0.0687366, -0.00380486, 0.000675989, 0.00469047, 0.00776578, -0.00827542, 0.000943813, 0.0653888, -0.0187549, -0.000335381, -0.0276013, 0.112807, 0.0685641, 0.47017, -0.539612, 0.33631, -2.0799, -2.16502, -0.132367, 0.470812, -0.542599, 0.331056, -2.08099, -2.16571, -0.115274, -0.0145372, 0.0701002, 0.0086829, 0.00660527, 0.00643622, -0.00260602
0.165218, 1.69597, -1.22949, -1.54441, -0.901841, -1.19938, 1.2312, -1.30259, -0.00117371, 0.00343403, -0.000986215, -0.0418543, -0.034992, 0.00044899, -0.000221808, -2.62261, 68.3099, 33.8559, 8.67188, 2.1297, 3.70395, 0.0495105, -0.00386834, 0.000693989, 0.00469188, 0.00778738, -0.00837667, 0.000945212, 0.0668674, -0.016512, -0.000980245, -0.0284621, 0.110576, 0.0667359, 0.470156, -0.539541, 0.336318, -2.07983, -2.165, -0.132411, 0.470817, -0.54259, 0.331053, -2.08096, -2.16574, -0.115191, -0.014678, 0.0709037, 0.00880724, 0.004257, 0.00578812, -0.00328778
0.166218, 1.69596, -1.22948, -1.5444, -0.901903, -1.19941, 1.2312, -1.30259, -0.00183362, 0.00571768, 0.00193198, -0.0497682, -0.0308792, -0.000431605, 0.00154755, -2.58294, 68.1631, 33.7449, 8.78693, 2.1297, 3.72592, 0.00373412, -0.00392746, 0.000713218, 0.00468821, 0.00780505, -0.00847814, 0.000935715, 0.0639104, -0.0187997, 0.00024991, -0.0280541, 0.110329, 0.0743943, 0.470141, -0.539471, 0.336327, -2.07976, -2.16498, -0.132455, 0.470824, -0.542577, 0.331055, -2.08092, -2.16579, -0.115114, -0.0148189, 0.0717102, 0.00893254, 0.00633836, 0.00941719, -0.00155445
0.167218, 1.69595, -1.22948, -1.5444, -0.901956, -1.19944, 1.2312, -1.30258, -0.00391321, 0.00464299, 0.000446019, -0.0507409, -0.0276136, 4.56835e-05, 0.00126906, -2.47185, 68.1274, 33.7806, 8.71155, 2.12421, 3.7186, -0.00267457, -0.00399744, 0.000724733, 0.00469076, 0.00782121, -0.00857356, 0.000942747, 0.0651841, -0.0181676, -0.000886952, -0.0275145, 0.107736, 0.0743045, 0.470126, -0.539399, 0.336336, -2.07969, -2.16496, -0.132499, 0.470823, -0.542573, 0.33105, -2.08089, -2.16581, -0.115043, -0.0149597, 0.0725199, 0.00905882, 0.00557261, 0.00912358, -0.00273733
0.168218, 1.69593, -1.22946, -1.5444, -0.902022, -1.19946, 1.2312, -1.30259, -0.00360609, 0.00652599, 0.0011275, -0.0577104, -0.025835, -0.000465465, -0.00108674, -2.43218, 67.9807, 33.7449, 8.74725, 2.13611, 3.73324, 0.0495105, -0.00405987, 0.00074298, 0.00468778, 0.00783545, -0.00867731, 0.000923981, 0.0630876, -0.0202004, -0.00056654, -0.029584, 0.109275, 0.0843817, 0.470112, -0.539326, 0.336345, -2.07961, -2.16495, -0.132544, 0.470829, -0.542561, 0.331051, -2.08084, -2.16587, -0.114969, -0.0151006, 0.0733327, 0.00918606, 0.00739721, 0.0120424, -0.00202839
0.169218, 1.69592, -1.22946, -1.5444, -0.902085, -1.19949, 1.23119, -1.30259, -0.00656877, 0.00527643, -8.73464e-05, -0.060273, -0.0197717, -0.000275349, -0.00119921, -2.39648, 67.941, 33.7806, 8.67188, 2.14801, 3.73324, 0.0623279, -0.00412527, 0.000758713, 0.00469106, 0.007857, -0.00877031, 0.000914773, 0.0636656, -0.0197415, -0.00191942, -0.0283829, 0.104165, 0.0857095, 0.470096, -0.539253, 0.336354, -2.07954, -2.16493, -0.132589, 0.470832, -0.542551, 0.331046, -2.0808, -2.1659, -0.114897, -0.0152415, 0.0741485, 0.00931428, 0.00677037, 0.0124831, -0.0033174
0.170218, 1.6959, -1.22945, -1.5444, -0.902158, -1.1995, 1.23119, -1.30259, -0.00962247, 0.00602158, -0.000989098, -0.065106, -0.0189812, -0.00457014, 0.000895946, -2.3211, 67.8339, 33.8202, 8.71155, 2.13611, 3.72592, 0.0165515, -0.00418956, 0.000774253, 0.00469293, 0.00787974, -0.00886484, 0.000908115, 0.0639425, -0.0183406, -0.00267842, -0.0341331, 0.103333, 0.0850612, 0.470081, -0.539179, 0.336364, -2.07946, -2.16491, -0.132635, 0.470835, -0.542539, 0.331042, -2.08075, -2.16594, -0.114823, -0.0153825, 0.0749674, 0.00944347, 0.00521383, 0.0130901, -0.00394232
0.171218, 1.69589, -1.22944, -1.54441, -0.902223, -1.19952, 1.23118, -1.30259, -0.0136743, 0.0106767, -0.00233197, -0.066331, -0.0189194, -0.00341743, 0.000834657, -2.16637, 67.6831, 33.8917, 8.52509, 2.13611, 3.72592, 0.0101428, -0.00425733, 0.0007873, 0.0046938, 0.00789805, -0.00895771, 0.000904768, 0.066171, -0.0163386, -0.000250815, -0.0336845, 0.109363, 0.0819136, 0.470066, -0.539104, 0.336373, -2.07939, -2.16489, -0.132681, 0.470835, -0.54253, 0.331039, -2.08071, -2.16597, -0.114755, -0.0155234, 0.0757893, 0.00957364, 0.00324922, 0.0112464, -0.00171377
0.172218, 1.69586, -1.22943, -1.5444, -0.902305, -1.19953, 1.23118, -1.30259, -0.0155168, 0.0108119, 0.00104221, -0.0720203, -0.0199161, -0.00201376, -0.000392998, -2.05529, 67.5363, 33.7806, 8.52509, 2.16083, 3.71127, 0.0357776, -0.00431939, 0.000805297, 0.00469091, 0.007911, -0.00905456, 0.000877064, 0.0657686, -0.0174266, 0.000458629, -0.0322285, 0.112037, 0.0880352, 0.47005, -0.539028, 0.336383, -2.07931, -2.16487, -0.132728, 0.47084, -0.542514, 0.331041, -2.08064, -2.16603, -0.114693, -0.0156643, 0.0766142, 0.00970477, 0.00420805, 0.0124041, -0.000857263
0.173218, 1.69585, -1.22942, -1.5444, -0.902382, -1.19954, 1.23118, -1.30259, -0.012013, 0.0100018, 0.00372514, -0.0745061, -0.0195469, -0.00104238, -0.00124534, -2.01562, 67.4252, 33.7806, 8.44971, 2.16083, 3.69754, 0.0623279, -0.00438349, 0.00082387, 0.00469107, 0.00792481, -0.00914912, 0.000857881, 0.0638611, -0.020771, 0.000485287, -0.0305092, 0.112394, 0.0963924, 0.470035, -0.538951, 0.336392, -2.07923, -2.16485, -0.132775, 0.470845, -0.5425, 0.33104, -2.08059, -2.16608, -0.114631, -0.0158053, 0.0774421, 0.00983689, 0.00733823, 0.0152541, -0.000504062
0.174218, 1.69582, -1.22941, -1.54439, -0.902459, -1.19955, 1.23118, -1.30259, -0.0174934, 0.010248, 0.00449839, -0.07453, -0.0150477, -0.00457305, 0.00110255, -1.90453, 67.2784, 33.7052, 8.29895, 2.17273, 3.66824, 0.0101428, -0.00444824, 0.000841023, 0.00468668, 0.00792832, -0.00924176, 0.000844083, 0.0656954, -0.0177961, 0.000884536, -0.0297919, 0.107797, 0.0909283, 0.470019, -0.538874, 0.336402, -2.07915, -2.16483, -0.132822, 0.470849, -0.542486, 0.331043, -2.08054, -2.16613, -0.114582, -0.0159461, 0.0782729, 0.00996998, 0.00431174, 0.0140862, -0.000181548
0.175218, 1.6958, -1.22939, -1.54439, -0.902539, -1.19955, 1.23118, -1.30259, -0.0216285, 0.012046, 0.0022597, -0.0781486, -0.0112136, -0.00305793, 0.000735034, -1.78948, 67.0602, 33.7449, 8.15216, 2.17273, 3.65451, 0.0101428, -0.00451497, 0.000855505, 0.00468321, 0.00794291, -0.00933956, 0.000829999, 0.0670075, -0.0166661, 0.00099937, -0.0294219, 0.108335, 0.0909929, 0.470003, -0.538796, 0.336412, -2.07907, -2.16481, -0.13287, 0.47085, -0.542473, 0.331045, -2.08048, -2.16617, -0.114517, -0.016087, 0.0791067, 0.010104, 0.00309752, 0.0135603, -0.000113171
0.176218, 1.69577, -1.22937, -1.54438, -0.902625, -1.19956, 1.23117, -1.30259, -0.0231559, 0.0137455, 0.00424652, -0.080782, -0.00883678, -0.00653927, 0.000252664, -1.60302, 66.9492, 33.6338, 8.0014, 2.18555, 3.63986, 0.0165515, -0.00458092, 0.000869844, 0.00467928, 0.00795064, -0.00942938, 0.000813927, 0.0663541, -0.0164546, 0.00211326, -0.0303178, 0.107231, 0.0943948, 0.469987, -0.538717, 0.336422, -2.07899, -2.16479, -0.132919, 0.470851, -0.542458, 0.331047, -2.08043, -2.16622, -0.114467, -0.0162278, 0.0799433, 0.0102391, 0.00276468, 0.0148576, 0.00122661
0.177218, 1.69574, -1.22936, -1.54438, -0.902715, -1.19955, 1.23117, -1.30259, -0.024478, 0.0120767, 0.00386523, -0.0860683, -0.00699674, -0.00868637, -0.00227296, -1.52764, 66.8381, 33.5941, 7.85065, 2.19745, 3.61148, 0.0824695, -0.00464578, 0.000887951, 0.00467656, 0.0079565, -0.00952137, 0.000783516, 0.0658795, -0.0167757, 0.0001393, -0.0339633, 0.104258, 0.101139, 0.469971, -0.538637, 0.336433, -2.07891, -2.16477, -0.132968, 0.470855, -0.542442, 0.331049, -2.08036, -2.16628, -0.11442, -0.0163686, 0.0807828, 0.0103751, 0.0028542, 0.0164926, -0.000524519
0.178218, 1.69571, -1.22934, -1.54437, -0.902807, -1.19955, 1.23117, -1.30259, -0.0258088, 0.0158118, 0.00441971, -0.0910893, -0.00516305, -0.00560681, 0.00021402, -1.45226, 66.6516, 33.5187, 7.73956, 2.19745, 3.58218, 0.0357776, -0.00470974, 0.000905569, 0.00466953, 0.00796227, -0.00961747, 0.000763096, 0.0653317, -0.0180575, 0.00217477, -0.0316334, 0.109197, 0.102988, 0.469954, -0.538556, 0.336443, -2.07883, -2.16475, -0.133017, 0.470859, -0.542424, 0.331055, -2.0803, -2.16634, -0.114368, -0.0165093, 0.0816252, 0.0105121, 0.00405134, 0.0176097, 0.00166306
0.179218, 1.69567, -1.22933, -1.54437, -0.902897, -1.19955, 1.23116, -1.30259, -0.0298842, 0.0156766, 0.00207819, -0.0920298, -0.00405331, -0.00829031, 0.000854757, -1.37688, 66.5802, 33.5584, 7.51739, 2.20386, 3.56112, 0.0165515, -0.00477907, 0.000919907, 0.00467086, 0.00797583, -0.00970566, 0.00074524, 0.0677294, -0.0153007, 0.00112462, -0.0351684, 0.107755, 0.098819, 0.469938, -0.538474, 0.336454, -2.07875, -2.16473, -0.133067, 0.470859, -0.54241, 0.331053, -2.08024, -2.16638, -0.114315, -0.01665, 0.0824704, 0.0106501, 0.00120986, 0.0161387, 0.000462858
0.180218, 1.69564, -1.22932, -1.54435, -0.902996, -1.19955, 1.23116, -1.30259, -0.0331467, 0.0150342, 0.0081061, -0.0956545, -0.00298265, -0.00537056, 0.00104456, -1.30151, 66.5445, 33.4076, 7.40631, 2.20386, 3.53274, 0.00373412, -0.00484336, 0.000939418, 0.00466694, 0.00797685, -0.00979593, 0.000712881, 0.0678577, -0.0161253, 0.00280343, -0.0279658, 0.108332, 0.102299, 0.469921, -0.538392, 0.336464, -2.07866, -2.16471, -0.133117, 0.470865, -0.54239, 0.331056, -2.08016, -2.16644, -0.114277, -0.0167906, 0.0833185, 0.010789, 0.00196264, 0.0166311, 0.00220651
0.181218, 1.6956, -1.2293, -1.54434, -0.903099, -1.19955, 1.23117, -1.30259, -0.0355356, 0.0124867, 0.00829857, -0.0981799, -0.00263957, -0.00211527, -0.00123641, -1.22613, 66.4691, 33.2966, 7.29126, 2.21576, 3.47507, 0.0559192, -0.00491144, 0.000957022, 0.00466111, 0.00797748, -0.00989792, 0.000682941, 0.069503, -0.0161696, 0.0014353, -0.0257078, 0.10808, 0.105156, 0.469904, -0.538309, 0.336475, -2.07858, -2.16469, -0.133167, 0.470868, -0.542373, 0.331061, -2.0801, -2.16651, -0.114227, -0.0169311, 0.0841693, 0.010929, 0.0018784, 0.0160789, 0.000726644
0.182218, 1.69557, -1.22929, -1.54433, -0.90319, -1.19955, 1.23117, -1.30259, -0.0357279, 0.0119042, 0.00891989, -0.0933756, -0.00147665, -0.000862369, -0.000824273, -1.22613, 66.4691, 33.2966, 7.02942, 2.20386, 3.44668, 0.0559192, -0.00498319, 0.000971584, 0.00465709, 0.00798026, -0.00999317, 0.000663807, 0.0717051, -0.0155744, 0.00210977, -0.0211214, 0.107547, 0.101486, 0.469887, -0.538224, 0.336486, -2.07849, -2.16467, -0.133218, 0.470869, -0.54236, 0.331064, -2.08004, -2.16657, -0.11418, -0.0170715, 0.0850228, 0.0110699, 0.0012537, 0.014629, 0.00119374
0.183218, 1.69553, -1.22926, -1.54432, -0.903296, -1.19955, 1.23117, -1.30259, -0.0358438, 0.0198444, 0.00962512, -0.0976996, -0.00154355, 0.000132645, -7.47974e-05, -1.22613, 66.3937, 33.2966, 6.95801, 2.21576, 3.41739, 0.0431018, -0.005051, 0.000989562, 0.00464946, 0.00798539, -0.0100998, 0.0006384, 0.0705729, -0.0167333, 0.00652725, -0.0208563, 0.117179, 0.104997, 0.46987, -0.538139, 0.336497, -2.07841, -2.16465, -0.13327, 0.470872, -0.542341, 0.33107, -2.07998, -2.16663, -0.114121, -0.0172118, 0.0858791, 0.0112118, 0.00239721, 0.0159528, 0.00583295
0.184218, 1.69549, -1.22925, -1.54431, -0.903399, -1.19955, 1.23118, -1.30259, -0.0360769, 0.019747, 0.0087734, -0.098687, -0.00088041, 0.00139899, 0.0014082, -1.22613, 66.4334, 33.2212, 6.80725, 2.20935, 3.37436, 0.00373412, -0.00512272, 0.00100649, 0.00464287, 0.00797901, -0.0102021, 0.000615723, 0.0714452, -0.0170839, 0.00615653, -0.0204652, 0.118152, 0.104411, 0.469853, -0.538053, 0.336508, -2.07832, -2.16463, -0.133322, 0.470875, -0.542326, 0.331076, -2.07993, -2.16669, -0.114079, -0.017352, 0.0867382, 0.0113547, 0.002628, 0.0160264, 0.00545347
0.185218, 1.69544, -1.22924, -1.54429, -0.903506, -1.19955, 1.23118, -1.30259, -0.0395366, 0.019751, 0.01262, -0.102968, -0.00180638, 0.00231401, 0.00117616, -1.11108, 66.6159, 33.2212, 6.69617, 2.24048, 3.33133, -0.00267457, -0.00519946, 0.0010188, 0.0046407, 0.00797986, -0.0103033, 0.000601546, 0.0720631, -0.0169493, 0.00719182, -0.0180614, 0.12022, 0.10696, 0.469836, -0.537967, 0.33652, -2.07823, -2.1646, -0.133374, 0.470873, -0.542314, 0.331076, -2.07987, -2.16674, -0.11403, -0.0174921, 0.0875999, 0.0114985, 0.00241814, 0.0161096, 0.00651789
