alisrour97/Franka_experiments/Real_Robot_scripts/servo-franka/Data2/log_dyn_PI2_10.csv
Time,q1,q2,q3,q4,q5,q6,q7,dq1,dq2,dq3,dq4,dq5,dq6,dq7,t1,t2,t3,t4,t5,t6,t7,ex1,ex2,ex3,ex4,ex5,ex6,ev1,ev2,ev3,ev4,ev5,ev6,xd,yd,zd,uxd,uyd,uzd,x,y,z,ux,uy,uz,vxd,vyd,vzd,vx,vy,vz
4.88281e-07, 1.69124, -1.22885, -1.54044, -0.900489, -1.19256, 1.22756, -1.30245, -0.00643411, -0.00284746, -0.0108843, 0.00256733, 0.00129454, -0.00734206, -0.00091468, 0.586922, 67.1317, 34.6375, 7.5531, 3.19263, 4.80807, -0.461354, 0.000153524, -0.00217062, 0.00301688, 0.00399439, 0.0024737, 0.00126818, 0.00500803, 0.00724163, -0.00542649, -0.0132776, -0.00726792, -0.0125146, 0.471008, -0.543389, 0.335894, -2.08385, -2.16584, -0.129887, 0.468747, -0.542848, 0.333022, -2.08178, -2.16162, -0.127853, -1.41255e-05, -9.11997e-05, -6.59526e-05, -0.0072632, -0.00449633, -0.00598322
0.0121594, 1.69118, -1.22887, -1.54054, -0.900484, -1.19254, 1.22748, -1.30245, -0.0101382, -0.00223384, -0.0159227, -0.00361513, 0.00191938, -0.00622053, 0.000188192, 0.551216, 67.0959, 34.7129, 7.5531, 3.13129, 4.84378, -0.461354, 0.000114548, -0.00223559, 0.00306661, 0.00412949, 0.00254467, 0.00137279, 0.00574699, 0.0085597, -0.00738641, -0.0186972, -0.00585966, -0.0141378, 0.471008, -0.543389, 0.335894, -2.08385, -2.16584, -0.129887, 0.468661, -0.542896, 0.332951, -2.0818, -2.16134, -0.127746, -2.13283e-05, -0.000136675, -0.000102379, -0.0086311, -0.00502359, -0.00802988
0.0131594, 1.69118, -1.22887, -1.54054, -0.900484, -1.19254, 1.22748, -1.30245, -0.0101382, -0.00223384, -0.0159227, -0.00361513, 0.00191938, -0.00622053, 0.000188192, 0.551216, 67.0959, 34.7129, 7.5531, 3.13129, 4.84378, -0.461354, 0.00011456, -0.00223559, 0.00306661, 0.00412948, 0.00254467, 0.00137279, 0.00569211, 0.00855102, -0.00735446, -0.0186688, -0.00585008, -0.0141986, 0.471008, -0.543389, 0.335894, -2.08385, -2.16584, -0.129887, 0.468661, -0.542896, 0.332951, -2.0818, -2.16134, -0.127746, -2.91898e-05, -0.000186294, -0.000142179, -0.0086311, -0.00502359, -0.00802988
0.0141597, 1.69118, -1.22887, -1.54054, -0.900484, -1.19254, 1.22748, -1.30245, -0.0101382, -0.00223384, -0.0159227, -0.00361513, 0.00191938, -0.00622053, 0.000188192, 0.551216, 67.0959, 34.7129, 7.5531, 3.13129, 4.84378, -0.461354, 0.000114591, -0.00223558, 0.00306659, 0.00412945, 0.00254468, 0.00137279, 0.00563248, 0.00854159, -0.0073197, -0.0186378, -0.00583951, -0.0142648, 0.471008, -0.543389, 0.335894, -2.08385, -2.16584, -0.129887, 0.468661, -0.542896, 0.332951, -2.0818, -2.16134, -0.127746, -3.77325e-05, -0.000240197, -0.00018547, -0.0086311, -0.00502359, -0.00802988
0.0151597, 1.69118, -1.22887, -1.54054, -0.900484, -1.19254, 1.22748, -1.30245, -0.0101382, -0.00223384, -0.0159227, -0.00361513, 0.00191938, -0.00622053, 0.000188192, 0.551216, 67.0959, 34.7129, 7.5531, 3.13129, 4.84378, -0.461354, 0.00011465, -0.00223557, 0.00306655, 0.0041294, 0.00254469, 0.00137278, 0.00556795, 0.00853138, -0.00728204, -0.0186041, -0.00582791, -0.0143367, 0.471008, -0.543389, 0.335894, -2.08385, -2.16584, -0.129887, 0.468661, -0.542896, 0.332951, -2.0818, -2.16134, -0.127746, -4.69786e-05, -0.000298522, -0.00023237, -0.0086311, -0.00502359, -0.00802988
0.0161597, 1.69118, -1.22887, -1.54054, -0.900484, -1.19254, 1.22748, -1.30245, -0.0101382, -0.00223384, -0.0159227, -0.00361513, 0.00191938, -0.00622053, 0.000188192, 0.551216, 67.0959, 34.7129, 7.5531, 3.13129, 4.84378, -0.461354, 0.000114749, -0.00223556, 0.0030665, 0.00412932, 0.00254471, 0.00137277, 0.00549837, 0.00852037, -0.00724137, -0.0185676, -0.00581522, -0.0144143, 0.471008, -0.54339, 0.335894, -2.08385, -2.16584, -0.129887, 0.468661, -0.542896, 0.332951, -2.0818, -2.16134, -0.127746, -5.69498e-05, -0.000361405, -0.000282992, -0.0086311, -0.00502359, -0.00802988
0.0171597, 1.69118, -1.22887, -1.54054, -0.900484, -1.19254, 1.22748, -1.30245, -0.0101382, -0.00223384, -0.0159227, -0.00361513, 0.00191938, -0.00622053, 0.000188192, 0.551216, 67.0959, 34.7129, 7.5531, 3.13129, 4.84378, -0.461354, 0.000114895, -0.00223553, 0.00306641, 0.00412919, 0.00254475, 0.00137275, 0.00542359, 0.00850855, -0.00719761, -0.0185282, -0.00580142, -0.0144979, 0.471008, -0.54339, 0.335894, -2.08385, -2.16584, -0.129886, 0.468661, -0.542896, 0.332951, -2.0818, -2.16134, -0.127746, -6.7667e-05, -0.000428975, -0.000337449, -0.0086311, -0.00502359, -0.00802988
0.0181597, 1.69118, -1.22887, -1.54054, -0.900484, -1.19254, 1.22748, -1.30245, -0.0101382, -0.00223384, -0.0159227, -0.00361513, 0.00191938, -0.00622053, 0.000188192, 0.551216, 67.0959, 34.7129, 7.5531, 3.13129, 4.84378, -0.461354, 0.000115097, -0.0022355, 0.0030663, 0.00412902, 0.00254479, 0.00137272, 0.00534348, 0.00849588, -0.00715068, -0.0184859, -0.00578644, -0.0145877, 0.471008, -0.54339, 0.335893, -2.08385, -2.16584, -0.129886, 0.468661, -0.542896, 0.332951, -2.0818, -2.16134, -0.127746, -7.91509e-05, -0.000501362, -0.000395848, -0.0086311, -0.00502359, -0.00802988
0.0191597, 1.69118, -1.22887, -1.54054, -0.900484, -1.19254, 1.22748, -1.30245, -0.0101382, -0.00223384, -0.0159227, -0.00361513, 0.00191938, -0.00622053, 0.000188192, 0.551216, 67.0959, 34.7129, 7.5531, 3.13129, 4.84378, -0.461354, 0.000115366, -0.00223546, 0.00306614, 0.0041288, 0.00254485, 0.00137268, 0.00525789, 0.00848234, -0.00710047, -0.0184405, -0.00577026, -0.0146838, 0.471008, -0.54339, 0.335893, -2.08385, -2.16584, -0.129886, 0.468661, -0.542896, 0.332951, -2.0818, -2.16134, -0.127746, -9.14213e-05, -0.000578688, -0.000458296, -0.0086311, -0.00502359, -0.00802988
0.0201597, 1.69118, -1.22887, -1.54054, -0.900484, -1.19254, 1.22748, -1.30245, -0.0101382, -0.00223384, -0.0159227, -0.00361513, 0.00191938, -0.00622053, 0.000188192, 0.551216, 67.0959, 34.7129, 7.5531, 3.13129, 4.84378, -0.461354, 0.00011571, -0.0022354, 0.00306594, 0.0041285, 0.00254492, 0.00137264, 0.00516668, 0.00846791, -0.00704692, -0.0183919, -0.00575282, -0.0147864, 0.471008, -0.54339, 0.335893, -2.08385, -2.16584, -0.129885, 0.468661, -0.542896, 0.332951, -2.0818, -2.16134, -0.127746, -0.000104498, -0.000661074, -0.000524897, -0.0086311, -0.00502359, -0.00802988
0.0211597, 1.69118, -1.22887, -1.54054, -0.900484, -1.19254, 1.22748, -1.30245, -0.0101382, -0.00223384, -0.0159227, -0.00361513, 0.00191938, -0.00622053, 0.000188192, 0.551216, 67.0959, 34.7129, 7.5531, 3.13129, 4.84378, -0.461354, 0.000116137, -0.00223533, 0.00306569, 0.00412814, 0.00254501, 0.00137258, 0.00506974, 0.00845258, -0.00698994, -0.0183401, -0.00573409, -0.0148957, 0.471008, -0.543391, 0.335893, -2.08385, -2.16584, -0.129885, 0.468661, -0.542896, 0.332951, -2.0818, -2.16134, -0.127746, -0.000118398, -0.000748633, -0.000595748, -0.0086311, -0.00502359, -0.00802988
0.0221597, 1.69112, -1.22889, -1.54062, -0.900507, -1.19253, 1.22739, -1.30246, -0.00528606, -0.00118975, -0.00427749, -0.00182743, 0.00343533, -0.0110684, -0.000580823, 0.360787, 67.1317, 34.6375, 7.73956, 3.03882, 4.99484, -0.421986, 8.93345e-05, -0.00229506, 0.00311315, 0.00427485, 0.00261656, 0.00144387, 3.05916e-05, 0.00478709, -0.00261558, -0.0114257, -0.00906479, -0.00493763, 0.471008, -0.543391, 0.335892, -2.08385, -2.16584, -0.129884, 0.4686, -0.542918, 0.332901, -2.08176, -2.16117, -0.127648, -0.000133141, -0.000841478, -0.000670947, -0.00500737, -0.000664933, -0.00311413
0.0231597, 1.69111, -1.2289, -1.54063, -0.900507, -1.19253, 1.22738, -1.30245, -0.00504915, -0.00266261, -0.0032721, -0.000515184, 0.00293026, -0.0139475, 0.000596128, 0.400459, 67.207, 34.6375, 7.70386, 3.026, 5.02322, -0.448536, 8.42918e-05, -0.00230349, 0.00312075, 0.00428874, 0.00263, 0.00146103, -6.76708e-05, 0.00530978, -0.00314182, -0.012764, -0.0116911, -0.00681016, 0.471008, -0.543392, 0.335892, -2.08385, -2.16584, -0.129884, 0.468592, -0.542923, 0.332893, -2.08176, -2.16114, -0.127644, -0.000148743, -0.000939713, -0.000750586, -0.0055675, -0.000606546, -0.00368239
0.0241597, 1.6911, -1.2289, -1.54064, -0.900514, -1.19253, 1.22737, -1.30246, -0.00381392, -0.00826107, -0.00601961, -0.00375119, -0.000197136, -0.0181879, -0.000585926, 0.400459, 66.9095, 34.3757, 7.70386, 2.96466, 4.98019, -0.421986, 8.308e-05, -0.00230953, 0.0031246, 0.00430406, 0.00263617, 0.00146329, -0.000428049, 0.0053911, -0.00822036, -0.0224451, -0.0162879, -0.00396116, 0.471008, -0.543393, 0.335891, -2.08385, -2.16584, -0.129883, 0.468585, -0.542924, 0.332888, -2.08175, -2.16113, -0.127632, -0.00016522, -0.00104344, -0.000834754, -0.0058614, 0.000423844, -0.00872285
0.0251597, 1.6911, -1.22889, -1.54067, -0.900517, -1.19252, 1.22736, -1.30246, -0.00111524, -0.0039673, -0.016171, -0.00368963, 0.00197943, -0.018266, 0.00163391, 0.325081, 65.9891, 34.0424, 7.59277, 2.77515, 4.8511, -0.350575, 8.02713e-05, -0.00231655, 0.00313092, 0.00433669, 0.0026333, 0.00147413, -0.000459595, 0.00551298, -0.00936396, -0.0303477, -0.0130689, -0.00794077, 0.471007, -0.543393, 0.335891, -2.08385, -2.16584, -0.129882, 0.468578, -0.542927, 0.332881, -2.08175, -2.1611, -0.127591, -0.000182589, -0.00115275, -0.000923534, -0.00604292, 0.000516705, -0.00993228
0.0261597, 1.69111, -1.22889, -1.5407, -0.900531, -1.19253, 1.22734, -1.30246, 0.00133529, -0.0050939, -0.0210772, -0.00527941, -0.00119688, -0.0235744, -0.00265844, 0.0949785, 64.8862, 33.4473, 7.5531, 2.58472, 4.72201, -0.238881, 8.19186e-05, -0.00231982, 0.00314622, 0.00439452, 0.0026323, 0.00147038, -0.00095069, 0.00594138, -0.0125003, -0.041891, -0.0136687, -0.00337872, 0.471007, -0.543394, 0.33589, -2.08385, -2.16584, -0.129881, 0.468574, -0.542924, 0.332866, -2.08171, -2.16108, -0.127525, -0.000200863, -0.00126774, -0.00101701, -0.00661983, 0.00135175, -0.0130335
0.0271597, 1.69111, -1.2289, -1.54075, -0.900533, -1.19254, 1.22731, -1.30246, 0.00304541, -0.00320384, -0.0302149, -0.00584334, -1.4866e-05, -0.0289058, -0.00270116, -0.0161054, 63.6325, 32.8126, 7.33093, 2.40619, 4.62955, -0.205922, 7.48376e-05, -0.00233386, 0.00317016, 0.00446896, 0.00264469, 0.00149949, -0.00108284, 0.00732916, -0.0151803, -0.0542685, -0.0146748, -0.00533765, 0.471007, -0.543395, 0.335889, -2.08384, -2.16584, -0.129879, 0.468559, -0.542929, 0.332841, -2.0817, -2.16102, -0.127451, -0.000220057, -0.00138849, -0.00111525, -0.0081265, 0.00171718, -0.0157157
0.0281597, 1.69112, -1.22892, -1.54081, -0.900538, -1.19255, 1.22727, -1.30245, 0.00615234, -0.00731104, -0.0392484, -0.00558237, -0.00137776, -0.0339889, 0.00409103, -0.206535, 62.5296, 32.0707, 7.06909, 2.28351, 4.55722, -0.232472, 7.02224e-05, -0.00234514, 0.00320598, 0.00456481, 0.00266896, 0.00152511, -0.000535631, 0.00823242, -0.0212816, -0.0678615, -0.0194648, -0.0141665, 0.471007, -0.543396, 0.335888, -2.08384, -2.16584, -0.129878, 0.468547, -0.542929, 0.332804, -2.08166, -2.16094, -0.127365, -0.000240182, -0.00151507, -0.00121833, -0.00924943, 0.00195249, -0.0219011
0.0291597, 1.69113, -1.22895, -1.54089, -0.900553, -1.19257, 1.22723, -1.30245, 0.00821393, -0.0140434, -0.0505747, -0.00904067, -0.0086962, -0.0368594, 0.000603547, -0.392998, 61.6806, 31.4002, 6.95801, 2.20386, 4.46383, -0.160145, 6.3626e-05, -0.00235754, 0.00325836, 0.00468796, 0.00270305, 0.00153862, 0.00149104, 0.00951828, -0.0300021, -0.0861203, -0.0204827, -0.013538, 0.471007, -0.543398, 0.335887, -2.08384, -2.16584, -0.129876, 0.468532, -0.54293, 0.332751, -2.08159, -2.16086, -0.12726, -0.000261251, -0.00164757, -0.00132632, -0.0107971, 0.00110879, -0.0308957
0.0301597, 1.69114, -1.22899, -1.54096, -0.900562, -1.1926, 1.22719, -1.30245, 0.00936881, -0.0186685, -0.0609133, -0.0100409, -0.0120455, -0.041225, 0.000343864, -0.43267, 60.8713, 30.6186, 6.77154, 2.19745, 4.29904, -0.147328, 5.02081e-05, -0.00237553, 0.003311, 0.00481351, 0.00272897, 0.00157057, 0.00330013, 0.0115504, -0.0368713, -0.101478, -0.0236899, -0.017432, 0.471007, -0.543399, 0.335886, -2.08384, -2.16584, -0.129874, 0.468513, -0.542937, 0.332696, -2.08154, -2.16076, -0.127142, -0.000283275, -0.00178604, -0.00143928, -0.013032, 0.000158429, -0.0380109
0.0311597, 1.69115, -1.22903, -1.54106, -0.900574, -1.19263, 1.22715, -1.30244, 0.0103727, -0.0212724, -0.0689587, -0.00826215, -0.0179326, -0.0434233, 0.00199947, -0.468376, 60.2802, 29.9839, 6.62079, 2.17273, 4.09854, -0.186696, 3.41674e-05, -0.00239314, 0.00337655, 0.00495835, 0.00275862, 0.00160991, 0.00605915, 0.0138076, -0.041154, -0.112619, -0.0221198, -0.0256172, 0.471006, -0.543401, 0.335885, -2.08384, -2.16584, -0.129872, 0.468493, -0.542945, 0.332628, -2.08149, -2.16065, -0.127006, -0.000306264, -0.00193055, -0.00155726, -0.0153653, -0.00214307, -0.0427178
0.0321597, 1.69116, -1.22908, -1.54116, -0.900591, -1.19266, 1.2271, -1.30244, 0.0104667, -0.0324835, -0.0746236, -0.0121332, -0.0172056, -0.0418751, 0.00251654, -0.468376, 59.9866, 29.3134, 6.54541, 2.13611, 3.93374, -0.21233, 1.99413e-05, -0.00241031, 0.003447, 0.00510348, 0.00280298, 0.00163818, 0.00692153, 0.0133052, -0.0500579, -0.118591, -0.0323782, -0.0250957, 0.471006, -0.543402, 0.335883, -2.08384, -2.16584, -0.12987, 0.468474, -0.542951, 0.332556, -2.08142, -2.16053, -0.126885, -0.000330225, -0.00208114, -0.00168032, -0.0151782, -0.00175408, -0.0517818
0.0331597, 1.69117, -1.22911, -1.54125, -0.900603, -1.1927, 1.22706, -1.30244, 0.00988419, -0.0296481, -0.0770038, -0.0131229, -0.0225454, -0.0472502, 0.00236191, -0.43267, 59.3994, 28.7183, 6.39465, 2.1297, 3.81198, -0.226063, 5.17614e-06, -0.00243174, 0.00350181, 0.00525429, 0.00281677, 0.00167997, 0.00743575, 0.0154477, -0.0497015, -0.12788, -0.0275852, -0.0278312, 0.471006, -0.543404, 0.335882, -2.08384, -2.16584, -0.129868, 0.468451, -0.54296, 0.332498, -2.08138, -2.16042, -0.126725, -0.000355167, -0.00223786, -0.0018085, -0.0173118, -0.00256098, -0.0515733
0.0341597, 1.69119, -1.22915, -1.54134, -0.900608, -1.19273, 1.22701, -1.30245, 0.0120682, -0.0329743, -0.0805222, -0.0086622, -0.0252963, -0.0480438, -0.000260388, -0.508049, 59.1415, 28.1986, 6.17248, 2.09308, 3.73324, -0.172963, -6.67669e-06, -0.00244793, 0.00356126, 0.00540096, 0.00284352, 0.00170583, 0.00910028, 0.0162125, -0.0523595, -0.131332, -0.0290983, -0.0297086, 0.471005, -0.543406, 0.33588, -2.08384, -2.16584, -0.129865, 0.468432, -0.542965, 0.332437, -2.08131, -2.16032, -0.126585, -0.000381096, -0.00240075, -0.00194184, -0.0181381, -0.00398938, -0.0545664
0.0351597, 1.69121, -1.22917, -1.54144, -0.900624, -1.19277, 1.22696, -1.30245, 0.0119717, -0.0242599, -0.0857897, -0.0125258, -0.0259958, -0.0486441, -7.48219e-05, -0.508049, 58.7329, 27.9368, 6.09711, 2.02533, 3.66092, -0.172963, -1.62921e-05, -0.00246443, 0.00361278, 0.00555754, 0.00284569, 0.00173472, 0.00817407, 0.016658, -0.0495703, -0.137771, -0.0194287, -0.029758, 0.471005, -0.543408, 0.335878, -2.08384, -2.16584, -0.129862, 0.468414, -0.542969, 0.332383, -2.08126, -2.16023, -0.126407, -0.000408018, -0.00256985, -0.00208038, -0.0185424, -0.00369164, -0.0517936
0.0361597, 1.69122, -1.22918, -1.54154, -0.900634, -1.19281, 1.22692, -1.30244, 0.0118607, -0.0221746, -0.0829271, -0.0141021, -0.0322338, -0.0490395, 0.000295464, -0.508049, 58.5147, 27.6749, 5.98602, 1.98871, 3.58951, -0.180287, -2.7121e-05, -0.00247985, 0.00366098, 0.00570165, 0.00284397, 0.0017693, 0.00796838, 0.0166484, -0.0474571, -0.138969, -0.0124443, -0.0298319, 0.471005, -0.543411, 0.335877, -2.08384, -2.16583, -0.129859, 0.468397, -0.542976, 0.332332, -2.08122, -2.16014, -0.126239, -0.000435936, -0.00274516, -0.00222414, -0.0184919, -0.00398876, -0.0498191
0.0371597, 1.69124, -1.22919, -1.54163, -0.900657, -1.19285, 1.22688, -1.30244, 0.00915412, -0.0144975, -0.0827271, -0.0148447, -0.0311456, -0.044439, 0.000252534, -0.392998, 58.3282, 27.5281, 6.13678, 1.90906, 3.5181, -0.180287, -3.46781e-05, -0.00249411, 0.0037004, 0.00584179, 0.0028255, 0.00179327, 0.00826532, 0.0171104, -0.0423118, -0.133459, -0.00340344, -0.0317368, 0.471004, -0.543413, 0.335874, -2.08384, -2.16583, -0.129855, 0.468381, -0.54298, 0.33229, -2.08118, -2.16007, -0.12606, -0.000464854, -0.00292672, -0.00237315, -0.0187859, -0.00527432, -0.0449196
0.0381597, 1.69125, -1.22918, -1.54171, -0.900677, -1.1929, 1.22685, -1.30244, 0.00887233, -0.00396569, -0.0836771, -0.0198154, -0.0349457, -0.0365432, -0.0015193, -0.206535, 58.2172, 27.5638, 6.20819, 1.82941, 3.45309, -0.133595, -4.39843e-05, -0.00250927, 0.00373237, 0.00597376, 0.00279199, 0.00182019, 0.00751742, 0.0154696, -0.0363181, -0.130512, 0.0146347, -0.0280678, 0.471004, -0.543416, 0.335872, -2.08384, -2.16583, -0.129852, 0.468365, -0.542988, 0.332256, -2.08115, -2.16001, -0.125873, -0.000494774, -0.00311453, -0.00252743, -0.0169875, -0.00557916, -0.0390889
0.0391597, 1.69126, -1.22918, -1.5418, -0.900701, -1.19294, 1.22681, -1.30244, 0.0073992, -0.00129434, -0.0852927, -0.024806, -0.0379627, -0.0333711, -0.00121898, 0.059273, 58.3679, 27.6749, 6.35895, 1.76807, 3.46774, -0.127186, -5.16949e-05, -0.00252528, 0.00376543, 0.00610967, 0.00276423, 0.00184927, 0.00749419, 0.0152467, -0.0355273, -0.132369, 0.0218744, -0.0275387, 0.471003, -0.543419, 0.33587, -2.08384, -2.16583, -0.129848, 0.468347, -0.542994, 0.33222, -2.08112, -2.15994, -0.125688, -0.000525695, -0.00330858, -0.00268698, -0.0167681, -0.00586291, -0.0384706
0.0401597, 1.69126, -1.22916, -1.54187, -0.90073, -1.19299, 1.22677, -1.30243, 0.00142347, 0.00216736, -0.0805271, -0.0270252, -0.0407183, -0.0343794, -4.32275e-05, 0.400459, 58.475, 27.8257, 6.58508, 1.71222, 3.58218, -0.147328, -5.77479e-05, -0.00254308, 0.00378825, 0.00624062, 0.00272358, 0.00187648, 0.00839833, 0.0177869, -0.0317484, -0.130063, 0.0268217, -0.0316321, 0.471003, -0.543422, 0.335867, -2.08384, -2.16583, -0.129843, 0.468328, -0.543, 0.332194, -2.0811, -2.15988, -0.125495, -0.000557617, -0.00350887, -0.00285182, -0.0191683, -0.00764135, -0.0349677
0.0411597, 1.69125, -1.22915, -1.54195, -0.900758, -1.19303, 1.22674, -1.30243, -0.00104843, 0.00582621, -0.079828, -0.0273247, -0.0432999, -0.0323715, -1.12393e-05, 0.813057, 58.6972, 28.1232, 6.77154, 1.6756, 3.76163, -0.147328, -6.72538e-05, -0.00256422, 0.00380989, 0.00636518, 0.00268214, 0.00191133, 0.00941635, 0.0189401, -0.0289469, -0.128228, 0.0335242, -0.0347112, 0.471002, -0.543426, 0.335864, -2.08384, -2.16583, -0.129839, 0.468306, -0.543011, 0.332169, -2.08109, -2.15982, -0.125307, -0.000590537, -0.00371538, -0.00302192, -0.0202154, -0.00933126, -0.0324947
0.0421597, 1.69125, -1.22913, -1.54201, -0.900791, -1.19308, 1.2267, -1.30243, -0.000657591, 0.00945033, -0.072529, -0.0281349, -0.0421147, -0.0347333, -0.00243572, 1.15424, 58.9194, 28.4208, 6.99371, 1.66919, 3.93374, -0.0814099, -7.10824e-05, -0.00258074, 0.00382535, 0.00648585, 0.00263247, 0.00192708, 0.0064445, 0.0175732, -0.0244235, -0.123345, 0.0346555, -0.027643, 0.471002, -0.543429, 0.335861, -2.08384, -2.16583, -0.129834, 0.468289, -0.543016, 0.332151, -2.08107, -2.15978, -0.125116, -0.000624453, -0.00392809, -0.0031973, -0.0188271, -0.00725033, -0.0277835
0.0431597, 1.69124, -1.22912, -1.54207, -0.900818, -1.19314, 1.22667, -1.30244, -0.00440324, 0.00899318, -0.0702922, -0.0261701, -0.0464432, -0.0337912, -0.00283463, 1.53114, 59.3994, 28.8691, 7.1048, 1.6875, 4.04086, -0.0484509, -8.16423e-05, -0.00260136, 0.00384398, 0.00659706, 0.0025879, 0.00195643, 0.00897608, 0.01999, -0.0232003, -0.120969, 0.0378246, -0.0333103, 0.471001, -0.543433, 0.335858, -2.08384, -2.16582, -0.129829, 0.468267, -0.543029, 0.332128, -2.08106, -2.15973, -0.12494, -0.000659358, -0.00414696, -0.00337792, -0.021141, -0.0102556, -0.0270762
0.0441597, 1.69124, -1.22911, -1.54212, -0.900842, -1.19319, 1.22665, -1.30243, -0.00938744, 0.0115663, -0.0656959, -0.0262414, -0.0488148, -0.0320495, -0.00137371, 1.87232, 59.9509, 29.3531, 7.14447, 1.69391, 4.12051, -0.0621838, -9.09929e-05, -0.00261879, 0.00385813, 0.00669174, 0.00254091, 0.00199029, 0.0103775, 0.0219139, -0.0195041, -0.115437, 0.0427992, -0.0385597, 0.471, -0.543437, 0.335855, -2.08383, -2.16582, -0.129823, 0.468249, -0.543041, 0.33211, -2.08107, -2.15968, -0.124779, -0.000695248, -0.00437195, -0.00356376, -0.0229147, -0.0125117, -0.0237717
0.0451597, 1.69123, -1.22909, -1.54217, -0.900868, -1.19324, 1.22663, -1.30242, -0.00947322, 0.0102382, -0.0625893, -0.026728, -0.0515709, -0.0291326, 0.00102254, 2.05878, 60.5023, 29.8728, 7.18018, 1.72504, 4.15622, -0.114369, -9.71612e-05, -0.00263254, 0.00386764, 0.00678293, 0.00248388, 0.00201917, 0.0103442, 0.0210162, -0.0188382, -0.111655, 0.0450858, -0.0403168, 0.471, -0.543442, 0.335851, -2.08383, -2.16582, -0.129818, 0.468234, -0.54305, 0.332097, -2.08108, -2.15964, -0.124611, -0.000732114, -0.004603, -0.00375481, -0.0220322, -0.0127757, -0.023327
0.0461597, 1.69123, -1.22908, -1.54222, -0.90089, -1.1933, 1.22661, -1.30243, -0.00898188, 0.00748561, -0.0577219, -0.0245717, -0.0505508, -0.0235274, -0.00100956, 2.20954, 61.2759, 30.4322, 7.1048, 1.79187, 4.2203, -0.0685925, -0.000106531, -0.00264768, 0.00388067, 0.0068746, 0.00242869, 0.00204191, 0.0101313, 0.0191253, -0.0178144, -0.101182, 0.0438558, -0.0372601, 0.470999, -0.543446, 0.335848, -2.08383, -2.16582, -0.129812, 0.468218, -0.543062, 0.332079, -2.08108, -2.15961, -0.124446, -0.000769946, -0.00484006, -0.003951, -0.0201523, -0.0128828, -0.0225362
0.0471597, 1.69123, -1.22907, -1.54226, -0.900905, -1.19337, 1.22659, -1.30242, -0.0071061, 0.00949465, -0.051986, -0.0228245, -0.0550475, -0.0248758, -0.000432551, 2.28492, 62.0496, 30.9162, 6.88263, 1.87793, 4.30636, -0.0750012, -0.000115904, -0.00266333, 0.00388883, 0.00695795, 0.00237245, 0.00207608, 0.0089259, 0.0181929, -0.0144079, -0.0985728, 0.0484831, -0.036625, 0.470998, -0.543451, 0.335844, -2.08383, -2.16582, -0.129805, 0.468202, -0.543076, 0.332066, -2.0811, -2.15958, -0.124286, -0.000808735, -0.00508306, -0.00415231, -0.0191799, -0.0124219, -0.0192149
0.0481597, 1.69124, -1.22905, -1.54231, -0.900924, -1.19343, 1.22657, -1.30242, -0.00249037, 0.00826096, -0.0492868, -0.0206703, -0.0563075, -0.0221888, -4.86619e-05, 2.20954, 62.8232, 31.4716, 6.73187, 1.92737, 4.4208, -0.0814099, -0.000118804, -0.00267264, 0.00389857, 0.00704835, 0.00231713, 0.00209436, 0.00732841, 0.0151877, -0.0137189, -0.094107, 0.0494809, -0.0337641, 0.470997, -0.543456, 0.33584, -2.08383, -2.16582, -0.129798, 0.468192, -0.543083, 0.332052, -2.0811, -2.15955, -0.124122, -0.000848468, -0.00533191, -0.00435868, -0.0162506, -0.0110768, -0.0185836
0.0491597, 1.69123, -1.22904, -1.54234, -0.90093, -1.19349, 1.22654, -1.30242, -0.00306064, 0.00810042, -0.0477144, -0.0163399, -0.0577, -0.0245154, 0.000715304, 2.28492, 63.5968, 31.9199, 6.47003, 1.98871, 4.52884, -0.101552, -0.00013005, -0.00269215, 0.00390272, 0.00712609, 0.00226303, 0.00213552, 0.0083015, 0.0167325, -0.0126536, -0.0931074, 0.0488838, -0.0389287, 0.470997, -0.543461, 0.335835, -2.08383, -2.16581, -0.129791, 0.468171, -0.543099, 0.332043, -2.08113, -2.15951, -0.12397, -0.000889131, -0.00558652, -0.00457004, -0.0177609, -0.0125192, -0.0178474
0.0501597, 1.69123, -1.22903, -1.54238, -0.900948, -1.19356, 1.22652, -1.30243, -0.000933076, 0.0124452, -0.042551, -0.018091, -0.0583463, -0.0253404, -0.00196322, 2.24921, 64.3347, 32.3285, 6.39465, 2.02533, 4.6149, -0.0356336, -0.000135675, -0.00270588, 0.00390742, 0.00721151, 0.00220122, 0.0021523, 0.00512816, 0.0144869, -0.00851813, -0.0902327, 0.0532887, -0.0307884, 0.470996, -0.543467, 0.335831, -2.08383, -2.16581, -0.129784, 0.468157, -0.54311, 0.332033, -2.08113, -2.15949, -0.123803, -0.00093071, -0.0058468, -0.00478633, -0.0155237, -0.0101913, -0.0135555
0.0511597, 1.69122, -1.22901, -1.54242, -0.900963, -1.19363, 1.2265, -1.30242, -0.00125317, 0.00970791, -0.038813, -0.0161259, -0.0629719, -0.024624, -0.000324477, 2.28492, 65.033, 32.7372, 6.32324, 2.05646, 4.66525, -0.0621838, -0.000145041, -0.00272338, 0.00391382, 0.00729646, 0.00214172, 0.0021877, 0.00602296, 0.0147378, -0.00827004, -0.0875739, 0.054363, -0.0345092, 0.470995, -0.543473, 0.335826, -2.08383, -2.16581, -0.129776, 0.468139, -0.543125, 0.332021, -2.08115, -2.15945, -0.123637, -0.000973186, -0.00611264, -0.00500747, -0.0157758, -0.0113889, -0.0136628
0.0521597, 1.69122, -1.229, -1.54245, -0.900979, -1.1937, 1.22648, -1.30242, -0.000682371, 0.00913073, -0.0388525, -0.0159893, -0.0665196, -0.0229561, 0.00073386, 2.28492, 65.6955, 32.999, 6.32324, 2.08118, 4.67898, -0.0878186, -0.000153414, -0.0027378, 0.00391667, 0.00737225, 0.00207411, 0.00221922, 0.00644623, 0.0144931, -0.00830373, -0.08771, 0.0576091, -0.0366741, 0.470994, -0.543479, 0.335821, -2.08382, -2.16581, -0.129768, 0.468123, -0.54314, 0.332013, -2.08118, -2.15942, -0.123474, -0.00101654, -0.00638391, -0.00523338, -0.0155609, -0.0120629, -0.013995
0.0531597, 1.69122, -1.22898, -1.54248, -0.900997, -1.19378, 1.22646, -1.30242, 0.00049511, 0.0131701, -0.0419905, -0.0175863, -0.0726462, -0.0232404, 0.000489797, 2.24921, 66.1359, 33.3719, 6.39465, 2.09308, 4.72934, -0.0878186, -0.000158037, -0.00275067, 0.00391879, 0.00746345, 0.00199947, 0.00224297, 0.00660682, 0.014803, -0.00715493, -0.0939784, 0.0669665, -0.0378758, 0.470993, -0.543485, 0.335816, -2.08382, -2.1658, -0.129759, 0.46811, -0.543151, 0.332005, -2.08119, -2.1594, -0.123286, -0.00106076, -0.00666049, -0.00546395, -0.0158674, -0.0126875, -0.0131067
0.0541597, 1.69122, -1.22897, -1.54252, -0.901014, -1.19387, 1.22643, -1.30242, -0.00134706, 0.0110425, -0.0366854, -0.0184682, -0.0733516, -0.0241597, 0.000326949, 2.32459, 66.6516, 33.5584, 6.47003, 2.1178, 4.79434, -0.0878186, -0.000167867, -0.00276894, 0.00392365, 0.0075533, 0.00192975, 0.00227684, 0.00598863, 0.0148594, -0.00643959, -0.0905876, 0.0647237, -0.0367795, 0.470992, -0.543492, 0.33581, -2.08382, -2.1658, -0.12975, 0.46809, -0.543167, 0.331994, -2.08121, -2.15936, -0.123104, -0.00110581, -0.00694224, -0.0056991, -0.015965, -0.0124714, -0.0125377
0.0551597, 1.69122, -1.22896, -1.54255, -0.901035, -1.19395, 1.2264, -1.30243, -0.000833461, 0.00865118, -0.0322365, -0.0181544, -0.073871, -0.0249035, -0.00218922, 2.32459, 67.0602, 33.7052, 6.65649, 2.12421, 4.86575, -0.0228162, -0.000173391, -0.00278299, 0.00392983, 0.00764475, 0.00186238, 0.00229312, 0.00485869, 0.0139528, -0.00612153, -0.0875231, 0.0621769, -0.0324025, 0.470991, -0.543499, 0.335805, -2.08382, -2.1658, -0.12974, 0.468075, -0.543179, 0.331981, -2.08121, -2.15935, -0.122923, -0.00115168, -0.007229, -0.00593872, -0.0151344, -0.0116545, -0.0123152
0.0561597, 1.69122, -1.22895, -1.54258, -0.90105, -1.19404, 1.22637, -1.30243, -0.000507207, 0.0106957, -0.0292526, -0.0192898, -0.078104, -0.0301709, -0.00220523, 2.32459, 67.2784, 33.8559, 6.77154, 2.11139, 4.93716, -0.00267457, -0.00017971, -0.00279895, 0.00393229, 0.00774036, 0.00178738, 0.00232374, 0.00353625, 0.0144162, -0.0042896, -0.091685, 0.0650754, -0.0314923, 0.47099, -0.543506, 0.335799, -2.08382, -2.16579, -0.129731, 0.468058, -0.543193, 0.331973, -2.08123, -2.15932, -0.122728, -0.00119834, -0.00752062, -0.00618267, -0.0156248, -0.0109414, -0.010531
0.0571597, 1.69123, -1.22894, -1.54261, -0.901066, -1.19413, 1.22634, -1.30242, 0.00377434, 0.0100645, -0.0275985, -0.0198482, -0.0783033, -0.0289705, 0.000971429, 2.28492, 67.576, 33.8917, 6.88263, 2.04364, 4.99484, -0.0685925, -0.000183569, -0.00281128, 0.00394016, 0.00783281, 0.00172516, 0.00235404, 0.00102694, 0.0113328, -0.00406916, -0.0900768, 0.065394, -0.0296093, 0.470988, -0.543514, 0.335793, -2.08381, -2.16579, -0.12972, 0.468045, -0.543204, 0.331958, -2.08124, -2.15928, -0.12255, -0.00124576, -0.00781692, -0.00643084, -0.0126745, -0.0086682, -0.0102653
0.0581597, 1.69123, -1.22893, -1.54264, -0.901083, -1.19422, 1.22631, -1.30242, 0.00456905, 0.0104271, -0.0292586, -0.0203206, -0.0805556, -0.032595, 0.000647752, 2.20954, 67.6831, 33.8917, 6.99371, 2.01343, 5.05252, -0.0685925, -0.000187242, -0.0028256, 0.00394475, 0.0079355, 0.00165205, 0.0023755, 0.000577822, 0.0119502, -0.00465487, -0.095842, 0.0660668, -0.0300552, 0.470987, -0.543521, 0.335786, -2.08381, -2.16579, -0.12971, 0.468029, -0.543215, 0.331947, -2.08125, -2.15926, -0.122349, -0.00129392, -0.00811772, -0.00668309, -0.0133766, -0.00846075, -0.0110074
0.0591597, 1.69124, -1.22893, -1.54267, -0.9011, -1.19432, 1.22627, -1.30243, 0.00813327, 0.0100432, -0.0305784, -0.0238749, -0.0820281, -0.0346187, -0.00173821, 2.13416, 67.7942, 33.8917, 7.1048, 1.9823, 5.08822, -0.00999879, -0.000190968, -0.00283918, 0.00395345, 0.00804024, 0.00158415, 0.00239147, -0.00200297, 0.00986781, -0.00599032, -0.101506, 0.0664864, -0.0225697, 0.470986, -0.54353, 0.335779, -2.08381, -2.16578, -0.129699, 0.468014, -0.543226, 0.331932, -2.08124, -2.15923, -0.122152, -0.00134278, -0.00842284, -0.00693927, -0.0114864, -0.00592731, -0.0122448
0.0601597, 1.69125, -1.22893, -1.5427, -0.901115, -1.19441, 1.22623, -1.30243, 0.00937045, 0.00627584, -0.0310799, -0.0215276, -0.0890755, -0.0356539, -0.00190471, 1.98341, 67.9053, 33.8559, 7.14447, 1.95758, 5.10928, 0.0101428, -0.000194156, -0.00285172, 0.00396566, 0.00814692, 0.00152279, 0.00241459, -0.000466621, 0.0106519, -0.00799385, -0.105318, 0.0679555, -0.0261733, 0.470984, -0.543538, 0.335772, -2.08381, -2.16578, -0.129687, 0.468, -0.543236, 0.331913, -2.08124, -2.1592, -0.121958, -0.00139231, -0.00873205, -0.00719924, -0.0123368, -0.00747707, -0.0146976
0.0611597, 1.69127, -1.22893, -1.54274, -0.901125, -1.19452, 1.22619, -1.30242, 0.00832655, 0.00321956, -0.0326171, -0.0191139, -0.0946015, -0.0418979, 0.000900385, 1.90803, 68.0164, 33.8559, 7.14447, 1.95209, 5.14499, -0.0484509, -0.000200284, -0.00286692, 0.00397985, 0.00826131, 0.0014581, 0.0024521, 0.00139805, 0.0137118, -0.0102642, -0.113402, 0.0663028, -0.0350762, 0.470983, -0.543547, 0.335765, -2.0838, -2.16578, -0.129675, 0.467983, -0.543249, 0.331891, -2.08124, -2.15915, -0.12175, -0.00144249, -0.00904515, -0.00746282, -0.0154586, -0.0094069, -0.0173996
0.0621597, 1.69128, -1.22894, -1.54277, -0.90114, -1.19463, 1.22615, -1.30242, 0.00838675, 0.000773517, -0.0351486, -0.0180667, -0.0976766, -0.0413709, 0.000600298, 1.79694, 68.1274, 33.7806, 7.18018, 1.93927, 5.16696, -0.0484509, -0.00020453, -0.00288103, 0.00399724, 0.00837796, 0.00140063, 0.00247763, 0.00273873, 0.0145152, -0.0121888, -0.116094, 0.0668147, -0.0382547, 0.470982, -0.543556, 0.335758, -2.0838, -2.16577, -0.129663, 0.467967, -0.54326, 0.331866, -2.08124, -2.1591, -0.121548, -0.00149327, -0.00936199, -0.00772991, -0.0163337, -0.0107841, -0.0197506
0.0631597, 1.69129, -1.22895, -1.54281, -0.901157, -1.19473, 1.2261, -1.30243, 0.0105663, -0.000235561, -0.0368404, -0.0183827, -0.100434, -0.0439804, -0.00129519, 1.72157, 68.1989, 33.7052, 7.25555, 1.90906, 5.14499, -0.00267457, -0.000206772, -0.00289372, 0.00401472, 0.0084957, 0.00134337, 0.00249384, 0.00203835, 0.0142389, -0.0135388, -0.121479, 0.0670784, -0.0360838, 0.47098, -0.543565, 0.33575, -2.0838, -2.16577, -0.12965, 0.467952, -0.54327, 0.331841, -2.08122, -2.15907, -0.121345, -0.00154466, -0.00968246, -0.00800043, -0.0161833, -0.0101941, -0.0212536
0.0641597, 1.6913, -1.22895, -1.54284, -0.901167, -1.19484, 1.22606, -1.30242, 0.00984771, 0.000532357, -0.0337775, -0.0125236, -0.102681, -0.0460174, -0.000354811, 1.75727, 68.1989, 33.5584, 7.21588, 1.89624, 5.11661, -0.0164075, -0.000212173, -0.00291114, 0.00402676, 0.00861011, 0.00128065, 0.00252742, 0.00325653, 0.0159913, -0.0111005, -0.118437, 0.068048, -0.042612, 0.470979, -0.543575, 0.335742, -2.0838, -2.16576, -0.129636, 0.467933, -0.543284, 0.331821, -2.08122, -2.15902, -0.121138, -0.00159663, -0.0100065, -0.00827433, -0.0178536, -0.0121676, -0.0192557
0.0651597, 1.69131, -1.22894, -1.54288, -0.901188, -1.19494, 1.22601, -1.30242, 0.0102901, 0.00337761, -0.0366501, -0.0119377, -0.103487, -0.0478165, 0.00193362, 1.75727, 68.0917, 33.483, 7.33093, 1.84772, 5.09463, -0.0750012, -0.000213223, -0.00292685, 0.00403742, 0.00873579, 0.0012106, 0.00255457, 0.00317543, 0.0168013, -0.01031, -0.122212, 0.070913, -0.0471412, 0.470977, -0.543585, 0.335734, -2.08379, -2.16576, -0.129623, 0.467915, -0.543294, 0.331803, -2.08121, -2.15898, -0.120912, -0.00164918, -0.0103339, -0.00855153, -0.0186894, -0.0125699, -0.0187149
0.0661597, 1.69132, -1.22894, -1.54291, -0.901203, -1.19505, 1.22595, -1.30242, 0.00837955, 0.00263952, -0.0339882, -0.0129232, -0.108675, -0.0493876, -0.000643689, 1.72157, 68.0917, 33.3362, 7.36664, 1.81018, 5.07358, -0.0228162, -0.000213254, -0.00294129, 0.00405017, 0.00886006, 0.00114872, 0.0025735, 0.00373949, 0.0179857, -0.00973813, -0.123666, 0.0735938, -0.046487, 0.470975, -0.543595, 0.335725, -2.08379, -2.16576, -0.129608, 0.467898, -0.543303, 0.331782, -2.0812, -2.15894, -0.120695, -0.00170228, -0.0106648, -0.00883197, -0.0198846, -0.013594, -0.0184821
0.0671597, 1.69133, -1.22893, -1.54295, -0.901221, -1.19515, 1.22589, -1.30242, 0.0066942, 0.005577, -0.0358463, -0.0136301, -0.107185, -0.0560606, -0.000666475, 1.83265, 67.941, 33.2212, 7.40631, 1.76166, 5.07358, -0.0164075, -0.000215776, -0.00296272, 0.00405764, 0.00899168, 0.00107772, 0.00260574, 0.00302816, 0.0201568, -0.00901839, -0.129982, 0.0722225, -0.0484431, 0.470974, -0.543606, 0.335716, -2.08379, -2.16575, -0.129594, 0.467875, -0.543316, 0.331766, -2.08119, -2.15889, -0.12046, -0.00175593, -0.0109989, -0.0091156, -0.0221059, -0.0134255, -0.0178786
0.0681597, 1.69134, -1.22891, -1.54299, -0.901227, -1.19526, 1.22583, -1.30242, 0.0113619, 0.00904024, -0.0384197, -0.0107358, -0.102659, -0.0559263, 3.04085e-05, 1.83265, 67.7228, 33.1498, 7.29126, 1.71222, 5.06625, -0.0292249, -0.000216883, -0.00298253, 0.00406067, 0.00911853, 0.00100527, 0.00264228, 0.000778799, 0.0181076, -0.00748763, -0.128828, 0.072219, -0.0473374, 0.470972, -0.543617, 0.335707, -2.08378, -2.16575, -0.129578, 0.467853, -0.543328, 0.331755, -2.0812, -2.15884, -0.120227, -0.0018101, -0.0113362, -0.00940234, -0.0201384, -0.0116938, -0.0163668
0.0691597, 1.69136, -1.2289, -1.54302, -0.901245, -1.19536, 1.22577, -1.30242, 0.0125854, 0.0096241, -0.038154, -0.0133254, -0.104515, -0.0602694, 0.00147834, 1.79694, 67.576, 32.999, 7.36664, 1.69391, 5.05893, -0.0685925, -0.000212055, -0.00299773, 0.00406751, 0.00925116, 0.000938844, 0.00266554, -0.00110255, 0.0177538, -0.00760507, -0.134359, 0.0725417, -0.0462993, 0.47097, -0.543628, 0.335698, -2.08378, -2.16574, -0.129563, 0.467836, -0.543334, 0.33174, -2.08118, -2.15879, -0.119995, -0.00186479, -0.0116765, -0.00969213, -0.0199112, -0.0101443, -0.0164912
0.0701597, 1.69138, -1.22888, -1.54306, -0.901255, -1.19546, 1.2257, -1.30243, 0.0153559, 0.0160974, -0.032841, -0.0123976, -0.107364, -0.0584231, -0.0016932, 1.68189, 67.1674, 32.8879, 7.33093, 1.70581, 5.03055, 0.00373412, -0.000206293, -0.00301384, 0.00406384, 0.00938279, 0.000856444, 0.00268139, -0.0033682, 0.0154999, -0.00152737, -0.12863, 0.0820166, -0.0402336, 0.470968, -0.54364, 0.335688, -2.08378, -2.16574, -0.129546, 0.467818, -0.543342, 0.331735, -2.08117, -2.15877, -0.119748, -0.00191999, -0.0120199, -0.00998491, -0.0175755, -0.00909377, -0.0104995
0.0711597, 1.69138, -1.22886, -1.5431, -0.901265, -1.19557, 1.22564, -1.30242, 0.0126786, 0.0159277, -0.0346001, -0.0109837, -0.107459, -0.0611591, 9.19056e-05, 1.75727, 66.9492, 32.8879, 7.25555, 1.69391, 4.98752, -0.0292249, -0.000207021, -0.00303624, 0.00406925, 0.00951781, 0.000788015, 0.00272147, -0.00203927, 0.0180838, -0.001903, -0.131268, 0.0805882, -0.0472672, 0.470966, -0.543652, 0.335678, -2.08377, -2.16573, -0.12953, 0.467793, -0.543354, 0.33172, -2.08117, -2.15871, -0.119509, -0.00197567, -0.0123662, -0.0102806, -0.020178, -0.0108, -0.0112935
0.0721597, 1.6914, -1.22883, -1.54314, -0.901273, -1.19568, 1.22557, -1.30242, 0.0152728, 0.0193181, -0.0359039, -0.00745156, -0.109404, -0.0630514, 0.000535991, 1.64619, 66.5802, 32.8879, 7.21588, 1.72504, 4.93716, -0.0420422, -0.000202296, -0.00305262, 0.00406841, 0.00965451, 0.000704259, 0.00274988, -0.00238388, 0.0182163, 7.30154e-05, -0.133148, 0.0846074, -0.0500962, 0.470964, -0.543664, 0.335668, -2.08377, -2.16572, -0.129512, 0.467775, -0.543363, 0.331712, -2.08116, -2.15866, -0.119253, -0.00203183, -0.0127153, -0.0105792, -0.020307, -0.0111183, -0.0095832
0.0731597, 1.69142, -1.22882, -1.54318, -0.901279, -1.19578, 1.2255, -1.30242, 0.0193471, 0.0155289, -0.0365239, -0.00745724, -0.1063, -0.0629276, 0.00110331, 1.57081, 66.4691, 32.8879, 7.14447, 1.74335, 4.84378, -0.0621838, -0.000200072, -0.00307015, 0.0040759, 0.00978667, 0.000639803, 0.0027796, -0.00470688, 0.0155347, -0.00233044, -0.132836, 0.0786612, -0.0463109, 0.470962, -0.543677, 0.335657, -2.08377, -2.16572, -0.129495, 0.467755, -0.543373, 0.331695, -2.08115, -2.15861, -0.11902, -0.00208844, -0.0130671, -0.0108805, -0.0178559, -0.00869725, -0.0119788
0.0741597, 1.69145, -1.22881, -1.54322, -0.901278, -1.19588, 1.22544, -1.30242, 0.0201274, 0.0138251, -0.0361487, -0.00655374, -0.108455, -0.0586064, 0.000735544, 1.45576, 66.3223, 32.8522, 7.02942, 1.76807, 4.75772, -0.0621838, -0.000195093, -0.0030854, 0.00408049, 0.00991234, 0.000578813, 0.00280928, -0.00422438, 0.0145911, -0.00248819, -0.129336, 0.0809167, -0.0469621, 0.47096, -0.54369, 0.335646, -2.08376, -2.16571, -0.129476, 0.467737, -0.543381, 0.331681, -2.08114, -2.15856, -0.118798, -0.00214551, -0.0134215, -0.0111846, -0.016959, -0.00946519, -0.012542
0.0751597, 1.69147, -1.2288, -1.54326, -0.901273, -1.19599, 1.22537, -1.30242, 0.0230145, 0.0136076, -0.038819, -0.00187509, -0.10977, -0.0643981, -0.000255622, 1.38038, 66.1359, 32.8126, 6.88263, 1.81018, 4.65793, -0.0420422, -0.000192584, -0.00310293, 0.00408219, 0.0100345, 0.000512492, 0.00284258, -0.00429002, 0.0156364, -0.0033041, -0.135304, 0.0788901, -0.0494594, 0.470958, -0.543704, 0.335635, -2.08376, -2.16571, -0.129457, 0.467717, -0.543393, 0.331669, -2.08114, -2.15851, -0.118574, -0.00220301, -0.0137786, -0.0114914, -0.0180926, -0.00967467, -0.0136122
0.0761597, 1.69149, -1.22879, -1.5433, -0.901269, -1.19609, 1.22531, -1.30243, 0.0259386, 0.0115992, -0.0428163, -0.000191522, -0.110544, -0.0640292, -0.00162848, 1.26533, 66.0287, 32.8522, 6.80725, 1.84131, 4.55722, -0.00267457, -0.000188345, -0.00311786, 0.00408942, 0.0101627, 0.000451821, 0.00286872, -0.00428576, 0.0150045, -0.00552777, -0.138402, 0.0780379, -0.0493197, 0.470956, -0.543717, 0.335624, -2.08375, -2.1657, -0.129438, 0.4677, -0.543402, 0.331651, -2.08113, -2.15846, -0.118349, -0.00226092, -0.014138, -0.0118008, -0.0176003, -0.00967043, -0.016137
0.0771597, 1.69152, -1.22879, -1.54333, -0.901262, -1.1962, 1.22525, -1.30242, 0.0246406, 0.0086772, -0.0416376, 0.00110703, -0.110966, -0.0585393, 0.00206783, 1.15424, 65.9891, 32.8522, 6.73187, 1.85321, 4.43545, -0.0878186, -0.000184355, -0.00313052, 0.00409666, 0.0102827, 0.000390091, 0.0029077, -0.00305163, 0.0147395, -0.00584977, -0.131961, 0.0781083, -0.0554506, 0.470954, -0.543731, 0.335612, -2.08375, -2.16569, -0.129418, 0.467684, -0.543411, 0.331634, -2.08113, -2.1584, -0.11813, -0.00231925, -0.0144999, -0.0121127, -0.0173618, -0.0111903, -0.0169662
0.0781597, 1.69155, -1.22878, -1.54336, -0.901252, -1.19631, 1.22519, -1.30242, 0.0228027, 0.00746752, -0.0388932, 0.00210486, -0.112122, -0.0593494, 0.0011412, 1.07887, 65.9177, 32.7768, 6.65649, 1.87244, 4.32101, -0.0814099, -0.000181396, -0.0031442, 0.00409925, 0.0103916, 0.000325462, 0.00293988, -0.00266351, 0.0157012, -0.00516392, -0.129875, 0.0772492, -0.0567815, 0.470951, -0.543746, 0.3356, -2.08374, -2.16569, -0.129398, 0.467668, -0.543423, 0.33162, -2.08114, -2.15835, -0.11792, -0.00237796, -0.014864, -0.0124272, -0.0183421, -0.0120825, -0.0166341
0.0791597, 1.69158, -1.22878, -1.54341, -0.901239, -1.19641, 1.22513, -1.30242, 0.0263241, 0.00591558, -0.040748, 0.00194116, -0.115417, -0.0558455, -0.000934623, 0.928108, 65.878, 32.8522, 6.62079, 1.85321, 4.2203, -0.0356336, -0.000177965, -0.00315652, 0.00410613, 0.0105106, 0.000261415, 0.00296844, -0.00313592, 0.0136562, -0.00636976, -0.130472, 0.0805218, -0.0535618, 0.470949, -0.543761, 0.335587, -2.08374, -2.16568, -0.129377, 0.467653, -0.543434, 0.331602, -2.08113, -2.1583, -0.1177, -0.00243706, -0.0152304, -0.012744, -0.0164198, -0.0117133, -0.0181305
0.0801597, 1.69161, -1.22878, -1.54344, -0.90123, -1.19652, 1.22508, -1.30242, 0.0295432, 0.00478585, -0.0389194, 0.00352026, -0.112668, -0.0543752, -0.000148364, 0.888436, 65.8423, 32.8126, 6.65649, 1.82941, 4.14889, -0.0484509, -0.000174052, -0.00316706, 0.00411205, 0.0106181, 0.000197755, 0.00299992, -0.00516925, 0.0112097, -0.00594796, -0.125882, 0.0778769, -0.0512599, 0.470946, -0.543776, 0.335575, -2.08373, -2.16567, -0.129355, 0.46764, -0.543445, 0.331584, -2.08114, -2.15826, -0.117492, -0.00249652, -0.0155988, -0.0130633, -0.0140932, -0.0100392, -0.0177923
0.0811597, 1.69164, -1.22878, -1.54348, -0.901215, -1.19663, 1.22503, -1.30242, 0.030698, 0.00319575, -0.0368001, 0.00581256, -0.116686, -0.0542515, 0.00163042, 0.777352, 65.8423, 32.7372, 6.65649, 1.81018, 4.11319, -0.0951428, -0.000170312, -0.00317666, 0.00411737, 0.0107254, 0.000130524, 0.00303652, -0.00490277, 0.0110347, -0.00559403, -0.12474, 0.0794999, -0.0547349, 0.470944, -0.543792, 0.335562, -2.08373, -2.16567, -0.129333, 0.467627, -0.543456, 0.331567, -2.08115, -2.15821, -0.11728, -0.00255634, -0.0159693, -0.0133848, -0.0139559, -0.0107201, -0.0178109
0.0821597, 1.69168, -1.22878, -1.54351, -0.901198, -1.19675, 1.22499, -1.30242, 0.0346927, -0.00497012, -0.0331709, 0.0110867, -0.11394, -0.0550369, -0.000133756, 0.6623, 65.878, 32.7015, 6.65649, 1.77997, 4.09854, -0.0621838, -0.000167163, -0.00318487, 0.00412522, 0.0108285, 6.69516e-05, 0.0030652, -0.00615917, 0.00894271, -0.00839634, -0.119498, 0.0683102, -0.0513444, 0.470941, -0.543808, 0.335548, -2.08372, -2.16566, -0.129311, 0.467616, -0.543468, 0.331546, -2.08115, -2.15817, -0.117076, -0.0026165, -0.0163418, -0.0137086, -0.0120741, -0.00933553, -0.0207706
0.0831597, 1.69171, -1.22878, -1.54355, -0.901182, -1.19687, 1.22495, -1.30242, 0.0343665, -0.00383294, -0.0331578, 0.0138144, -0.118024, -0.0499705, -0.000597797, 0.551216, 65.878, 32.7768, 6.69617, 1.76166, 4.06283, -0.0484509, -0.000165857, -0.00319293, 0.00413075, 0.0109331, -1.33384e-05, 0.00309945, -0.00439676, 0.00922177, -0.00661502, -0.115265, 0.075188, -0.0555102, 0.470939, -0.543824, 0.335534, -2.08372, -2.16565, -0.129287, 0.467605, -0.543483, 0.331528, -2.08116, -2.15813, -0.116852, -0.00267698, -0.0167161, -0.0140346, -0.0122854, -0.0117352, -0.0196024
0.0841597, 1.69175, -1.2288, -1.54358, -0.901168, -1.19698, 1.22492, -1.30242, 0.032498, -0.00730663, -0.031664, 0.0112363, -0.115059, -0.0452792, 0.000347454, 0.511544, 66.0645, 32.6658, 6.80725, 1.73053, 4.00516, -0.0685925, -0.000164849, -0.003199, 0.00414085, 0.011021, -7.84145e-05, 0.00313308, -0.0048411, 0.008105, -0.00771998, -0.109439, 0.0718429, -0.0547873, 0.470936, -0.543841, 0.33552, -2.08371, -2.16564, -0.129264, 0.467596, -0.543497, 0.331504, -2.08118, -2.15809, -0.116662, -0.00273778, -0.0170921, -0.0143627, -0.0112872, -0.011457, -0.0209866
0.0851597, 1.69179, -1.2288, -1.54362, -0.901159, -1.1971, 1.2249, -1.30242, 0.0360058, -0.00516332, -0.0331969, 0.0108528, -0.122251, -0.0367549, 0.000943713, 0.400459, 66.0645, 32.6658, 6.99371, 1.71863, 3.94107, -0.0878186, -0.000159299, -0.00319967, 0.00414385, 0.0111134, -0.000167722, 0.00315835, -0.00449335, 0.00554488, -0.00621861, -0.10698, 0.0845069, -0.0553038, 0.470933, -0.543858, 0.335506, -2.08371, -2.16563, -0.129239, 0.467592, -0.543509, 0.331488, -2.0812, -2.15806, -0.116442, -0.00279888, -0.0174699, -0.0146928, -0.00872437, -0.0123042, -0.0199665
0.0861597, 1.69183, -1.22881, -1.54366, -0.90115, -1.19723, 1.22488, -1.30242, 0.0355844, -0.0101457, -0.0360725, 0.00513069, -0.120383, -0.0308722, -0.00082892, 0.285408, 66.2112, 32.7372, 7.14447, 1.72504, 3.89071, -0.0484509, -0.00015728, -0.00320028, 0.00415662, 0.011206, -0.000247291, 0.00318071, -0.00512876, 0.00356924, -0.0101592, -0.106292, 0.0817479, -0.0501082, 0.470931, -0.543875, 0.335491, -2.0837, -2.16563, -0.129214, 0.467588, -0.543522, 0.331461, -2.0812, -2.15804, -0.116232, -0.00286026, -0.0178492, -0.015025, -0.00697971, -0.0113694, -0.0241516
0.0871597, 1.69186, -1.22882, -1.5437, -0.901136, -1.19736, 1.22487, -1.30241, 0.0323008, -0.0130215, -0.036352, 0.00873446, -0.12353, -0.0223289, 0.000430731, 0.285408, 66.3223, 32.7372, 7.25555, 1.74335, 3.85501, -0.0750012, -0.000159517, -0.00320404, 0.00416357, 0.0112877, -0.000338554, 0.00322373, -0.00120405, 0.00493982, -0.0102644, -0.0983171, 0.0854389, -0.0594207, 0.470928, -0.543893, 0.335476, -2.0837, -2.16562, -0.129189, 0.467581, -0.543541, 0.331439, -2.08125, -2.15801, -0.116019, -0.00292192, -0.0182301, -0.0153591, -0.00827414, -0.0156649, -0.0251562
0.0881597, 1.6919, -1.22885, -1.54374, -0.90113, -1.19749, 1.22486, -1.30242, 0.0318229, -0.0187308, -0.0366836, 0.008454, -0.125193, -0.016917, 0.000524513, 0.21003, 66.727, 32.7372, 7.47772, 1.72504, 3.84768, -0.0814099, -0.000158509, -0.00320105, 0.00418536, 0.0113756, -0.000410739, 0.00324557, -2.229e-05, 0.00423005, -0.0130108, -0.09493, 0.0839853, -0.0608659, 0.470925, -0.543911, 0.335461, -2.08369, -2.16561, -0.129163, 0.46758, -0.543555, 0.331402, -2.08125, -2.15798, -0.115821, -0.00298385, -0.0186124, -0.0156951, -0.00768588, -0.0167626, -0.0284091
0.0891597, 1.69195, -1.22886, -1.54378, -0.901123, -1.19762, 1.22486, -1.30241, 0.0355925, -0.0163589, -0.0407785, 0.00535534, -0.126755, -0.0135473, 0.00133302, 0.0949785, 66.8738, 32.7768, 7.70386, 1.73053, 3.86233, -0.10796, -0.000155108, -0.00319546, 0.00419788, 0.0114587, -0.000502388, 0.00326866, -0.00174311, 0.00168472, -0.0131132, -0.0978608, 0.0901379, -0.0583315, 0.470922, -0.54393, 0.335445, -2.08368, -2.1656, -0.129136, 0.467582, -0.543568, 0.331374, -2.08127, -2.15797, -0.115607, -0.00304602, -0.0189961, -0.016033, -0.00527147, -0.0153275, -0.0286592
0.0901597, 1.69199, -1.22888, -1.54383, -0.901114, -1.19775, 1.22486, -1.30242, 0.0361273, -0.0187541, -0.0416531, 0.00733652, -0.129912, -0.00683272, -0.00179009, 0.059273, 67.0602, 32.8522, 7.89032, 1.70032, 3.89804, -0.0356336, -0.000155806, -0.00319293, 0.00421243, 0.011543, -0.000595891, 0.00329057, -0.000101968, 0.000997873, -0.0137217, -0.0933131, 0.0937128, -0.0583818, 0.470919, -0.543949, 0.335429, -2.08368, -2.16559, -0.129109, 0.467581, -0.543586, 0.331344, -2.08129, -2.15795, -0.11539, -0.00310843, -0.019381, -0.0163726, -0.00461198, -0.017211, -0.0298752
0.0911597, 1.69203, -1.2289, -1.54387, -0.901104, -1.19788, 1.22487, -1.30242, 0.0340289, -0.021161, -0.0404666, 0.00960632, -0.129373, -0.00699006, 2.73128e-05, 0.0196001, 67.2784, 32.8522, 8.03711, 1.66919, 3.94839, -0.0685925, -0.000155921, -0.00318995, 0.00422738, 0.0116221, -0.000684245, 0.00332638, 0.000913579, 0.00233004, -0.014027, -0.0906589, 0.0906205, -0.0640258, 0.470916, -0.543968, 0.335413, -2.08367, -2.16558, -0.129081, 0.46758, -0.543603, 0.331313, -2.08133, -2.15793, -0.115181, -0.00317106, -0.0197671, -0.0167139, -0.0059803, -0.0186074, -0.0306345
0.0921597, 1.69208, -1.22892, -1.54391, -0.901093, -1.19802, 1.22487, -1.30242, 0.0333841, -0.0223557, -0.0419651, 0.00888699, -0.133306, -0.00613866, 0.000255567, -0.0557783, 67.4649, 32.8126, 8.15216, 1.64447, 3.97677, -0.0750012, -0.000154105, -0.00318501, 0.00423903, 0.0117001, -0.000778892, 0.00335139, 0.00183586, 0.00299935, -0.0149615, -0.0930978, 0.0933804, -0.0668371, 0.470912, -0.543988, 0.335396, -2.08366, -2.16557, -0.129052, 0.467581, -0.543619, 0.331284, -2.08135, -2.15791, -0.114968, -0.00323391, -0.0201544, -0.0170569, -0.00671331, -0.0197889, -0.0320227
0.0931597, 1.69213, -1.22894, -1.54396, -0.901089, -1.19815, 1.22488, -1.30242, 0.0348874, -0.0190853, -0.0458095, 0.00640309, -0.129461, -0.0046843, -6.69806e-05, -0.0914839, 67.6117, 32.8879, 8.33862, 1.59595, 3.9841, -0.0685925, -0.000151432, -0.00317875, 0.00425525, 0.0117837, -0.000872146, 0.00337314, -0.000108803, 0.00157561, -0.0144089, -0.0942225, 0.0949021, -0.0640592, 0.470909, -0.544008, 0.335379, -2.08366, -2.16556, -0.129023, 0.467584, -0.543634, 0.331252, -2.08137, -2.1579, -0.11475, -0.00329695, -0.0205426, -0.0174015, -0.00540387, -0.0182841, -0.0315638
0.0941597, 1.69217, -1.22895, -1.54401, -0.90108, -1.19827, 1.22488, -1.30242, 0.0392247, -0.0141196, -0.043704, 0.00736683, -0.129221, -0.00522828, -0.00174007, -0.131157, 67.6474, 32.8879, 8.414, 1.57123, 4.03445, -0.0228162, -0.000147367, -0.00317364, 0.00426531, 0.0118612, -0.00096551, 0.00339589, -0.0031689, -0.00092684, -0.0105905, -0.0922128, 0.0994868, -0.058562, 0.470906, -0.544029, 0.335362, -2.08365, -2.16555, -0.128993, 0.467585, -0.543648, 0.331225, -2.08139, -2.15789, -0.114537, -0.00336018, -0.0209318, -0.0177477, -0.00293701, -0.0161369, -0.0277421
0.0951597, 1.69222, -1.22896, -1.54406, -0.901077, -1.19841, 1.22489, -1.30242, 0.0439862, -0.0154684, -0.0461357, 0.009699, -0.124423, -0.00079437, 0.00124745, -0.242241, 67.7585, 32.9236, 8.56079, 1.55932, 4.08389, -0.0878186, -0.000140883, -0.00316555, 0.00427794, 0.0119464, -0.00106286, 0.00341908, -0.0048836, -0.00409715, -0.0115041, -0.0876814, 0.096733, -0.0589913, 0.470903, -0.54405, 0.335344, -2.08364, -2.16554, -0.128963, 0.467589, -0.543661, 0.331196, -2.08141, -2.15787, -0.114312, -0.00342359, -0.0213219, -0.0180953, 7.07167e-05, -0.014564, -0.0288238
0.0961597, 1.69226, -1.22897, -1.54412, -0.901071, -1.19853, 1.22489, -1.30242, 0.0420868, -0.012644, -0.0489274, 0.00954539, -0.12541, -0.00240918, 0.000594273, -0.242241, 67.8339, 32.999, 8.63617, 1.5282, 4.14157, -0.0814099, -0.000137687, -0.00316217, 0.00429125, 0.012034, -0.0011581, 0.00344573, -0.00418103, -0.00217298, -0.0105944, -0.0912037, 0.0998522, -0.0624078, 0.470899, -0.544071, 0.335326, -2.08363, -2.16553, -0.128932, 0.467588, -0.543677, 0.331165, -2.08144, -2.15785, -0.114085, -0.00348715, -0.0217127, -0.0184443, -0.0018562, -0.0158671, -0.0283243
0.0971597, 1.69231, -1.22898, -1.54417, -0.901066, -1.19866, 1.22489, -1.30242, 0.0453811, -0.00885573, -0.0499531, 0.00607981, -0.131186, -0.00300735, -7.85358e-05, -0.317619, 67.8339, 33.0387, 8.71155, 1.53461, 4.1846, -0.0685925, -0.00013031, -0.00315603, 0.00430104, 0.0121249, -0.00125896, 0.00346538, -0.00615364, -0.00385072, -0.00912417, -0.0968115, 0.108734, -0.0585532, 0.470896, -0.544093, 0.335307, -2.08363, -2.16552, -0.1289, 0.46759, -0.543689, 0.331138, -2.08145, -2.15784, -0.113848, -0.00355087, -0.0221042, -0.0187947, -0.000260802, -0.0144686, -0.026969
0.0981597, 1.69236, -1.22898, -1.54422, -0.901064, -1.19879, 1.22488, -1.30242, 0.0431863, -0.00269713, -0.048756, 0.00339955, -0.134957, -0.00399678, -0.00174778, -0.317619, 67.6831, 32.999, 8.78693, 1.5401, 4.24228, -0.0228162, -0.000122397, -0.00315168, 0.00430443, 0.0122122, -0.00136747, 0.0034859, -0.00657831, -0.00277639, -0.00511386, -0.0984522, 0.11772, -0.0581383, 0.470892, -0.544115, 0.335289, -2.08362, -2.16551, -0.128868, 0.46759, -0.543703, 0.331117, -2.08147, -2.15784, -0.113608, -0.00361472, -0.0224964, -0.0191465, -0.00126507, -0.015102, -0.0232619
0.0991597, 1.69241, -1.22898, -1.54429, -0.901064, -1.19892, 1.22488, -1.30242, 0.0454772, -0.00296594, -0.0585313, 0.00142812, -0.133879, -0.00414995, -0.000453109, -0.357292, 67.7228, 33.1498, 8.85834, 1.53461, 4.28531, -0.0420422, -0.000115024, -0.00314756, 0.00431837, 0.0123142, -0.00146529, 0.00351244, -0.00680012, -0.00292535, -0.00883383, -0.107619, 0.117576, -0.060356, 0.470888, -0.544138, 0.335269, -2.08361, -2.1655, -0.128835, 0.46759, -0.543716, 0.331085, -2.08149, -2.15781, -0.11336, -0.00367869, -0.0228891, -0.0194995, -0.00132555, -0.0146977, -0.0272584
0.10016, 1.69245, -1.22897, -1.54435, -0.901063, -1.19905, 1.22488, -1.30242, 0.0472987, 0.00220452, -0.0599788, 0.000648205, -0.13246, -0.00346533, 0.000206554, -0.392998, 67.5363, 33.1855, 8.89801, 1.52179, 4.30636, -0.0557752, -0.000106689, -0.00314365, 0.00431908, 0.0124054, -0.00158362, 0.00353622, -0.0086552, -0.00412427, -0.00614572, -0.1075, 0.122328, -0.0594788, 0.470885, -0.54416, 0.33525, -2.0836, -2.16549, -0.128801, 0.46759, -0.54373, 0.331066, -2.08152, -2.15781, -0.113103, -0.00374278, -0.0232822, -0.0198537, -0.000159391, -0.0136237, -0.0247079
0.10116, 1.69249, -1.22897, -1.54441, -0.901071, -1.19917, 1.22488, -1.30242, 0.0439606, 0.00216999, -0.0593022, -0.00262623, -0.137492, -0.00333439, 0.00061242, -0.357292, 67.5006, 33.1498, 9.04877, 1.5282, 4.33566, -0.0685925, -9.82975e-05, -0.0031407, 0.00432668, 0.0125047, -0.00169328, 0.00355907, -0.00771622, -0.00262293, -0.00588822, -0.109839, 0.126798, -0.0622737, 0.470881, -0.544184, 0.33523, -2.08359, -2.16547, -0.128767, 0.467588, -0.543744, 0.33104, -2.08153, -2.1578, -0.112846, -0.00380697, -0.0236758, -0.020209, -0.00168009, -0.0150453, -0.0249082
0.10216, 1.69254, -1.22896, -1.54448, -0.90107, -1.1993, 1.22488, -1.30242, 0.0463615, 0.00394393, -0.0641306, -0.00139974, -0.135271, -0.00268588, -0.00128714, -0.392998, 67.3895, 33.1855, 9.04877, 1.53461, 4.34939, -0.0228162, -8.8912e-05, -0.00313603, 0.00433028, 0.0126034, -0.00181091, 0.00357814, -0.00839232, -0.00324119, -0.00614901, -0.111768, 0.127542, -0.0612983, 0.470877, -0.544207, 0.33521, -2.08358, -2.16546, -0.128732, 0.467588, -0.543758, 0.331017, -2.08155, -2.15779, -0.112581, -0.00387125, -0.0240696, -0.0205654, -0.00116081, -0.0147063, -0.0254366
0.10316, 1.69254, -1.22896, -1.54448, -0.90107, -1.1993, 1.22488, -1.30242, 0.0463615, 0.00394393, -0.0641306, -0.00139974, -0.135271, -0.00268588, -0.00128714, -0.392998, 67.3895, 33.1855, 9.04877, 1.53461, 4.34939, -0.0228162, -6.20832e-05, -0.0031317, 0.00431361, 0.0125755, -0.00180682, 0.00357457, -0.00883454, -0.00331063, -0.0058541, -0.111427, 0.127736, -0.0619155, 0.470873, -0.544231, 0.335189, -2.08357, -2.16545, -0.128697, 0.467588, -0.543758, 0.331017, -2.08155, -2.15779, -0.112581, -0.00393561, -0.0244637, -0.0209229, -0.00116081, -0.0147063, -0.0254366
0.10416, 1.69263, -1.22895, -1.54462, -0.901072, -1.19956, 1.22487, -1.30242, 0.0453823, 0.00535743, -0.0718986, -0.0010843, -0.127962, -0.00380135, 0.000479098, -0.508049, 67.207, 33.1855, 9.08447, 1.5282, 4.43545, -0.0685925, -7.03143e-05, -0.00313062, 0.00434342, 0.0128106, -0.0020332, 0.00363526, -0.00883557, -0.00196348, -0.00746755, -0.115022, 0.123253, -0.0668505, 0.470869, -0.544256, 0.335168, -2.08357, -2.16544, -0.128661, 0.467585, -0.543786, 0.330966, -2.0816, -2.15775, -0.112049, -0.00400003, -0.0248579, -0.0212814, -0.00263053, -0.0149066, -0.0273463
0.10516, 1.69268, -1.22893, -1.5447, -0.901072, -1.19969, 1.22486, -1.30242, 0.0440334, 0.00696261, -0.0727085, -0.000574757, -0.128658, -0.00410866, -0.000426586, -0.543754, 67.0602, 33.1855, 9.08447, 1.53461, 4.47848, -0.0484509, -6.36347e-05, -0.00313226, 0.00434917, 0.0129215, -0.00215011, 0.00366772, -0.00840405, -0.000848307, -0.00638751, -0.11539, 0.125421, -0.0690039, 0.470865, -0.544281, 0.335147, -2.08356, -2.16543, -0.128624, 0.467578, -0.543803, 0.33094, -2.08162, -2.15772, -0.111768, -0.0040645, -0.0252522, -0.0216408, -0.00375348, -0.0159386, -0.0266715
0.10616, 1.69273, -1.22893, -1.54477, -0.901074, -1.19982, 1.22486, -1.30243, 0.0470438, 0.00460973, -0.0723787, -0.000272087, -0.131932, -0.00536951, -0.00197981, -0.734184, 67.0602, 33.1498, 9.08447, 1.52179, 4.54989, -0.00267457, -5.23845e-05, -0.003127, 0.00436083, 0.013032, -0.00225801, 0.00368474, -0.00942948, -0.00203987, -0.00756881, -0.117898, 0.125396, -0.066249, 0.470861, -0.544306, 0.335125, -2.08355, -2.16541, -0.128586, 0.467579, -0.543815, 0.330909, -2.08162, -2.15771, -0.111498, -0.00412902, -0.0256465, -0.022001, -0.00270851, -0.0150902, -0.0280764
0.10716, 1.69278, -1.22892, -1.54484, -0.901078, -1.19995, 1.22485, -1.30242, 0.0444261, 0.00824605, -0.0681748, -0.00186132, -0.130244, -0.0054338, 0.000884173, -0.884941, 66.8381, 33.0744, 9.15985, 1.50989, 4.60025, -0.0621838, -3.84668e-05, -0.00312227, 0.00436331, 0.0131417, -0.00237831, 0.00371239, -0.0107211, -0.00185453, -0.0037289, -0.113163, 0.127602, -0.0684448, 0.470857, -0.544332, 0.335103, -2.08354, -2.1654, -0.128548, 0.467578, -0.543827, 0.330886, -2.08165, -2.15769, -0.111214, -0.00419356, -0.0260407, -0.0223621, -0.00286182, -0.014807, -0.02444
0.10816, 1.69282, -1.22892, -1.54491, -0.901077, -1.20008, 1.22484, -1.30241, 0.0440716, 0.00947259, -0.06761, 0.00142218, -0.133362, -0.00547937, 0.00106417, -0.960319, 66.8024, 32.9633, 9.19556, 1.49158, 4.6506, -0.0750012, -2.89795e-05, -0.00312115, 0.00437157, 0.0132455, -0.00248437, 0.0037465, -0.0096543, -0.000704249, -0.00202473, -0.112096, 0.131225, -0.0732848, 0.470853, -0.544358, 0.335081, -2.08353, -2.16539, -0.128509, 0.467575, -0.543842, 0.330857, -2.08167, -2.15766, -0.110949, -0.00425812, -0.0264347, -0.0227239, -0.00397391, -0.0165633, -0.0232487
0.10916, 1.69287, -1.22891, -1.54499, -0.901082, -1.20021, 1.22484, -1.30242, 0.0456525, 0.0100912, -0.0662748, -0.000481937, -0.127308, -0.00418935, -0.000748618, -1.11108, 66.6516, 32.8126, 9.27094, 1.46686, 4.66525, -0.0356336, -1.47063e-05, -0.00311599, 0.00437539, 0.013349, -0.00259868, 0.00376041, -0.0127513, -0.0032363, -0.00112818, -0.107719, 0.127866, -0.0662203, 0.470849, -0.544384, 0.335058, -2.08352, -2.16537, -0.12847, 0.467575, -0.543854, 0.330833, -2.08168, -2.15766, -0.110678, -0.00432269, -0.0268285, -0.0230865, -0.00158678, -0.0139337, -0.022325
0.11016, 1.69292, -1.2289, -1.54506, -0.901074, -1.20034, 1.22483, -1.30242, 0.0455491, 0.00774993, -0.0697537, 0.00510333, -0.127207, -0.00356822, -0.00144851, -1.22613, 66.6159, 32.7015, 9.19556, 1.44855, 4.68631, -0.00999879, -8.54679e-06, -0.00311721, 0.00438159, 0.013451, -0.00271269, 0.0037965, -0.0105248, -0.00154189, -0.00259586, -0.107372, 0.125692, -0.0727222, 0.470844, -0.544411, 0.335035, -2.08351, -2.16536, -0.12843, 0.467569, -0.543874, 0.330805, -2.08171, -2.15763, -0.110406, -0.00438725, -0.027222, -0.0234497, -0.00331882, -0.0163692, -0.0244298
0.11116, 1.69297, -1.22889, -1.54514, -0.901083, -1.20047, 1.22483, -1.30241, 0.0435995, 0.00790551, -0.0739281, 0.00127547, -0.125982, -0.00707792, 0.00144182, -1.37688, 66.5048, 32.6658, 9.30664, 1.42383, 4.68631, -0.0750012, 3.53857e-06, -0.00311307, 0.00439016, 0.0135637, -0.00283278, 0.00383082, -0.0109953, -0.000113009, -0.00440098, -0.114635, 0.123875, -0.0764228, 0.47084, -0.544438, 0.335012, -2.08349, -2.16534, -0.128389, 0.467567, -0.543888, 0.330775, -2.08173, -2.1576, -0.110116, -0.00445179, -0.0276151, -0.0238135, -0.00489437, -0.0160788, -0.0264584
0.11216, 1.69301, -1.22889, -1.54521, -0.901082, -1.2006, 1.22483, -1.30242, 0.0408692, 0.00621089, -0.0704413, 0.000276071, -0.121732, -0.00537919, 0.000249138, -1.48797, 66.4691, 32.4793, 9.34631, 1.3927, 4.69363, -0.0557752, 1.38767e-05, -0.0031111, 0.00439608, 0.013659, -0.00294141, 0.00385674, -0.0117544, -0.000316712, -0.00372199, -0.107964, 0.11952, -0.0745492, 0.470836, -0.544466, 0.334988, -2.08348, -2.16533, -0.128348, 0.467564, -0.543904, 0.330747, -2.08175, -2.15758, -0.109856, -0.00451631, -0.0280078, -0.0241779, -0.00475727, -0.0158181, -0.0260412
0.11316, 1.69306, -1.22888, -1.54529, -0.901084, -1.20073, 1.22483, -1.30243, 0.0439175, 0.00765326, -0.0726592, -0.00131386, -0.117491, -0.0038781, -0.0018006, -1.6784, 66.3223, 32.3682, 9.42169, 1.34967, 4.69363, -0.00267457, 2.80589e-05, -0.00310661, 0.004399, 0.0137598, -0.00305759, 0.00387433, -0.0143666, -0.00278603, -0.00360173, -0.107358, 0.118836, -0.0684085, 0.470831, -0.544494, 0.334964, -2.08347, -2.16531, -0.128305, 0.467563, -0.543917, 0.330722, -2.08177, -2.15758, -0.109583, -0.00458078, -0.0283999, -0.0245428, -0.0024443, -0.0135487, -0.0259599
0.11416, 1.6931, -1.22886, -1.54536, -0.901086, -1.20085, 1.22483, -1.30242, 0.0441837, 0.00952311, -0.0703973, -0.00234734, -0.119525, -0.00307565, -0.000217054, -1.78948, 66.1359, 32.2175, 9.4931, 1.29474, 4.70096, -0.0292249, 4.04287e-05, -0.00310575, 0.00439769, 0.013854, -0.00317574, 0.0039106, -0.0153804, -0.0035203, -0.00147443, -0.105624, 0.122955, -0.0691081, 0.470826, -0.544522, 0.334939, -2.08346, -2.1653, -0.128263, 0.467559, -0.543934, 0.330701, -2.0818, -2.15755, -0.109313, -0.00464521, -0.0287914, -0.0249081, -0.00173214, -0.013236, -0.0240908
0.11516, 1.69314, -1.22886, -1.54543, -0.901086, -1.20098, 1.22483, -1.30242, 0.0403053, 0.00806361, -0.0726726, -0.00317888, -0.121069, -0.00221467, 0.000330015, -1.86486, 66.0645, 32.1064, 9.56848, 1.27002, 4.70096, -0.0420422, 5.07508e-05, -0.00310544, 0.00440209, 0.0139467, -0.00328492, 0.00394282, -0.0133545, -0.00119457, -0.00266536, -0.107145, 0.123495, -0.074963, 0.470822, -0.544551, 0.334914, -2.08345, -2.16528, -0.128219, 0.467554, -0.543952, 0.330673, -2.08183, -2.15753, -0.109053, -0.00470957, -0.0291822, -0.0252738, -0.00409153, -0.0155392, -0.0258735
0.11616, 1.69318, -1.22886, -1.5455, -0.901088, -1.20111, 1.22483, -1.30242, 0.0435151, 0.00624428, -0.0722029, -0.00460577, -0.12582, -0.00105709, -1.73486e-05, -2.05529, 66.0287, 32.031, 9.67957, 1.2334, 4.68631, -0.0356336, 6.26907e-05, -0.00310172, 0.00440558, 0.0140372, -0.00340121, 0.00396967, -0.0145084, -0.00317727, -0.00351465, -0.108896, 0.126598, -0.0721519, 0.470817, -0.54458, 0.334889, -2.08344, -2.16527, -0.128175, 0.467552, -0.543969, 0.330646, -2.08186, -2.15751, -0.108788, -0.00477385, -0.0295723, -0.0256399, -0.00224865, -0.0145784, -0.0269618
0.11716, 1.69322, -1.22886, -1.54556, -0.901087, -1.20124, 1.22483, -1.30243, 0.0431592, 0.00511587, -0.0702925, -0.002274, -0.130963, -0.000797113, -0.000961002, -2.13067, 65.9891, 31.8842, 9.79462, 1.19037, 4.68631, -0.00999879, 7.40196e-05, -0.00310194, 0.00440824, 0.0141235, -0.00350623, 0.00399904, -0.0133518, -0.00234919, -0.00281999, -0.107965, 0.129697, -0.0750288, 0.470812, -0.54461, 0.334863, -2.08342, -2.16525, -0.12813, 0.467547, -0.543987, 0.33062, -2.08188, -2.15749, -0.108539, -0.00483806, -0.0299616, -0.0260062, -0.00307273, -0.0162502, -0.0267956
0.11816, 1.69326, -1.22886, -1.54563, -0.901081, -1.20137, 1.22483, -1.30242, 0.0455418, 0.00342933, -0.0691451, 0.00140248, -0.130428, -0.00032943, 0.00105475, -2.3211, 65.9891, 31.8842, 9.83032, 1.17206, 4.67898, -0.0557752, 8.42048e-05, -0.00310111, 0.00441287, 0.0142124, -0.00361436, 0.00404003, -0.0139009, -0.00331562, -0.00267283, -0.104702, 0.12775, -0.0777939, 0.470808, -0.54464, 0.334837, -2.08341, -2.16524, -0.128084, 0.467542, -0.544006, 0.330591, -2.08192, -2.15746, -0.108281, -0.00490216, -0.0303499, -0.0263728, -0.00218576, -0.0160795, -0.0269624
0.11916, 1.6933, -1.22885, -1.5457, -0.901076, -1.20151, 1.22483, -1.30242, 0.042231, 0.00313549, -0.0659116, 0.00294442, -0.132138, -3.42269e-05, -0.000280175, -2.43218, 65.9534, 31.8088, 9.9057, 1.19678, 4.67257, -0.0292249, 9.3409e-05, -0.0031025, 0.00441304, 0.0142968, -0.00372937, 0.00407548, -0.012692, -0.001619, -0.000980535, -0.100827, 0.128757, -0.0807505, 0.470803, -0.54467, 0.334811, -2.0834, -2.16522, -0.128038, 0.467535, -0.544027, 0.330566, -2.08196, -2.15743, -0.108021, -0.00496616, -0.0307373, -0.0267396, -0.00383765, -0.0179898, -0.0257921
0.12016, 1.69334, -1.22886, -1.54576, -0.901065, -1.20164, 1.22483, -1.30242, 0.0416048, 0.00126566, -0.064895, 0.00263993, -0.135916, 0.000209475, 5.05754e-05, -2.62261, 65.9891, 31.7731, 9.9057, 1.20318, 4.66525, -0.0356336, 0.000101676, -0.00310376, 0.00441572, 0.0143789, -0.00383774, 0.00411831, -0.0122113, -0.00123375, -0.00139298, -0.101318, 0.130291, -0.0828143, 0.470798, -0.544701, 0.334784, -2.08339, -2.1652, -0.127991, 0.467529, -0.544049, 0.330538, -2.082, -2.1574, -0.10777, -0.00503004, -0.0311236, -0.0271065, -0.00428464, -0.0188031, -0.0266287
0.12116, 1.69338, -1.22886, -1.54583, -0.901058, -1.20178, 1.22483, -1.30243, 0.0391624, -7.63405e-05, -0.0647308, 0.00377333, -0.138479, 0.000110419, 0.00711828, -2.7337, 66.0287, 31.7731, 9.98108, 1.20868, 4.66525, 0.0165515, 0.000109857, -0.00310649, 0.00441881, 0.0144628, -0.00394568, 0.00415807, -0.0106497, 0.000582772, -0.00153419, -0.101269, 0.13109, -0.0946875, 0.470793, -0.544732, 0.334757, -2.08337, -2.16519, -0.127943, 0.46752, -0.544072, 0.330509, -2.08204, -2.15737, -0.107516, -0.0050938, -0.0315088, -0.0274735, -0.00611225, -0.0207828, -0.0273197
0.12216, 1.69342, -1.22885, -1.54589, -0.90104, -1.20191, 1.22483, -1.30242, 0.0385627, 0.00171828, -0.0646008, 0.00409678, -0.137714, 0.000594224, 0.0076671, -2.88445, 65.9534, 31.7731, 9.94141, 1.2334, 4.6506, -0.0420422, 0.000117793, -0.0031092, 0.00441511, 0.0145383, -0.00406077, 0.00421015, -0.0110126, 0.0007623, -1.13337e-06, -0.0995937, 0.132678, -0.0964975, 0.470788, -0.544764, 0.33473, -2.08336, -2.16517, -0.127895, 0.467512, -0.544096, 0.330487, -2.0821, -2.15733, -0.107262, -0.00515741, -0.0318928, -0.0278405, -0.00631036, -0.0210514, -0.0261111
0.12316, 1.69345, -1.22885, -1.54595, -0.901024, -1.20205, 1.22483, -1.30242, 0.0411132, 0.00198518, -0.0651746, 0.00661938, -0.136485, 0.000379707, 0.00665833, -3.03521, 65.9177, 31.8088, 9.94141, 1.25812, 4.6506, -0.0685925, 0.000125357, -0.00311301, 0.00441309, 0.0146166, -0.00417422, 0.00426088, -0.0120002, -0.000164423, 0.000464383, -0.0985037, 0.131982, -0.0957151, 0.470782, -0.544796, 0.334702, -2.08335, -2.16515, -0.127846, 0.467503, -0.544121, 0.330462, -2.08215, -2.15729, -0.107006, -0.00522087, -0.0322756, -0.0282076, -0.00546587, -0.0204926, -0.0258949
0.12416, 1.69345, -1.22885, -1.54595, -0.901024, -1.20205, 1.22483, -1.30242, 0.0411132, 0.00198518, -0.0651746, 0.00661938, -0.136485, 0.000379707, 0.00665833, -3.03521, 65.9177, 31.8088, 9.94141, 1.25812, 4.6506, -0.0685925, 0.000161421, -0.0031072, 0.00439012, 0.0145764, -0.00416953, 0.00425615, -0.0124314, -0.00023152, 0.00077059, -0.0981155, 0.132228, -0.0963808, 0.470777, -0.544828, 0.334674, -2.08333, -2.16513, -0.127796, 0.467503, -0.544121, 0.330462, -2.08215, -2.15729, -0.107006, -0.00528417, -0.032657, -0.0285745, -0.00546587, -0.0204926, -0.0258949
0.12516, 1.69345, -1.22885, -1.54595, -0.901024, -1.20205, 1.22483, -1.30242, 0.0411132, 0.00198518, -0.0651746, 0.00661938, -0.136485, 0.000379707, 0.00665833, -3.03521, 65.9177, 31.8088, 9.94141, 1.25812, 4.6506, -0.0685925, 0.000197917, -0.00310131, 0.00436684, 0.0145356, -0.00416482, 0.00425137, -0.0128612, -0.000298362, 0.0010769, -0.0977253, 0.132478, -0.0970481, 0.470772, -0.54486, 0.334645, -2.08332, -2.16511, -0.127746, 0.467503, -0.544121, 0.330462, -2.08215, -2.15729, -0.107006, -0.0053473, -0.0330371, -0.0289414, -0.00546587, -0.0204926, -0.0258949
0.12616, 1.69345, -1.22885, -1.54595, -0.901024, -1.20205, 1.22483, -1.30242, 0.0411132, 0.00198518, -0.0651746, 0.00661938, -0.136485, 0.000379707, 0.00665833, -3.03521, 65.9177, 31.8088, 9.94141, 1.25812, 4.6506, -0.0685925, 0.000234842, -0.00309536, 0.00434326, 0.0144941, -0.00416011, 0.00424653, -0.0132895, -0.000364935, 0.00138329, -0.0973331, 0.13273, -0.0977168, 0.470766, -0.544894, 0.334616, -2.0833, -2.1651, -0.127694, 0.467503, -0.544121, 0.330462, -2.08215, -2.15729, -0.107006, -0.00541024, -0.0334157, -0.0293081, -0.00546587, -0.0204926, -0.0258949
0.12716, 1.69361, -1.22884, -1.54621, -0.900944, -1.20258, 1.22484, -1.30242, 0.0408799, 0.00327032, -0.0694577, 0.0163395, -0.128572, 0.000293262, 0.00304596, -3.75329, 65.7312, 31.9953, 10.0565, 1.26453, 4.56454, -0.0750012, 0.000161655, -0.00312124, 0.00439836, 0.0149032, -0.00462416, 0.00445372, -0.0115525, 0.00179798, 0.00229713, -0.0923622, 0.127119, -0.102955, 0.470761, -0.544927, 0.334587, -2.08329, -2.16508, -0.127643, 0.467472, -0.54422, 0.330368, -2.08237, -2.15715, -0.10601, -0.00547299, -0.0337927, -0.0296745, -0.00759219, -0.0228135, -0.0255592
0.12816, 1.69365, -1.22884, -1.54627, -0.900915, -1.20272, 1.22484, -1.30242, 0.0418887, 0.00218127, -0.0627722, 0.0192749, -0.133222, 0.0010777, 0.000231602, -3.86834, 65.7312, 31.9199, 10.0565, 1.26453, 4.53616, -0.0228162, 0.000169215, -0.00312492, 0.00439014, 0.0149618, -0.00473655, 0.00450279, -0.0118412, 0.000989636, 0.00475782, -0.0864693, 0.129815, -0.100716, 0.470756, -0.544961, 0.334557, -2.08327, -2.16506, -0.12759, 0.467463, -0.544247, 0.330348, -2.08243, -2.15712, -0.105774, -0.00553554, -0.0341681, -0.0300408, -0.00676437, -0.0232486, -0.0234768
0.12916, 1.6937, -1.22884, -1.54634, -0.900889, -1.20286, 1.22485, -1.30243, 0.037982, 0.00145497, -0.065311, 0.0194576, -0.135731, 0.00113428, -0.000491278, -4.0548, 65.7312, 32.031, 10.1279, 1.25812, 4.52151, -0.00267457, 0.000178169, -0.00312718, 0.00438644, 0.0150354, -0.00485162, 0.0045532, -0.00939367, 0.00388173, 0.00398463, -0.0888032, 0.131424, -0.106712, 0.47075, -0.544995, 0.334527, -2.08326, -2.16504, -0.127537, 0.467454, -0.544273, 0.330323, -2.08249, -2.15708, -0.105518, -0.00559787, -0.0345419, -0.0304067, -0.00965699, -0.0260385, -0.0248928
0.13016, 1.69374, -1.22884, -1.54639, -0.900858, -1.203, 1.22485, -1.30242, 0.0395541, 0.000970574, -0.0641541, 0.0198441, -0.135548, 0.00252611, 0.00218912, -4.16985, 65.7312, 32.031, 10.2032, 1.28284, 4.47116, -0.0685925, 0.000184663, -0.0031309, 0.00437996, 0.0150956, -0.00496697, 0.00461817, -0.010484, 0.00252841, 0.00451151, -0.0861926, 0.13172, -0.108215, 0.470744, -0.545029, 0.334497, -2.08324, -2.16502, -0.127483, 0.467445, -0.544303, 0.330301, -2.08257, -2.15704, -0.105274, -0.00565998, -0.0349139, -0.0307722, -0.00838611, -0.0253595, -0.0246125
0.13116, 1.69379, -1.22884, -1.54645, -0.900823, -1.20314, 1.22486, -1.30242, 0.0457727, -0.000280525, -0.0626979, 0.0254861, -0.134224, 0.00371511, 0.00127847, -4.35632, 65.7709, 31.9953, 10.2032, 1.28833, 4.4144, -0.0621838, 0.000195119, -0.00312936, 0.00437293, 0.0151502, -0.00507889, 0.0046677, -0.0123162, -0.000422122, 0.00516027, -0.0812698, 0.129889, -0.105609, 0.470739, -0.545064, 0.334466, -2.08323, -2.165, -0.127428, 0.467441, -0.544328, 0.330279, -2.08263, -2.157, -0.10504, -0.00572185, -0.0352841, -0.0311374, -0.0055416, -0.0238995, -0.0241478
0.13216, 1.69383, -1.22885, -1.54651, -0.900786, -1.20327, 1.22486, -1.30243, 0.0432299, -0.00185712, -0.0612258, 0.0281836, -0.132737, 0.00455951, -0.00103815, -4.35632, 65.8423, 32.0707, 10.2429, 1.26453, 4.35672, -0.00999879, 0.00020034, -0.00313427, 0.00437078, 0.0152078, -0.00518155, 0.0047249, -0.0111836, 0.000934244, 0.00563193, -0.0766409, 0.127331, -0.107596, 0.470733, -0.5451, 0.334435, -2.08321, -2.16498, -0.127372, 0.46743, -0.544359, 0.330251, -2.08269, -2.15696, -0.104811, -0.00578347, -0.0356524, -0.0315021, -0.00689929, -0.0255139, -0.0241787
0.13316, 1.69388, -1.22885, -1.54657, -0.90075, -1.20341, 1.22487, -1.30242, 0.0472643, -0.00207305, -0.0564036, 0.0300208, -0.136361, 0.00459327, 0.000526434, -4.47137, 65.878, 31.9953, 10.3143, 1.27002, 4.31369, -0.0420422, 0.000211561, -0.00313153, 0.00436427, 0.0152608, -0.00529394, 0.00477773, -0.0131, -0.00144946, 0.00757674, -0.0734366, 0.130071, -0.106366, 0.470727, -0.545135, 0.334403, -2.08319, -2.16496, -0.127316, 0.467426, -0.544385, 0.330227, -2.08276, -2.15692, -0.104577, -0.00584484, -0.0360188, -0.0318663, -0.00457381, -0.0241893, -0.0224025
0.13416, 1.69392, -1.22888, -1.54663, -0.900704, -1.20355, 1.22488, -1.30242, 0.0473591, -0.00834199, -0.0587805, 0.0359623, -0.14234, 0.00462581, 0.000883385, -4.47137, 66.1755, 32.031, 10.3143, 1.25171, 4.27066, -0.0557752, 0.000213734, -0.00313602, 0.00436894, 0.0153164, -0.00538929, 0.00484799, -0.0095681, 0.000748452, 0.00418523, -0.0756446, 0.128645, -0.11548, 0.470721, -0.545171, 0.334371, -2.08318, -2.16494, -0.127259, 0.467415, -0.544418, 0.330191, -2.08284, -2.15686, -0.104355, -0.00590595, -0.0363832, -0.0322299, -0.00683342, -0.0276099, -0.0265913
0.13516, 1.69398, -1.22888, -1.54669, -0.90066, -1.2037, 1.22489, -1.30242, 0.0525028, -0.00860463, -0.0609399, 0.0397391, -0.148071, 0.00465501, -0.000139209, -4.65783, 66.1755, 31.9556, 10.354, 1.2215, 4.22763, -0.0356336, 0.000227226, -0.00312951, 0.00436033, 0.0153676, -0.00550656, 0.00489377, -0.00953847, -0.000333189, 0.00386041, -0.0788075, 0.133371, -0.116305, 0.470716, -0.545208, 0.334339, -2.08316, -2.16492, -0.127202, 0.467416, -0.544442, 0.33017, -2.0829, -2.15683, -0.104117, -0.00596678, -0.0367455, -0.032593, -0.00582519, -0.0279072, -0.0273146
0.13616, 1.69404, -1.22889, -1.54675, -0.90061, -1.20385, 1.2249, -1.30243, 0.0564224, -0.00858839, -0.0589831, 0.0437965, -0.14766, 0.00495139, -0.00130012, -4.73321, 66.2866, 31.8445, 10.354, 1.20318, 4.17727, -0.00267457, 0.000235864, -0.00312735, 0.00435485, 0.01542, -0.00562085, 0.00494868, -0.0109423, -0.00214124, 0.00525685, -0.0749255, 0.133136, -0.114439, 0.47071, -0.545245, 0.334306, -2.08314, -2.16489, -0.127143, 0.467412, -0.544471, 0.330144, -2.08297, -2.1568, -0.103879, -0.00602732, -0.0371056, -0.0329554, -0.00407633, -0.0270216, -0.0261392
0.13716, 1.6941, -1.2289, -1.54682, -0.900563, -1.204, 1.22491, -1.30242, 0.0553532, -0.011472, -0.0617617, 0.0443131, -0.15277, 0.00488193, 0.00134734, -4.77288, 66.3937, 31.9199, 10.4294, 1.18396, 4.13424, -0.0621838, 0.000241219, -0.00312816, 0.00435446, 0.0154859, -0.0057392, 0.00502126, -0.00889304, -0.000446502, 0.00302131, -0.0792384, 0.134811, -0.122227, 0.470704, -0.545282, 0.334273, -2.08313, -2.16487, -0.127084, 0.467404, -0.544503, 0.330112, -2.08305, -2.15674, -0.10362, -0.00608756, -0.0374636, -0.0333171, -0.00584157, -0.029129, -0.028971
0.13816, 1.69416, -1.22892, -1.54688, -0.900507, -1.20417, 1.22492, -1.30242, 0.058359, -0.0147343, -0.0602064, 0.0472155, -0.156402, 0.0048388, 0.00114312, -4.84826, 66.5445, 31.8445, 10.4294, 1.17206, 4.09122, -0.0685925, 0.000247445, -0.00312557, 0.00435375, 0.0155435, -0.00585605, 0.00508583, -0.00908963, -0.00146741, 0.00220811, -0.0785784, 0.134561, -0.122662, 0.470697, -0.545319, 0.33424, -2.08311, -2.16485, -0.127025, 0.4674, -0.544535, 0.330081, -2.08313, -2.15669, -0.103372, -0.0061475, -0.0378192, -0.0336781, -0.00491996, -0.0291239, -0.0301377
0.13916, 1.69422, -1.22893, -1.54695, -0.900448, -1.20433, 1.22492, -1.30242, 0.0591233, -0.014386, -0.0624596, 0.0526496, -0.157858, 0.00819254, -0.000927693, -4.84826, 66.5802, 31.7731, 10.4294, 1.17206, 4.08389, -0.0228162, 0.000251352, -0.00312752, 0.00434811, 0.0156048, -0.00598263, 0.00515388, -0.00715941, -0.0007766, 0.00293642, -0.0754454, 0.137727, -0.126834, 0.470691, -0.545357, 0.334206, -2.08309, -2.16483, -0.126964, 0.467392, -0.544569, 0.330054, -2.08321, -2.15664, -0.103108, -0.00620712, -0.0381726, -0.0340383, -0.00557285, -0.031523, -0.0300553
0.14016, 1.69428, -1.22893, -1.54702, -0.900395, -1.2045, 1.22493, -1.30242, 0.058584, -0.0126094, -0.0650885, 0.0502048, -0.160808, 0.00689938, -0.000614226, -4.77288, 66.5445, 31.7335, 10.5405, 1.16565, 4.05551, -0.0228162, 0.000256658, -0.00312779, 0.00434265, 0.0156665, -0.00611341, 0.00522304, -0.00721403, -9.64373e-07, 0.00295913, -0.0807472, 0.141933, -0.128509, 0.470685, -0.545395, 0.334172, -2.08307, -2.1648, -0.126903, 0.467386, -0.544603, 0.330026, -2.0833, -2.15659, -0.102839, -0.00626642, -0.0385235, -0.0343977, -0.0064076, -0.0318553, -0.0303587
0.14116, 1.69435, -1.22894, -1.54709, -0.900338, -1.20466, 1.22494, -1.30242, 0.0595988, -0.011387, -0.0702118, 0.0491151, -0.160601, 0.00461821, 0.00030577, -4.77288, 66.5048, 31.6977, 10.6516, 1.12903, 4.06283, -0.0420422, 0.000263293, -0.00312565, 0.00433957, 0.015735, -0.00624504, 0.0052928, -0.00771593, 0.000464079, 0.00179077, -0.0872644, 0.142623, -0.130571, 0.470679, -0.545434, 0.334138, -2.08305, -2.16478, -0.126841, 0.467381, -0.544636, 0.329996, -2.08338, -2.15654, -0.102561, -0.00632538, -0.038872, -0.0347562, -0.00699355, -0.0315479, -0.031778
0.14216, 1.69442, -1.22894, -1.54716, -0.900272, -1.20484, 1.22495, -1.30242, 0.0630038, -0.00798549, -0.0730094, 0.0536443, -0.164116, 0.00837811, 0.00166429, -4.73321, 66.358, 31.6224, 10.6516, 1.09241, 4.05551, -0.0814099, 0.000266115, -0.00312595, 0.0043298, 0.0157944, -0.00638984, 0.00537261, -0.00692522, -0.000216628, 0.00391454, -0.0857561, 0.150979, -0.135799, 0.470673, -0.545473, 0.334103, -2.08303, -2.16476, -0.126778, 0.467375, -0.544673, 0.329971, -2.08349, -2.15649, -0.102277, -0.006384, -0.0392179, -0.0351138, -0.00626235, -0.0329725, -0.0301832
0.14316, 1.69448, -1.22896, -1.54722, -0.900212, -1.20501, 1.22496, -1.30242, 0.0666102, -0.0102136, -0.0682696, 0.055766, -0.168098, 0.00614935, 0.000873956, -4.62212, 66.3937, 31.4002, 10.7269, 1.04297, 4.05551, -0.0750012, 0.00027449, -0.00312147, 0.00432528, 0.0158488, -0.00651544, 0.00543772, -0.0085145, -0.00185887, 0.0045074, -0.0847257, 0.150856, -0.133014, 0.470666, -0.545512, 0.334068, -2.08301, -2.16473, -0.126715, 0.467372, -0.544705, 0.329942, -2.08357, -2.15645, -0.10202, -0.00644226, -0.0395612, -0.0354704, -0.00471385, -0.0317704, -0.0297621
0.14416, 1.69455, -1.22896, -1.5473, -0.900147, -1.20518, 1.22498, -1.30243, 0.0697869, -0.00649628, -0.0707585, 0.0584693, -0.166177, 0.00894639, -0.00209479, -4.50707, 66.2112, 31.4002, 10.7626, 1.00635, 4.06283, -0.00267457, 0.00027749, -0.00312239, 0.0043167, 0.0159152, -0.00666276, 0.00551098, -0.00942122, -0.00330944, 0.00658701, -0.0820556, 0.154701, -0.13059, 0.47066, -0.545551, 0.334033, -2.08299, -2.16471, -0.126651, 0.467365, -0.544743, 0.329915, -2.08367, -2.1564, -0.101725, -0.00650015, -0.0399019, -0.035826, -0.00327465, -0.0314756, -0.0279715
0.14516, 1.69462, -1.22896, -1.54737, -0.900077, -1.20536, 1.22499, -1.30242, 0.0730273, -0.0032475, -0.0688867, 0.0604997, -0.170284, 0.0109351, 0.000571169, -4.43169, 65.9891, 31.2494, 10.7626, 0.956908, 4.07748, -0.0557752, 0.000282703, -0.00312019, 0.00430537, 0.0159689, -0.00680719, 0.0055935, -0.0103041, -0.00490471, 0.0097772, -0.0794197, 0.162442, -0.133076, 0.470653, -0.545591, 0.333997, -2.08297, -2.16469, -0.126586, 0.467361, -0.544779, 0.329892, -2.08378, -2.15635, -0.101446, -0.00655767, -0.0402399, -0.0361806, -0.00164652, -0.031366, -0.0250919
0.14616, 1.6947, -1.22897, -1.54745, -0.90001, -1.20553, 1.22501, -1.30242, 0.0755088, -0.00775747, -0.0735345, 0.0609899, -0.17271, 0.0124084, 0.00133097, -4.35632, 65.9177, 31.2137, 10.838, 0.920287, 4.09122, -0.0814099, 0.000287662, -0.00311751, 0.00430165, 0.0160375, -0.0069497, 0.0056725, -0.00964825, -0.00549418, 0.00586153, -0.0834726, 0.161349, -0.135386, 0.470647, -0.545631, 0.333961, -2.08295, -2.16466, -0.12652, 0.467356, -0.544815, 0.32986, -2.08388, -2.15629, -0.101152, -0.00661481, -0.0405751, -0.036534, -0.00124294, -0.0317236, -0.0294329
0.14716, 1.69478, -1.22897, -1.54754, -0.899932, -1.20571, 1.22502, -1.30242, 0.0761624, -0.00427756, -0.0743991, 0.0665902, -0.173587, 0.0129798, -6.15576e-05, -4.28094, 65.6955, 31.2137, 10.8023, 0.883666, 4.12051, -0.0557752, 0.000291378, -0.00311647, 0.00429271, 0.0160997, -0.00709541, 0.00575393, -0.00857143, -0.00443964, 0.00871824, -0.0808806, 0.165696, -0.139744, 0.47064, -0.545672, 0.333924, -2.08293, -2.16464, -0.126454, 0.467351, -0.544853, 0.329833, -2.08398, -2.15624, -0.10086, -0.00667155, -0.0409074, -0.0368864, -0.00220337, -0.0336006, -0.0270969
0.14816, 1.69485, -1.22897, -1.54761, -0.899853, -1.20588, 1.22504, -1.30242, 0.0768735, -0.0054149, -0.0737333, 0.0688713, -0.177066, 0.0184106, -0.00126132, -4.16985, 65.6241, 31.0273, 10.7269, 0.870848, 4.14157, -0.0228162, 0.000293568, -0.00311608, 0.00428463, 0.0161518, -0.00723503, 0.00583598, -0.0073767, -0.00512362, 0.00934506, -0.0759255, 0.170195, -0.141301, 0.470633, -0.545713, 0.333887, -2.08291, -2.16461, -0.126387, 0.467345, -0.544893, 0.329805, -2.08409, -2.15618, -0.100586, -0.00672789, -0.0412368, -0.0372375, -0.00150946, -0.0351776, -0.0270369
0.14916, 1.69493, -1.22897, -1.5477, -0.899775, -1.20606, 1.22505, -1.30242, 0.0743849, -0.00186311, -0.08177, 0.0721754, -0.178449, 0.0162569, 0.00109222, -4.0548, 65.3662, 31.063, 10.7269, 0.846129, 4.20657, -0.0750012, 0.000295983, -0.00311679, 0.00427378, 0.0162178, -0.00739053, 0.00593085, -0.00429329, -0.000965369, 0.00933075, -0.0828044, 0.174259, -0.1541, 0.470627, -0.545754, 0.33385, -2.08289, -2.16458, -0.126319, 0.467337, -0.544934, 0.329779, -2.08421, -2.15612, -0.100278, -0.00678382, -0.0415633, -0.0375874, -0.00560866, -0.0387166, -0.0277415
0.15016, 1.695, -1.22897, -1.54778, -0.899693, -1.20623, 1.22507, -1.30242, 0.0719935, -0.00281286, -0.0802248, 0.0747172, -0.180547, 0.0164105, 1.63083e-05, -3.90404, 65.2551, 30.9162, 10.6873, 0.827819, 4.22763, -0.0557752, 0.000296069, -0.00311895, 0.00426434, 0.0162704, -0.00753523, 0.0060217, -0.00266616, 0.000817436, 0.0101125, -0.0804042, 0.174988, -0.158236, 0.47062, -0.545796, 0.333812, -2.08287, -2.16456, -0.126251, 0.467328, -0.544977, 0.329751, -2.08433, -2.15605, -0.0999947, -0.00683932, -0.0418868, -0.0379361, -0.00735584, -0.0408395, -0.0275112
0.15116, 1.69508, -1.22898, -1.54787, -0.899605, -1.20642, 1.22509, -1.30242, 0.075989, -0.00425182, -0.0786817, 0.0791717, -0.175432, 0.0112509, -0.000734934, -3.86834, 65.1797, 30.8765, 10.5762, 0.797606, 4.26333, -0.0356336, 0.000297105, -0.00311784, 0.00425568, 0.01633, -0.00768865, 0.00611177, -0.00523018, -0.000421002, 0.0100656, -0.0793607, 0.166779, -0.155686, 0.470613, -0.545838, 0.333774, -2.08285, -2.16453, -0.126182, 0.467323, -0.545019, 0.329722, -2.08444, -2.15599, -0.0996946, -0.0068944, -0.0422071, -0.0382834, -0.00626621, -0.0385703, -0.0275489
0.15216, 1.69516, -1.22897, -1.54796, -0.899519, -1.2066, 1.2251, -1.30242, 0.075894, 0.000358447, -0.0805268, 0.0830729, -0.180059, 0.0114055, -1.5104e-05, -3.79296, 64.9973, 30.8408, 10.5405, 0.760985, 4.32101, -0.0484509, 0.000296759, -0.00312118, 0.00424286, 0.0163931, -0.00784838, 0.00621166, -0.0035108, 0.00138095, 0.0130251, -0.0803084, 0.175331, -0.163162, 0.470606, -0.54588, 0.333736, -2.08282, -2.1645, -0.126112, 0.467313, -0.545064, 0.329696, -2.08457, -2.15593, -0.0993826, -0.00694903, -0.0425243, -0.0386293, -0.00794309, -0.0411129, -0.0251792
0.15316, 1.69524, -1.22898, -1.54804, -0.899434, -1.20679, 1.22512, -1.30242, 0.0763375, -0.00280915, -0.0811168, 0.0814838, -0.182359, 0.0122578, 0.00144809, -3.79296, 64.9576, 30.7654, 10.5762, 0.760985, 4.35672, -0.0878186, 0.000299852, -0.00311786, 0.00423491, 0.0164522, -0.00800219, 0.00630356, -0.00359288, 0.00087433, 0.0110886, -0.0818245, 0.175027, -0.164426, 0.470599, -0.545922, 0.333697, -2.0828, -2.16448, -0.126041, 0.467309, -0.545105, 0.329666, -2.08469, -2.15586, -0.099081, -0.00700322, -0.0428383, -0.0389739, -0.00756931, -0.041028, -0.02744
0.15416, 1.69532, -1.22897, -1.54813, -0.899339, -1.20699, 1.22514, -1.30242, 0.07238, 0.00236205, -0.0824862, 0.0834972, -0.184222, 0.0168902, -0.00120467, -3.75329, 64.7394, 30.7297, 10.5008, 0.791197, 4.40707, -0.0292249, 0.00029777, -0.0031221, 0.00421711, 0.0165127, -0.00817483, 0.0064022, -0.000941197, 0.00321962, 0.0148561, -0.0774466, 0.184054, -0.16952, 0.470592, -0.545965, 0.333659, -2.08278, -2.16445, -0.12597, 0.467298, -0.545152, 0.329645, -2.08483, -2.1558, -0.0987572, -0.00705695, -0.0431491, -0.039317, -0.00972278, -0.0446308, -0.0243954
0.15516, 1.69539, -1.22897, -1.54821, -0.899249, -1.20719, 1.22515, -1.30243, 0.0728028, 0.00352118, -0.0812842, 0.087745, -0.185663, 0.0158909, -0.0017864, -3.71758, 64.6283, 30.6186, 10.5405, 0.797606, 4.45743, -0.00267457, 0.000295759, -0.00312827, 0.00420098, 0.0165736, -0.00834008, 0.00650418, -0.00040787, 0.0040458, 0.0167549, -0.0754672, 0.18577, -0.172885, 0.470585, -0.546008, 0.333619, -2.08275, -2.16442, -0.125898, 0.467286, -0.5452, 0.329621, -2.08496, -2.15573, -0.0984396, -0.00711021, -0.0434565, -0.0396587, -0.0105067, -0.0457899, -0.022917
0.15616, 1.69547, -1.22896, -1.5483, -0.899156, -1.20739, 1.22516, -1.30242, 0.0731637, 0.00529215, -0.0834938, 0.0891294, -0.187135, 0.0102334, 0.00101316, -3.67791, 64.4815, 30.6186, 10.5762, 0.827819, 4.51419, -0.0621838, 0.000291317, -0.00313647, 0.00418661, 0.0166464, -0.00851421, 0.00662222, -0.000518796, 0.00574816, 0.0170251, -0.0818005, 0.18632, -0.178866, 0.470578, -0.546052, 0.33358, -2.08273, -2.16439, -0.125825, 0.467271, -0.545251, 0.329596, -2.08511, -2.15565, -0.0980974, -0.007163, -0.0437605, -0.0399988, -0.0122517, -0.0460956, -0.0229161
0.15716, 1.69555, -1.22896, -1.54838, -0.899061, -1.2076, 1.22517, -1.30242, 0.0708686, 0.00575982, -0.0828872, 0.0897322, -0.196275, 0.0113568, -0.00799901, -3.67791, 64.3704, 30.5433, 10.6158, 0.877257, 4.55722, -0.0814099, 0.000287159, -0.00314372, 0.00417025, 0.0167143, -0.00869125, 0.00673541, 0.0020741, 0.00786861, 0.0181479, -0.0834918, 0.194899, -0.176103, 0.470571, -0.546096, 0.33354, -2.08271, -2.16437, -0.125751, 0.467257, -0.545301, 0.329572, -2.08526, -2.15557, -0.0977573, -0.0072153, -0.0440611, -0.0403373, -0.0142845, -0.0492153, -0.0224761
0.15816, 1.69562, -1.22896, -1.54847, -0.898967, -1.20781, 1.22518, -1.30243, 0.0718883, 0.00440005, -0.0844354, 0.092167, -0.197937, 0.0130815, -0.00875972, -3.6422, 64.3347, 30.5433, 10.6873, 0.852538, 4.57187, -0.00999879, 0.000281954, -0.00315276, 0.00415906, 0.0167855, -0.00885789, 0.00684124, 0.00293999, 0.00792331, 0.0175412, -0.0828344, 0.196021, -0.178395, 0.470564, -0.54614, 0.333499, -2.08268, -2.16434, -0.125677, 0.467241, -0.545353, 0.329542, -2.08539, -2.15549, -0.0974241, -0.0072671, -0.0443582, -0.0406742, -0.0143831, -0.0502764, -0.0235437
0.15916, 1.69569, -1.22895, -1.54856, -0.898869, -1.20801, 1.22519, -1.30242, 0.0681392, 0.00396508, -0.0869469, 0.0926327, -0.193997, 0.0104177, -0.00595174, -3.56683, 64.1483, 30.4679, 10.7269, 0.840636, 4.56454, -0.0228162, 0.000276016, -0.0031642, 0.00413788, 0.0168444, -0.00903373, 0.00696199, 0.00389046, 0.0105833, 0.016713, -0.0843224, 0.191365, -0.185887, 0.470556, -0.546184, 0.333458, -2.08266, -2.16431, -0.125602, 0.467223, -0.545407, 0.329522, -2.08555, -2.15541, -0.097093, -0.00731841, -0.0446518, -0.0410095, -0.0170887, -0.0514904, -0.0247539
0.16016, 1.69576, -1.22895, -1.54864, -0.898766, -1.20821, 1.22519, -1.30242, 0.0679852, 0.00222836, -0.0847776, 0.0918278, -0.194059, 0.00720038, -0.00271239, -3.56683, 64.1483, 30.3568, 10.7626, 0.815917, 4.58652, -0.0685925, 0.000270319, -0.00317607, 0.00412049, 0.0169048, -0.00919759, 0.00708732, 0.00276397, 0.0106212, 0.0163676, -0.0853033, 0.188378, -0.188221, 0.470549, -0.546229, 0.333417, -2.08263, -2.16428, -0.125526, 0.467205, -0.54546, 0.329498, -2.0857, -2.15532, -0.0967711, -0.0073692, -0.0449417, -0.0413431, -0.0172298, -0.0506166, -0.0252523
0.16116, 1.69584, -1.22895, -1.54872, -0.89866, -1.20841, 1.22519, -1.30242, 0.0707829, 0.00377276, -0.0842842, 0.0964407, -0.195955, 0.00843491, -0.00190088, -3.60253, 64.0372, 30.2814, 10.7626, 0.791197, 4.63595, -0.0750012, 0.000264955, -0.00318831, 0.00410059, 0.0169667, -0.0093665, 0.00721005, 0.00281057, 0.00997444, 0.0183654, -0.0823579, 0.1921, -0.191438, 0.470542, -0.546274, 0.333376, -2.08261, -2.16425, -0.12545, 0.467186, -0.545514, 0.329476, -2.08586, -2.15523, -0.096442, -0.00741948, -0.0452279, -0.0416749, -0.0165522, -0.0512286, -0.0236399
0.16216, 1.69591, -1.22895, -1.54882, -0.89855, -1.20861, 1.22519, -1.30242, 0.0701006, 0.00135371, -0.0866925, 0.100854, -0.191593, 0.00525695, -0.00222682, -3.6422, 64.0768, 30.3211, 10.7269, 0.748168, 4.67257, -0.0557752, 0.000257222, -0.00320397, 0.0040888, 0.0170394, -0.00952107, 0.00733691, 0.00359671, 0.0117861, 0.016738, -0.082807, 0.184613, -0.19599, 0.470534, -0.546319, 0.333334, -2.08258, -2.16422, -0.125373, 0.467163, -0.545569, 0.329445, -2.086, -2.15512, -0.0961145, -0.00746922, -0.0455105, -0.042005, -0.0184467, -0.052112, -0.0256367
0.16316, 1.69598, -1.22895, -1.5489, -0.898437, -1.20882, 1.22519, -1.30242, 0.070365, 0.00249062, -0.0834845, 0.108519, -0.19445, 0.00424714, -0.00289087, -3.71758, 64.0015, 30.1703, 10.7269, 0.711547, 4.67257, -0.0228162, 0.000251781, -0.00321659, 0.00406844, 0.0170983, -0.00968647, 0.00745817, 0.00510006, 0.013284, 0.0198032, -0.078107, 0.187023, -0.201954, 0.470527, -0.546364, 0.333292, -2.08255, -2.16419, -0.125295, 0.467144, -0.545624, 0.329423, -2.08615, -2.15503, -0.0957909, -0.00751843, -0.0457892, -0.0423333, -0.0198155, -0.0544065, -0.0231196
0.16416, 1.69606, -1.22895, -1.54899, -0.898323, -1.20903, 1.22519, -1.30242, 0.0683138, 0.00236432, -0.0832562, 0.109067, -0.199839, 0.00420211, -0.00159174, -3.71758, 63.9658, 30.095, 10.7269, 0.686827, 4.6506, -0.0356336, 0.000241683, -0.00323299, 0.00405309, 0.0171694, -0.00985599, 0.00759462, 0.00686262, 0.0151074, 0.0202997, -0.0794635, 0.191497, -0.208132, 0.470519, -0.54641, 0.33325, -2.08253, -2.16416, -0.125216, 0.467121, -0.545683, 0.329395, -2.08632, -2.15492, -0.0954474, -0.00756709, -0.0460641, -0.0426597, -0.0216016, -0.0565726, -0.0231657
0.16516, 1.69613, -1.22894, -1.54908, -0.898201, -1.20924, 1.22519, -1.30242, 0.070163, 0.00266896, -0.0839526, 0.112236, -0.202662, 0.00399896, 0.000292492, -3.71758, 63.7793, 30.0593, 10.6873, 0.650206, 4.62955, -0.0750012, 0.00022862, -0.00325309, 0.00403145, 0.0172362, -0.0100349, 0.00774519, 0.00730598, 0.015235, 0.0208704, -0.0798822, 0.194218, -0.212942, 0.470512, -0.546456, 0.333207, -2.0825, -2.16412, -0.125137, 0.467094, -0.545746, 0.329373, -2.0865, -2.1548, -0.0950969, -0.0076152, -0.0463352, -0.0429842, -0.0217373, -0.057374, -0.0229901
0.16616, 1.6962, -1.22894, -1.54918, -0.898085, -1.20945, 1.22519, -1.30242, 0.0680467, 0.00311167, -0.0892698, 0.113947, -0.20745, 0.00352176, -0.00110402, -3.71758, 63.7079, 29.9839, 10.7269, 0.613585, 4.6149, -0.0420422, 0.000218274, -0.00327111, 0.00401679, 0.0173073, -0.0101998, 0.00787978, 0.0103753, 0.0183802, 0.0198802, -0.0856032, 0.198795, -0.219965, 0.470504, -0.546503, 0.333164, -2.08247, -2.16409, -0.125057, 0.467069, -0.545806, 0.329344, -2.08666, -2.15469, -0.0947569, -0.00766275, -0.0466022, -0.0433068, -0.0248554, -0.0606488, -0.0246572
0.16716, 1.69628, -1.22894, -1.54928, -0.897966, -1.20967, 1.22519, -1.30243, 0.0719541, 0.00358413, -0.0913386, 0.114844, -0.206695, 0.00180288, -0.0114511, -3.79296, 63.6325, 29.9482, 10.8023, 0.619078, 4.63595, -0.00267457, 0.000206342, -0.00328858, 0.00400369, 0.0173852, -0.0103735, 0.00801408, 0.00865293, 0.0169562, 0.0195069, -0.0882916, 0.198286, -0.207987, 0.470496, -0.546549, 0.333121, -2.08245, -2.16406, -0.124976, 0.467045, -0.545867, 0.329312, -2.08682, -2.15458, -0.0943997, -0.00770973, -0.0468653, -0.0436274, -0.0235548, -0.0590955, -0.0251271
0.16816, 1.69635, -1.22893, -1.54939, -0.897836, -1.20989, 1.22518, -1.30242, 0.0744498, 0.00479771, -0.0970746, 0.123408, -0.212179, 0.00029305, -0.00698654, -3.71758, 63.5214, 29.9482, 10.7626, 0.625487, 4.66525, -0.0420422, 0.000187653, -0.00331535, 0.00398914, 0.0174669, -0.0105472, 0.00818301, 0.011753, 0.0194106, 0.0194564, -0.0929761, 0.203345, -0.222798, 0.470489, -0.546596, 0.333077, -2.08242, -2.16403, -0.124894, 0.467011, -0.545935, 0.329281, -2.08701, -2.15443, -0.0940339, -0.00775613, -0.0471243, -0.043946, -0.0259434, -0.0625083, -0.0258902
0.16916, 1.69643, -1.22894, -1.5495, -0.897716, -1.21011, 1.22518, -1.30242, 0.0765928, 0.000721859, -0.0987814, 0.126258, -0.214202, 0.000870052, -0.00380756, -3.67791, 63.4857, 29.9839, 10.8023, 0.643798, 4.6506, -0.0814099, 0.000172403, -0.00333521, 0.00398063, 0.0175517, -0.0107224, 0.00833707, 0.0125108, 0.0191644, 0.0170762, -0.0938231, 0.201573, -0.228402, 0.470481, -0.546643, 0.333034, -2.08239, -2.164, -0.124812, 0.466984, -0.546, 0.329244, -2.08718, -2.1543, -0.093664, -0.00780194, -0.0473792, -0.0442625, -0.0258109, -0.0631364, -0.0286811
0.17016, 1.69651, -1.22894, -1.5496, -0.897592, -1.21034, 1.22518, -1.30242, 0.076531, 0.00270863, -0.101482, 0.127866, -0.219785, 0.000679148, -0.00516446, -3.6422, 63.3746, 29.9482, 10.8023, 0.650206, 4.6506, -0.0228162, 0.000158006, -0.00335535, 0.00396563, 0.0176297, -0.010903, 0.0084809, 0.0141668, 0.0207324, 0.0178303, -0.0975838, 0.208414, -0.232407, 0.470473, -0.546691, 0.332989, -2.08236, -2.16396, -0.124729, 0.466957, -0.546065, 0.329213, -2.08735, -2.15418, -0.0932965, -0.00784715, -0.04763, -0.044577, -0.0273319, -0.0652021, -0.028452
0.17116, 1.69659, -1.22893, -1.54971, -0.897462, -1.21055, 1.22518, -1.30243, 0.0785991, 0.00251492, -0.101009, 0.128162, -0.221159, 0.00106963, -0.00425965, -3.56683, 63.1921, 29.9482, 10.7269, 0.650206, 4.63595, -0.00999879, 0.000143551, -0.00337571, 0.00394997, 0.0177039, -0.0110799, 0.00863309, 0.0132725, 0.0196, 0.0181491, -0.097212, 0.20995, -0.232431, 0.470465, -0.546738, 0.332945, -2.08233, -2.16393, -0.124645, 0.46693, -0.54613, 0.329183, -2.08753, -2.15405, -0.0929353, -0.00789177, -0.0478765, -0.0448893, -0.0262632, -0.0645681, -0.0283487
0.17216, 1.69667, -1.22893, -1.54982, -0.89734, -1.21077, 1.22518, -1.30242, 0.0762563, 0.00555613, -0.103253, 0.127206, -0.219923, 0.0010062, -0.00140081, -3.48748, 63.0057, 29.9085, 10.7269, 0.619078, 4.62955, -0.0557752, 0.000132358, -0.00339371, 0.00393479, 0.0177804, -0.0112568, 0.00878357, 0.0136733, 0.0210151, 0.0194299, -0.0980138, 0.212469, -0.238185, 0.470457, -0.546786, 0.3329, -2.0823, -2.16389, -0.124561, 0.466905, -0.546192, 0.329152, -2.08771, -2.15393, -0.0925711, -0.00793577, -0.0481188, -0.0451995, -0.0276532, -0.0654605, -0.027406
0.17316, 1.69675, -1.22894, -1.54993, -0.897208, -1.21099, 1.22519, -1.30242, 0.0819447, 0.00334245, -0.102299, 0.130036, -0.216772, 0.000983881, 6.05681e-05, -3.45177, 63.0057, 29.9085, 10.6516, 0.613585, 4.62222, -0.0878186, 0.000119206, -0.00341043, 0.0039282, 0.0178608, -0.0114238, 0.00893607, 0.0110803, 0.0178437, 0.0188296, -0.0950021, 0.207991, -0.235616, 0.470449, -0.546834, 0.332855, -2.08227, -2.16386, -0.124476, 0.466881, -0.546255, 0.329112, -2.08788, -2.15379, -0.0922117, -0.00797915, -0.0483568, -0.0455074, -0.024644, -0.062916, -0.0280135
0.17416, 1.69684, -1.22893, -1.55004, -0.897068, -1.21122, 1.22518, -1.30242, 0.0831612, 0.00483243, -0.107471, 0.132694, -0.218994, 0.000178654, -0.00227402, -3.30102, 62.7478, 29.8728, 10.4651, 0.619078, 4.63595, -0.0292249, 0.000102229, -0.00343442, 0.00390826, 0.017939, -0.0116111, 0.00909423, 0.012324, 0.0190968, 0.018435, -0.0996411, 0.211409, -0.238342, 0.470441, -0.546883, 0.332809, -2.08224, -2.16383, -0.12439, 0.46685, -0.546324, 0.329085, -2.08806, -2.15366, -0.0918326, -0.00802191, -0.0485903, -0.0458132, -0.0259089, -0.0643684, -0.0288566
0.17516, 1.69692, -1.22895, -1.55016, -0.89693, -1.21144, 1.22518, -1.30243, 0.0853649, 0.00182712, -0.109041, 0.135716, -0.228863, 0.000142623, -0.00284492, -3.18597, 62.7875, 29.8728, 10.354, 0.619078, 4.63595, 0.00373412, 8.54956e-05, -0.00345384, 0.00390431, 0.0180242, -0.0117798, 0.00924844, 0.0144878, 0.0198685, 0.0167317, -0.104412, 0.216785, -0.242873, 0.470433, -0.546931, 0.332763, -2.08221, -2.16379, -0.124304, 0.466823, -0.54639, 0.329041, -2.08823, -2.15352, -0.0914647, -0.00806403, -0.0488195, -0.0461166, -0.0267131, -0.0665046, -0.0311484
0.17616, 1.69701, -1.22895, -1.55028, -0.896794, -1.21168, 1.22518, -1.30242, 0.0829905, 0.00029371, -0.110923, 0.140171, -0.234164, 0.000350081, 0.000463647, -2.9995, 62.6764, 29.9085, 10.2429, 0.650206, 4.62955, -0.0621838, 6.801e-05, -0.00347619, 0.00389368, 0.0181123, -0.0119632, 0.00941838, 0.0181572, 0.0230709, 0.0162175, -0.105599, 0.21973, -0.255728, 0.470425, -0.54698, 0.332717, -2.08218, -2.16375, -0.124217, 0.466793, -0.546459, 0.329004, -2.08842, -2.15337, -0.091076, -0.00810551, -0.0490442, -0.0464177, -0.0298428, -0.070405, -0.032412
0.17716, 1.69711, -1.22895, -1.55039, -0.896649, -1.21191, 1.22518, -1.30242, 0.0885544, -0.00157927, -0.112917, 0.143611, -0.235361, 0.000789152, 0.000960313, -2.88445, 62.601, 29.8371, 10.0565, 0.656615, 4.6149, -0.0814099, 5.52374e-05, -0.00349107, 0.00388079, 0.0181851, -0.0121413, 0.0095736, 0.017297, 0.0210616, 0.0149303, -0.106472, 0.219526, -0.255706, 0.470417, -0.547029, 0.332671, -2.08215, -2.16372, -0.124129, 0.466771, -0.546523, 0.328969, -2.0886, -2.15324, -0.0907105, -0.00814634, -0.0492643, -0.0467165, -0.0279589, -0.069496, -0.0339169
0.17816, 1.6972, -1.22896, -1.5505, -0.896507, -1.21214, 1.22518, -1.30242, 0.0883968, -0.00790055, -0.116085, 0.146024, -0.236059, 0.00158718, -0.00181293, -2.65832, 62.601, 29.8371, 9.94141, 0.680419, 4.58652, -0.0164075, 3.70598e-05, -0.00351106, 0.00387281, 0.018266, -0.0123216, 0.00972942, 0.0192428, 0.0220506, 0.0107571, -0.107903, 0.214557, -0.25741, 0.470409, -0.547078, 0.332624, -2.08211, -2.16368, -0.12404, 0.466744, -0.546593, 0.328929, -2.08878, -2.15311, -0.090333, -0.00818651, -0.0494799, -0.0470129, -0.0290875, -0.0710339, -0.0385985
0.17916, 1.6973, -1.22897, -1.55063, -0.896356, -1.21238, 1.22518, -1.30242, 0.0928618, -0.00776841, -0.120421, 0.150631, -0.235041, 0.00215063, -0.000530781, -2.54723, 62.5296, 29.9085, 9.75494, 0.729857, 4.55722, -0.0356336, 2.16324e-05, -0.00352759, 0.00386411, 0.0183498, -0.0125023, 0.00989303, 0.0190996, 0.021116, 0.0100544, -0.108787, 0.214615, -0.260711, 0.470401, -0.547128, 0.332577, -2.08208, -2.16365, -0.123951, 0.466719, -0.546659, 0.328889, -2.08896, -2.15296, -0.0899504, -0.00822601, -0.0496909, -0.0473069, -0.0282269, -0.0709574, -0.0395951
0.18016, 1.69739, -1.22898, -1.55075, -0.896204, -1.21262, 1.22518, -1.30242, 0.0950798, -0.00674877, -0.119529, 0.151835, -0.237566, 0.00116807, 0.00131589, -2.28143, 62.4185, 29.9482, 9.67957, 0.772887, 4.56454, -0.0814099, 1.67461e-06, -0.00354991, 0.00385649, 0.0184391, -0.0126853, 0.0100704, 0.0183343, 0.0204473, 0.0112346, -0.109247, 0.217549, -0.262551, 0.470393, -0.547178, 0.33253, -2.08205, -2.16361, -0.123861, 0.46669, -0.546731, 0.328847, -2.08916, -2.1528, -0.0895572, -0.00826484, -0.0498971, -0.0475984, -0.0275758, -0.0705615, -0.0386247
0.18116, 1.6975, -1.22899, -1.55088, -0.896047, -1.21285, 1.22518, -1.30242, 0.0979416, -0.00609161, -0.122297, 0.155996, -0.235556, 0.00132543, -9.14319e-05, -2.16637, 62.3074, 29.8728, 9.53278, 0.797606, 4.54989, -0.0557752, -1.29259e-05, -0.00356469, 0.00384866, 0.018518, -0.0128611, 0.0102289, 0.0181705, 0.020009, 0.011368, -0.10858, 0.21696, -0.263297, 0.470384, -0.547228, 0.332482, -2.08201, -2.16357, -0.12377, 0.466667, -0.546797, 0.328806, -2.08934, -2.15266, -0.0891841, -0.00830299, -0.0500987, -0.0478874, -0.0271757, -0.0706038, -0.0387705
0.18216, 1.6976, -1.229, -1.55101, -0.895895, -1.21307, 1.22518, -1.30242, 0.0973243, -0.00636972, -0.121576, 0.155323, -0.231151, 0.000615495, -0.000346665, -1.94024, 62.2321, 29.7974, 9.4931, 0.797606, 4.55722, -0.0484509, -2.76414e-05, -0.00358178, 0.00384398, 0.0186013, -0.0130291, 0.0103902, 0.0169318, 0.0196781, 0.0115853, -0.106308, 0.21311, -0.261905, 0.470376, -0.547278, 0.332434, -2.08198, -2.16353, -0.123678, 0.466642, -0.546863, 0.328761, -2.08951, -2.15251, -0.088813, -0.00834046, -0.0502955, -0.0481739, -0.0269166, -0.0695973, -0.0386609
0.18316, 1.69771, -1.22901, -1.55114, -0.895723, -1.2133, 1.22518, -1.30242, 0.100865, -0.00748923, -0.125195, 0.160805, -0.236239, 0.000683952, 0.000266685, -1.86486, 62.1964, 29.7974, 9.27094, 0.804015, 4.54989, -0.0621838, -4.72733e-05, -0.00359865, 0.00384114, 0.0186845, -0.0132037, 0.0105672, 0.0185855, 0.0201056, 0.0105359, -0.109421, 0.216515, -0.267879, 0.470368, -0.547328, 0.332386, -2.08195, -2.1635, -0.123586, 0.466618, -0.546934, 0.328713, -2.0897, -2.15235, -0.088433, -0.00837722, -0.0504874, -0.0484579, -0.0273645, -0.0712788, -0.04022
0.18416, 1.69782, -1.22902, -1.55128, -0.895564, -1.21353, 1.22518, -1.30242, 0.0993047, -0.00478494, -0.130952, 0.159067, -0.23393, 0.000186467, 0.000644384, -1.63873, 62.0139, 29.7617, 9.19556, 0.815917, 4.55722, -0.0750012, -6.21297e-05, -0.00361583, 0.00383449, 0.0187695, -0.0133764, 0.010735, 0.0189626, 0.0215006, 0.010186, -0.113698, 0.217968, -0.270974, 0.470359, -0.547378, 0.332338, -2.08191, -2.16346, -0.123493, 0.466593, -0.547001, 0.32867, -2.08988, -2.15219, -0.0880532, -0.00841329, -0.0506745, -0.0487392, -0.0287939, -0.0718421, -0.040854
0.18516, 1.69793, -1.22904, -1.55141, -0.895397, -1.21376, 1.22518, -1.30242, 0.106107, -0.00653171, -0.130736, 0.161081, -0.230512, 0.000905529, 0.000423496, -1.48797, 61.9742, 29.6863, 9.15985, 0.815917, 4.53616, -0.0750012, -7.94298e-05, -0.00363044, 0.00383429, 0.018857, -0.0135502, 0.0109039, 0.01583, 0.0174989, 0.00948192, -0.111072, 0.214313, -0.26515, 0.470351, -0.547429, 0.332289, -2.08188, -2.16342, -0.1234, 0.46657, -0.547069, 0.32862, -2.09007, -2.15204, -0.0876688, -0.00844864, -0.0508567, -0.0490179, -0.0249721, -0.0686589, -0.0414836
