alisrour97/Franka_experiments/Real_Robot_scripts/servo-franka/Data2/log_dyn_INIT2_11.csv
Time,q1,q2,q3,q4,q5,q6,q7,dq1,dq2,dq3,dq4,dq5,dq6,dq7,t1,t2,t3,t4,t5,t6,t7,ex1,ex2,ex3,ex4,ex5,ex6,ev1,ev2,ev3,ev4,ev5,ev6,xd,yd,zd,uxd,uyd,uzd,x,y,z,ux,uy,uz,vxd,vyd,vzd,vx,vy,vz
4.88281e-07, 1.69123, -1.22938, -1.54067, -0.900603, -1.19259, 1.22751, -1.30249, -0.00619155, -0.00263723, -0.00882745, 0.00115365, 0.00138484, -0.010712, 0.00135748, 0.21003, 68.1274, 35.1969, 7.85065, 3.20453, 4.87308, -0.428395, 8.41761e-05, -0.00219849, 0.00342474, 0.00434543, 0.00297582, 0.00126039, 0.00380231, 0.00704083, -0.00511848, -0.0150998, -0.00874257, -0.0121642, 0.471008, -0.543389, 0.335894, -2.08385, -2.16584, -0.129887, 0.468696, -0.542864, 0.332605, -2.08135, -2.16117, -0.127981, -1.48327e-05, 4.00419e-05, -1.29039e-06, -0.00709537, -0.00321395, -0.00543334
0.0121794, 1.69119, -1.22939, -1.54078, -0.900625, -1.19258, 1.22745, -1.30248, -0.00154335, -0.000428419, -0.0129238, -0.00518262, -4.29223e-05, -0.00440124, 0.00116588, 0.0196001, 68.1631, 35.308, 8.0014, 3.21643, 4.90146, -0.428395, 5.90849e-05, -0.00224326, 0.00347618, 0.00449568, 0.00301559, 0.00133054, 0.00148909, 0.00277902, -0.00584185, -0.0174146, -0.00124067, -0.00429356, 0.471008, -0.543389, 0.335894, -2.08385, -2.16584, -0.129887, 0.46864, -0.542888, 0.332538, -2.08132, -2.16098, -0.127822, -2.49008e-05, 7.8927e-05, 1.60533e-06, -0.00295796, -0.000605688, -0.00591414
0.0131794, 1.69119, -1.22939, -1.54078, -0.900625, -1.19258, 1.22745, -1.30248, -0.00154335, -0.000428419, -0.0129238, -0.00518262, -4.29223e-05, -0.00440124, 0.00116588, 0.0196001, 68.1631, 35.308, 8.0014, 3.21643, 4.90146, -0.428395, 5.90761e-05, -0.00224326, 0.00347618, 0.00449568, 0.00301558, 0.00133054, 0.00153216, 0.00276966, -0.00583805, -0.0174146, -0.00119251, -0.00426288, 0.471008, -0.543389, 0.335894, -2.08385, -2.16584, -0.129887, 0.46864, -0.542888, 0.332538, -2.08132, -2.16098, -0.127822, -3.59273e-05, 0.000121646, 4.81928e-06, -0.00295796, -0.000605688, -0.00591414
0.0141794, 1.69119, -1.22939, -1.54078, -0.900625, -1.19258, 1.22745, -1.30248, -0.00154335, -0.000428419, -0.0129238, -0.00518262, -4.29223e-05, -0.00440124, 0.00116588, 0.0196001, 68.1631, 35.308, 8.0014, 3.21643, 4.90146, -0.428395, 5.90521e-05, -0.00224325, 0.00347618, 0.00449567, 0.00301556, 0.00133055, 0.00157924, 0.00275946, -0.00583393, -0.0174145, -0.00113991, -0.00422942, 0.471008, -0.543389, 0.335894, -2.08385, -2.16584, -0.129887, 0.46864, -0.542888, 0.332538, -2.08132, -2.16098, -0.127822, -4.79476e-05, 0.000168349, 8.36616e-06, -0.00295796, -0.000605688, -0.00591414
0.0151794, 1.69119, -1.22939, -1.54078, -0.900625, -1.19258, 1.22745, -1.30248, -0.00154335, -0.000428419, -0.0129238, -0.00518262, -4.29223e-05, -0.00440124, 0.00116588, 0.0196001, 68.1631, 35.308, 8.0014, 3.21643, 4.90146, -0.428395, 5.90055e-05, -0.00224324, 0.00347618, 0.00449566, 0.00301551, 0.00133057, 0.00163051, 0.00274839, -0.00582948, -0.0174143, -0.0010827, -0.00419306, 0.471008, -0.543389, 0.335894, -2.08385, -2.16584, -0.129887, 0.46864, -0.542888, 0.332538, -2.08132, -2.16098, -0.127822, -6.09969e-05, 0.000219187, 1.22607e-05, -0.00295796, -0.000605688, -0.00591414
0.0161794, 1.69119, -1.22939, -1.54078, -0.900625, -1.19258, 1.22745, -1.30248, -0.00154335, -0.000428419, -0.0129238, -0.00518262, -4.29223e-05, -0.00440124, 0.00116588, 0.0196001, 68.1631, 35.308, 8.0014, 3.21643, 4.90146, -0.428395, 5.89288e-05, -0.00224323, 0.00347617, 0.00449564, 0.00301544, 0.00133061, 0.00168609, 0.00273642, -0.00582469, -0.0174141, -0.00102073, -0.00415372, 0.471008, -0.543389, 0.335894, -2.08385, -2.16584, -0.129887, 0.46864, -0.542888, 0.332538, -2.08132, -2.16098, -0.127822, -7.51097e-05, 0.000274308, 1.65177e-05, -0.00295796, -0.000605688, -0.00591414
0.0171794, 1.69119, -1.22939, -1.54078, -0.900625, -1.19258, 1.22745, -1.30248, -0.00154335, -0.000428419, -0.0129238, -0.00518262, -4.29223e-05, -0.00440124, 0.00116588, 0.0196001, 68.1631, 35.308, 8.0014, 3.21643, 4.90146, -0.428395, 5.88145e-05, -0.0022432, 0.00347616, 0.00449561, 0.00301533, 0.00133066, 0.00174614, 0.00272353, -0.00581955, -0.0174137, -0.000953837, -0.00411129, 0.471008, -0.543389, 0.335894, -2.08385, -2.16584, -0.129887, 0.46864, -0.542888, 0.332538, -2.08132, -2.16098, -0.127822, -9.03198e-05, 0.000333859, 2.1152e-05, -0.00295796, -0.000605688, -0.00591414
0.0181794, 1.69119, -1.22939, -1.54078, -0.900625, -1.19258, 1.22745, -1.30248, -0.00154335, -0.000428419, -0.0129238, -0.00518262, -4.29223e-05, -0.00440124, 0.00116588, 0.0196001, 68.1631, 35.308, 8.0014, 3.21643, 4.90146, -0.428395, 5.86552e-05, -0.00224317, 0.00347615, 0.00449557, 0.00301518, 0.00133073, 0.00181081, 0.00270968, -0.00581406, -0.0174132, -0.000881862, -0.00406568, 0.471008, -0.543389, 0.335894, -2.08385, -2.16584, -0.129887, 0.46864, -0.542888, 0.332538, -2.08132, -2.16098, -0.127822, -0.000106661, 0.000397984, 2.61782e-05, -0.00295796, -0.000605688, -0.00591414
0.0191794, 1.69119, -1.22939, -1.54078, -0.900625, -1.19258, 1.22745, -1.30248, -0.00154335, -0.000428419, -0.0129238, -0.00518262, -4.29223e-05, -0.00440124, 0.00116588, 0.0196001, 68.1631, 35.308, 8.0014, 3.21643, 4.90146, -0.428395, 5.84435e-05, -0.00224312, 0.00347613, 0.00449552, 0.00301498, 0.00133082, 0.00188025, 0.00269485, -0.00580819, -0.0174127, -0.000804651, -0.0040168, 0.471008, -0.543389, 0.335894, -2.08385, -2.16584, -0.129887, 0.46864, -0.542888, 0.332538, -2.08132, -2.16098, -0.127822, -0.000124165, 0.000466826, 3.16113e-05, -0.00295796, -0.000605688, -0.00591414
0.0201794, 1.69117, -1.22942, -1.54086, -0.900648, -1.19257, 1.22739, -1.30249, -0.00214165, -0.0032081, -0.0102347, -0.00658915, 0.00225359, -0.00129983, -0.000561968, -0.0914839, 68.4964, 35.4191, 8.07678, 3.12488, 4.98752, -0.37621, 4.58235e-05, -0.00227089, 0.00353253, 0.00462236, 0.00308211, 0.00135331, 0.0013713, 0.00134844, -0.00637579, -0.0120967, -0.00391132, 0.000516789, 0.471008, -0.543388, 0.335894, -2.08385, -2.16584, -0.129887, 0.468611, -0.542892, 0.332481, -2.08124, -2.16087, -0.127747, -0.000142864, 0.000540525, 3.74658e-05, -0.00167067, 0.000112907, -0.00643033
0.0211794, 1.69117, -1.22942, -1.54087, -0.900651, -1.19257, 1.22738, -1.30249, -0.00253664, -0.0012112, -0.0106081, -0.00490233, 0.00183493, -0.00171131, -0.00159535, -0.0557783, 68.4567, 35.4191, 8.07678, 3.11847, 5.00949, -0.343251, 4.38285e-05, -0.00227514, 0.00353784, 0.00464078, 0.00308581, 0.001355, 0.00205938, 0.0021543, -0.00510933, -0.0119444, -0.00183278, -0.000619758, 0.471008, -0.543388, 0.335894, -2.08384, -2.16584, -0.129888, 0.468606, -0.542893, 0.332476, -2.08123, -2.16086, -0.12773, -0.000162789, 0.000619218, 4.37565e-05, -0.0024251, -0.000715592, -0.00525601
0.0221794, 1.69117, -1.22943, -1.54088, -0.900651, -1.19256, 1.22738, -1.30249, -0.00106112, -0.0121447, -0.014478, -0.00188715, -0.000218616, -0.00344065, -0.00106357, -0.0914839, 68.2742, 35.1572, 8.0014, 3.03241, 4.94449, -0.343251, 4.20204e-05, -0.00227585, 0.00355037, 0.00465437, 0.00310307, 0.00136002, 0.00441415, 0.0030192, -0.0127124, -0.0175072, -0.0117712, -0.00460719, 0.471008, -0.543388, 0.335894, -2.08384, -2.16584, -0.129888, 0.468605, -0.542893, 0.332463, -2.08121, -2.16084, -0.127733, -0.000183971, 0.000703042, 5.04979e-05, -0.00350031, -0.00182161, -0.0130961
0.0231794, 1.69117, -1.22943, -1.54091, -0.900663, -1.19256, 1.22737, -1.30249, -0.00262458, -0.0130059, -0.021904, -0.00700577, 0.000982286, -0.00315439, 0.00759684, -0.0161054, 67.3538, 34.7883, 7.9657, 2.8667, 4.83005, -0.311207, 3.84235e-05, -0.00228259, 0.00356186, 0.0046912, 0.00310509, 0.00136827, 0.00508744, 0.00384733, -0.0164458, -0.0254624, -0.0124804, -0.0134116, 0.471008, -0.543387, 0.335894, -2.08384, -2.16584, -0.129888, 0.468598, -0.542894, 0.332452, -2.0812, -2.16081, -0.127693, -0.000206438, 0.000792126, 5.77046e-05, -0.00446052, -0.00185647, -0.0168549
0.0241794, 1.69119, -1.22944, -1.54095, -0.900672, -1.19257, 1.22735, -1.30249, 0.00342454, -0.0114612, -0.0246816, -0.00814125, -0.00078411, -0.00777882, 0.00317685, -0.242241, 66.1359, 34.1535, 7.81494, 2.63965, 4.70828, -0.238881, 4.17972e-05, -0.00228024, 0.0035797, 0.00474651, 0.00310835, 0.00136126, 0.00246386, 0.00174438, -0.0173913, -0.0340841, -0.0112143, -0.00391217, 0.471007, -0.543387, 0.335894, -2.08384, -2.16584, -0.129889, 0.468599, -0.542888, 0.332435, -2.08116, -2.1608, -0.127637, -0.000230219, 0.000886601, 6.53909e-05, -0.00251201, 0.00105967, -0.017437
0.0251794, 1.69119, -1.22944, -1.54095, -0.900672, -1.19257, 1.22735, -1.30249, 0.00342454, -0.0114612, -0.0246816, -0.00814125, -0.00078411, -0.00777882, 0.00317685, -0.242241, 66.1359, 34.1535, 7.81494, 2.63965, 4.70828, -0.238881, 4.11179e-05, -0.00228009, 0.00357964, 0.00474634, 0.0031077, 0.00136156, 0.00256475, 0.00172314, -0.0173831, -0.0340826, -0.0111026, -0.00384183, 0.471007, -0.543386, 0.335894, -2.08384, -2.16584, -0.129889, 0.468599, -0.542888, 0.332435, -2.08116, -2.1608, -0.127637, -0.000255341, 0.00098659, 7.35711e-05, -0.00251201, 0.00105967, -0.017437
0.0261794, 1.69119, -1.22944, -1.54095, -0.900672, -1.19257, 1.22735, -1.30249, 0.00342454, -0.0114612, -0.0246816, -0.00814125, -0.00078411, -0.00777882, 0.00317685, -0.242241, 66.1359, 34.1535, 7.81494, 2.63965, 4.70828, -0.238881, 4.03354e-05, -0.00227992, 0.00357957, 0.00474615, 0.00310696, 0.0013619, 0.00267134, 0.00170074, -0.0173744, -0.0340809, -0.0109847, -0.00376762, 0.471007, -0.543385, 0.335894, -2.08384, -2.16584, -0.12989, 0.468599, -0.542888, 0.332435, -2.08116, -2.1608, -0.127637, -0.00028183, 0.00109222, 8.22592e-05, -0.00251201, 0.00105967, -0.017437
0.0271794, 1.69123, -1.22949, -1.54117, -0.900715, -1.19261, 1.22725, -1.30249, 0.0119672, -0.0100332, -0.0610512, -0.0126053, -0.0156149, -0.0302259, -0.000157715, -0.694511, 62.4899, 32.031, 7.25555, 2.25238, 4.4501, -0.147328, 2.18413e-05, -0.00230943, 0.00370631, 0.00508599, 0.00315181, 0.00140717, 0.00565307, 0.0081443, -0.0324348, -0.0956538, -0.00541048, -0.010452, 0.471007, -0.543384, 0.335894, -2.08384, -2.16584, -0.129891, 0.468566, -0.542887, 0.332307, -2.08101, -2.16059, -0.127302, -0.000309711, 0.0012036, 9.14692e-05, -0.00941215, 0.000281888, -0.0325674
0.0281794, 1.69124, -1.22952, -1.54127, -0.900729, -1.19264, 1.22721, -1.30249, 0.0140629, -0.0179717, -0.071639, -0.0104153, -0.0221763, -0.0363762, -0.000600833, -0.809562, 61.4981, 31.2137, 6.99371, 2.25238, 4.29263, -0.127186, 8.18991e-06, -0.00232367, 0.0037659, 0.00522965, 0.00317253, 0.00143148, 0.00906288, 0.0110367, -0.0411849, -0.113275, -0.0103033, -0.0168925, 0.471007, -0.543383, 0.335894, -2.08384, -2.16584, -0.129891, 0.46855, -0.542891, 0.332247, -2.08094, -2.1605, -0.127162, -0.000339009, 0.00132085, 0.000101215, -0.012524, -0.00173862, -0.0416397
0.0291794, 1.69125, -1.22958, -1.54137, -0.900751, -1.19267, 1.22717, -1.30249, 0.0120375, -0.0258948, -0.0776709, -0.0116478, -0.0219102, -0.0391126, -0.000924911, -0.76989, 60.8356, 30.4679, 6.84296, 2.24689, 4.07748, -0.10796, -1.07778e-05, -0.00234054, 0.00384148, 0.00538444, 0.00320878, 0.00146026, 0.0113507, 0.0132756, -0.0482711, -0.121737, -0.0192061, -0.0200479, 0.471006, -0.543382, 0.335894, -2.08384, -2.16584, -0.129892, 0.46853, -0.542897, 0.33217, -2.08087, -2.16039, -0.127025, -0.000369746, 0.00144407, 0.00011151, -0.0149648, -0.00287481, -0.0489141
0.0301794, 1.69127, -1.22963, -1.54147, -0.900772, -1.19271, 1.22713, -1.30248, 0.0156359, -0.0366536, -0.0808637, -0.0116558, -0.0257969, -0.0386089, 0.00267767, -0.809562, 60.2802, 29.722, 6.65649, 2.22858, 3.91269, -0.193104, -2.75796e-05, -0.00235427, 0.00391737, 0.0055433, 0.00324152, 0.00149477, 0.0123465, 0.0119512, -0.0558627, -0.127382, -0.0260136, -0.022613, 0.471006, -0.543381, 0.335894, -2.08384, -2.16584, -0.129893, 0.468514, -0.542902, 0.332093, -2.0808, -2.16027, -0.12688, -0.000401943, 0.00157338, 0.000122367, -0.0139127, -0.00250584, -0.0565938
0.0311794, 1.69128, -1.22967, -1.54158, -0.900797, -1.19275, 1.22709, -1.30248, 0.0126598, -0.0395615, -0.0921235, -0.0157115, -0.0293126, -0.0387856, 0.00212806, -0.734184, 59.6573, 29.0912, 6.5097, 2.23407, 3.76163, -0.199513, -4.7507e-05, -0.00237369, 0.00398837, 0.0057113, 0.00325909, 0.00153026, 0.015867, 0.0150679, -0.0619716, -0.140727, -0.0249939, -0.0278701, 0.471006, -0.54338, 0.335895, -2.08384, -2.16584, -0.129894, 0.468493, -0.54291, 0.332021, -2.08074, -2.16016, -0.126709, -0.00043562, 0.00170887, 0.000133799, -0.0171537, -0.00503307, -0.0630669
0.0321794, 1.69131, -1.22972, -1.54169, -0.900817, -1.19279, 1.22705, -1.30249, 0.013286, -0.0393687, -0.0928994, -0.014668, -0.0344078, -0.0400914, -0.00141822, -0.76989, 59.213, 28.4565, 6.32324, 2.17914, 3.64718, -0.120778, -6.20403e-05, -0.00238573, 0.00405943, 0.00587241, 0.00328308, 0.00154724, 0.0170513, 0.01588, -0.0621212, -0.144498, -0.0211478, -0.0265936, 0.471005, -0.543378, 0.335895, -2.08383, -2.16584, -0.129895, 0.468478, -0.542912, 0.331949, -2.08066, -2.16007, -0.126554, -0.000470796, 0.00185063, 0.00014582, -0.0179631, -0.00607058, -0.063362
0.0331794, 1.69133, -1.22975, -1.5418, -0.900838, -1.19284, 1.22701, -1.30248, 0.0161717, -0.0370005, -0.101383, -0.0169935, -0.0347338, -0.0373508, -0.000648725, -0.76989, 58.6972, 28.1589, 6.13678, 2.15442, 3.5538, -0.127186, -7.90697e-05, -0.00240036, 0.0041252, 0.00604804, 0.00328003, 0.00157952, 0.0171181, 0.0147983, -0.0639575, -0.151048, -0.0161559, -0.0265984, 0.471005, -0.543376, 0.335895, -2.08383, -2.16584, -0.129896, 0.468461, -0.542918, 0.331882, -2.0806, -2.15997, -0.126354, -0.000507488, 0.00199877, 0.000158442, -0.0169833, -0.00566143, -0.0652056
0.0341794, 1.69135, -1.22978, -1.54191, -0.900866, -1.19289, 1.22697, -1.30248, 0.0188459, -0.032372, -0.102624, -0.0220873, -0.0389565, -0.0400412, 0.000358049, -0.658806, 58.475, 27.8257, 6.09711, 2.11139, 3.46774, -0.147328, -9.49259e-05, -0.00241345, 0.00418974, 0.00621414, 0.00327862, 0.0016065, 0.0149644, 0.0134069, -0.0627395, -0.158888, -0.00863169, -0.0224905, 0.471004, -0.543375, 0.335895, -2.08383, -2.16584, -0.129898, 0.468446, -0.542922, 0.331816, -2.08054, -2.15987, -0.126168, -0.000545713, 0.00215336, 0.000171677, -0.015665, -0.00351104, -0.0636973
0.0351794, 1.69137, -1.22979, -1.54202, -0.900896, -1.19294, 1.22694, -1.30248, 0.0179559, -0.0240176, -0.104934, -0.0245286, -0.0412399, -0.037897, -0.00118595, -0.543754, 58.2172, 27.7146, 6.13678, 2.04364, 3.39633, -0.10796, -0.000108336, -0.00242364, 0.00424448, 0.0063757, 0.00325617, 0.00162579, 0.0151873, 0.0137581, -0.0587356, -0.160422, 0.00312779, -0.0216115, 0.471004, -0.543373, 0.335895, -2.08383, -2.16584, -0.129899, 0.468434, -0.542925, 0.33176, -2.08048, -2.1598, -0.125966, -0.000585484, 0.00231447, 0.000185536, -0.015903, -0.00420054, -0.0597539
0.0361794, 1.69139, -1.2298, -1.54212, -0.900927, -1.19299, 1.22692, -1.30248, 0.0179054, -0.0186787, -0.104891, -0.0259368, -0.0428348, -0.0315853, -0.000290859, -0.317619, 58.1458, 27.6392, 6.17248, 1.97681, 3.33133, -0.120778, -0.000121626, -0.0024332, 0.00429044, 0.00652624, 0.00321919, 0.00164802, 0.0154405, 0.0125535, -0.055211, -0.155853, 0.0131851, -0.0218232, 0.471003, -0.54337, 0.335895, -2.08383, -2.16584, -0.129901, 0.468423, -0.54293, 0.331713, -2.08044, -2.15974, -0.125761, -0.000626814, 0.0024822, 0.000200032, -0.014605, -0.00477601, -0.0563348
0.0371794, 1.69141, -1.2298, -1.54221, -0.900961, -1.19304, 1.22689, -1.30248, 0.0163182, -0.0142054, -0.102098, -0.0317074, -0.04315, -0.0291838, -0.000175113, -0.0161054, 58.2172, 27.6392, 6.28357, 1.87793, 3.33133, -0.120778, -0.000134677, -0.00244383, 0.00433133, 0.00667069, 0.00317763, 0.00167087, 0.0139378, 0.0113052, -0.0520828, -0.153577, 0.0195512, -0.0171831, 0.471003, -0.543368, 0.335896, -2.08382, -2.16584, -0.129903, 0.46841, -0.542934, 0.331671, -2.08041, -2.15969, -0.125558, -0.000669715, 0.00265659, 0.000215176, -0.0133421, -0.00354849, -0.0530351
0.0381794, 1.69141, -1.2298, -1.54221, -0.900961, -1.19304, 1.22689, -1.30248, 0.0163182, -0.0142054, -0.102098, -0.0317074, -0.04315, -0.0291838, -0.000175113, -0.0161054, 58.2172, 27.6392, 6.28357, 1.87793, 3.33133, -0.120778, -0.000137246, -0.00244329, 0.00433112, 0.00667004, 0.00317521, 0.00167199, 0.0141208, 0.0112677, -0.0520688, -0.153572, 0.019752, -0.0170582, 0.471002, -0.543365, 0.335896, -2.08382, -2.16584, -0.129904, 0.46841, -0.542934, 0.331671, -2.08041, -2.15969, -0.125558, -0.000714195, 0.00283772, 0.000230977, -0.0133421, -0.00354849, -0.0530351
0.0391794, 1.69141, -1.2298, -1.54221, -0.900961, -1.19304, 1.22689, -1.30248, 0.0163182, -0.0142054, -0.102098, -0.0317074, -0.04315, -0.0291838, -0.000175113, -0.0161054, 58.2172, 27.6392, 6.28357, 1.87793, 3.33133, -0.120778, -0.00014001, -0.0024427, 0.0043309, 0.00666934, 0.00317261, 0.0016732, 0.0143107, 0.0112289, -0.0520545, -0.153567, 0.0199602, -0.0169288, 0.471001, -0.543363, 0.335896, -2.08382, -2.16584, -0.129906, 0.46841, -0.542934, 0.331671, -2.08041, -2.15969, -0.125558, -0.000760263, 0.00302564, 0.000247448, -0.0133421, -0.00354849, -0.0530351
0.0401794, 1.69141, -1.2298, -1.54221, -0.900961, -1.19304, 1.22689, -1.30248, 0.0163182, -0.0142054, -0.102098, -0.0317074, -0.04315, -0.0291838, -0.000175113, -0.0161054, 58.2172, 27.6392, 6.28357, 1.87793, 3.33133, -0.120778, -0.000142973, -0.00244208, 0.00433066, 0.00666859, 0.00316982, 0.00167449, 0.0145074, 0.0111887, -0.0520397, -0.153562, 0.0201758, -0.0167949, 0.471001, -0.54336, 0.335896, -2.08381, -2.16584, -0.129908, 0.46841, -0.542934, 0.331671, -2.08041, -2.15969, -0.125558, -0.000807924, 0.0032204, 0.000264596, -0.0133421, -0.00354849, -0.0530351
0.0411794, 1.69142, -1.22975, -1.54256, -0.901128, -1.19327, 1.22679, -1.30248, 0.00215037, 0.00708218, -0.0888009, -0.0409823, -0.0566885, -0.0243551, 0.00181005, 1.83265, 59.5462, 28.7937, 7.02942, 1.69391, 3.96213, -0.0685925, -0.000190824, -0.00250048, 0.00445776, 0.00724202, 0.00294354, 0.00175556, 0.0167366, 0.0157104, -0.034904, -0.144431, 0.0545645, -0.0230714, 0.471, -0.543357, 0.335896, -2.08381, -2.16584, -0.129911, 0.468348, -0.542961, 0.331541, -2.0803, -2.15951, -0.124689, -0.000857184, 0.00342203, 0.000282433, -0.0172089, -0.00837043, -0.0363069
0.0421794, 1.69142, -1.22973, -1.54263, -0.901165, -1.19333, 1.22679, -1.30248, 0.0027975, 0.00972178, -0.0827884, -0.0370852, -0.0579691, -0.0198545, 0.000954211, 2.28492, 60.0977, 29.2777, 7.06909, 1.72504, 4.03445, -0.0557752, -0.000207635, -0.00251217, 0.00447799, 0.00735453, 0.00286653, 0.00177799, 0.0170568, 0.0144742, -0.0303078, -0.133881, 0.0599975, -0.0224419, 0.470999, -0.543353, 0.335897, -2.08381, -2.16584, -0.129913, 0.468336, -0.542972, 0.331519, -2.0803, -2.15948, -0.124486, -0.000908043, 0.00363059, 0.000300968, -0.0158476, -0.0091349, -0.031837
0.0431794, 1.69143, -1.22972, -1.5427, -0.90121, -1.1934, 1.22678, -1.30248, 0.0028806, 0.00971441, -0.079853, -0.0383377, -0.0636709, -0.0155343, -0.00116388, 2.62611, 60.7602, 29.8371, 7.14447, 1.75525, 4.07748, -0.00267457, -0.000222327, -0.00252159, 0.00450139, 0.00747059, 0.00279278, 0.00178786, 0.0178407, 0.0134367, -0.029057, -0.130816, 0.0669526, -0.0194862, 0.470998, -0.54335, 0.335897, -2.0838, -2.16584, -0.129916, 0.468325, -0.542979, 0.331494, -2.08028, -2.15947, -0.124285, -0.000960503, 0.00384608, 0.000320207, -0.0147908, -0.00984328, -0.0307357
0.0441794, 1.69143, -1.2297, -1.54278, -0.901245, -1.19347, 1.22677, -1.30247, 0.00317017, 0.0109364, -0.0787155, -0.0390245, -0.0693755, -0.0129867, 0.00179049, 2.81654, 61.387, 30.4679, 7.06909, 1.82941, 4.13424, -0.0685925, -0.000240262, -0.00253249, 0.00452403, 0.00759096, 0.00271081, 0.00182308, 0.0187828, 0.0130753, -0.0278046, -0.130533, 0.0743582, -0.0227803, 0.470997, -0.543346, 0.335897, -2.0838, -2.16584, -0.129919, 0.468313, -0.54299, 0.331469, -2.08029, -2.15943, -0.124068, -0.00101456, 0.00406854, 0.000340161, -0.014405, -0.0107288, -0.0296363
0.0451794, 1.69144, -1.2297, -1.54284, -0.901281, -1.19354, 1.22676, -1.30247, 0.000789156, 0.0126403, -0.0756858, -0.0389543, -0.068887, -0.0127838, 0.00227076, 2.96729, 62.1249, 31.0273, 6.95801, 1.90906, 4.23495, -0.0951428, -0.000257476, -0.00254302, 0.00454882, 0.00770652, 0.00264055, 0.00184826, 0.0192338, 0.0137827, -0.0255574, -0.126921, 0.0757304, -0.0239329, 0.470996, -0.543342, 0.335898, -2.08379, -2.16583, -0.129921, 0.468301, -0.543, 0.331443, -2.08029, -2.1594, -0.123869, -0.00107022, 0.00429798, 0.000360835, -0.0150699, -0.0113195, -0.0274454
0.0461794, 1.69145, -1.22968, -1.5429, -0.901309, -1.19361, 1.22675, -1.30248, 0.00534695, 0.0190059, -0.072241, -0.0363838, -0.071574, -0.0130582, -0.000382535, 2.96729, 62.6764, 31.547, 6.73187, 1.95209, 4.34939, -0.0420422, -0.000272969, -0.00255323, 0.00456367, 0.00782093, 0.00255641, 0.00186202, 0.0174282, 0.0116057, -0.0204778, -0.124345, 0.0841003, -0.0182492, 0.470995, -0.543338, 0.335898, -2.08379, -2.16583, -0.129925, 0.46829, -0.543009, 0.331426, -2.08028, -2.15939, -0.123659, -0.00112746, 0.0045344, 0.000382238, -0.012834, -0.00999346, -0.0221937
0.0471794, 1.69145, -1.22967, -1.54296, -0.901338, -1.19369, 1.22673, -1.30248, 0.00423225, 0.0131048, -0.0655836, -0.0351401, -0.0795736, -0.0139806, -0.000677006, 3.003, 63.4103, 32.031, 6.5097, 2.02533, 4.48581, -0.0292249, -0.000293948, -0.00256725, 0.00458592, 0.0079379, 0.00247968, 0.00189279, 0.0191822, 0.0122447, -0.0214148, -0.122776, 0.0840146, -0.0193276, 0.470994, -0.543333, 0.335898, -2.08379, -2.16583, -0.129928, 0.468275, -0.543022, 0.331402, -2.08029, -2.15935, -0.123452, -0.00118629, 0.0047778, 0.000404375, -0.0135022, -0.0113634, -0.0233499
0.0481794, 1.69144, -1.22967, -1.54302, -0.901378, -1.19377, 1.22672, -1.30247, 0.0030206, 0.00928154, -0.0607375, -0.0355923, -0.0802977, -0.0132175, 0.00104628, 3.04267, 64.2593, 32.515, 6.47003, 2.08118, 4.58652, -0.0685925, -0.000316159, -0.00258157, 0.00461355, 0.00805738, 0.00240606, 0.00192533, 0.0194066, 0.0117869, -0.021859, -0.11855, 0.0811482, -0.0195129, 0.470993, -0.543328, 0.335899, -2.08378, -2.16583, -0.129931, 0.468259, -0.543036, 0.331372, -2.08029, -2.15931, -0.123245, -0.00124669, 0.00502817, 0.000427252, -0.0131134, -0.0112473, -0.0238142
0.0491794, 1.69145, -1.22965, -1.54307, -0.901405, -1.19386, 1.22671, -1.30247, 0.0037871, 0.0129701, -0.0561032, -0.0322582, -0.0852508, -0.0151746, 0.0012019, 3.003, 64.8505, 32.8126, 6.28357, 2.13611, 4.62955, -0.0814099, -0.000336769, -0.00259387, 0.00462674, 0.0081608, 0.00231649, 0.00195574, 0.0197967, 0.0122091, -0.0177702, -0.116723, 0.0876377, -0.0211664, 0.470992, -0.543323, 0.335899, -2.08377, -2.16583, -0.129935, 0.468246, -0.54305, 0.331357, -2.08031, -2.15929, -0.12304, -0.00130866, 0.00528549, 0.000450875, -0.0134353, -0.012022, -0.0198012
0.0501794, 1.69145, -1.22965, -1.54313, -0.901436, -1.19395, 1.2267, -1.30247, -0.00233201, 0.00578558, -0.0554716, -0.0326218, -0.0890547, -0.0163271, 0.000823514, 2.96729, 65.5844, 33.2212, 6.20819, 2.19104, 4.65793, -0.0814099, -0.000358716, -0.00260582, 0.00464893, 0.00827698, 0.0022314, 0.00198378, 0.0238196, 0.0159134, -0.0215771, -0.118757, 0.0830968, -0.0271424, 0.47099, -0.543318, 0.3359, -2.08377, -2.16583, -0.129939, 0.468233, -0.543063, 0.331332, -2.08031, -2.15926, -0.122827, -0.00137217, 0.00554973, 0.000475247, -0.0171919, -0.0152946, -0.0240488
0.0511794, 1.69145, -1.22965, -1.54318, -0.901472, -1.19404, 1.22669, -1.30248, -0.00160633, 0.0036648, -0.0534677, -0.0353725, -0.0948684, -0.0121779, 0.00356725, 2.96729, 66.3223, 33.5584, 6.24786, 2.19745, 4.67257, -0.0356336, -0.000382844, -0.00261895, 0.00467258, 0.00838993, 0.0021462, 0.00200774, 0.0243194, 0.014341, -0.0221512, -0.117699, 0.0882468, -0.0275007, 0.470989, -0.543313, 0.3359, -2.08376, -2.16583, -0.129943, 0.468218, -0.543078, 0.331306, -2.08031, -2.15924, -0.122617, -0.00143722, 0.00582086, 0.000500373, -0.0156894, -0.0153641, -0.0247157
0.0521794, 1.69146, -1.22964, -1.54324, -0.901505, -1.19414, 1.22667, -1.30247, 0.000653606, 0.00296616, -0.0535036, -0.0369061, -0.0897008, -0.0110552, 0.00424016, 2.89191, 67.0206, 33.8202, 6.28357, 2.19745, 4.73666, -0.0750012, -0.000404481, -0.0026306, 0.00469505, 0.00850781, 0.00206175, 0.00203777, 0.022312, 0.0118801, -0.0227892, -0.115471, 0.084396, -0.0226871, 0.470987, -0.543307, 0.335901, -2.08376, -2.16583, -0.129947, 0.468205, -0.543091, 0.331281, -2.08032, -2.15921, -0.122402, -0.00150377, 0.00609884, 0.000526256, -0.0133931, -0.0129051, -0.0250823
0.0531794, 1.69146, -1.22963, -1.54328, -0.901542, -1.19424, 1.22666, -1.30247, 0.0013347, 0.00660072, -0.0511046, -0.0367019, -0.0918216, -0.0143487, 0.00360444, 2.85224, 67.5363, 33.967, 6.39465, 2.22858, 4.78702, -0.0878186, -0.000425441, -0.00264202, 0.0047106, 0.00862306, 0.00196267, 0.00206258, 0.0216082, 0.0119689, -0.020068, -0.116911, 0.0882874, -0.021003, 0.470986, -0.543301, 0.335901, -2.08375, -2.16583, -0.129951, 0.468192, -0.543104, 0.331263, -2.08033, -2.15919, -0.122176, -0.00157182, 0.00638361, 0.000552899, -0.0134767, -0.0123481, -0.0222569
0.0541794, 1.69146, -1.22963, -1.54333, -0.901575, -1.19434, 1.22664, -1.30248, 0.000868006, 0.00683495, -0.0476459, -0.0354754, -0.0910251, -0.012647, 0.000697389, 2.85224, 68.0164, 34.1535, 6.47003, 2.20386, 4.8511, -0.0356336, -0.000450753, -0.00265785, 0.00472839, 0.00873895, 0.00186927, 0.00209033, 0.0217569, 0.0114338, -0.0183404, -0.111344, 0.0886758, -0.0175122, 0.470984, -0.543294, 0.335902, -2.08374, -2.16583, -0.129956, 0.468175, -0.54312, 0.331243, -2.08034, -2.15917, -0.121955, -0.00164135, 0.0066751, 0.000580303, -0.0129441, -0.0124475, -0.0205629
0.0551794, 1.69146, -1.22961, -1.54338, -0.901614, -1.19444, 1.22662, -1.30248, 0.000562325, 0.00931483, -0.0504078, -0.0370694, -0.0952775, -0.0102845, -7.67434e-05, 2.85224, 68.3853, 34.3043, 6.65649, 2.17273, 4.88681, -0.0164075, -0.000473309, -0.00267093, 0.00474448, 0.0088616, 0.00176563, 0.0021145, 0.0231559, 0.0117758, -0.0178337, -0.114176, 0.0964283, -0.0182342, 0.470983, -0.543288, 0.335902, -2.08374, -2.16583, -0.12996, 0.468161, -0.543134, 0.331225, -2.08034, -2.15915, -0.121717, -0.00171231, 0.00697325, 0.000608468, -0.0132882, -0.0136224, -0.0202415
0.0561794, 1.69147, -1.2296, -1.54343, -0.901658, -1.19455, 1.22661, -1.30247, 0.00816687, 0.00862962, -0.0519832, -0.0396371, -0.0986836, -0.00884807, 0.00224678, 2.77686, 68.7146, 34.4153, 6.91833, 2.14252, 4.92984, -0.0750012, -0.000491453, -0.00267911, 0.00476185, 0.00898737, 0.00166296, 0.00213557, 0.020549, 0.0072632, -0.0193991, -0.118344, 0.100181, -0.0124692, 0.470981, -0.543281, 0.335903, -2.08373, -2.16582, -0.129965, 0.468151, -0.543142, 0.331205, -2.08034, -2.15914, -0.121476, -0.00178469, 0.00727797, 0.000637396, -0.00900368, -0.0103181, -0.0214897
0.0571794, 1.69147, -1.22959, -1.54347, -0.901696, -1.19466, 1.22659, -1.30247, 0.00770204, 0.00625502, -0.0450904, -0.0395174, -0.101523, -0.00755358, 0.00159371, 2.70148, 68.9725, 34.451, 7.1048, 2.1178, 4.96646, -0.0750012, -0.000511385, -0.00268803, 0.00477846, 0.00910972, 0.00156031, 0.00215431, 0.0205927, 0.00630299, -0.0181758, -0.112566, 0.100658, -0.00975717, 0.470979, -0.543273, 0.335904, -2.08372, -2.16582, -0.129971, 0.46814, -0.543152, 0.331187, -2.08034, -2.15913, -0.12124, -0.00185846, 0.00758918, 0.000667086, -0.0080727, -0.010199, -0.0202878
0.0581794, 1.69149, -1.22958, -1.54352, -0.901727, -1.19477, 1.22656, -1.30248, 0.0120873, 0.0065529, -0.0483097, -0.0359499, -0.103713, -0.0120571, -0.0015444, 2.55073, 69.1193, 34.5621, 7.14447, 2.09308, 5.02322, -0.00267457, -0.00053188, -0.00269716, 0.00479502, 0.0092412, 0.00145383, 0.00216933, 0.0206299, 0.00622773, -0.0192353, -0.119266, 0.100902, -0.00749079, 0.470977, -0.543266, 0.335904, -2.08371, -2.16582, -0.129976, 0.468129, -0.543163, 0.331168, -2.08033, -2.15912, -0.120991, -0.00193359, 0.00790677, 0.000697537, -0.0081096, -0.0097517, -0.0213118
0.0591794, 1.6915, -1.22958, -1.54357, -0.901766, -1.19488, 1.22654, -1.30247, 0.00951883, 0.00297534, -0.0468121, -0.0390595, -0.1057, -0.0161937, 7.66111e-06, 2.51106, 69.4168, 34.6375, 7.29126, 2.08118, 5.10196, -0.0292249, -0.000554497, -0.0027086, 0.0048193, 0.00937852, 0.00135776, 0.0021979, 0.0211494, 0.00756702, -0.0214355, -0.123834, 0.0973665, -0.00850843, 0.470975, -0.543258, 0.335905, -2.0837, -2.16582, -0.129982, 0.468116, -0.543174, 0.331142, -2.08033, -2.15909, -0.120744, -0.00201003, 0.00823062, 0.000728745, -0.00958447, -0.00965656, -0.0234934
0.0601794, 1.69151, -1.22958, -1.54362, -0.901794, -1.195, 1.22651, -1.30247, 0.0107164, 0.000306855, -0.0446422, -0.0371426, -0.110902, -0.0134702, 0.00102889, 2.47535, 69.7104, 34.6732, 7.25555, 2.05646, 5.15231, -0.0557752, -0.000579313, -0.00272006, 0.00484783, 0.00951378, 0.00127202, 0.00222975, 0.022627, 0.00691235, -0.0217687, -0.121481, 0.100425, -0.0104355, 0.470973, -0.54325, 0.335906, -2.08369, -2.16582, -0.129988, 0.468102, -0.543186, 0.331111, -2.08033, -2.15905, -0.12051, -0.00208776, 0.00856062, 0.000760709, -0.00896748, -0.0107069, -0.0240398
0.0611794, 1.69153, -1.22958, -1.54367, -0.90183, -1.19511, 1.22648, -1.30247, 0.0116923, 0.000224832, -0.0424183, -0.0345138, -0.115161, -0.0196224, 0.000444988, 2.43568, 69.7858, 34.6732, 7.29126, 2.02533, 5.16696, -0.0484509, -0.000599561, -0.00272695, 0.00487017, 0.00964845, 0.00117188, 0.00224609, 0.0230601, 0.00809834, -0.021215, -0.12576, 0.100818, -0.0113301, 0.470971, -0.543241, 0.335906, -2.08369, -2.16582, -0.129994, 0.468093, -0.543195, 0.331087, -2.08031, -2.15904, -0.120264, -0.00216672, 0.00889664, 0.000793423, -0.0101954, -0.0109322, -0.0234921
0.0621794, 1.69154, -1.22958, -1.54372, -0.90187, -1.19523, 1.22646, -1.30248, 0.0116409, 0.00298379, -0.0444839, -0.0366598, -0.113667, -0.0225307, -0.00185073, 2.43568, 69.8572, 34.6732, 7.36664, 1.99512, 5.13766, 0.0101428, -0.000622226, -0.00273453, 0.0048964, 0.00978304, 0.0010736, 0.00225812, 0.0223714, 0.00836558, -0.0208424, -0.130152, 0.101582, -0.00753465, 0.470969, -0.543232, 0.335907, -2.08368, -2.16582, -0.13, 0.468083, -0.543204, 0.331058, -2.0803, -2.15902, -0.120021, -0.0022469, 0.00923859, 0.000826888, -0.0105536, -0.00997848, -0.0229758
0.0631794, 1.69155, -1.22958, -1.54377, -0.901908, -1.19534, 1.22644, -1.30247, 0.00897614, 0.00242109, -0.0416945, -0.0374245, -0.107756, -0.0245873, 0.00122464, 2.55073, 69.8929, 34.6375, 7.40631, 1.95758, 5.10196, -0.0557752, -0.000646473, -0.00274457, 0.00492056, 0.00991441, 0.000976589, 0.00228797, 0.0217672, 0.00882681, -0.0203075, -0.126715, 0.0953523, -0.00902283, 0.470967, -0.543223, 0.335908, -2.08367, -2.16581, -0.130006, 0.468071, -0.543216, 0.331032, -2.0803, -2.159, -0.119781, -0.00232828, 0.00958644, 0.000861108, -0.0110979, -0.00913531, -0.0223058
0.0641794, 1.69156, -1.22958, -1.54381, -0.901948, -1.19546, 1.22641, -1.30247, 0.00904262, 0.00423483, -0.0423725, -0.0379046, -0.107962, -0.0220711, 0.000320598, 2.58643, 69.8215, 34.5621, 7.44202, 1.92096, 5.07358, -0.0420422, -0.00066618, -0.0027516, 0.00494173, 0.0100472, 0.000879526, 0.00229711, 0.0222335, 0.00832972, -0.019306, -0.125281, 0.0990455, -0.00782723, 0.470965, -0.543213, 0.335909, -2.08366, -2.16581, -0.130013, 0.468062, -0.543222, 0.331009, -2.08027, -2.15899, -0.119542, -0.00241084, 0.00994017, 0.000896084, -0.0106311, -0.00937574, -0.0213696
0.0651794, 1.69157, -1.22959, -1.54386, -0.901985, -1.19557, 1.22638, -1.30247, 0.0073633, 0.000937513, -0.0478427, -0.0367314, -0.108975, -0.0278467, -0.000488749, 2.70148, 69.9326, 34.5621, 7.40631, 1.90906, 5.12393, -0.0228162, -0.000690661, -0.00276365, 0.00497237, 0.0101924, 0.000795553, 0.00232038, 0.024714, 0.011559, -0.0233993, -0.134999, 0.0943061, -0.0123645, 0.470962, -0.543204, 0.33591, -2.08365, -2.16581, -0.13002, 0.468047, -0.543232, 0.330976, -2.08025, -2.15895, -0.119301, -0.00249458, 0.0102997, 0.000931821, -0.013999, -0.0109663, -0.0256637
0.0661794, 1.69159, -1.22958, -1.5439, -0.902023, -1.19568, 1.22634, -1.30247, 0.00630927, 0.00375803, -0.0477974, -0.0390006, -0.106687, -0.0283853, -0.00106462, 2.81654, 69.8215, 34.5264, 7.36664, 1.93927, 5.20267, -0.00267457, -0.000710176, -0.00277397, 0.00499088, 0.0103354, 0.000697974, 0.00233578, 0.0241056, 0.0114581, -0.0220036, -0.135009, 0.0955278, -0.00988083, 0.47096, -0.543193, 0.335911, -2.08363, -2.16581, -0.130028, 0.468034, -0.543239, 0.330956, -2.08023, -2.15893, -0.119049, -0.00257947, 0.0106651, 0.000968322, -0.0139544, -0.0102111, -0.0241577
0.0671794, 1.69161, -1.22957, -1.54396, -0.902052, -1.19579, 1.22629, -1.30247, 0.0136893, 0.0117209, -0.053885, -0.0343056, -0.10863, -0.033308, 0.000753713, 2.85224, 69.7104, 34.6018, 7.18018, 1.95209, 5.2814, -0.0420422, -0.000731945, -0.00278435, 0.00501351, 0.0104829, 0.00060476, 0.00236353, 0.0230121, 0.0106425, -0.0195992, -0.143749, 0.103271, -0.0120422, 0.470957, -0.543183, 0.335912, -2.08362, -2.16581, -0.130035, 0.468021, -0.543247, 0.330932, -2.08022, -2.1589, -0.118797, -0.00266552, 0.0110363, 0.00100559, -0.0131781, -0.00909737, -0.0216012
0.0681794, 1.69163, -1.22955, -1.544, -0.902093, -1.19591, 1.22625, -1.30247, 0.016943, 0.0155, -0.0503622, -0.0378517, -0.10714, -0.0344837, 0.000269165, 2.85224, 69.4168, 34.4867, 7.14447, 2.00702, 5.29605, -0.0356336, -0.000746267, -0.00278949, 0.00502388, 0.0106242, 0.000493303, 0.002369, 0.0194176, 0.0074382, -0.0168655, -0.142831, 0.105843, -0.00289668, 0.470954, -0.543172, 0.335913, -2.08361, -2.1658, -0.130043, 0.468014, -0.543248, 0.33092, -2.08019, -2.1589, -0.118535, -0.00275269, 0.0114132, 0.00104363, -0.0100951, -0.00546165, -0.0184023
0.0691794, 1.69164, -1.22953, -1.54405, -0.902127, -1.19601, 1.22621, -1.30247, 0.0174058, 0.0161443, -0.0484202, -0.0353526, -0.104036, -0.0336516, 0.00339929, 2.92762, 69.1946, 34.5264, 7.02942, 2.01343, 5.26034, 0.00373412, -0.000766467, -0.00279883, 0.00503896, 0.0107654, 0.000389036, 0.00238389, 0.0193539, 0.00682508, -0.0153789, -0.13777, 0.104464, -0.00555995, 0.470952, -0.54316, 0.335914, -2.0836, -2.1658, -0.130051, 0.468002, -0.543255, 0.330904, -2.08017, -2.15888, -0.118279, -0.00284098, 0.0117958, 0.00108244, -0.00951958, -0.00521991, -0.0169044
0.0701794, 1.69167, -1.22952, -1.5441, -0.902158, -1.19613, 1.22618, -1.30247, 0.0173596, 0.0154922, -0.0445816, -0.0317891, -0.103001, -0.0360957, 0.00364139, 2.89191, 69.0121, 34.6018, 6.84296, 2.05646, 5.18069, -0.0228162, -0.00078627, -0.00280472, 0.00505671, 0.0109093, 0.000282812, 0.00240322, 0.0196281, 0.00720785, -0.0140888, -0.134384, 0.101628, -0.00652686, 0.470949, -0.543148, 0.335915, -2.08359, -2.1658, -0.130059, 0.467993, -0.54326, 0.330884, -2.08016, -2.15887, -0.118019, -0.00293038, 0.0121842, 0.00112203, -0.00993473, -0.00531672, -0.0156222
0.0711794, 1.69169, -1.2295, -1.54415, -0.902188, -1.19624, 1.22614, -1.30246, 0.0218414, 0.0158705, -0.0467953, -0.0304815, -0.106471, -0.038768, 0.00512898, 2.92762, 68.79, 34.6375, 6.69617, 2.08667, 5.10928, -0.0878186, -0.000806859, -0.00281293, 0.00507055, 0.0110489, 0.00017648, 0.00242986, 0.0192616, 0.0061935, -0.0148987, -0.140278, 0.104151, -0.00671564, 0.470946, -0.543136, 0.335916, -2.08357, -2.1658, -0.130068, 0.467982, -0.543266, 0.330869, -2.08015, -2.15884, -0.117763, -0.00302087, 0.0125781, 0.0011624, -0.00905459, -0.00439421, -0.0163554
0.0721794, 1.69172, -1.22948, -1.54419, -0.902211, -1.19635, 1.2261, -1.30247, 0.0246394, 0.015201, -0.0445798, -0.0254743, -0.108276, -0.0411025, 0.00340238, 2.85224, 68.6035, 34.6375, 6.5097, 2.09949, 5.04519, -0.0814099, -0.000824845, -0.00281664, 0.00508226, 0.0111855, 6.76057e-05, 0.00244323, 0.0196257, 0.00588917, -0.0141283, -0.1393, 0.103758, -0.00589045, 0.470943, -0.543124, 0.335917, -2.08356, -2.16579, -0.130077, 0.467976, -0.54327, 0.330856, -2.08014, -2.15883, -0.117509, -0.00311245, 0.0129778, 0.00120355, -0.00880126, -0.00446013, -0.0156195
0.0731794, 1.69174, -1.22948, -1.54423, -0.902237, -1.19646, 1.22606, -1.30247, 0.0238044, 0.0111635, -0.0430885, -0.0258381, -0.109476, -0.0384884, 0.000738141, 2.89191, 68.5678, 34.6375, 6.35895, 2.10498, 4.98752, -0.0356336, -0.000846907, -0.00282401, 0.0051013, 0.0113235, -2.75777e-05, 0.00246122, 0.0208658, 0.00551897, -0.0157278, -0.136638, 0.10235, -0.00305719, 0.47094, -0.543111, 0.335918, -2.08355, -2.16579, -0.130086, 0.467965, -0.543276, 0.330835, -2.08012, -2.15881, -0.117267, -0.00320508, 0.013383, 0.00124549, -0.00853752, -0.00501718, -0.017361
0.0741794, 1.69177, -1.22947, -1.54427, -0.90225, -1.19658, 1.22602, -1.30247, 0.0286908, 0.00842328, -0.0384587, -0.0213217, -0.110471, -0.0445569, -0.000333358, 2.81654, 68.5321, 34.6375, 6.13678, 2.11139, 4.89413, -0.00999879, -0.000869042, -0.00282682, 0.005117, 0.0114509, -0.000129868, 0.00247651, 0.0193096, 0.0040556, -0.0158219, -0.137144, 0.0973602, 0.00107564, 0.470937, -0.543097, 0.33592, -2.08353, -2.16579, -0.130095, 0.467959, -0.543282, 0.330817, -2.0801, -2.1588, -0.11703, -0.00329877, 0.0137938, 0.00128822, -0.00722893, -0.00299531, -0.0172137
0.0751794, 1.69181, -1.22946, -1.54432, -0.902266, -1.19669, 1.22599, -1.30246, 0.0285438, 0.00805133, -0.041773, -0.0205811, -0.116019, -0.0444567, 0.00251561, 2.77686, 68.5678, 34.6375, 6.02173, 2.1178, 4.80075, -0.0814099, -0.000890905, -0.00282844, 0.00513419, 0.0115789, -0.000231824, 0.00250423, 0.0218419, 0.0054209, -0.017056, -0.142171, 0.102198, -0.00572941, 0.470933, -0.543083, 0.335921, -2.08352, -2.16579, -0.130105, 0.467955, -0.543287, 0.330798, -2.0801, -2.15878, -0.116792, -0.00339351, 0.0142102, 0.00133174, -0.00864095, -0.00494431, -0.0187414
0.0761794, 1.69184, -1.22946, -1.54436, -0.902278, -1.19681, 1.22595, -1.30246, 0.0326507, 0.00571299, -0.0415256, -0.0146589, -0.114665, -0.0399694, 0.00225544, 2.70148, 68.5678, 34.6732, 5.95032, 2.09949, 4.70828, -0.0951428, -0.000913215, -0.00283008, 0.00515116, 0.0117099, -0.000334531, 0.0025261, 0.022565, 0.00329386, -0.0173231, -0.135425, 0.101057, -0.00569857, 0.47093, -0.543069, 0.335922, -2.0835, -2.16578, -0.130115, 0.46795, -0.543292, 0.330779, -2.08009, -2.15876, -0.116551, -0.00348927, 0.0146321, 0.00137605, -0.00659611, -0.00510759, -0.0191377
0.0771794, 1.69188, -1.22946, -1.5444, -0.90229, -1.19693, 1.22591, -1.30247, 0.0353046, 0.00373012, -0.039025, -0.011729, -0.119142, -0.0388847, -0.000410757, 2.62611, 68.7146, 34.6018, 5.95032, 2.11139, 4.67257, -0.0420422, -0.000936398, -0.00283095, 0.00517064, 0.0118395, -0.000434373, 0.00253842, 0.0233511, 0.00220218, -0.0172081, -0.133542, 0.103421, -0.0029524, 0.470926, -0.543055, 0.335924, -2.08349, -2.16578, -0.130125, 0.467946, -0.543298, 0.330758, -2.08007, -2.15875, -0.116316, -0.00358604, 0.0150594, 0.00142116, -0.00557019, -0.00542882, -0.0191344
0.0781794, 1.69192, -1.22945, -1.54444, -0.902296, -1.19705, 1.22588, -1.30246, 0.0372493, 0.00377428, -0.0377738, -0.00835862, -0.1225, -0.0433501, 0.000986094, 2.55073, 68.6789, 34.5621, 5.91064, 2.13611, 4.65793, -0.0750012, -0.000959217, -0.00283042, 0.00518459, 0.0119637, -0.000541958, 0.00256177, 0.0238608, 0.00275871, -0.0167209, -0.13656, 0.104182, -0.00564317, 0.470923, -0.543039, 0.335925, -2.08347, -2.16578, -0.130135, 0.467943, -0.543303, 0.330742, -2.08007, -2.15873, -0.116077, -0.00368381, 0.0154923, 0.00146708, -0.00618779, -0.00559687, -0.0186703
0.0791794, 1.69196, -1.22945, -1.54448, -0.902298, -1.19718, 1.22584, -1.30246, 0.0369902, 0.00285542, -0.0409727, -0.0066729, -0.125324, -0.0381927, 0.00116154, 2.55073, 68.6789, 34.6732, 5.91064, 2.14801, 4.67257, -0.0878186, -0.000988535, -0.00283589, 0.00520313, 0.0120962, -0.000648231, 0.00259639, 0.0267591, 0.00312796, -0.0176664, -0.135402, 0.108661, -0.00970902, 0.470919, -0.543024, 0.335926, -2.08345, -2.16578, -0.130146, 0.467934, -0.543314, 0.330721, -2.08007, -2.1587, -0.11583, -0.00378258, 0.0159305, 0.0015138, -0.00658545, -0.00788878, -0.0199971
0.0801794, 1.692, -1.22945, -1.54453, -0.902303, -1.1973, 1.22581, -1.30246, 0.0395498, -0.000440415, -0.0413609, -0.00787242, -0.12728, -0.043078, 8.43469e-05, 2.43568, 68.79, 34.7129, 6.02173, 2.16083, 4.67898, -0.0685925, -0.0010135, -0.00283355, 0.00522589, 0.0122298, -0.000751897, 0.0026138, 0.0259759, 0.0024702, -0.0204301, -0.142107, 0.10526, -0.00554784, 0.470915, -0.543008, 0.335928, -2.08344, -2.16577, -0.130157, 0.467933, -0.543319, 0.330696, -2.08005, -2.15869, -0.115587, -0.00388232, 0.0163742, 0.00156132, -0.00615639, -0.00621834, -0.0225767
0.0811794, 1.69205, -1.22945, -1.54457, -0.902303, -1.19743, 1.22578, -1.30247, 0.0445754, -0.00177323, -0.040409, -0.00763054, -0.123433, -0.0408372, -0.00114792, 2.32459, 68.8614, 34.7129, 6.09711, 2.15442, 4.65793, -0.0356336, -0.00104018, -0.00282932, 0.00524614, 0.0123507, -0.000860247, 0.0026315, 0.023676, -0.00142227, -0.0208909, -0.138277, 0.102474, 0.00249683, 0.470911, -0.542992, 0.335929, -2.08342, -2.16577, -0.130169, 0.467933, -0.543325, 0.330673, -2.08004, -2.15868, -0.115353, -0.00398302, 0.0168232, 0.00160966, -0.00246892, -0.00326745, -0.0227435
0.0821794, 1.6921, -1.22945, -1.54461, -0.90231, -1.19756, 1.22577, -1.30246, 0.0423615, -0.00103904, -0.0406349, -0.00991299, -0.125202, -0.0314789, 0.00145118, 2.32459, 68.8614, 34.7486, 6.28357, 2.14801, 4.54989, -0.0951428, -0.00106891, -0.00282538, 0.00526397, 0.0124681, -0.000981199, 0.00266334, 0.0257478, -0.00223636, -0.0199023, -0.131805, 0.109936, -0.000679779, 0.470907, -0.542975, 0.335931, -2.0834, -2.16577, -0.13018, 0.467933, -0.543334, 0.330653, -2.08006, -2.15867, -0.115109, -0.00408468, 0.0172776, 0.00165881, -0.00164727, -0.00497708, -0.0220655
0.0831794, 1.69215, -1.22946, -1.54466, -0.902312, -1.1977, 1.22576, -1.30246, 0.0466436, -0.00318381, -0.0455764, -0.00732779, -0.126248, -0.0190338, 0.000705494, 2.20954, 68.9725, 34.8597, 6.43433, 2.12421, 4.4144, -0.0878186, -0.0010988, -0.00281763, 0.00529026, 0.0125878, -0.00109504, 0.00268497, 0.0278047, -0.00547096, -0.0216763, -0.125395, 0.115564, -0.00029866, 0.470903, -0.542958, 0.335933, -2.08338, -2.16576, -0.130192, 0.467937, -0.543342, 0.330624, -2.08006, -2.15866, -0.114871, -0.00418727, 0.0177373, 0.00170878, 0.00149022, -0.00614067, -0.0241853
0.0841794, 1.6922, -1.22948, -1.54471, -0.902308, -1.19783, 1.22575, -1.30246, 0.0489113, -0.00723895, -0.0443403, -0.00432382, -0.126446, -0.0162088, -0.000472124, 2.13416, 69.1946, 34.8993, 6.54541, 2.08667, 4.32101, -0.0621838, -0.00112948, -0.00280829, 0.00531729, 0.0126975, -0.00120258, 0.00270393, 0.0286049, -0.00694945, -0.0230553, -0.121189, 0.113328, 0.00141516, 0.470899, -0.54294, 0.335934, -2.08336, -2.16576, -0.130204, 0.467942, -0.54335, 0.330594, -2.08005, -2.15865, -0.114651, -0.00429078, 0.0182023, 0.00175956, 0.00284212, -0.00619154, -0.0256656
0.0851794, 1.69226, -1.22949, -1.54474, -0.902303, -1.19796, 1.22574, -1.30246, 0.0527742, -0.0153729, -0.0441645, -0.000392975, -0.127483, -0.0157232, -0.000309513, 2.09846, 69.3771, 34.824, 6.58508, 2.07477, 4.27066, -0.0621838, -0.00116082, -0.0027991, 0.00533978, 0.0128009, -0.00131604, 0.00272658, 0.0294882, -0.00847645, -0.0273654, -0.12049, 0.106616, 0.00185442, 0.470895, -0.542922, 0.335936, -2.08334, -2.16576, -0.130217, 0.467948, -0.543358, 0.330568, -2.08006, -2.15865, -0.114432, -0.00439521, 0.0186725, 0.00181117, 0.00413833, -0.00586469, -0.0300537
0.0861794, 1.69232, -1.22951, -1.5448, -0.902302, -1.19808, 1.22574, -1.30245, 0.0566137, -0.014258, -0.045908, 0.000823534, -0.127235, -0.0163612, 0.00620297, 2.02308, 69.5279, 34.9708, 6.69617, 2.03174, 4.2496, -0.10796, -0.00119028, -0.00278647, 0.00536853, 0.0129167, -0.00142747, 0.00274893, 0.028774, -0.0100271, -0.0273818, -0.122335, 0.107913, -0.00240967, 0.47089, -0.542903, 0.335938, -2.08332, -2.16575, -0.13023, 0.467956, -0.543364, 0.330536, -2.08006, -2.15864, -0.114202, -0.00450054, 0.019148, 0.0018636, 0.00555545, -0.00461727, -0.0299537
0.0871794, 1.69238, -1.22954, -1.54484, -0.902297, -1.19821, 1.22574, -1.30246, 0.0604992, -0.0201685, -0.0431697, 0.00339646, -0.127372, -0.0130164, 0.00232671, 1.90803, 69.9683, 34.9351, 6.73187, 1.99512, 4.25601, -0.0484509, -0.00122092, -0.00277051, 0.0054039, 0.0130204, -0.00152439, 0.00275929, 0.0286452, -0.0129178, -0.0294247, -0.116948, 0.104037, 0.00477467, 0.470886, -0.542884, 0.33594, -2.0833, -2.16575, -0.130243, 0.467967, -0.543369, 0.330498, -2.08004, -2.15864, -0.114001, -0.00460676, 0.0196287, 0.00191686, 0.00825745, -0.0035745, -0.0319853
0.0881794, 1.69244, -1.22956, -1.54489, -0.902296, -1.19833, 1.22574, -1.30246, 0.0574367, -0.0179862, -0.0445674, 0.00342459, -0.127794, -0.011675, 0.000898287, 1.90803, 70.1508, 34.9351, 6.84296, 1.96399, 4.29904, -0.0228162, -0.00125029, -0.00275598, 0.00543243, 0.0131242, -0.00162891, 0.00277124, 0.0308149, -0.0111878, -0.0283223, -0.116489, 0.107714, 0.00260959, 0.470881, -0.542864, 0.335942, -2.08328, -2.16574, -0.130257, 0.467977, -0.543373, 0.330467, -2.08003, -2.15864, -0.113793, -0.00471385, 0.0201145, 0.00197095, 0.00654062, -0.0054711, -0.0311288
0.0891794, 1.6925, -1.22957, -1.54494, -0.902304, -1.19846, 1.22573, -1.30245, 0.0602231, -0.0173915, -0.0487577, -0.00128774, -0.123365, -0.00512941, 0.00732733, 1.83265, 70.3729, 35.0461, 7.02942, 1.93378, 4.32834, -0.0685925, -0.00127691, -0.00273807, 0.00546568, 0.013239, -0.00173335, 0.00278449, 0.0293058, -0.0148362, -0.0296705, -0.11497, 0.10928, 0.00285956, 0.470877, -0.542844, 0.335944, -2.08326, -2.16574, -0.13027, 0.46799, -0.543373, 0.330431, -2.08002, -2.15864, -0.113572, -0.00482181, 0.0206055, 0.00202587, 0.0099732, -0.0031314, -0.0322808
0.0901794, 1.69256, -1.22959, -1.54499, -0.902309, -1.19858, 1.22574, -1.30245, 0.0554947, -0.016944, -0.0491321, -0.00379179, -0.124988, -0.00380986, 0.00592731, 1.90803, 70.5951, 35.0461, 7.18018, 1.91546, 4.32834, -0.0814099, -0.00130841, -0.00272367, 0.0054951, 0.0133408, -0.00184145, 0.00279755, 0.0316549, -0.0128108, -0.0294925, -0.115279, 0.112307, 0.00137901, 0.470872, -0.542823, 0.335946, -2.08324, -2.16574, -0.130285, 0.468, -0.543379, 0.330399, -2.08001, -2.15864, -0.113363, -0.00493062, 0.0211016, 0.00208162, 0.00793264, -0.00506426, -0.0323544
0.0911794, 1.69262, -1.2296, -1.54504, -0.902314, -1.1987, 1.22574, -1.30245, 0.0579863, -0.013081, -0.047415, -0.00468143, -0.122043, -0.00334123, 0.00437733, 1.87232, 70.6665, 34.9708, 7.29126, 1.90906, 4.34207, -0.0814099, -0.00133454, -0.00270474, 0.00551658, 0.013439, -0.00195847, 0.00280093, 0.0295597, -0.0151573, -0.0268, -0.112427, 0.114568, 0.00820066, 0.470867, -0.542802, 0.335948, -2.08322, -2.16573, -0.130299, 0.468014, -0.543379, 0.330375, -2.08, -2.15866, -0.11315, -0.00504026, 0.0216028, 0.00213822, 0.0101887, -0.00281326, -0.0293847
0.0921794, 1.69268, -1.22961, -1.54509, -0.902322, -1.19882, 1.22574, -1.30245, 0.0585253, -0.0123331, -0.050047, -0.00547855, -0.121638, -0.00220964, 0.00130478, 1.75727, 70.8173, 35.0461, 7.40631, 1.95209, 4.33566, -0.0292249, -0.00136152, -0.00268414, 0.00554557, 0.0135528, -0.00207719, 0.00280142, 0.0301126, -0.015497, -0.0273013, -0.113913, 0.116329, 0.0116886, 0.470862, -0.542781, 0.33595, -2.08319, -2.16573, -0.130314, 0.468029, -0.543379, 0.330344, -2.07998, -2.15868, -0.112918, -0.00515073, 0.022109, 0.00219565, 0.0104193, -0.00276056, -0.0299192
0.0931794, 1.69275, -1.22962, -1.54515, -0.902337, -1.19894, 1.22574, -1.30245, 0.0570986, -0.0117202, -0.0498111, -0.00776382, -0.115468, -0.00136647, 0.00256742, 1.72157, 70.9641, 35.1572, 7.59277, 1.9704, 4.32834, -0.0685925, -0.00138851, -0.00266454, 0.00557735, 0.0136702, -0.00219058, 0.00280793, 0.02935, -0.0161803, -0.027009, -0.110856, 0.112995, 0.0135038, 0.470857, -0.542759, 0.335952, -2.08317, -2.16572, -0.130329, 0.468043, -0.543377, 0.33031, -2.07995, -2.15869, -0.112688, -0.00526201, 0.0226203, 0.00225393, 0.0109736, -0.00151269, -0.0294747
0.0941794, 1.6928, -1.22963, -1.54521, -0.902342, -1.19906, 1.22575, -1.30245, 0.0566789, -0.0103675, -0.0515191, -0.00582341, -0.115891, -0.000491924, 0.00165388, 1.79694, 71.0712, 35.2326, 7.62848, 1.99512, 4.31369, -0.0621838, -0.0014209, -0.00265005, 0.00560479, 0.0137808, -0.00230763, 0.00282279, 0.0310377, -0.0153853, -0.0264169, -0.110644, 0.115598, 0.0116418, 0.470851, -0.542736, 0.335954, -2.08315, -2.16572, -0.130344, 0.468053, -0.543382, 0.33028, -2.07995, -2.15869, -0.112461, -0.0053741, 0.0231366, 0.00231306, 0.0101499, -0.00278578, -0.0290705
0.0951794, 1.69287, -1.22962, -1.54527, -0.902363, -1.19917, 1.22575, -1.30245, 0.0592512, -0.00527748, -0.0527047, -0.0120138, -0.119204, 0.000630602, 0.00072868, 1.75727, 70.9998, 35.308, 7.85065, 1.9823, 4.28531, -0.0484509, -0.00144479, -0.00262866, 0.00562504, 0.0138935, -0.00243872, 0.00281685, 0.0291559, -0.0178327, -0.0246991, -0.115087, 0.125213, 0.0190746, 0.470846, -0.542713, 0.335957, -2.08312, -2.16571, -0.13036, 0.468069, -0.543378, 0.330257, -2.07992, -2.15872, -0.11222, -0.00548698, 0.0236579, 0.00237303, 0.0124759, -0.000570751, -0.0270961
0.0961794, 1.69293, -1.22963, -1.54532, -0.902372, -1.19929, 1.22576, -1.30245, 0.0625336, -0.00438073, -0.0524255, -0.00908794, -0.122812, 0.00143601, -0.000125249, 1.64619, 71.0355, 35.3437, 7.89032, 2.01343, 4.25601, -0.0292249, -0.00147274, -0.00260589, 0.00564886, 0.0139994, -0.00256789, 0.00281688, 0.0297597, -0.0188906, -0.0237303, -0.114821, 0.129875, 0.0198495, 0.470841, -0.542689, 0.335959, -2.0831, -2.16571, -0.130376, 0.468086, -0.543377, 0.330231, -2.0799, -2.15875, -0.111988, -0.00560063, 0.0241841, 0.00243385, 0.0134757, -0.00074582, -0.0262055
0.0971794, 1.693, -1.22962, -1.54538, -0.902383, -1.1994, 1.22576, -1.30245, 0.060255, -0.00127045, -0.0534662, -0.0079349, -0.120392, -0.00017982, 0.00192506, 1.60651, 70.9641, 35.4191, 7.9657, 2.01343, 4.28531, -0.0814099, -0.00150031, -0.00258757, 0.00566939, 0.014111, -0.00269384, 0.00282728, 0.0309346, -0.0171804, -0.0220971, -0.114787, 0.130656, 0.0150969, 0.470835, -0.542665, 0.335962, -2.08307, -2.16571, -0.130393, 0.468099, -0.543376, 0.330209, -2.07989, -2.15876, -0.111753, -0.00571505, 0.0247152, 0.00249553, 0.0117551, -0.00169661, -0.0246634
0.0981794, 1.69306, -1.22962, -1.54544, -0.902397, -1.19951, 1.22576, -1.30245, 0.0583334, -0.000862262, -0.0524392, -0.0101423, -0.117557, -0.00226127, 0.00110285, 1.57081, 70.9641, 35.4191, 8.03711, 1.98871, 4.34207, -0.0750012, -0.00152649, -0.0025674, 0.00569262, 0.0142214, -0.00281145, 0.00282612, 0.0306491, -0.0168016, -0.0218536, -0.115033, 0.128337, 0.0177085, 0.470829, -0.54264, 0.335964, -2.08305, -2.1657, -0.13041, 0.468113, -0.543373, 0.330183, -2.07987, -2.15878, -0.111528, -0.00583022, 0.0252512, 0.00255806, 0.0112603, -0.00093127, -0.0243052
0.0991794, 1.69313, -1.22962, -1.5455, -0.902407, -1.19962, 1.22575, -1.30245, 0.0618788, 0.00117692, -0.0533573, -0.0111754, -0.116855, -0.00394431, -0.00162964, 1.45576, 70.8887, 35.4944, 8.07678, 1.99512, 4.40707, -0.00999879, -0.00155188, -0.00254536, 0.00571408, 0.0143344, -0.00293468, 0.00281779, 0.0290147, -0.0186877, -0.0214211, -0.117781, 0.129804, 0.0249214, 0.470823, -0.542615, 0.335967, -2.08302, -2.16569, -0.130427, 0.46813, -0.543368, 0.33016, -2.07983, -2.15881, -0.111296, -0.00594613, 0.0257921, 0.00262146, 0.0129849, 0.00123473, -0.0236178
0.100179, 1.69319, -1.22961, -1.54556, -0.902421, -1.19973, 1.22576, -1.30245, 0.0618655, 0.00244645, -0.0549827, -0.0105537, -0.111833, -0.00343141, 0.00481456, 1.41608, 70.8173, 35.6055, 8.18787, 2.01343, 4.42813, -0.0420422, -0.00158165, -0.00252697, 0.00573413, 0.014445, -0.00306556, 0.00283006, 0.0290401, -0.0189841, -0.0210957, -0.115947, 0.12789, 0.019125, 0.470817, -0.542589, 0.335969, -2.08299, -2.16569, -0.130444, 0.468142, -0.543368, 0.330138, -2.07983, -2.15882, -0.111058, -0.00606278, 0.0263379, 0.00268571, 0.0131771, 0.0017181, -0.023246
0.101179, 1.69324, -1.2296, -1.54561, -0.902432, -1.19984, 1.22575, -1.30244, 0.0593489, 0.00422297, -0.0536064, -0.00834251, -0.107867, -0.00311789, 0.00508193, 1.38038, 70.7062, 35.6055, 8.22754, 2.02533, 4.4501, -0.0814099, -0.00161247, -0.00250993, 0.00575286, 0.0145528, -0.00319396, 0.00284353, 0.0301693, -0.0178928, -0.0190739, -0.110977, 0.126781, 0.0167122, 0.470811, -0.542563, 0.335972, -2.08296, -2.16568, -0.130462, 0.468154, -0.543368, 0.330117, -2.07982, -2.15883, -0.110825, -0.00618014, 0.0268884, 0.00275083, 0.0120842, 0.000797107, -0.0213285
0.102179, 1.69331, -1.22959, -1.54567, -0.90245, -1.19995, 1.22575, -1.30245, 0.0593503, 0.00624414, -0.0588588, -0.0124946, -0.109715, -0.00287085, 0.00129108, 1.26533, 70.5594, 35.6055, 8.37433, 2.03815, 4.47116, -0.0164075, -0.00163838, -0.00248827, 0.00576911, 0.0146622, -0.00332621, 0.00282994, 0.0308001, -0.0177741, -0.0202584, -0.117959, 0.131701, 0.0213128, 0.470805, -0.542536, 0.335975, -2.08294, -2.16568, -0.13048, 0.46817, -0.543364, 0.330099, -2.07979, -2.15887, -0.110589, -0.0062982, 0.0274437, 0.00281681, 0.0118274, 0.000908919, -0.0225275
0.103179, 1.69337, -1.22959, -1.54573, -0.902469, -1.20006, 1.22575, -1.30245, 0.0593048, 0.00637335, -0.0584374, -0.015489, -0.106922, -0.00219444, 0.00228048, 1.15424, 70.5951, 35.6809, 8.52509, 2.06836, 4.47848, -0.0484509, -0.00166788, -0.00246816, 0.00579406, 0.0147767, -0.003449, 0.00283261, 0.0299231, -0.0190265, -0.020366, -0.117036, 0.13072, 0.0243824, 0.470799, -0.542509, 0.335978, -2.08291, -2.16567, -0.130499, 0.468184, -0.54336, 0.330072, -2.07976, -2.15889, -0.110357, -0.00641697, 0.0280038, 0.00288366, 0.0129239, 0.00240392, -0.0224689
0.104179, 1.69343, -1.22959, -1.54578, -0.902481, -1.20017, 1.22575, -1.30245, 0.0601205, 0.00533551, -0.0560663, -0.0149551, -0.109675, -0.00201245, 0.00220367, 1.00349, 70.5594, 35.6809, 8.56079, 2.09949, 4.49313, -0.0621838, -0.00169848, -0.00244944, 0.00581371, 0.0148855, -0.00357479, 0.00283818, 0.0304589, -0.0196284, -0.0200569, -0.115985, 0.132471, 0.0253879, 0.470793, -0.542481, 0.33598, -2.08288, -2.16567, -0.130518, 0.468196, -0.543359, 0.33005, -2.07974, -2.15891, -0.110127, -0.00653641, 0.0285686, 0.00295138, 0.0134363, 0.00241773, -0.0221986
0.105179, 1.69349, -1.22957, -1.54583, -0.902493, -1.20028, 1.22574, -1.30245, 0.0584499, 0.00894247, -0.0559299, -0.0147693, -0.106779, -0.00266928, 0.00109153, 0.813057, 70.3372, 35.7166, 8.60046, 2.1297, 4.52884, -0.0484509, -0.00172747, -0.00242984, 0.00582677, 0.0149942, -0.00371169, 0.00284249, 0.0308365, -0.0189121, -0.0178011, -0.114369, 0.133878, 0.0259734, 0.470786, -0.542452, 0.335983, -2.08285, -2.16566, -0.130537, 0.46821, -0.543356, 0.330035, -2.07973, -2.15893, -0.109887, -0.00665653, 0.0291381, 0.00301998, 0.0126966, 0.00223666, -0.019941
0.106179, 1.69355, -1.22957, -1.54588, -0.902513, -1.20039, 1.22574, -1.30245, 0.0599157, 0.00693827, -0.05378, -0.0171864, -0.109012, -0.00256332, -0.000869451, 0.626595, 70.3015, 35.6809, 8.74725, 2.15442, 4.54989, -0.00267457, -0.00175664, -0.00240763, 0.00584544, 0.0150967, -0.00384016, 0.00283104, 0.0302444, -0.0205617, -0.0185931, -0.114915, 0.134496, 0.0321884, 0.470779, -0.542423, 0.335986, -2.08282, -2.16566, -0.130557, 0.468226, -0.543351, 0.330014, -2.0797, -2.15897, -0.109664, -0.0067773, 0.0297122, 0.00308945, 0.0141732, 0.00358697, -0.0206119
0.107179, 1.69361, -1.22957, -1.54593, -0.90253, -1.2005, 1.22574, -1.30245, 0.0557859, 0.00565959, -0.049803, -0.0171886, -0.106414, -0.00357678, 0.00146077, 0.400459, 70.2618, 35.6809, 8.82263, 2.18555, 4.60025, -0.0557752, -0.00178553, -0.0023851, 0.00586482, 0.0152049, -0.00396823, 0.00283525, 0.0313319, -0.0191836, -0.0177893, -0.110506, 0.130816, 0.0289293, 0.470773, -0.542393, 0.335989, -2.08278, -2.16565, -0.130577, 0.468242, -0.543346, 0.329993, -2.07968, -2.15899, -0.109434, -0.00689872, 0.030291, 0.0031598, 0.0127443, 0.00291183, -0.0198769
0.108179, 1.69366, -1.22955, -1.54597, -0.902545, -1.20062, 1.22573, -1.30245, 0.0519633, 0.0081215, -0.0451104, -0.0195083, -0.108276, -0.00265799, 0.00102913, 0.325081, 70.0793, 35.6055, 8.85834, 2.19745, 4.60757, -0.0557752, -0.00181869, -0.00236858, 0.00587326, 0.0153021, -0.00410927, 0.00283985, 0.032201, -0.0184089, -0.0146905, -0.106693, 0.135628, 0.0295435, 0.470766, -0.542363, 0.335993, -2.08275, -2.16564, -0.130597, 0.468252, -0.543347, 0.329982, -2.07967, -2.15902, -0.109204, -0.00702078, 0.0308744, 0.00323103, 0.0119929, 0.0021263, -0.0168595
0.109179, 1.69372, -1.22954, -1.54601, -0.902561, -1.20073, 1.22573, -1.30245, 0.0536749, 0.00630921, -0.0415628, -0.0182468, -0.110112, -0.00258744, -0.0014765, 0.059273, 70.0436, 35.5301, 8.89801, 2.21576, 4.62955, 0.00373412, -0.00184706, -0.00234327, 0.00588677, 0.015396, -0.00424226, 0.00282781, 0.0322121, -0.0196633, -0.0143814, -0.104141, 0.135698, 0.0341208, 0.470759, -0.542332, 0.335996, -2.08272, -2.16564, -0.130618, 0.468271, -0.54334, 0.329967, -2.07964, -2.15907, -0.108987, -0.00714347, 0.0314625, 0.00330314, 0.0131349, 0.0027082, -0.016523
0.110179, 1.69378, -1.22954, -1.54604, -0.902581, -1.20084, 1.22573, -1.30245, 0.0521086, 0.00684934, -0.039122, -0.0190129, -0.110223, -0.00355725, 0.000504827, -0.0914839, 69.9326, 35.4548, 9.00909, 2.20386, 4.67898, -0.0356336, -0.0018773, -0.00232277, 0.00589847, 0.0154914, -0.00437361, 0.00282938, 0.0326474, -0.0192917, -0.0132793, -0.102898, 0.136345, 0.0327347, 0.470751, -0.542301, 0.335999, -2.08269, -2.16563, -0.130639, 0.468285, -0.543336, 0.329953, -2.07963, -2.1591, -0.10877, -0.00726676, 0.032055, 0.00337613, 0.0126966, 0.00268588, -0.0154197
0.111179, 1.69384, -1.22953, -1.54609, -0.902599, -1.20095, 1.22572, -1.30245, 0.0519414, 0.0055278, -0.0393047, -0.017834, -0.109841, -0.00318623, 0.000359874, -0.281914, 69.8929, 35.4548, 9.04877, 2.17273, 4.70096, -0.0356336, -0.00190989, -0.00230224, 0.00591582, 0.015595, -0.00450327, 0.0028293, 0.0337956, -0.0191371, -0.0138895, -0.10202, 0.135436, 0.0321169, 0.470744, -0.542268, 0.336003, -2.08265, -2.16562, -0.13066, 0.468299, -0.543332, 0.329934, -2.0796, -2.15912, -0.108545, -0.00739066, 0.0326521, 0.00345001, 0.0124378, 0.0022386, -0.016124
0.112179, 1.69389, -1.22952, -1.54612, -0.902617, -1.20107, 1.22572, -1.30245, 0.0541544, 0.00948331, -0.0342284, -0.020149, -0.11093, -0.00266739, -0.000963295, -0.43267, 69.7858, 35.3834, 9.08447, 2.17914, 4.7156, -0.00267457, -0.001942, -0.00228078, 0.00592516, 0.0156873, -0.00464309, 0.00282023, 0.0316046, -0.0218117, -0.0101295, -0.0986536, 0.141119, 0.0399856, 0.470737, -0.542236, 0.336006, -2.08262, -2.16562, -0.130682, 0.468313, -0.543329, 0.329922, -2.07958, -2.15917, -0.108324, -0.00751515, 0.0332538, 0.00352478, 0.0150424, 0.0045318, -0.0120771
0.113179, 1.69394, -1.22952, -1.54616, -0.902635, -1.20119, 1.22572, -1.30245, 0.0526818, 0.00661336, -0.0354269, -0.0187682, -0.110657, -0.00228741, -0.000120451, -0.583427, 69.7858, 35.3834, 9.12018, 2.16083, 4.72934, -0.0164075, -0.00197609, -0.00226077, 0.0059389, 0.0157827, -0.00477563, 0.0028207, 0.0337717, -0.0207141, -0.0119133, -0.0985419, 0.138774, 0.0364351, 0.470729, -0.542203, 0.33601, -2.08258, -2.16561, -0.130704, 0.468327, -0.543326, 0.329906, -2.07956, -2.1592, -0.108106, -0.00764022, 0.0338599, 0.00360044, 0.0138348, 0.00323066, -0.0140689
0.114179, 1.694, -1.22952, -1.54618, -0.902661, -1.2013, 1.22571, -1.30245, 0.0544623, 0.00462727, -0.0303394, -0.0227935, -0.111259, -0.00257649, 0.000404256, -0.734184, 69.7858, 35.2683, 9.23523, 2.15442, 4.75772, -0.0292249, -0.00200678, -0.00223746, 0.00595016, 0.0158721, -0.00490858, 0.00281432, 0.0316292, -0.0235433, -0.0119394, -0.0968882, 0.137897, 0.0438451, 0.470722, -0.542169, 0.336013, -2.08255, -2.1656, -0.130727, 0.468343, -0.54332, 0.329893, -2.07954, -2.15924, -0.107896, -0.00776586, 0.0344704, 0.00367699, 0.0164563, 0.00607818, -0.0137703
0.115179, 1.69404, -1.22951, -1.54621, -0.90268, -1.20143, 1.22571, -1.30245, 0.0511148, 0.00501185, -0.0263961, -0.0229433, -0.117079, -0.00226049, 0.000514243, -0.809562, 69.7104, 35.2683, 9.23523, 2.16724, 4.77237, -0.0356336, -0.00204506, -0.00221983, 0.00596044, 0.0159616, -0.00505005, 0.00282163, 0.0340229, -0.021899, -0.010094, -0.0953152, 0.143494, 0.0408692, 0.470714, -0.542134, 0.336017, -2.08251, -2.16559, -0.13075, 0.468354, -0.543321, 0.32988, -2.07953, -2.15927, -0.107676, -0.00789206, 0.0350854, 0.00375444, 0.0148423, 0.00397708, -0.0121964
0.116179, 1.6941, -1.22952, -1.54623, -0.902696, -1.20155, 1.22571, -1.30245, 0.0514459, 0.00262885, -0.0256102, -0.0223193, -0.12129, -0.00123595, -0.00158442, -0.996025, 69.7461, 35.2326, 9.19556, 2.18555, 4.76504, 0.0165515, -0.00208148, -0.0021978, 0.00597349, 0.0160495, -0.00518651, 0.00281521, 0.0356803, -0.0219446, -0.0110241, -0.0955893, 0.145629, 0.0421583, 0.470706, -0.542099, 0.336021, -2.08248, -2.16559, -0.130773, 0.468369, -0.543318, 0.329865, -2.07951, -2.15931, -0.107464, -0.0080188, 0.0357048, 0.00383279, 0.0147876, 0.00310749, -0.0132982
0.117179, 1.69415, -1.22951, -1.54626, -0.90272, -1.20168, 1.2257, -1.30245, 0.053849, 0.00184469, -0.0265865, -0.0206712, -0.124768, -0.00163793, 0.000643294, -1.15075, 69.7461, 35.2683, 9.23523, 2.20386, 4.78702, -0.0292249, -0.00211716, -0.00217605, 0.00598429, 0.0161432, -0.00533138, 0.00281675, 0.0366552, -0.0224016, -0.0117233, -0.0979879, 0.148191, 0.0396226, 0.470698, -0.542063, 0.336024, -2.08244, -2.16558, -0.130797, 0.468383, -0.543315, 0.329852, -2.0795, -2.15935, -0.107237, -0.00814607, 0.0363285, 0.00391203, 0.0151268, 0.00289738, -0.0140769
0.118179, 1.69419, -1.22951, -1.54628, -0.90274, -1.20181, 1.2257, -1.30245, 0.047474, 0.00129888, -0.0276693, -0.0205753, -0.12347, -0.00109208, 0.00114405, -1.22613, 69.7461, 35.308, 9.19556, 2.24689, 4.78702, -0.0484509, -0.00216047, -0.00216035, 0.00599423, 0.0162308, -0.00547973, 0.00283003, 0.0402164, -0.0189633, -0.0120047, -0.0967996, 0.147337, 0.0330493, 0.47069, -0.542027, 0.336028, -2.0824, -2.16557, -0.130821, 0.468392, -0.543319, 0.329838, -2.0795, -2.15937, -0.107012, -0.00827387, 0.0369566, 0.00399218, 0.0116845, -8.75957e-05, -0.0147286
0.119179, 1.69424, -1.22951, -1.5463, -0.902752, -1.20194, 1.2257, -1.30246, 0.0476194, -1.028e-05, -0.0277206, -0.0189366, -0.120954, -0.000728145, -0.00164246, -1.37688, 69.7858, 35.3437, 9.08447, 2.25238, 4.78702, 0.0165515, -0.0022025, -0.00214076, 0.0060065, 0.0163139, -0.00562001, 0.00282718, 0.0409472, -0.0191488, -0.0125216, -0.0946491, 0.14466, 0.0357667, 0.470682, -0.54199, 0.336032, -2.08236, -2.16556, -0.130845, 0.468404, -0.543321, 0.329823, -2.07949, -2.15942, -0.106803, -0.00840218, 0.0375891, 0.00407323, 0.0117494, -8.76549e-05, -0.0152793
0.120179, 1.6943, -1.22952, -1.54632, -0.902764, -1.20207, 1.2257, -1.30245, 0.0486704, -0.000803207, -0.0236938, -0.0181321, -0.119987, -0.000756767, -0.000381146, -1.56335, 69.8215, 35.3437, 8.97339, 2.28351, 4.79434, -0.00267457, -0.00224265, -0.00211858, 0.00601636, 0.0163933, -0.00576181, 0.00283411, 0.0404094, -0.0205061, -0.0114899, -0.0904619, 0.143457, 0.0374809, 0.470673, -0.541953, 0.336036, -2.08232, -2.16556, -0.13087, 0.468419, -0.54332, 0.32981, -2.07949, -2.15945, -0.106596, -0.008531, 0.0382258, 0.00415518, 0.0129947, 0.000977104, -0.0141375
0.121179, 1.69434, -1.22952, -1.54634, -0.902785, -1.2022, 1.2257, -1.30244, 0.046883, -0.00217676, -0.0220045, -0.0210406, -0.124154, 0.000580506, 0.00195126, -1.63873, 69.8929, 35.3834, 9.00909, 2.32654, 4.76504, -0.0621838, -0.00228665, -0.00210081, 0.00602811, 0.0164763, -0.0059059, 0.00284817, 0.041729, -0.0203586, -0.0118602, -0.0908869, 0.146943, 0.0357787, 0.470665, -0.541914, 0.33604, -2.08228, -2.16555, -0.130895, 0.468429, -0.543323, 0.329795, -2.07949, -2.15948, -0.106381, -0.0086603, 0.0388668, 0.00423804, 0.0127528, 0.000368025, -0.0146239
0.122179, 1.69439, -1.22952, -1.54636, -0.9028, -1.20233, 1.2257, -1.30245, 0.0500126, -0.00142931, -0.0239502, -0.018279, -0.126125, -0.00015557, -0.00090222, -1.78948, 69.8929, 35.5698, 8.97339, 2.33295, 4.77969, -0.00267457, -0.00233092, -0.00208362, 0.00603992, 0.016568, -0.00605011, 0.00285257, 0.0424632, -0.0208842, -0.0119142, -0.0931863, 0.149599, 0.0380699, 0.470656, -0.541875, 0.336045, -2.08224, -2.16554, -0.130921, 0.468439, -0.543325, 0.329781, -2.07948, -2.15951, -0.106159, -0.00879009, 0.039512, 0.00432181, 0.013173, 0.000319891, -0.014726
0.123179, 1.69444, -1.22952, -1.54637, -0.902816, -1.20246, 1.2257, -1.30245, 0.0536201, -0.000936479, -0.0198937, -0.0191767, -0.127461, 0.00121869, 0.000382603, -1.97991, 69.8929, 35.5301, 8.93372, 2.33295, 4.74399, -0.0292249, -0.00237202, -0.00206021, 0.00604434, 0.01664, -0.00620261, 0.00285576, 0.0407828, -0.0240399, -0.0103598, -0.0899047, 0.15252, 0.0430068, 0.470647, -0.541836, 0.336049, -2.0822, -2.16553, -0.130947, 0.468455, -0.543324, 0.329773, -2.07948, -2.15955, -0.10595, -0.00892034, 0.0401615, 0.0044065, 0.0161905, 0.00251877, -0.0129414
0.124179, 1.69449, -1.22952, -1.54639, -0.902833, -1.2026, 1.2257, -1.30245, 0.0523278, -0.000612023, -0.0195891, -0.0185473, -0.129323, 0.000812435, 1.82638e-05, -2.13067, 69.8929, 35.6055, 8.97339, 2.35126, 4.74399, -0.0228162, -0.00241807, -0.00204164, 0.00605254, 0.0167246, -0.0063586, 0.0028645, 0.0424376, -0.0230421, -0.00990559, -0.0902475, 0.154729, 0.0414413, 0.470638, -0.541796, 0.336053, -2.08216, -2.16552, -0.130973, 0.468466, -0.543327, 0.329762, -2.07948, -2.15959, -0.105724, -0.00905105, 0.0408151, 0.00449209, 0.0151406, 0.00142804, -0.0126379
0.125179, 1.69453, -1.22952, -1.54641, -0.902849, -1.20274, 1.2257, -1.30245, 0.0495272, 0.00127164, -0.0201809, -0.0147996, -0.125816, 0.00135541, 0.00024995, -2.20605, 69.8215, 35.7166, 9.00909, 2.36957, 4.72201, -0.0292249, -0.00246614, -0.00202457, 0.00605875, 0.0168031, -0.00651466, 0.00287868, 0.0447673, -0.0210934, -0.00826878, -0.0862115, 0.154288, 0.0363822, 0.470629, -0.541755, 0.336058, -2.08212, -2.16551, -0.131, 0.468475, -0.543332, 0.329752, -2.07949, -2.15963, -0.105504, -0.00918221, 0.0414729, 0.0045786, 0.0132084, -0.000547978, -0.0112431
0.126179, 1.69457, -1.22952, -1.54643, -0.902867, -1.20288, 1.2257, -1.30245, 0.0476383, 0.000854679, -0.0205486, -0.018278, -0.127353, 0.00114095, -0.00129112, -2.28143, 69.8215, 35.8277, 9.04877, 2.37598, 4.7156, 0.0101428, -0.00251672, -0.0020101, 0.00606776, 0.0168926, -0.00667301, 0.00289174, 0.045644, -0.0206424, -0.00901472, -0.088739, 0.155968, 0.0388179, 0.47062, -0.541714, 0.336063, -2.08207, -2.1655, -0.131027, 0.468482, -0.543338, 0.329739, -2.07949, -2.15966, -0.105271, -0.00931381, 0.0421348, 0.00466602, 0.0126315, -0.000653136, -0.0120176
0.127179, 1.69462, -1.22952, -1.54644, -0.902879, -1.20302, 1.2257, -1.30245, 0.0477773, -0.00109546, -0.017357, -0.016773, -0.13378, 0.0018457, 0.00107227, -2.43218, 69.8929, 35.792, 9.04877, 2.39429, 4.68631, -0.0420422, -0.0025651, -0.00199038, 0.00607612, 0.0169679, -0.00682417, 0.00290463, 0.0475617, -0.0205023, -0.00872893, -0.0877029, 0.160033, 0.0350999, 0.470611, -0.541671, 0.336067, -2.08203, -2.16549, -0.131055, 0.468494, -0.543341, 0.329728, -2.0795, -2.15969, -0.10506, -0.00944583, 0.0428008, 0.00475437, 0.0124403, -0.00192903, -0.0119455
0.128179, 1.69466, -1.22953, -1.54646, -0.902899, -1.20316, 1.2257, -1.30244, 0.049557, -0.00248966, -0.017601, -0.0182635, -0.133398, 0.00255288, 0.00146101, -2.50756, 69.9683, 35.8674, 9.15985, 2.39978, 4.6506, -0.0621838, -0.00261523, -0.00197123, 0.00608784, 0.017052, -0.00698107, 0.00291921, 0.0471888, -0.022097, -0.00985239, -0.088128, 0.159605, 0.0382185, 0.470601, -0.541629, 0.336072, -2.08198, -2.16548, -0.131083, 0.468505, -0.543345, 0.329712, -2.0795, -2.15972, -0.104835, -0.00957827, 0.043471, 0.00484363, 0.0138463, -0.000648645, -0.0129574
0.129179, 1.69471, -1.22952, -1.54647, -0.902912, -1.2033, 1.2257, -1.30245, 0.048512, -0.000821634, -0.0169938, -0.0173727, -0.133398, 0.00224445, -0.00170463, -2.62261, 69.9326, 35.9031, 9.19556, 2.4126, 4.63595, 0.0101428, -0.00266656, -0.00195374, 0.00609179, 0.0171301, -0.00714594, 0.00292787, 0.0482904, -0.0214399, -0.00847346, -0.087056, 0.161633, 0.0402061, 0.470592, -0.541585, 0.336077, -2.08194, -2.16548, -0.131111, 0.468514, -0.543351, 0.329705, -2.07951, -2.15977, -0.104609, -0.00971111, 0.0441452, 0.00493382, 0.0131485, -0.00130247, -0.0116608
0.130179, 1.69476, -1.22953, -1.54649, -0.902924, -1.20345, 1.2257, -1.30245, 0.0487829, -0.000545567, -0.0124635, -0.0158868, -0.13844, 0.00254746, -0.000390336, -2.77337, 69.9326, 35.9031, 9.19556, 2.43091, 4.60757, -0.00999879, -0.00271845, -0.00193481, 0.00609843, 0.0172104, -0.00731014, 0.00294476, 0.0493623, -0.0216623, -0.00645087, -0.084385, 0.166504, 0.0387277, 0.470582, -0.541541, 0.336082, -2.08189, -2.16547, -0.13114, 0.468525, -0.543356, 0.329694, -2.07952, -2.1598, -0.10438, -0.00984435, 0.0448234, 0.00502493, 0.0133512, -0.00198652, -0.00975029
0.131179, 1.6948, -1.22954, -1.5465, -0.902944, -1.2036, 1.2257, -1.30245, 0.0438442, -0.00379574, -0.0099949, -0.017429, -0.140594, 0.00302073, 0.001164, -2.84875, 70.0793, 35.9388, 9.30664, 2.4126, 4.57187, -0.0484509, -0.002773, -0.00191741, 0.00611198, 0.0172928, -0.00746603, 0.00296377, 0.0520429, -0.0196836, -0.00737696, -0.0829643, 0.165779, 0.0345945, 0.470572, -0.541496, 0.336087, -2.08185, -2.16546, -0.131169, 0.468534, -0.543362, 0.329677, -2.07953, -2.15982, -0.104159, -0.00997797, 0.0455056, 0.00511696, 0.0113059, -0.00388734, -0.010935
0.132179, 1.69486, -1.22954, -1.54651, -0.902957, -1.20375, 1.22571, -1.30245, 0.04454, -0.00512772, -0.00785219, -0.0159025, -0.147618, 0.00306498, 0.000776058, -3.11059, 70.1904, 35.8277, 9.30664, 2.40619, 4.54349, -0.0484509, -0.00282274, -0.00189169, 0.00612077, 0.0173704, -0.00763156, 0.00296771, 0.0539517, -0.0194641, -0.00717643, -0.0837213, 0.170705, 0.0334452, 0.470562, -0.541451, 0.336092, -2.0818, -2.16545, -0.131199, 0.468551, -0.543363, 0.329664, -2.07953, -2.15987, -0.103934, -0.010112, 0.0461918, 0.00520992, 0.0110304, -0.00512424, -0.0109394
0.133179, 1.6949, -1.22957, -1.54652, -0.902967, -1.2039, 1.22571, -1.30245, 0.0466709, -0.0120481, -0.00931322, -0.0140929, -0.148168, 0.00390828, -0.00189008, -3.18597, 70.5594, 35.8277, 9.27094, 2.39978, 4.49313, 0.0165515, -0.00288221, -0.0018733, 0.00614122, 0.0174494, -0.00778004, 0.00298078, 0.0553689, -0.0203201, -0.0115338, -0.0845159, 0.165397, 0.0363323, 0.470552, -0.541404, 0.336097, -2.08175, -2.16543, -0.131229, 0.468561, -0.543371, 0.32964, -2.07952, -2.1599, -0.103725, -0.0102463, 0.0468819, 0.00530381, 0.0116434, -0.00511734, -0.0153979
0.134179, 1.69495, -1.22957, -1.54653, -0.902977, -1.20406, 1.22572, -1.30245, 0.0496047, -0.00886662, -0.00620744, -0.0128202, -0.147882, 0.00474175, 0.000672755, -3.30102, 70.5951, 35.792, 9.23523, 2.37598, 4.43545, -0.0356336, -0.00293996, -0.00185351, 0.00614805, 0.0175267, -0.00795693, 0.00300551, 0.0542494, -0.0224806, -0.00844286, -0.0803966, 0.169293, 0.0374495, 0.470542, -0.541358, 0.336102, -2.0817, -2.16542, -0.131259, 0.468572, -0.543379, 0.329628, -2.07955, -2.15994, -0.103488, -0.010381, 0.047576, 0.00539863, 0.0137397, -0.00370824, -0.0121447
0.135179, 1.69501, -1.22959, -1.54654, -0.902995, -1.20424, 1.22573, -1.30245, 0.0493555, -0.0111075, -0.00621651, -0.0136904, -0.154013, 0.00607729, 0.000685886, -3.45177, 70.8173, 35.7166, 9.27094, 2.38788, 4.35672, -0.0420422, -0.00299765, -0.00182976, 0.00616379, 0.0176112, -0.00813097, 0.00301726, 0.0563667, -0.0222342, -0.009713, -0.0825611, 0.17355, 0.0363782, 0.470531, -0.54131, 0.336108, -2.08165, -2.16541, -0.13129, 0.468587, -0.543385, 0.329608, -2.07956, -2.15998, -0.103247, -0.0105161, 0.048274, 0.00549438, 0.0133899, -0.00491105, -0.0136305
0.136179, 1.69506, -1.2296, -1.54656, -0.903008, -1.20441, 1.22574, -1.30245, 0.0514487, -0.00991025, -0.00902797, -0.0133424, -0.15726, 0.00591649, 0.000457275, -3.56683, 70.9244, 35.7523, 9.27094, 2.36957, 4.30636, -0.0420422, -0.00305829, -0.00180886, 0.00617441, 0.017697, -0.00831708, 0.00303654, 0.0573551, -0.0225176, -0.0100335, -0.0866224, 0.178288, 0.0363145, 0.470521, -0.541262, 0.336113, -2.0816, -2.1654, -0.131321, 0.468599, -0.543393, 0.329593, -2.07957, -2.16002, -0.102993, -0.0106515, 0.0489759, 0.00559107, 0.0135627, -0.0051215, -0.0140169
0.137179, 1.69511, -1.22961, -1.54657, -0.903029, -1.20458, 1.22574, -1.30245, 0.047215, -0.00920499, -0.00987773, -0.0156649, -0.156063, 0.00526675, -0.00162792, -3.56683, 71.0355, 35.7523, 9.38202, 2.37598, 4.27066, 0.0101428, -0.00311856, -0.00178878, 0.00618532, 0.0177878, -0.00850372, 0.00304705, 0.0590687, -0.0206151, -0.0100483, -0.0876631, 0.178498, 0.0366287, 0.47051, -0.541213, 0.336119, -2.08155, -2.16539, -0.131353, 0.46861, -0.543401, 0.329578, -2.07958, -2.16007, -0.102734, -0.0107872, 0.0496816, 0.00568869, 0.0115899, -0.0061829, -0.0141478
0.138179, 1.69516, -1.22962, -1.54658, -0.903045, -1.20476, 1.22575, -1.30245, 0.0490552, -0.0087349, -0.00578879, -0.0155346, -0.163741, 0.00642729, 0.000610153, -3.6422, 71.1465, 35.6809, 9.42169, 2.35675, 4.19192, -0.0356336, -0.00317763, -0.00176424, 0.00619296, 0.0178688, -0.00869524, 0.00306417, 0.059761, -0.0218017, -0.00825501, -0.0867019, 0.186396, 0.0358895, 0.470499, -0.541163, 0.336125, -2.0815, -2.16538, -0.131385, 0.468626, -0.543407, 0.329566, -2.0796, -2.16011, -0.10248, -0.0109232, 0.0503911, 0.00578725, 0.012731, -0.00638513, -0.0124272
0.139179, 1.69521, -1.22963, -1.54659, -0.903062, -1.20494, 1.22576, -1.30245, 0.0502409, -0.010092, -0.00858805, -0.014573, -0.168985, 0.00614982, 0.00502371, -3.56683, 71.329, 35.7166, 9.42169, 2.33844, 4.14157, -0.0356336, -0.00324482, -0.00174858, 0.00620652, 0.0179608, -0.00888269, 0.00309225, 0.0619557, -0.0212385, -0.00994671, -0.0915534, 0.190133, 0.02916, 0.470489, -0.541113, 0.33613, -2.08145, -2.16537, -0.131418, 0.468633, -0.54342, 0.329547, -2.07962, -2.16014, -0.102218, -0.0110595, 0.0511045, 0.00588674, 0.0120512, -0.00759607, -0.0143285
0.140179, 1.69526, -1.22963, -1.5466, -0.903086, -1.20512, 1.22576, -1.30245, 0.0500811, -0.00672787, -0.00970295, -0.0164688, -0.168523, 0.00569358, 0.00302181, -3.56683, 71.329, 35.7166, 9.53278, 2.31372, 4.09854, -0.0164075, -0.00330473, -0.00172577, 0.00621376, 0.0180535, -0.00908179, 0.00310164, 0.0619832, -0.0213888, -0.00862255, -0.0931828, 0.193841, 0.0326024, 0.470477, -0.541062, 0.336136, -2.0814, -2.16536, -0.13145, 0.468646, -0.543426, 0.329536, -2.07963, -2.1602, -0.101945, -0.0111962, 0.0518216, 0.00598718, 0.0121153, -0.00710503, -0.0129331
0.141179, 1.69531, -1.22964, -1.54661, -0.903101, -1.2053, 1.22577, -1.30245, 0.0525315, -0.00708361, -0.00730777, -0.0142394, -0.172694, 0.00433825, 0.00230311, -3.56683, 71.4401, 35.7166, 9.4931, 2.2771, 4.08389, -0.0164075, -0.00336922, -0.00170531, 0.00622331, 0.0181426, -0.00927602, 0.00312221, 0.0625083, -0.0220933, -0.0078806, -0.0934449, 0.196723, 0.033943, 0.470466, -0.54101, 0.336142, -2.08134, -2.16535, -0.131484, 0.468657, -0.543435, 0.329521, -2.07965, -2.16024, -0.101681, -0.0113331, 0.0525425, 0.00608855, 0.0127295, -0.00698714, -0.0122068
0.142179, 1.69536, -1.22964, -1.54662, -0.903125, -1.20549, 1.22577, -1.30244, 0.0477917, -0.00388712, -0.00633642, -0.0177984, -0.176408, 0.00394333, 0.00344725, -3.52715, 71.4044, 35.7523, 9.53278, 2.25879, 4.05551, -0.0621838, -0.00343518, -0.00168721, 0.00622946, 0.0182394, -0.00948509, 0.00314938, 0.0644942, -0.0199569, -0.00588759, -0.0952137, 0.203587, 0.0307871, 0.470455, -0.540957, 0.336148, -2.08129, -2.16533, -0.131518, 0.468666, -0.543445, 0.32951, -2.07968, -2.16028, -0.101393, -0.0114702, 0.0532671, 0.00619087, 0.010606, -0.00862177, -0.0103877
0.143179, 1.69541, -1.22964, -1.54662, -0.903149, -1.20567, 1.22577, -1.30245, 0.0465882, -0.0043546, -0.00608976, -0.0202872, -0.179727, 0.00785364, 0.00076506, -3.45177, 71.4798, 35.6809, 9.56848, 2.25879, 4.04086, -0.0164075, -0.00349886, -0.00166664, 0.00623487, 0.0183289, -0.00968663, 0.00315955, 0.0660854, -0.0203434, -0.00598407, -0.0940701, 0.208672, 0.033932, 0.470443, -0.540904, 0.336154, -2.08123, -2.16532, -0.131552, 0.468677, -0.543453, 0.3295, -2.07969, -2.16033, -0.101122, -0.0116077, 0.0539954, 0.00629413, 0.0109104, -0.00943119, -0.0106455
0.144179, 1.69545, -1.22964, -1.54663, -0.903176, -1.20585, 1.22577, -1.30245, 0.0435715, -0.00113979, -0.00788525, -0.021237, -0.175647, 0.00613457, -0.000114208, -3.4121, 71.4044, 35.6809, 9.56848, 2.22217, 4.02713, 0.00373412, -0.00356128, -0.00164538, 0.00623728, 0.0184218, -0.00989432, 0.00317093, 0.0669806, -0.0187327, -0.00482616, -0.0948311, 0.208505, 0.0334756, 0.470432, -0.54085, 0.336161, -2.08118, -2.16531, -0.131586, 0.468689, -0.543459, 0.329494, -2.0797, -2.16039, -0.100842, -0.0117453, 0.0547273, 0.00639834, 0.00924086, -0.00982984, -0.00949351
0.145179, 1.6955, -1.22964, -1.54664, -0.903207, -1.20603, 1.22577, -1.30245, 0.0394975, 7.53875e-05, -0.00505382, -0.0238905, -0.177831, 0.00411109, 0.00194794, -3.30102, 71.3687, 35.6412, 9.64386, 2.21576, 4.03445, -0.0484509, -0.00362463, -0.00162545, 0.00624171, 0.0185143, -0.0100959, 0.00318933, 0.0682728, -0.0170121, -0.00340276, -0.0955119, 0.211177, 0.030701, 0.47042, -0.540795, 0.336167, -2.08112, -2.1653, -0.131621, 0.468699, -0.543465, 0.329485, -2.07971, -2.16044, -0.100569, -0.0118833, 0.0554629, 0.00650349, 0.00748581, -0.010663, -0.00813786
0.146179, 1.69555, -1.22964, -1.54665, -0.903234, -1.20621, 1.22577, -1.30244, 0.042504, -0.000784938, -0.00567621, -0.0262518, -0.175457, 0.0029602, 0.00187573, -3.30102, 71.4044, 35.7166, 9.60815, 2.19745, 4.03445, -0.0621838, -0.00369011, -0.00160471, 0.0062486, 0.018613, -0.010303, 0.00320638, 0.0666158, -0.019301, -0.00469991, -0.0974782, 0.208939, 0.0367315, 0.470408, -0.54074, 0.336174, -2.08106, -2.16528, -0.131657, 0.46871, -0.543472, 0.329474, -2.07972, -2.16048, -0.100283, -0.0120214, 0.0562022, 0.00660959, 0.00952597, -0.00798832, -0.00912479
0.147179, 1.69558, -1.22963, -1.54665, -0.903263, -1.2064, 1.22578, -1.30245, 0.0402352, 0.00123996, -0.00335674, -0.0272076, -0.178116, 0.00240935, -0.000630933, -3.11059, 71.329, 35.6809, 9.53278, 2.17273, 4.02713, -0.00999879, -0.00375853, -0.00158773, 0.00624749, 0.0186963, -0.0105149, 0.00322205, 0.0678965, -0.018327, -0.0027098, -0.0969753, 0.213452, 0.0384087, 0.470396, -0.540684, 0.33618, -2.08101, -2.16527, -0.131692, 0.468718, -0.543482, 0.32947, -2.07974, -2.16054, -0.10001, -0.0121598, 0.056945, 0.00671664, 0.00853668, -0.00886017, -0.0072292
0.148179, 1.69563, -1.22963, -1.54665, -0.903302, -1.20658, 1.22577, -1.30245, 0.0400895, 0.00249709, -0.00254369, -0.0316365, -0.185157, 0.00122106, 0.000567332, -3.11059, 71.2576, 35.6809, 9.60815, 2.15442, 4.04086, -0.0356336, -0.003821, -0.00156521, 0.00625031, 0.0187977, -0.0107296, 0.00323017, 0.0683988, -0.0184535, -0.00233638, -0.102386, 0.221014, 0.0393629, 0.470384, -0.540627, 0.336187, -2.08095, -2.16526, -0.131729, 0.46873, -0.543485, 0.329463, -2.07975, -2.1606, -0.0997154, -0.0122984, 0.0576914, 0.00682465, 0.00855791, -0.00866137, -0.00683955
0.149179, 1.69566, -1.22963, -1.54665, -0.903331, -1.20678, 1.22577, -1.30244, 0.0362573, 0.00166474, -0.00192519, -0.0302782, -0.185057, 0.00114399, 0.00210253, -2.95983, 71.2576, 35.6809, 9.4931, 2.1297, 4.03445, -0.0814099, -0.0038956, -0.00155243, 0.00625398, 0.0188906, -0.010944, 0.00326514, 0.0711778, -0.0162272, -0.00219615, -0.100579, 0.220538, 0.0336131, 0.470372, -0.540569, 0.336194, -2.08089, -2.16524, -0.131765, 0.468733, -0.5435, 0.329454, -2.07978, -2.16063, -0.0994282, -0.0124372, 0.0584414, 0.0069336, 0.00630452, -0.0107682, -0.00696615
0.15018, 1.6957, -1.22962, -1.54665, -0.903367, -1.20697, 1.22578, -1.30244, 0.036299, 0.0045435, -0.00145551, -0.0306173, -0.186193, 0.000832106, -0.000272067, -2.92413, 71.1108, 35.6809, 9.42169, 2.1297, 4.03445, -0.0356336, -0.00396345, -0.00153217, 0.00625153, 0.0189813, -0.0111695, 0.00327771, 0.0716586, -0.0162829, -0.000375019, -0.100763, 0.224938, 0.0365038, 0.470359, -0.54051, 0.336201, -2.08083, -2.16523, -0.131802, 0.468744, -0.543508, 0.329452, -2.0798, -2.1607, -0.0991348, -0.0125762, 0.0591949, 0.00704351, 0.00630759, -0.0107707, -0.00514047
0.15118, 1.69574, -1.22962, -1.54665, -0.903405, -1.20716, 1.22577, -1.30244, 0.0352865, 0.00302901, 0.000663863, -0.0348352, -0.191074, -0.000173073, 0.000818216, -2.84875, 71.1108, 35.6055, 9.38202, 2.11139, 4.05551, -0.0621838, -0.00403615, -0.00151753, 0.00625185, 0.0190736, -0.0113898, 0.00330348, 0.0721909, -0.0164382, -0.00109584, -0.103873, 0.227929, 0.0379449, 0.470347, -0.540451, 0.336208, -2.08077, -2.16522, -0.13184, 0.468748, -0.543519, 0.329447, -2.07983, -2.16075, -0.098844, -0.0127154, 0.0599519, 0.00715437, 0.00631783, -0.0104184, -0.005834
0.152181, 1.69577, -1.22961, -1.54665, -0.903451, -1.20736, 1.22577, -1.30244, 0.0354905, 0.00545302, -0.000489419, -0.0367145, -0.19086, 0.000194948, 0.00126974, -2.80907, 70.9641, 35.6412, 9.42169, 2.1178, 4.04819, -0.0814099, -0.0041076, -0.0015017, 0.00625, 0.0191767, -0.0116248, 0.00332349, 0.0723347, -0.016924, -0.000285029, -0.105031, 0.231389, 0.0392171, 0.470334, -0.540391, 0.336215, -2.0807, -2.1652, -0.131878, 0.468754, -0.543529, 0.329444, -2.07985, -2.1608, -0.0985275, -0.0128547, 0.0607124, 0.00726618, 0.00670039, -0.00990513, -0.00496382
0.153181, 1.69579, -1.22961, -1.54665, -0.903495, -1.20756, 1.22577, -1.30244, 0.030705, 0.00363535, -0.00132688, -0.0361201, -0.194823, -0.000383273, 0.00136426, -2.69799, 70.9641, 35.6809, 9.38202, 2.11139, 4.06283, -0.0951428, -0.00418536, -0.00149149, 0.00625425, 0.019278, -0.0118459, 0.00335391, 0.0764672, -0.0135354, -0.00131947, -0.107127, 0.233139, 0.0326144, 0.470321, -0.540331, 0.336222, -2.08064, -2.16519, -0.131916, 0.468754, -0.543544, 0.329434, -2.07988, -2.16084, -0.0982264, -0.0129943, 0.0614763, 0.00737895, 0.00329235, -0.0131988, -0.00642495
0.154181, 1.69582, -1.22959, -1.54665, -0.903539, -1.20776, 1.22577, -1.30244, 0.0328659, 0.00678526, 0.000824213, -0.0378837, -0.19289, 0.000308992, -0.00128768, -2.69799, 70.7776, 35.6055, 9.30664, 2.09949, 4.04819, -0.0356336, -0.00425973, -0.00147712, 0.00624891, 0.0193701, -0.0120811, 0.00337226, 0.0747282, -0.0159324, 0.00101371, -0.104503, 0.235903, 0.040953, 0.470308, -0.540269, 0.33623, -2.08058, -2.16517, -0.131955, 0.468758, -0.543555, 0.329434, -2.0799, -2.1609, -0.0979227, -0.0131339, 0.0622436, 0.00749268, 0.00557035, -0.0109788, -0.00381198
0.155181, 1.69585, -1.22958, -1.54664, -0.903587, -1.20795, 1.22577, -1.30244, 0.0289542, 0.00962762, 0.00403512, -0.0400742, -0.195778, -4.87929e-05, -0.000853315, -2.7337, 70.5594, 35.4548, 9.27094, 2.07477, 4.05551, -0.0356336, -0.0043315, -0.00146088, 0.00623983, 0.0194568, -0.0123165, 0.00338803, 0.0762057, -0.0144656, 0.00373389, -0.103386, 0.241553, 0.0394795, 0.470295, -0.540207, 0.336237, -2.08051, -2.16516, -0.131994, 0.468764, -0.543564, 0.329439, -2.07993, -2.16097, -0.0976254, -0.0132738, 0.0630144, 0.00760737, 0.00412278, -0.0121534, -0.00120559
0.156181, 1.69586, -1.22958, -1.54663, -0.90364, -1.20814, 1.22577, -1.30243, 0.0232296, 0.00734643, 0.00349468, -0.0419967, -0.193073, -0.000562704, 0.00163903, -2.65832, 70.5197, 35.4191, 9.23523, 2.04364, 4.07016, -0.0951428, -0.00440947, -0.00144989, 0.00624121, 0.0195474, -0.012536, 0.00341848, 0.0786917, -0.0119403, 0.00220307, -0.103131, 0.237601, 0.0341393, 0.470282, -0.540144, 0.336245, -2.08045, -2.16514, -0.132034, 0.468765, -0.543577, 0.329432, -2.07996, -2.16101, -0.097339, -0.0134137, 0.0637885, 0.00772302, 0.0014976, -0.013698, -0.00292078
0.157181, 1.69588, -1.22956, -1.54662, -0.903686, -1.20832, 1.22577, -1.30243, 0.0233553, 0.00916651, 0.0058333, -0.0414741, -0.191208, -0.000874492, 0.00133294, -2.77337, 70.3372, 35.2683, 9.12018, 2.02533, 4.08389, -0.101552, -0.00448269, -0.00143497, 0.00623199, 0.0196305, -0.0127642, 0.003436, 0.078529, -0.0125456, 0.00415705, -0.0999598, 0.23833, 0.0362086, 0.470268, -0.54008, 0.336252, -2.08038, -2.16513, -0.132074, 0.468769, -0.543586, 0.329437, -2.07998, -2.16108, -0.0970537, -0.0135538, 0.064566, 0.00783963, 0.00203034, -0.01304, -0.000873506
0.158181, 1.6959, -1.22955, -1.54661, -0.903743, -1.20851, 1.22577, -1.30243, 0.0195485, 0.00954468, 0.00554208, -0.0440368, -0.190926, -0.000338684, -0.00131325, -2.7337, 70.1904, 35.1969, 9.12018, 2.02533, 4.07748, -0.0420422, -0.00456134, -0.00142511, 0.00622717, 0.0197183, -0.0129927, 0.00345595, 0.080278, -0.0111582, 0.00419353, -0.100089, 0.239608, 0.0377123, 0.470255, -0.540016, 0.33626, -2.08032, -2.16511, -0.132115, 0.468769, -0.543599, 0.329436, -2.08, -2.16113, -0.0967632, -0.013694, 0.0653468, 0.00795721, 0.000572408, -0.0140485, -0.000958873
0.159181, 1.69591, -1.22953, -1.5466, -0.903806, -1.20869, 1.22577, -1.30243, 0.0187927, 0.01156, 0.00544504, -0.0506659, -0.189474, -0.000729201, -0.000636517, -2.77337, 69.9683, 35.1215, 9.19556, 1.99512, 4.09122, -0.0484509, -0.00463644, -0.00141299, 0.00621903, 0.019806, -0.0132231, 0.00347308, 0.0789652, -0.0123652, 0.00444898, -0.102518, 0.241613, 0.0429037, 0.470241, -0.53995, 0.336268, -2.08025, -2.1651, -0.132156, 0.46877, -0.543608, 0.32944, -2.08002, -2.1612, -0.0964716, -0.0138343, 0.0661309, 0.00807574, 0.00160022, -0.0119572, -0.000422622
0.160181, 1.69592, -1.22952, -1.54659, -0.903862, -1.20887, 1.22576, -1.30242, 0.0189702, 0.0103051, 0.00621879, -0.0520046, -0.189595, -0.00180465, 0.00056022, -2.84875, 69.8572, 35.0104, 9.12018, 1.99512, 4.12692, -0.0750012, -0.00471435, -0.00140172, 0.00621491, 0.0198923, -0.0134449, 0.00349907, 0.0791598, -0.0128248, 0.0037166, -0.103444, 0.240826, 0.0438271, 0.470227, -0.539884, 0.336276, -2.08018, -2.16508, -0.132197, 0.468771, -0.543619, 0.329439, -2.08005, -2.16124, -0.0961897, -0.0139747, 0.0669183, 0.00819524, 0.00190054, -0.0112263, -0.00107596
0.161181, 1.69592, -1.22952, -1.54658, -0.903925, -1.20905, 1.22576, -1.30242, 0.0154623, 0.00946855, 0.00506661, -0.0579944, -0.193415, -0.00201397, 0.00505986, -2.77337, 69.7461, 34.9708, 9.12018, 1.9704, 4.14889, -0.0814099, -0.00479737, -0.00139694, 0.00621209, 0.0199774, -0.0136625, 0.00352909, 0.0807997, -0.011638, 0.00219334, -0.108593, 0.244347, 0.0397401, 0.470213, -0.539817, 0.336284, -2.08012, -2.16506, -0.132239, 0.468765, -0.543634, 0.329437, -2.08008, -2.16129, -0.0959136, -0.0141153, 0.067709, 0.00831571, 0.000580737, -0.0118637, -0.00268708
0.162181, 1.69592, -1.22952, -1.54658, -0.903925, -1.20905, 1.22576, -1.30242, 0.0154623, 0.00946855, 0.00506661, -0.0579944, -0.193415, -0.00201397, 0.00505986, -2.77337, 69.7461, 34.9708, 9.12018, 1.9704, 4.14889, -0.0814099, -0.00486637, -0.00138545, 0.00620886, 0.0199567, -0.0137241, 0.00355491, 0.0816076, -0.0117464, 0.00220879, -0.10846, 0.245147, 0.0401622, 0.470199, -0.539749, 0.336293, -2.08005, -2.16505, -0.132281, 0.468765, -0.543634, 0.329437, -2.08008, -2.16129, -0.0959136, -0.0142558, 0.0685029, 0.00843714, 0.000580737, -0.0118637, -0.00268708
0.163181, 1.69592, -1.22948, -1.54657, -0.90406, -1.2094, 1.22575, -1.30242, 0.00334158, 0.0139571, 0.00428575, -0.0637159, -0.185826, -0.0025761, 0.00294447, -2.80907, 69.3057, 34.8597, 9.12018, 1.93927, 4.19925, -0.0685925, -0.00495826, -0.00138242, 0.00619908, 0.0201578, -0.0141166, 0.0035759, 0.0842898, -0.00684967, 0.00438, -0.106419, 0.243982, 0.0377711, 0.470185, -0.539681, 0.336301, -2.07998, -2.16503, -0.132324, 0.468757, -0.543657, 0.32944, -2.08012, -2.16139, -0.0953333, -0.0143965, 0.0692999, 0.00855954, -0.00426752, -0.0142615, -0.000701198
0.164181, 1.69592, -1.22946, -1.54656, -0.904132, -1.20957, 1.22575, -1.30242, 0.0024474, 0.0163658, 0.00545256, -0.0665174, -0.181661, -0.00276732, 0.00240923, -2.80907, 69.0121, 34.7486, 9.12018, 1.92737, 4.22763, -0.0750012, -0.00503776, -0.00137442, 0.00618836, 0.0202384, -0.014343, 0.00359795, 0.0833693, -0.00768568, 0.00585461, -0.104452, 0.243819, 0.0421762, 0.47017, -0.539612, 0.33631, -2.0799, -2.16502, -0.132367, 0.468754, -0.543667, 0.329446, -2.08014, -2.16145, -0.0950552, -0.0145372, 0.0701002, 0.0086829, -0.00355047, -0.0127486, 0.00099205
0.165181, 1.69591, -1.22945, -1.54655, -0.9042, -1.20974, 1.22574, -1.30242, 0.00179636, 0.0145823, 0.0093926, -0.0670284, -0.173062, -0.00343765, 0.00105074, -2.80907, 68.8614, 34.6375, 9.04877, 1.90265, 4.27066, -0.0557752, -0.00511998, -0.00136887, 0.00618252, 0.0203209, -0.0145567, 0.00361965, 0.0819009, -0.00913516, 0.00607012, -0.0977454, 0.235225, 0.048545, 0.470156, -0.539541, 0.336318, -2.07983, -2.165, -0.132411, 0.468748, -0.543678, 0.329447, -2.08015, -2.16149, -0.0947885, -0.014678, 0.0709037, 0.00880724, -0.00228818, -0.0104679, 0.00151171
0.166181, 1.6959, -1.22943, -1.54654, -0.904275, -1.2099, 1.22573, -1.30242, -0.0026808, 0.0158626, 0.00652346, -0.0725056, -0.172407, -0.00741858, -0.000640066, -2.77337, 68.6035, 34.6375, 9.04877, 1.90265, 4.28531, -0.0164075, -0.0052016, -0.00136325, 0.0061739, 0.0204049, -0.0147777, 0.00363892, 0.0830267, -0.00675105, 0.00496834, -0.105061, 0.235286, 0.0498132, 0.470141, -0.539471, 0.336327, -2.07976, -2.16498, -0.132455, 0.468742, -0.543689, 0.329451, -2.08017, -2.16155, -0.0945132, -0.0148189, 0.0717102, 0.00893254, -0.00480709, -0.0106992, 0.000439381
0.167181, 1.69589, -1.22942, -1.54654, -0.90435, -1.21006, 1.22572, -1.30241, -0.00288643, 0.0163242, 0.00454527, -0.0745508, -0.167394, -0.00664971, 0.00183155, -2.7337, 68.4964, 34.6375, 8.97339, 1.91546, 4.32101, -0.0750012, -0.00528611, -0.00135902, 0.00617258, 0.0204955, -0.0149901, 0.00367278, 0.0827978, -0.00754659, 0.00433144, -0.104519, 0.233164, 0.0500798, 0.470126, -0.539399, 0.336336, -2.07969, -2.16496, -0.132499, 0.468735, -0.5437, 0.329447, -2.08019, -2.16158, -0.0942386, -0.0149597, 0.0725199, 0.00905882, -0.00418376, -0.00952863, -5.67625e-05
0.168181, 1.69588, -1.2294, -1.54653, -0.904427, -1.21022, 1.22572, -1.30241, -0.00590882, 0.0164045, 0.00537609, -0.0722887, -0.162711, -0.00577047, 0.00616298, -2.69799, 68.2742, 34.6732, 8.85834, 1.89624, 4.34939, -0.0814099, -0.00537019, -0.00135403, 0.00616589, 0.0205781, -0.0152076, 0.00369357, 0.084614, -0.00628738, 0.00521964, -0.0991392, 0.230321, 0.0431638, 0.470112, -0.539326, 0.336345, -2.07961, -2.16495, -0.132544, 0.468728, -0.543711, 0.329449, -2.0802, -2.16163, -0.0939692, -0.0151006, 0.0733327, 0.00918606, -0.00547924, -0.0107005, 0.000691692
0.169181, 1.69587, -1.22938, -1.54651, -0.90451, -1.21038, 1.22571, -1.30241, -0.0133219, 0.0185834, 0.0087857, -0.075765, -0.16074, -0.00379034, 0.00284935, -2.58294, 68.0917, 34.6018, 8.82263, 1.92096, 4.34207, -0.0356336, -0.00545297, -0.00134814, 0.00615786, 0.0206555, -0.0154228, 0.00370637, 0.0866059, -0.00416403, 0.00779511, -0.0937059, 0.232438, 0.0448713, 0.470096, -0.539253, 0.336354, -2.07954, -2.16493, -0.132589, 0.468723, -0.54372, 0.329453, -2.08021, -2.16169, -0.0937092, -0.0152415, 0.0741485, 0.00931428, -0.0075678, -0.0123456, 0.00310474
0.170181, 1.69585, -1.22937, -1.5465, -0.904595, -1.21053, 1.2257, -1.30241, -0.0105062, 0.0145961, 0.0137087, -0.0813524, -0.158035, -0.00761029, 0.00175193, -2.54723, 68.0164, 34.5621, 8.78693, 1.92096, 4.34939, -0.0228162, -0.00553356, -0.0013405, 0.00615362, 0.0207351, -0.0156258, 0.0037185, 0.0829617, -0.00767187, 0.0059152, -0.0947045, 0.225483, 0.0573914, 0.470081, -0.539179, 0.336364, -2.07946, -2.16491, -0.132635, 0.468718, -0.543725, 0.329453, -2.0802, -2.16174, -0.0934597, -0.0153825, 0.0749674, 0.00944347, -0.00440964, -0.00748455, 0.00184356
0.171181, 1.69584, -1.22935, -1.54649, -0.904679, -1.21067, 1.22569, -1.3024, -0.0133287, 0.0174943, 0.0123605, -0.0805413, -0.15274, -0.010539, 0.00334605, -2.43218, 67.8339, 34.6018, 8.67188, 1.95209, 4.35672, -0.0750012, -0.00561751, -0.00133708, 0.00614441, 0.0208162, -0.0158383, 0.00374467, 0.0839518, -0.00577272, 0.00715561, -0.0947404, 0.223313, 0.0537249, 0.470066, -0.539104, 0.336373, -2.07939, -2.16489, -0.132681, 0.46871, -0.543734, 0.329458, -2.08022, -2.16179, -0.0931979, -0.0155234, 0.0757893, 0.00957364, -0.00636147, -0.00791548, 0.00309334
0.172181, 1.69582, -1.22934, -1.54649, -0.90477, -1.21081, 1.22568, -1.3024, -0.0144009, 0.0185145, 0.0075387, -0.083981, -0.147235, -0.0117038, 0.00217732, -2.3568, 67.8339, 34.6732, 8.60046, 1.94568, 4.33566, -0.0685925, -0.00569935, -0.00133039, 0.00614534, 0.0209003, -0.016031, 0.00375319, 0.0839543, -0.00556882, 0.00552694, -0.0986432, 0.220629, 0.0567742, 0.47005, -0.539028, 0.336383, -2.07931, -2.16487, -0.132728, 0.468704, -0.543738, 0.329453, -2.0802, -2.16183, -0.0929553, -0.0156643, 0.0766142, 0.00970477, -0.00676475, -0.00684397, 0.00161734
0.173181, 1.6958, -1.22931, -1.54647, -0.904851, -1.21094, 1.22567, -1.3024, -0.0161573, 0.0189027, 0.00972963, -0.08664, -0.148231, -0.0127273, -0.000580601, -2.24175, 67.7228, 34.6375, 8.414, 1.94568, 4.31369, -0.00999879, -0.00578428, -0.00132768, 0.00613433, 0.0209694, -0.0162328, 0.00376936, 0.0843909, -0.00536949, 0.00618309, -0.0988864, 0.222161, 0.0612409, 0.470035, -0.538951, 0.336392, -2.07923, -2.16485, -0.132775, 0.468694, -0.543746, 0.329459, -2.0802, -2.16189, -0.0927196, -0.0158053, 0.0774421, 0.00983689, -0.00706154, -0.00655813, 0.00232754
0.174181, 1.69578, -1.2293, -1.54646, -0.90494, -1.21108, 1.22566, -1.3024, -0.016426, 0.0118702, 0.00977332, -0.0912103, -0.145597, -0.00882938, 0.00114058, -2.16637, 67.7942, 34.6732, 8.29895, 1.9823, 4.29263, -0.0484509, -0.00586733, -0.0013219, 0.00613326, 0.0210508, -0.0164237, 0.0037847, 0.084529, -0.00750367, 0.00175675, -0.0967897, 0.216188, 0.0648395, 0.470019, -0.538874, 0.336402, -2.07915, -2.16483, -0.132822, 0.468687, -0.54375, 0.329457, -2.08019, -2.16193, -0.0924819, -0.0159461, 0.0782729, 0.00996998, -0.00523009, -0.00507211, -0.00200162
0.175181, 1.69576, -1.22928, -1.54645, -0.90504, -1.21121, 1.22564, -1.30239, -0.0167616, 0.0166016, 0.013823, -0.0954983, -0.137107, -0.010587, 0.00158399, -2.091, 67.7228, 34.6732, 8.22754, 1.9823, 4.27066, -0.0685925, -0.00594586, -0.00131404, 0.00612606, 0.0211319, -0.0166212, 0.00379057, 0.0811294, -0.00966364, 0.00520898, -0.0922097, 0.214026, 0.0728535, 0.470003, -0.538796, 0.336412, -2.07907, -2.16481, -0.13287, 0.468683, -0.543749, 0.329461, -2.08017, -2.16198, -0.0922393, -0.016087, 0.0791067, 0.010104, -0.00320907, -0.00133645, 0.00200731
0.176181, 1.69573, -1.22926, -1.54644, -0.905135, -1.21133, 1.22562, -1.30239, -0.0178898, 0.0144435, 0.00948383, -0.100044, -0.132321, -0.0114303, 0.00572222, -1.97991, 67.7585, 34.7129, 8.07678, 2.01343, 4.23495, -0.0685925, -0.00603043, -0.00131166, 0.00612224, 0.0212121, -0.0168101, 0.00380385, 0.081211, -0.00979837, 0.00174931, -0.096485, 0.209059, 0.0715978, 0.469987, -0.538717, 0.336422, -2.07899, -2.16479, -0.132919, 0.468672, -0.543754, 0.329461, -2.08016, -2.16202, -0.0920061, -0.0162278, 0.0799433, 0.0102391, -0.00334025, -2.65299e-05, -0.00129462
0.177181, 1.6957, -1.22925, -1.54643, -0.905234, -1.21145, 1.2256, -1.30239, -0.0208573, 0.014298, 0.0103942, -0.100271, -0.128344, -0.0118571, 0.00254705, -1.90453, 67.8696, 34.7129, 7.92602, 2.03815, 4.19192, -0.0228162, -0.00611202, -0.00130522, 0.00612035, 0.0212896, -0.0169927, 0.00380429, 0.082306, -0.00882341, 0.00206546, -0.0937463, 0.206088, 0.074224, 0.469971, -0.538637, 0.336433, -2.07891, -2.16477, -0.132968, 0.468665, -0.543754, 0.329459, -2.08013, -2.16208, -0.0917841, -0.0163686, 0.0807828, 0.0103751, -0.00439958, -0.000357858, -0.000997089
0.178181, 1.69568, -1.22923, -1.54642, -0.90534, -1.21158, 1.22559, -1.30239, -0.0223141, 0.017181, 0.0134657, -0.10252, -0.125778, -0.0174883, 0.00225614, -1.86486, 67.8696, 34.7486, 7.85065, 2.07477, 4.16354, -0.0292249, -0.00619154, -0.00129685, 0.00611521, 0.0213686, -0.0171833, 0.00380222, 0.0811543, -0.00836662, 0.00412601, -0.0951733, 0.204854, 0.077637, 0.469954, -0.538556, 0.336443, -2.07883, -2.16475, -0.133017, 0.468661, -0.543752, 0.329461, -2.0801, -2.16214, -0.0915529, -0.0165093, 0.0816252, 0.0105121, -0.00495972, 0.00127608, 0.00136491
0.179181, 1.69565, -1.22921, -1.54641, -0.905445, -1.21169, 1.22557, -1.30238, -0.0235135, 0.0209985, 0.0117057, -0.105446, -0.119395, -0.0164786, 0.002728, -1.82915, 67.7942, 34.824, 7.70386, 2.1178, 4.12051, -0.0557752, -0.00627322, -0.00129233, 0.00610731, 0.0214515, -0.0173773, 0.00381115, 0.0805433, -0.00897467, 0.00547869, -0.0935696, 0.205099, 0.0801651, 0.469938, -0.538474, 0.336454, -2.07875, -2.16473, -0.133067, 0.468652, -0.543751, 0.329466, -2.08008, -2.16218, -0.0913134, -0.01665, 0.0824704, 0.0106501, -0.00446281, 0.00253704, 0.00290987
0.180181, 1.69561, -1.22919, -1.54639, -0.905557, -1.21181, 1.22555, -1.30238, -0.0271813, 0.019128, 0.012223, -0.108409, -0.114692, -0.00971934, 0.00149046, -1.6784, 67.9053, 34.824, 7.59277, 2.17273, 4.04086, -0.0420422, -0.0063566, -0.00128833, 0.00610463, 0.0215275, -0.0175578, 0.00381081, 0.0819891, -0.00958597, 0.00490292, -0.0859115, 0.203649, 0.0827635, 0.469921, -0.538392, 0.336464, -2.07866, -2.16471, -0.133117, 0.468642, -0.543751, 0.329466, -2.08004, -2.16224, -0.0910966, -0.0167906, 0.0833185, 0.010789, -0.00395818, 0.00207739, 0.00222429
0.181181, 1.69558, -1.22917, -1.54638, -0.90567, -1.21191, 1.22553, -1.30239, -0.0301409, 0.0198776, 0.0125053, -0.110788, -0.114045, -0.00949922, -0.000566467, -1.63873, 67.941, 34.824, 7.47772, 2.19104, 3.96213, 0.00373412, -0.00643445, -0.00127909, 0.00609827, 0.0215968, -0.0177346, 0.00379781, 0.0832312, -0.00870872, 0.00529701, -0.0856289, 0.204879, 0.0847409, 0.469904, -0.538309, 0.336475, -2.07858, -2.16469, -0.133167, 0.468638, -0.543744, 0.329469, -2.08, -2.1623, -0.0908929, -0.0169311, 0.0841693, 0.010929, -0.00491084, 0.00160377, 0.00257546
0.182181, 1.69555, -1.22916, -1.54636, -0.90579, -1.21201, 1.2255, -1.30238, -0.0331165, 0.0178546, 0.0140995, -0.11337, -0.110669, -0.0091678, 0.00192789, -1.56335, 68.0917, 34.8993, 7.40631, 2.24048, 3.87607, -0.0557752, -0.00651548, -0.0012734, 0.00609983, 0.0216758, -0.0179018, 0.00379697, 0.083878, -0.00848491, 0.00448018, -0.0831264, 0.201151, 0.0839487, 0.469887, -0.538224, 0.336486, -2.07849, -2.16467, -0.133218, 0.46863, -0.543739, 0.329465, -2.07995, -2.16235, -0.0906874, -0.0170715, 0.0850228, 0.0110699, -0.00527892, 0.00194018, 0.0018074
0.183181, 1.69551, -1.22914, -1.54635, -0.905916, -1.2121, 1.22549, -1.30237, -0.0365276, 0.0194174, 0.0132174, -0.118501, -0.107563, -0.0093486, 0.00109011, -1.45226, 68.1274, 34.9351, 7.33093, 2.2771, 3.79733, -0.0484509, -0.00659546, -0.00126605, 0.00609732, 0.0217488, -0.0180753, 0.00378647, 0.0841552, -0.00794956, 0.00453333, -0.0842146, 0.201296, 0.0869159, 0.46987, -0.538139, 0.336497, -2.07841, -2.16465, -0.13327, 0.468623, -0.543732, 0.329465, -2.0799, -2.16241, -0.0904834, -0.0172118, 0.0858791, 0.0112118, -0.00593897, 0.0024926, 0.00196744
0.184181, 1.69547, -1.22913, -1.54633, -0.906045, -1.2122, 1.22546, -1.30237, -0.0372213, 0.0196347, 0.0156836, -0.119876, -0.100639, -0.0106562, 0.00498215, -1.41259, 68.1989, 34.9708, 7.29126, 2.31372, 3.7543, -0.0356336, -0.0066731, -0.00125729, 0.00609483, 0.0218221, -0.0182427, 0.00377018, 0.0828967, -0.0089549, 0.00522823, -0.0802929, 0.196024, 0.0874322, 0.469853, -0.538053, 0.336508, -2.07832, -2.16463, -0.133322, 0.468618, -0.543723, 0.329466, -2.07984, -2.16247, -0.0902865, -0.017352, 0.0867382, 0.0113547, -0.00509386, 0.00452718, 0.00295909
0.185181, 1.69542, -1.22911, -1.54632, -0.90618, -1.21228, 1.22544, -1.30238, -0.0386823, 0.0190889, 0.0144139, -0.12461, -0.0953195, -0.0117758, 0.00205825, -1.33721, 68.1631, 35.0104, 7.29126, 2.35126, 3.71127, 0.0101428, -0.00675115, -0.00125117, 0.00609102, 0.0219011, -0.0184117, 0.00374778, 0.0821763, -0.00947432, 0.00375492, -0.0818203, 0.191839, 0.0946654, 0.469836, -0.537967, 0.33652, -2.07823, -2.1646, -0.133374, 0.46861, -0.543713, 0.329468, -2.07977, -2.16254, -0.0900828, -0.0174921, 0.0875999, 0.0114985, -0.00479576, 0.00635699, 0.00174172
0.186181, 1.69537, -1.22909, -1.5463, -0.906314, -1.21237, 1.22541, -1.30237, -0.0406211, 0.0198727, 0.0183542, -0.127447, -0.0867313, -0.0176425, 0.00339176, -1.22613, 68.1989, 34.9708, 7.25555, 2.38788, 3.68289, -0.0356336, -0.00683056, -0.00124474, 0.00608744, 0.0219677, -0.0185732, 0.00373442, 0.0798848, -0.00970844, 0.00476024, -0.0802651, 0.18347, 0.0989742, 0.469818, -0.537879, 0.336531, -2.07815, -2.16458, -0.133427, 0.468602, -0.543703, 0.32947, -2.07971, -2.1626, -0.0898998, -0.0176321, 0.0884643, 0.0116434, -0.00474774, 0.00933322, 0.0032315
