alisrour97/Franka_experiments/Real_Robot_scripts/servo-franka/Data2/log_dyn_INIT2_1.csv
Time,q1,q2,q3,q4,q5,q6,q7,dq1,dq2,dq3,dq4,dq5,dq6,dq7,t1,t2,t3,t4,t5,t6,t7,ex1,ex2,ex3,ex4,ex5,ex6,ev1,ev2,ev3,ev4,ev5,ev6,xd,yd,zd,uxd,uyd,uzd,x,y,z,ux,uy,uz,vxd,vyd,vzd,vx,vy,vz
4.88281e-07, 1.69139, -1.22407, -1.53779, -0.899712, -1.19188, 1.2287, -1.30257, -0.00425032, -0.00147938, 0.00591817, 0.00587774, 0.00615039, 0.00107037, 0.00047652, -0.543754, 55.2377, 26.6712, 5.87494, 1.73053, 2.72983, -0.284657, 0.00100902, -0.00159567, -0.000930213, -0.000371738, -0.00205767, 0.000267934, 0.0014673, 0.00173101, 0.00237009, 0.0122874, -0.00695695, -0.00482876, 0.471008, -0.543389, 0.335894, -2.08385, -2.16584, -0.129887, 0.469414, -0.5426, 0.337018, -2.08539, -2.16686, -0.128152, -1.48327e-05, 4.00419e-05, -1.29039e-06, -0.00160559, -0.00184413, 0.00216344
0.0121128, 1.69137, -1.22408, -1.53777, -0.899717, -1.19182, 1.22871, -1.30257, -0.000923858, 0.00063727, 0.000890153, -0.00204529, 0.0064281, 0.000246987, -0.00080421, -0.619133, 55.1624, 26.6712, 5.95032, 1.64447, 2.71518, -0.251698, 0.00101475, -0.00159471, -0.000934012, -0.000423073, -0.0020077, 0.000255025, -0.00161061, -0.000874309, 0.000484299, 0.0031955, -0.00431499, 0.00432641, 0.471008, -0.543389, 0.335894, -2.08385, -2.16584, -0.129887, 0.469413, -0.542597, 0.337022, -2.08538, -2.16686, -0.128293, -2.49008e-05, 7.8927e-05, 1.60533e-06, 0.00080817, 0.00163021, 0.000703427
0.0131128, 1.69137, -1.22408, -1.53777, -0.899717, -1.19182, 1.22871, -1.30257, -0.000923858, 0.00063727, 0.000890153, -0.00204529, 0.0064281, 0.000246987, -0.00080421, -0.619133, 55.1624, 26.6712, 5.95032, 1.64447, 2.71518, -0.251698, 0.00101474, -0.00159471, -0.000934013, -0.000423075, -0.00200771, 0.000255029, -0.00156755, -0.00088367, 0.000488099, 0.00319557, -0.00426691, 0.00435721, 0.471008, -0.543389, 0.335894, -2.08385, -2.16584, -0.129887, 0.469413, -0.542597, 0.337022, -2.08538, -2.16686, -0.128293, -3.59273e-05, 0.000121646, 4.81928e-06, 0.00080817, 0.00163021, 0.000703427
0.0141128, 1.69137, -1.22408, -1.53777, -0.899717, -1.19182, 1.22871, -1.30257, -0.000923858, 0.00063727, 0.000890153, -0.00204529, 0.0064281, 0.000246987, -0.00080421, -0.619133, 55.1624, 26.6712, 5.95032, 1.64447, 2.71518, -0.251698, 0.00101471, -0.00159471, -0.000934015, -0.000423081, -0.00200773, 0.00025504, -0.00152046, -0.000893871, 0.000492219, 0.00319571, -0.00421439, 0.0043908, 0.471008, -0.543389, 0.335894, -2.08385, -2.16584, -0.129887, 0.469413, -0.542597, 0.337022, -2.08538, -2.16686, -0.128293, -4.79476e-05, 0.000168349, 8.36616e-06, 0.00080817, 0.00163021, 0.000703427
0.0151128, 1.69137, -1.22408, -1.53777, -0.899717, -1.19182, 1.22871, -1.30257, -0.000923858, 0.00063727, 0.000890153, -0.00204529, 0.0064281, 0.000246987, -0.00080421, -0.619133, 55.1624, 26.6712, 5.95032, 1.64447, 2.71518, -0.251698, 0.00101467, -0.0015947, -0.000934019, -0.000423092, -0.00200778, 0.000255061, -0.0014692, -0.000904941, 0.000496669, 0.00319594, -0.00415727, 0.0044273, 0.471008, -0.543389, 0.335894, -2.08385, -2.16584, -0.129887, 0.469413, -0.542597, 0.337022, -2.08538, -2.16686, -0.128293, -6.09969e-05, 0.000219187, 1.22607e-05, 0.00080817, 0.00163021, 0.000703427
0.0161128, 1.69137, -1.22408, -1.53777, -0.899717, -1.19182, 1.22871, -1.30257, -0.000923858, 0.00063727, 0.000890153, -0.00204529, 0.0064281, 0.000246987, -0.00080421, -0.619133, 55.1624, 26.6712, 5.95032, 1.64447, 2.71518, -0.251698, 0.00101459, -0.00159468, -0.000934026, -0.000423111, -0.00200785, 0.000255095, -0.00141361, -0.000916909, 0.000501459, 0.00319627, -0.0040954, 0.00446679, 0.471008, -0.543389, 0.335894, -2.08385, -2.16584, -0.129887, 0.469413, -0.542597, 0.337022, -2.08538, -2.16686, -0.128293, -7.51097e-05, 0.000274308, 1.65177e-05, 0.00080817, 0.00163021, 0.000703427
0.017113, 1.69137, -1.22408, -1.53777, -0.899717, -1.19182, 1.22871, -1.30257, -0.000923858, 0.00063727, 0.000890153, -0.00204529, 0.0064281, 0.000246987, -0.00080421, -0.619133, 55.1624, 26.6712, 5.95032, 1.64447, 2.71518, -0.251698, 0.00101448, -0.00159465, -0.000934036, -0.000423139, -0.00200796, 0.000255146, -0.00135356, -0.000929803, 0.000506597, 0.0031967, -0.00402861, 0.00450939, 0.471008, -0.543389, 0.335894, -2.08385, -2.16584, -0.129887, 0.469413, -0.542597, 0.337022, -2.08538, -2.16686, -0.128293, -9.03198e-05, 0.000333859, 2.1152e-05, 0.00080817, 0.00163021, 0.000703427
0.018113, 1.69137, -1.22408, -1.53777, -0.899717, -1.19182, 1.22871, -1.30257, -0.000923858, 0.00063727, 0.000890153, -0.00204529, 0.0064281, 0.000246987, -0.00080421, -0.619133, 55.1624, 26.6712, 5.95032, 1.64447, 2.71518, -0.251698, 0.00101432, -0.00159462, -0.00093405, -0.000423177, -0.00200811, 0.000255217, -0.00128889, -0.000943651, 0.000512094, 0.00319724, -0.00395674, 0.00455517, 0.471008, -0.543389, 0.335894, -2.08385, -2.16584, -0.129887, 0.469413, -0.542597, 0.337022, -2.08538, -2.16686, -0.128293, -0.000106661, 0.000397984, 2.61782e-05, 0.00080817, 0.00163021, 0.000703427
0.019113, 1.69137, -1.22408, -1.53777, -0.899717, -1.19182, 1.22871, -1.30257, -0.000923858, 0.00063727, 0.000890153, -0.00204529, 0.0064281, 0.000246987, -0.00080421, -0.619133, 55.1624, 26.6712, 5.95032, 1.64447, 2.71518, -0.251698, 0.00101411, -0.00159457, -0.000934068, -0.000423229, -0.00200831, 0.000255311, -0.00121946, -0.00095848, 0.000517957, 0.00319791, -0.00387965, 0.00460424, 0.471008, -0.543389, 0.335894, -2.08385, -2.16584, -0.129887, 0.469413, -0.542597, 0.337022, -2.08538, -2.16686, -0.128293, -0.000124165, 0.000466826, 3.16113e-05, 0.00080817, 0.00163021, 0.000703427
0.020113, 1.69137, -1.22408, -1.53777, -0.899717, -1.19182, 1.22871, -1.30257, -0.000923858, 0.00063727, 0.000890153, -0.00204529, 0.0064281, 0.000246987, -0.00080421, -0.619133, 55.1624, 26.6712, 5.95032, 1.64447, 2.71518, -0.251698, 0.00101384, -0.00159452, -0.000934092, -0.000423295, -0.00200857, 0.000255431, -0.00114512, -0.000974317, 0.000524194, 0.0031987, -0.00379718, 0.00465669, 0.471008, -0.543388, 0.335894, -2.08385, -2.16584, -0.129887, 0.469413, -0.542597, 0.337022, -2.08538, -2.16686, -0.128293, -0.000142864, 0.000540525, 3.74658e-05, 0.00080817, 0.00163021, 0.000703427
0.021113, 1.69136, -1.22411, -1.53777, -0.89971, -1.19178, 1.22871, -1.30257, -0.00332215, -0.00460866, 0.00148062, 0.000677674, 0.0060034, -8.97494e-05, -0.00107077, -0.43267, 55.1981, 26.7069, 5.83527, 1.64447, 2.72983, -0.238881, 0.00101165, -0.00159739, -0.000922313, -0.000452668, -0.00194831, 0.000253693, 0.00123657, 0.000873085, -0.0018635, 0.00445519, -0.00910468, 0.00046082, 0.471008, -0.543388, 0.335894, -2.08384, -2.16584, -0.129888, 0.46941, -0.542597, 0.33701, -2.08536, -2.16684, -0.128387, -0.000162789, 0.000619218, 4.37565e-05, -0.0010578, -0.000350459, -0.00196191
0.022113, 1.69136, -1.22411, -1.53776, -0.899712, -1.19178, 1.22871, -1.30257, -0.00155627, -0.00580481, 0.00108111, -0.00047408, 0.00522162, -5.98335e-05, -0.000476487, -0.468376, 55.1624, 26.7069, 5.87494, 1.62616, 2.72983, -0.245289, 0.00101385, -0.00159516, -0.000922334, -0.000456221, -0.00194337, 0.000248696, 0.000552432, -0.000262193, -0.00295055, 0.00284898, -0.00936792, 0.00224249, 0.471008, -0.543388, 0.335894, -2.08384, -2.16584, -0.129888, 0.469412, -0.542594, 0.33701, -2.08536, -2.16685, -0.128397, -0.000183971, 0.000703042, 5.04979e-05, -8.86673e-06, 0.000622529, -0.00295658
0.023113, 1.69136, -1.22412, -1.53776, -0.899711, -1.19178, 1.22871, -1.30257, -0.00117006, -0.00994425, -0.00359217, 0.000613585, 0.00500594, -0.000548516, -8.03006e-05, -0.468376, 55.1266, 26.5958, 5.83527, 1.59595, 2.74356, -0.251698, 0.00101286, -0.00159509, -0.000917663, -0.000457241, -0.00193244, 0.000249216, 0.00216046, 0.000603611, -0.00694027, -0.00164303, -0.0132397, -0.00091689, 0.471008, -0.543387, 0.335894, -2.08384, -2.16584, -0.129888, 0.469411, -0.542594, 0.337005, -2.08535, -2.16684, -0.12841, -0.000206438, 0.000792126, 5.77046e-05, -0.000982535, -0.000297219, -0.00711239
0.024113, 1.69137, -1.22412, -1.53776, -0.899714, -1.19178, 1.2287, -1.30258, 4.85731e-05, -0.0089908, -0.00281419, 0.00041027, -0.00369124, -0.00195937, 0.00792305, -0.508049, 55.0513, 26.449, 5.83527, 1.5401, 2.78659, -0.186696, 0.00101499, -0.00159114, -0.000911862, -0.00045077, -0.00192632, 0.000237472, 0.00297469, 0.000972736, -0.00631139, -0.00643498, -0.00575923, -0.0100372, 0.471007, -0.543387, 0.335894, -2.08384, -2.16584, -0.129889, 0.469415, -0.54259, 0.337, -2.08533, -2.16685, -0.12841, -0.000230219, 0.000886601, 6.53909e-05, -0.00132315, -0.00111848, -0.00659898
0.025113, 1.69136, -1.22412, -1.53777, -0.89971, -1.19178, 1.22871, -1.30257, 0.00220527, -0.00354163, -0.00254984, -0.0012281, -0.00165963, 0.00150917, 0.00591002, -0.468376, 54.9045, 26.449, 5.76385, 1.50348, 2.83694, -0.180287, 0.0010104, -0.00159405, -0.000910834, -0.000446876, -0.00193109, 0.000254067, 0.00101094, -0.0014347, -0.00304699, -0.00290313, 2.59093e-05, -0.0036712, 0.471007, -0.543386, 0.335894, -2.08384, -2.16584, -0.129889, 0.469412, -0.542594, 0.336998, -2.08535, -2.16683, -0.1284, -0.000255341, 0.00098659, 7.35711e-05, 0.00110367, 0.000516241, -0.00313523
0.026113, 1.69136, -1.22413, -1.53778, -0.899713, -1.19179, 1.22871, -1.30257, 0.000843669, 0.000571229, -0.00220518, -0.00191768, -0.000844603, -0.000977446, 0.00360567, -0.43267, 55.0156, 26.449, 5.79956, 1.48517, 2.90103, -0.153737, 0.00100808, -0.001594, -0.000907213, -0.000441514, -0.00193408, 0.000258028, 0.000630047, -0.000469875, -0.000746102, -0.00416011, 0.00234278, -0.0016661, 0.471007, -0.543385, 0.335894, -2.08384, -2.16584, -0.12989, 0.469412, -0.542595, 0.336994, -2.08535, -2.16682, -0.128391, -0.00028183, 0.00109222, 8.22592e-05, 0.000183035, 0.000604275, -0.0007664
0.027113, 1.69136, -1.22414, -1.53777, -0.899715, -1.19179, 1.22871, -1.30256, 0.00198254, -0.0060247, -0.00184908, -0.00231147, -0.000637974, -0.00171544, 0.00166983, -0.357292, 55.4202, 26.449, 5.83527, 1.47876, 2.93765, -0.120778, 0.00100486, -0.00159288, -0.000897739, -0.000445901, -0.00192055, 0.000258642, 0.000563155, -0.00129171, -0.00466277, -0.0053073, -0.00459315, 0.00217145, 0.471007, -0.543384, 0.335894, -2.08384, -2.16584, -0.129891, 0.469412, -0.542596, 0.336985, -2.08534, -2.16682, -0.12841, -0.000309711, 0.0012036, 9.14692e-05, 0.000832153, 0.00141817, -0.00463898
0.028113, 1.69136, -1.22414, -1.53777, -0.899711, -1.19179, 1.22872, -1.30257, 0.00169132, -0.00321555, -0.0041154, -0.000854111, -0.000456064, -0.00143286, 0.00052885, -0.357292, 55.5313, 26.5601, 5.79956, 1.47327, 2.95138, -0.0951428, 0.00100174, -0.0015922, -0.000901362, -0.000453533, -0.00193196, 0.000262363, 0.00143912, -0.000450408, -0.00356397, -0.00598204, -0.00166294, 0.000752292, 0.471007, -0.543383, 0.335894, -2.08384, -2.16584, -0.129891, 0.469413, -0.542598, 0.336988, -2.08536, -2.16682, -0.128408, -0.000339009, 0.00132085, 0.000101215, 3.36288e-05, 0.000467091, -0.00365486
0.029113, 1.69136, -1.22415, -1.53777, -0.899716, -1.19179, 1.22874, -1.30256, 0.00047675, -0.00458642, -0.00224102, -0.000106165, -0.000683142, 0.00496115, 0.00205052, -0.317619, 55.7892, 26.6712, 5.91064, 1.47876, 2.923, -0.133595, 0.00099912, -0.00158843, -0.000898485, -0.000463006, -0.00193739, 0.000264752, 0.00277378, -0.00112511, -0.00296221, 0.00154041, 0.000232225, -0.00168039, 0.471006, -0.543382, 0.335894, -2.08384, -2.16584, -0.129892, 0.469417, -0.542599, 0.336984, -2.08537, -2.16683, -0.128413, -0.000369746, 0.00144407, 0.00011151, 0.000746174, -0.000792323, -0.00327784
0.030113, 1.69137, -1.22414, -1.53777, -0.899715, -1.19179, 1.22875, -1.30257, 0.00280576, 0.00127483, -0.00221292, 0.000110191, -0.000824523, 0.00825012, 0.000622926, -0.281914, 55.9003, 26.7069, 5.91064, 1.48517, 2.93033, -0.10796, 0.000998528, -0.00158502, -0.000902204, -0.000472988, -0.00194665, 0.000257249, 0.00173371, -0.00289408, 0.000696591, 0.0045915, 0.00800738, 0.00181658, 0.471006, -0.543381, 0.335894, -2.08384, -2.16584, -0.129893, 0.46942, -0.542599, 0.336988, -2.08537, -2.16684, -0.128416, -0.000401943, 0.00157338, 0.000122367, 0.00257554, -0.000127019, 0.000453914
0.031113, 1.69137, -1.22414, -1.53778, -0.899717, -1.19179, 1.22876, -1.30257, 0.00135802, 0.000691868, -0.00315129, -0.000718834, -0.000411126, 0.00978138, 0.000806655, -0.242241, 56.0828, 26.7823, 5.95032, 1.47876, 2.96603, -0.114369, 0.000996155, -0.00158241, -0.000899359, -0.000476802, -0.00194992, 0.000255967, 0.00259727, -0.0024679, 0.000128694, 0.0050779, 0.0080863, 0.000720628, 0.471006, -0.54338, 0.335895, -2.08384, -2.16584, -0.129894, 0.469422, -0.542599, 0.336985, -2.08537, -2.16685, -0.128419, -0.00043562, 0.00170887, 0.000133799, 0.00212661, -0.000774086, -0.000216596
0.032113, 1.69137, -1.22414, -1.53778, -0.899716, -1.19179, 1.22876, -1.30256, 0.00331798, -0.000311045, -0.00296345, 0.000550591, 0.000329983, 0.0100802, 0.00187398, -0.206535, 56.1581, 26.822, 5.91064, 1.46045, 3.02371, -0.147328, 0.000993469, -0.0015805, -0.000898992, -0.000477609, -0.00195882, 0.000264425, 0.00218779, -0.00350299, -0.000282632, 0.00607007, 0.00671991, 0.000934875, 0.471005, -0.543378, 0.335895, -2.08383, -2.16584, -0.129895, 0.469424, -0.5426, 0.336984, -2.08538, -2.16684, -0.128411, -0.000470796, 0.00185063, 0.00014582, 0.00309571, -0.000122401, -0.00057837
0.033113, 1.69137, -1.22414, -1.53778, -0.899719, -1.19179, 1.22878, -1.30256, 0.00396937, 0.000535847, -0.000163331, 0.000443407, 0.000605222, 0.0106792, 0.00109859, -0.131157, 56.1581, 26.7466, 5.91064, 1.44855, 3.07315, -0.140919, 0.0009928, -0.00157662, -0.000904383, -0.000489316, -0.00197308, 0.000261252, 0.00135714, -0.00454001, 0.00122161, 0.00908665, 0.0076467, 0.00398014, 0.471005, -0.543376, 0.335895, -2.08383, -2.16584, -0.129896, 0.469427, -0.5426, 0.336989, -2.08539, -2.16686, -0.128411, -0.000507488, 0.00199877, 0.000158442, 0.00411929, 0.000656666, 0.00101724
0.034113, 1.69138, -1.22414, -1.53778, -0.89972, -1.1918, 1.22879, -1.30257, 0.00325858, 0.00142635, 0.000855933, 0.000352864, 0.000836517, 0.00727139, -0.00235611, -0.131157, 56.2653, 26.7069, 5.91064, 1.43573, 3.10245, -0.0557752, 0.000993415, -0.00156842, -0.00090654, -0.000501924, -0.0019855, 0.000243654, 0.00110324, -0.00375937, 0.00184138, 0.00726377, 0.00675231, 0.00747168, 0.471004, -0.543375, 0.335895, -2.08383, -2.16584, -0.129898, 0.469435, -0.542598, 0.336992, -2.08538, -2.16689, -0.128415, -0.000545713, 0.00215336, 0.000171677, 0.00331473, 0.000934573, 0.00170538
0.035113, 1.69138, -1.22413, -1.53779, -0.899728, -1.19179, 1.2288, -1.30256, 0.00133392, 0.00245562, -0.00116502, -0.00148505, 0.00164539, 0.0135978, 0.000410768, 0.059273, 56.2296, 26.7823, 5.98602, 1.40552, 3.14548, -0.10796, 0.000991123, -0.00156669, -0.000908358, -0.000503487, -0.00199972, 0.00025209, 0.0023966, -0.0039979, 0.00214614, 0.0108873, 0.0106572, 0.00380805, 0.471004, -0.543373, 0.335895, -2.08383, -2.16584, -0.129899, 0.469436, -0.542598, 0.336993, -2.0854, -2.16689, -0.128403, -0.000585484, 0.00231447, 0.000185536, 0.00357044, -0.00021831, 0.00181223
0.036113, 1.69138, -1.22413, -1.53778, -0.899728, -1.1918, 1.22882, -1.30256, 0.00202445, -0.000459246, -0.000755976, -0.000122608, 0.0015482, 0.019556, 0.000785111, 0.170357, 56.3406, 26.7823, 5.95032, 1.3927, 3.15921, -0.120778, 0.000987715, -0.00156118, -0.000909434, -0.000520558, -0.00201149, 0.000252909, 0.0034963, -0.00531896, 0.00127248, 0.0166825, 0.0108388, 0.00325981, 0.471003, -0.54337, 0.335895, -2.08383, -2.16584, -0.129901, 0.469442, -0.542599, 0.336994, -2.08541, -2.1669, -0.128412, -0.000626814, 0.0024822, 0.000200032, 0.00485625, -0.000947708, 0.000753556
0.037113, 1.69139, -1.22413, -1.53779, -0.899734, -1.1918, 1.22884, -1.30256, 0.00030253, -0.00252802, -0.00308691, -0.0008928, 0.001218, 0.0184104, -0.000161259, 0.245735, 56.4517, 26.8934, 5.98602, 1.38721, 3.19583, -0.101552, 0.000985873, -0.00155451, -0.000906426, -0.000522879, -0.00202437, 0.00024551, 0.00484163, -0.00394304, -0.000871694, 0.0132267, 0.00884201, 0.00209995, 0.471003, -0.543368, 0.335896, -2.08382, -2.16584, -0.129903, 0.469448, -0.542598, 0.33699, -2.08541, -2.16692, -0.128404, -0.000669715, 0.00265659, 0.000215176, 0.00340992, -0.00182769, -0.00151587
0.038113, 1.69138, -1.22413, -1.53779, -0.899737, -1.1918, 1.22886, -1.30255, 0.00147608, -0.0014029, -0.0020463, -0.000577083, 0.00147698, 0.0227865, 0.00038777, 0.475838, 56.4517, 26.8934, 5.98602, 1.3689, 3.21689, -0.114369, 0.000982019, -0.0015504, -0.000910562, -0.000540596, -0.00204073, 0.00024987, 0.00467435, -0.00555974, 0.000539855, 0.0181288, 0.0120552, 0.00313262, 0.471002, -0.543365, 0.335896, -2.08382, -2.16584, -0.129904, 0.469451, -0.5426, 0.336994, -2.08543, -2.16693, -0.128408, -0.000714195, 0.00283772, 0.000230977, 0.00502503, -0.00163255, -0.000129044
0.039113, 1.69139, -1.22412, -1.53779, -0.899738, -1.1918, 1.22888, -1.30256, 0.000133629, 0.00418056, -0.000520248, -0.00348902, -0.00373335, 0.0201839, -0.00118413, 0.551216, 56.3763, 26.8577, 5.98602, 1.3689, 3.26724, -0.0750012, 0.000982268, -0.00154103, -0.000915747, -0.000553976, -0.00206223, 0.000234716, 0.00450152, -0.00459945, 0.00380969, 0.0140628, 0.020923, 0.00494428, 0.471001, -0.543363, 0.335896, -2.08382, -2.16584, -0.129906, 0.46946, -0.542597, 0.336999, -2.08543, -2.16696, -0.128405, -0.000760263, 0.00302564, 0.000247448, 0.00413179, -0.00181666, 0.00317188
0.040113, 1.6914, -1.22413, -1.5378, -0.899735, -1.19181, 1.2289, -1.30256, 0.000269295, -0.00115404, -0.00293874, -0.000812411, -0.00288866, 0.0192351, -0.0017612, 0.701973, 56.5628, 26.9687, 5.91064, 1.3689, 3.29562, -0.0484509, 0.0009748, -0.00153608, -0.000907509, -0.000562694, -0.00206672, 0.000238176, 0.00618452, -0.00371195, 0.000117729, 0.0123337, 0.0145875, 0.00265682, 0.471001, -0.54336, 0.335896, -2.08381, -2.16584, -0.129908, 0.469464, -0.5426, 0.33699, -2.08543, -2.16696, -0.128412, -0.000807924, 0.0032204, 0.000264596, 0.00312469, -0.00275138, -0.000690998
0.041113, 1.69141, -1.22412, -1.5378, -0.899738, -1.19181, 1.22892, -1.30256, 0.00233466, 0.00214455, -0.00195425, -0.000728833, -0.00699117, 0.0183486, -0.00140282, 0.777352, 56.4517, 26.9687, 5.91064, 1.3689, 3.324, -0.0420422, 0.000975756, -0.00152533, -0.000914461, -0.000578425, -0.00209183, 0.00022725, 0.00569199, -0.0043821, 0.00224411, 0.0105162, 0.0210079, 0.00344414, 0.471, -0.543357, 0.335896, -2.08381, -2.16584, -0.129911, 0.469475, -0.542597, 0.336997, -2.08544, -2.16699, -0.128407, -0.000857184, 0.00342203, 0.000282433, 0.00380387, -0.00236342, 0.0014827
0.042113, 1.69142, -1.22412, -1.53781, -0.899736, -1.19182, 1.22895, -1.30256, 0.00122865, 0.00426475, -0.00652628, 0.00113693, -0.00596095, 0.0193924, 5.46359e-05, 0.963814, 56.3406, 27.0441, 5.83527, 1.38721, 3.31027, -0.0685925, 0.000968924, -0.0015191, -0.000918436, -0.000595851, -0.00212079, 0.000234456, 0.00760267, -0.00285282, 0.0022949, 0.00915361, 0.023122, -0.00248806, 0.470999, -0.543353, 0.335897, -2.08381, -2.16584, -0.129913, 0.46948, -0.5426, 0.337, -2.08547, -2.16701, -0.128399, -0.000908043, 0.00363059, 0.000300968, 0.0022959, -0.00411155, 0.00130086
0.043113, 1.69143, -1.22412, -1.53781, -0.899737, -1.19182, 1.22897, -1.30256, 0.00312155, 0.00218539, -0.00463675, 0.00065264, -0.00914486, 0.0188817, 0.000278661, 1.03919, 56.3763, 27.0441, 5.83527, 1.38721, 3.324, -0.0750012, 0.000967919, -0.0015064, -0.000916281, -0.000607477, -0.00213733, 0.000224351, 0.00721846, -0.00398503, 0.00154859, 0.0081894, 0.0236189, -0.000393075, 0.470998, -0.54335, 0.335897, -2.0838, -2.16584, -0.129916, 0.469492, -0.542597, 0.336997, -2.08547, -2.16703, -0.128398, -0.000960503, 0.00384608, 0.000320207, 0.00333351, -0.00335552, 0.000608675
0.044113, 1.69144, -1.22412, -1.53781, -0.899735, -1.19183, 1.22899, -1.30255, 0.00643964, 0.00242523, -0.00247037, -0.00108398, -0.007754, 0.0132205, 0.00117278, 1.15424, 56.3406, 27.0084, 5.76385, 1.41192, 3.3533, -0.101552, 0.000965243, -0.00149512, -0.000920024, -0.000624577, -0.00216405, 0.000220817, 0.00411557, -0.00577814, 0.00155617, 0.0044982, 0.020276, 0.0051662, 0.470997, -0.543346, 0.335897, -2.0838, -2.16584, -0.129919, 0.469503, -0.542596, 0.337001, -2.08548, -2.16706, -0.128393, -0.00101456, 0.00406854, 0.000340161, 0.00495953, 2.44068e-06, 0.00106372
0.045113, 1.69146, -1.22412, -1.53782, -0.89973, -1.19184, 1.22902, -1.30255, 0.00989612, 0.00171663, -0.0069767, 0.000722136, -0.011437, 0.0140246, 0.000784596, 1.22962, 56.3406, 27.0798, 5.68848, 1.43573, 3.37436, -0.101552, 0.000960946, -0.00148369, -0.000918879, -0.000635257, -0.00218842, 0.000220508, 0.00517023, -0.00631476, -0.000297319, -0.000177835, 0.0234727, 0.00414812, 0.470996, -0.543342, 0.335898, -2.08379, -2.16583, -0.129921, 0.469513, -0.542595, 0.336999, -2.0855, -2.16708, -0.128383, -0.00107022, 0.00429798, 0.000360835, 0.00541061, -0.00050198, -0.000925693
0.046113, 1.69148, -1.22412, -1.53782, -0.899723, -1.19185, 1.22904, -1.30255, 0.0135705, 0.00121928, -0.00506329, 0.00284104, -0.00891918, 0.0187168, 0.000287763, 1.38038, 56.3406, 27.0798, 5.57739, 1.44855, 3.41006, -0.0951428, 0.000956741, -0.00147233, -0.000921023, -0.000652958, -0.00221254, 0.000217447, 0.0040417, -0.00943733, 0.000621037, 0.00715379, 0.0232956, 0.00836399, 0.470995, -0.543338, 0.335898, -2.08379, -2.16583, -0.129925, 0.469524, -0.542595, 0.337, -2.08551, -2.1671, -0.128382, -0.00112746, 0.0045344, 0.000382238, 0.00846469, 0.000834993, 8.35626e-05
0.047113, 1.69149, -1.22412, -1.53782, -0.89972, -1.19186, 1.22907, -1.30255, 0.0127657, 3.37785e-05, -0.00108619, 0.00264292, -0.0117043, 0.0228616, -0.0005526, 1.57081, 56.3763, 26.9687, 5.53772, 1.46045, 3.43204, -0.0750012, 0.000953528, -0.00145956, -0.000922908, -0.000673544, -0.00223585, 0.000207359, 0.00485039, -0.0102433, 0.0017338, 0.0128727, 0.0264479, 0.00975662, 0.470994, -0.543333, 0.335898, -2.08379, -2.16583, -0.129928, 0.469535, -0.542594, 0.337002, -2.08552, -2.16713, -0.128386, -0.00118629, 0.0047778, 0.000404375, 0.0092799, 0.000141718, 0.0010546
0.048113, 1.69151, -1.22411, -1.53783, -0.899718, -1.19187, 1.2291, -1.30255, 0.0121836, 0.00266308, -0.000955962, 0.00246282, -0.0138406, 0.022613, -0.00158795, 1.75727, 56.2653, 26.9687, 5.50201, 1.47327, 3.41739, -0.0420422, 0.0009497, -0.00144551, -0.000928166, -0.000692929, -0.0022743, 0.000200451, 0.00542466, -0.00969645, 0.00332631, 0.0120076, 0.0309597, 0.00984697, 0.470993, -0.543328, 0.335899, -2.08378, -2.16583, -0.129931, 0.469549, -0.542593, 0.337006, -2.08554, -2.16717, -0.128372, -0.00124669, 0.00502817, 0.000427252, 0.00875144, -0.000442423, 0.00257724
0.049113, 1.69152, -1.22411, -1.53783, -0.899715, -1.19188, 1.22913, -1.30255, 0.0110209, 0.00180697, 0.000952051, 0.00154112, -0.0146913, 0.0267338, -0.0020072, 1.98341, 56.2653, 26.8934, 5.50201, 1.46686, 3.41006, -0.0164075, 0.000945363, -0.00143254, -0.000931294, -0.000716739, -0.00230159, 0.00019171, 0.00620753, -0.0103101, 0.00381572, 0.016538, 0.0330465, 0.0107534, 0.470992, -0.543323, 0.335899, -2.08377, -2.16583, -0.129935, 0.469561, -0.542592, 0.337009, -2.08555, -2.1672, -0.128375, -0.00130866, 0.00528549, 0.000450875, 0.00934807, -0.00100819, 0.00294403
0.050113, 1.69155, -1.22411, -1.53784, -0.899706, -1.19189, 1.22917, -1.30255, 0.0126354, 0.00122833, -0.00125895, 0.00447832, -0.0113983, 0.0261228, 0.000595299, 2.09846, 56.2653, 26.9687, 5.35126, 1.47876, 3.37436, -0.0685925, 0.000938727, -0.00141741, -0.000931079, -0.000734296, -0.00233671, 0.000195389, 0.0064303, -0.0104945, 0.00298072, 0.0167242, 0.0296941, 0.00740622, 0.47099, -0.543318, 0.3359, -2.08377, -2.16583, -0.129939, 0.469575, -0.542593, 0.337008, -2.08557, -2.16722, -0.128363, -0.00137217, 0.00554973, 0.000475247, 0.00944651, -0.000827737, 0.00210372
0.051113, 1.69157, -1.22411, -1.53783, -0.899705, -1.19191, 1.22921, -1.30255, 0.0152429, 0.00334231, 0.00166135, 0.00292887, -0.00803056, 0.0296322, -0.00106071, 2.28492, 56.1581, 26.8577, 5.35126, 1.46686, 3.3533, -0.0292249, 0.000937001, -0.00139939, -0.00093831, -0.000762053, -0.00237538, 0.000176995, 0.00397002, -0.0138534, 0.00523149, 0.0229389, 0.0311004, 0.0156851, 0.470989, -0.543313, 0.3359, -2.08376, -2.16583, -0.129943, 0.469592, -0.542589, 0.337014, -2.08558, -2.16727, -0.12836, -0.00143722, 0.00582086, 0.000500373, 0.0127292, 0.0016632, 0.00463198
0.052113, 1.69159, -1.2241, -1.53784, -0.899694, -1.19192, 1.22924, -1.30255, 0.0198482, 0.00316955, -0.00241631, 0.00543655, -0.00577071, 0.0268149, 0.000513931, 2.3603, 56.1185, 26.8577, 5.2005, 1.46045, 3.3533, -0.0621838, 0.000933687, -0.00138149, -0.000942295, -0.000784351, -0.0024102, 0.000172206, 0.00307756, -0.0149596, 0.00356214, 0.0184643, 0.0281704, 0.0154477, 0.470987, -0.543307, 0.335901, -2.08376, -2.16583, -0.129947, 0.469608, -0.542587, 0.337018, -2.0856, -2.1673, -0.128354, -0.00150377, 0.00609884, 0.000526256, 0.0136753, 0.00312462, 0.00311471
0.053113, 1.69162, -1.22411, -1.53784, -0.899691, -1.19193, 1.22928, -1.30255, 0.021688, 0.000359786, -0.00440431, 0.0044277, -0.00892065, 0.0289368, 0.00105497, 2.51106, 56.1938, 26.822, 5.16479, 1.45404, 3.36703, -0.0814099, 0.000928815, -0.00136416, -0.0009398, -0.000804922, -0.00243745, 0.000163745, 0.00377909, -0.01601, 0.00117978, 0.0161195, 0.0295839, 0.0158336, 0.470986, -0.543301, 0.335901, -2.08375, -2.16583, -0.129951, 0.469624, -0.542584, 0.337014, -2.08561, -2.16734, -0.128355, -0.00157182, 0.00638361, 0.000552899, 0.0145954, 0.00312674, 0.000648344
0.054113, 1.69164, -1.2241, -1.53785, -0.899673, -1.19195, 1.22931, -1.30255, 0.0214982, 0.00284581, -0.00603748, 0.0081248, -0.0113753, 0.0302582, -8.55589e-06, 2.58643, 56.0828, 26.7823, 4.94263, 1.45404, 3.38901, -0.0621838, 0.00092279, -0.00134687, -0.000947364, -0.000830848, -0.00248181, 0.000159057, 0.00597808, -0.0147683, 0.00272429, 0.0167085, 0.0348195, 0.0120212, 0.470984, -0.543294, 0.335902, -2.08374, -2.16583, -0.129956, 0.46964, -0.542584, 0.337021, -2.08563, -2.16737, -0.128343, -0.00164135, 0.0066751, 0.000580303, 0.0134203, 0.000958669, 0.00189674
0.055113, 1.69167, -1.2241, -1.53785, -0.89967, -1.19196, 1.22935, -1.30256, 0.0244962, 0.00273804, -0.00643023, 0.00857281, -0.0131657, 0.031735, -0.0022096, 2.66181, 56.0471, 26.7069, 4.94263, 1.44855, 3.40365, -0.00267457, 0.000920901, -0.00132596, -0.00095227, -0.000854105, -0.00252329, 0.000136209, 0.00568004, -0.0164113, 0.00257851, 0.0165687, 0.0373111, 0.0162068, 0.470983, -0.543288, 0.335902, -2.08374, -2.16583, -0.12996, 0.46966, -0.54258, 0.337026, -2.08564, -2.16743, -0.128334, -0.00171231, 0.00697325, 0.000608468, 0.0149742, 0.00164082, 0.00177764
0.056113, 1.69169, -1.2241, -1.53785, -0.899662, -1.19197, 1.22938, -1.30255, 0.0240008, 0.00182958, -0.00425872, 0.0108351, -0.0144819, 0.0281555, 0.000968458, 2.85224, 56.0471, 26.6712, 4.86725, 1.44214, 3.41739, -0.0685925, 0.000911771, -0.00131171, -0.000953273, -0.000877189, -0.00255828, 0.000142796, 0.00640037, -0.0152834, 0.00286092, 0.0158379, 0.035691, 0.0113851, 0.470981, -0.543281, 0.335903, -2.08373, -2.16582, -0.129965, 0.469673, -0.542581, 0.337025, -2.08567, -2.16745, -0.128329, -0.00178469, 0.00727797, 0.000637396, 0.0138114, 0.00114478, 0.00200751
0.057113, 1.69172, -1.22409, -1.53785, -0.899656, -1.192, 1.22943, -1.30255, 0.0263742, 0.00298612, -0.00608664, 0.00859855, -0.0168771, 0.0308927, -0.00010026, 2.92762, 55.9717, 26.6355, 4.82758, 1.47327, 3.41006, -0.0484509, 0.000905273, -0.00129208, -0.000958941, -0.000901455, -0.00261129, 0.000135095, 0.0060263, -0.0170656, 0.00272049, 0.0141843, 0.040885, 0.0152632, 0.470979, -0.543273, 0.335904, -2.08372, -2.16582, -0.129971, 0.469691, -0.54258, 0.33703, -2.08569, -2.1675, -0.128308, -0.00185846, 0.00758918, 0.000667086, 0.0154991, 0.00191994, 0.00190283
0.058113, 1.69175, -1.22409, -1.53787, -0.899646, -1.19202, 1.22947, -1.30254, 0.0256726, 0.0011579, -0.00647198, 0.0109304, -0.0179647, 0.0374498, 0.000679211, 2.96729, 56.0074, 26.7069, 4.75616, 1.49158, 3.41006, -0.0685925, 0.000895984, -0.00127339, -0.000958198, -0.000919307, -0.00265766, 0.000135438, 0.0085024, -0.0172553, 0.00247478, 0.0201232, 0.0433424, 0.0114526, 0.470977, -0.543266, 0.335904, -2.08371, -2.16582, -0.129976, 0.469708, -0.542581, 0.337028, -2.08572, -2.16753, -0.128286, -0.00193359, 0.00790677, 0.000697537, 0.0156933, -0.000161251, 0.00130029
0.059113, 1.69177, -1.2241, -1.53786, -0.899637, -1.19204, 1.22951, -1.30255, 0.0235413, 0.00160893, -0.00758549, 0.00873245, -0.0184713, 0.0380623, -0.000293129, 3.07838, 55.9717, 26.5244, 4.71649, 1.50348, 3.39633, -0.0484509, 0.000888598, -0.00125328, -0.000964089, -0.00095592, -0.00270243, 0.000124718, 0.00947806, -0.016466, 0.00222808, 0.0187804, 0.0450658, 0.0117482, 0.470975, -0.543258, 0.335905, -2.0837, -2.16582, -0.129982, 0.469727, -0.542581, 0.337033, -2.08574, -2.16758, -0.128288, -0.00201003, 0.00823062, 0.000728745, 0.0148545, -0.000794864, 0.000960087
0.060113, 1.6918, -1.2241, -1.53787, -0.89963, -1.19206, 1.22956, -1.30254, 0.0266716, 0.00107395, -0.0104955, 0.00704499, -0.0232191, 0.0434175, 0.000550602, 3.11805, 55.9717, 26.5601, 4.68079, 1.50989, 3.37436, -0.0685925, 0.000879704, -0.00123301, -0.000964736, -0.000975833, -0.00275368, 0.000120819, 0.0100762, -0.018608, 0.000981347, 0.0173701, 0.0518594, 0.0127131, 0.470973, -0.54325, 0.335906, -2.08369, -2.16582, -0.129988, 0.469745, -0.54258, 0.337032, -2.08576, -2.16762, -0.128264, -0.00208776, 0.00856062, 0.000760709, 0.0168924, -0.000775479, -0.000396588
0.061113, 1.69183, -1.22409, -1.53788, -0.899622, -1.19209, 1.22961, -1.30255, 0.0249221, 0.0023874, -0.0115459, 0.00904108, -0.0224638, 0.0375525, -0.00180304, 3.19343, 55.9003, 26.5601, 4.64111, 1.52179, 3.36703, -0.00999879, 0.000868279, -0.00121524, -0.000969282, -0.00100008, -0.0028113, 0.000113922, 0.0111191, -0.0160507, 0.00125468, 0.01305, 0.0498586, 0.0115393, 0.470971, -0.543241, 0.335906, -2.08369, -2.16582, -0.129994, 0.469762, -0.542583, 0.337035, -2.08579, -2.16767, -0.12824, -0.00216672, 0.00889664, 0.000793423, 0.0143068, -0.00161585, -0.000178972
0.062113, 1.69185, -1.22409, -1.53789, -0.899613, -1.19212, 1.22965, -1.30255, 0.0266945, 0.00335559, -0.0079414, 0.0104543, -0.0219116, 0.0375175, -0.00147328, 3.26881, 55.8249, 26.5244, 4.60541, 1.53461, 3.36703, -0.00267457, 0.000855647, -0.00119776, -0.000973504, -0.00102508, -0.00287007, 0.00011381, 0.0101352, -0.017467, 0.00322326, 0.0169254, 0.0504198, 0.0138617, 0.470969, -0.543232, 0.335907, -2.08368, -2.16582, -0.13, 0.469777, -0.542587, 0.337037, -2.08582, -2.16771, -0.128214, -0.0022469, 0.00923859, 0.000826888, 0.015677, -0.000547737, 0.00190827
0.063113, 1.69188, -1.22407, -1.5379, -0.899607, -1.19214, 1.2297, -1.30255, 0.0278033, 0.0056713, -0.00867277, 0.00993206, -0.0205556, 0.0423394, 1.17599e-06, 3.22913, 55.6781, 26.4847, 4.64111, 1.52179, 3.36703, -0.0292249, 0.000849098, -0.00117534, -0.000981817, -0.00104827, -0.0029327, 0.000105906, 0.0100004, -0.0191373, 0.00464228, 0.0209045, 0.0545052, 0.0142422, 0.470967, -0.543223, 0.335908, -2.08367, -2.16581, -0.130006, 0.469798, -0.542584, 0.337045, -2.08585, -2.16776, -0.128184, -0.00232828, 0.00958644, 0.000861108, 0.0173103, -0.000216939, 0.00331406
0.064113, 1.69191, -1.22407, -1.5379, -0.899593, -1.19217, 1.22974, -1.30254, 0.0239924, 0.00378129, -0.00840962, 0.0081854, -0.0196117, 0.0452746, 0.00098414, 3.22913, 55.6781, 26.4094, 4.60541, 1.50989, 3.38168, -0.0557752, 0.000835367, -0.00115769, -0.000985082, -0.00107337, -0.0029887, 0.000111627, 0.0117783, -0.0181819, 0.00386635, 0.0237422, 0.0537083, 0.0117403, 0.470965, -0.543213, 0.335909, -2.08366, -2.16581, -0.130013, 0.469814, -0.542588, 0.337046, -2.08589, -2.16779, -0.128161, -0.00241084, 0.00994017, 0.000896084, 0.0163092, -0.00153795, 0.00233536
0.065113, 1.69194, -1.22406, -1.53791, -0.899588, -1.1922, 1.22979, -1.30254, 0.0252286, 0.00688287, -0.0100234, 0.0042403, -0.023299, 0.0472998, 0.000656102, 3.19343, 55.4916, 26.4094, 4.68079, 1.48517, 3.40365, -0.0557752, 0.000825699, -0.00113761, -0.000993105, -0.00109274, -0.00305656, 0.000106121, 0.011401, -0.0194426, 0.0047061, 0.0205869, 0.0616994, 0.0149173, 0.470962, -0.543204, 0.33591, -2.08365, -2.16581, -0.13002, 0.469832, -0.542588, 0.337053, -2.08592, -2.16784, -0.128121, -0.00249458, 0.0102997, 0.000931821, 0.0175015, -0.000883514, 0.0032207
0.066113, 1.69196, -1.22406, -1.53792, -0.899584, -1.19223, 1.22983, -1.30254, 0.0250156, 0.00542403, -0.0103509, 0.00458533, -0.0266549, 0.0445827, 0.000437408, 3.19343, 55.4559, 26.3736, 4.75616, 1.47327, 3.41739, -0.0557752, 0.000813522, -0.00111903, -0.000995878, -0.00111066, -0.00311629, 0.000102937, 0.0125584, -0.0184115, 0.00357795, 0.0164726, 0.0620329, 0.0136068, 0.47096, -0.543193, 0.335911, -2.08363, -2.16581, -0.130028, 0.469849, -0.542589, 0.337054, -2.08594, -2.16788, -0.128088, -0.00257947, 0.0106651, 0.000968322, 0.0163875, -0.00152909, 0.00199439
0.067113, 1.69199, -1.22406, -1.53793, -0.899569, -1.19226, 1.22988, -1.30254, 0.0269022, 0.00278098, -0.00795015, 0.00455168, -0.0295529, 0.0423858, -0.000454375, 3.11805, 55.4916, 26.3736, 4.71649, 1.47327, 3.43204, -0.0356336, 0.000797272, -0.00110149, -0.000995516, -0.00112926, -0.00317368, 0.000109466, 0.0121831, -0.0192914, 0.00260308, 0.0148041, 0.0609926, 0.0168674, 0.470957, -0.543183, 0.335912, -2.08362, -2.16581, -0.130035, 0.469864, -0.542594, 0.337052, -2.08598, -2.16791, -0.128057, -0.00266552, 0.0110363, 0.00100559, 0.0171316, -0.000601027, 0.00110068
0.068113, 1.69202, -1.22406, -1.53794, -0.899559, -1.1923, 1.22992, -1.30254, 0.0320178, 0.00352456, -0.00525207, 0.00662501, -0.0320813, 0.0456047, 0.000171805, 3.003, 55.4202, 26.3379, 4.71649, 1.48517, 3.44668, -0.0484509, 0.000784599, -0.00108095, -0.000997965, -0.00114473, -0.00323719, 0.000109547, 0.0111027, -0.0225347, 0.00432511, 0.0190688, 0.0655977, 0.0201755, 0.470954, -0.543172, 0.335913, -2.08361, -2.1658, -0.130043, 0.469883, -0.542595, 0.337053, -2.08601, -2.16795, -0.128018, -0.00275269, 0.0114132, 0.00104363, 0.0203071, 0.000710183, 0.0029089
0.069113, 1.69205, -1.22405, -1.53795, -0.899555, -1.19233, 1.22997, -1.30255, 0.0275862, 0.00494826, -0.0058074, 0.00768888, -0.0334753, 0.0434272, -0.00181824, 2.96729, 55.3091, 26.2626, 4.86725, 1.48517, 3.45309, 0.00373412, 0.000770786, -0.00106219, -0.00100483, -0.00116264, -0.00331096, 0.000102583, 0.0138026, -0.0192051, 0.00517957, 0.0173698, 0.0673091, 0.016352, 0.470952, -0.54316, 0.335914, -2.0836, -2.1658, -0.130051, 0.4699, -0.542598, 0.337058, -2.08603, -2.16801, -0.127971, -0.00284098, 0.0117958, 0.00108244, 0.0170213, -0.00184072, 0.00347209
0.070113, 1.69208, -1.22405, -1.53796, -0.899539, -1.19237, 1.23001, -1.30255, 0.0252464, 0.00329892, -0.00806819, 0.00700889, -0.0345152, 0.0476382, -0.000974799, 2.89191, 55.3091, 26.2626, 4.82758, 1.48517, 3.42471, -0.00267457, 0.000752458, -0.00104434, -0.00100632, -0.00118143, -0.00337741, 0.000111491, 0.0163082, -0.0184045, 0.00383738, 0.0184937, 0.0691586, 0.0126459, 0.470949, -0.543148, 0.335915, -2.08359, -2.1658, -0.130059, 0.469915, -0.542603, 0.337057, -2.08607, -2.16804, -0.127932, -0.00293038, 0.0121842, 0.00112203, 0.0161737, -0.00375182, 0.00182093
0.071113, 1.69211, -1.22405, -1.53798, -0.899532, -1.19241, 1.23005, -1.30254, 0.0235158, 0.00303455, -0.0103369, 0.00684384, -0.0403626, 0.0445918, 0.00179154, 2.81654, 55.2734, 26.2983, 4.90295, 1.49158, 3.43936, -0.0685925, 0.000736971, -0.00102544, -0.00100521, -0.00119012, -0.00344049, 0.00011967, 0.0187681, -0.015937, 0.00270539, 0.0113369, 0.0727152, 0.005523, 0.470946, -0.543136, 0.335916, -2.08357, -2.1658, -0.130068, 0.469932, -0.542606, 0.337054, -2.08611, -2.16807, -0.127886, -0.00302087, 0.0125781, 0.0011624, 0.0136662, -0.00571288, 0.000435467
0.072113, 1.69214, -1.22405, -1.53799, -0.899514, -1.19244, 1.2301, -1.30254, 0.0283975, 0.00202308, -0.0112891, 0.00935991, -0.0392088, 0.0437923, 0.000211018, 2.73719, 55.2734, 26.2983, 4.86725, 1.47876, 3.41739, -0.0420422, 0.000717805, -0.00100813, -0.00100693, -0.00121117, -0.00350367, 0.000125871, 0.0177337, -0.0180251, 0.0018208, 0.0107323, 0.0707868, 0.00993358, 0.470943, -0.543124, 0.335917, -2.08356, -2.16579, -0.130077, 0.469947, -0.542612, 0.337053, -2.08614, -2.1681, -0.127853, -0.00311245, 0.0129778, 0.00120355, 0.015591, -0.00406987, -0.000299299
0.073113, 1.69217, -1.22405, -1.53799, -0.899511, -1.19248, 1.23014, -1.30255, 0.026572, 0.00218397, -0.00589568, 0.0108345, -0.0388243, 0.0417359, -0.00131738, 2.62611, 55.2377, 26.1872, 4.97833, 1.47876, 3.43204, -0.00267457, 0.000705211, -0.000985854, -0.00100937, -0.00122431, -0.00357084, 0.000113677, 0.0179575, -0.0173592, 0.00397055, 0.014856, 0.0695181, 0.0113613, 0.47094, -0.543111, 0.335918, -2.08355, -2.16579, -0.130086, 0.469966, -0.54261, 0.337054, -2.08616, -2.16816, -0.12781, -0.00320508, 0.013383, 0.00124549, 0.0149193, -0.00424425, 0.0018503
0.074113, 1.6922, -1.22404, -1.53801, -0.899496, -1.19252, 1.23019, -1.30254, 0.0267294, 0.00405446, -0.0115032, 0.00840049, -0.0383493, 0.0453457, 0.000342449, 2.58643, 55.1266, 26.1872, 4.97833, 1.47327, 3.43204, -0.0356336, 0.000687214, -0.000967438, -0.00101433, -0.00123747, -0.00364645, 0.000123816, 0.0188547, -0.0177645, 0.00308083, 0.0123198, 0.0738065, 0.0096889, 0.470937, -0.543097, 0.33592, -2.08353, -2.16579, -0.130095, 0.469982, -0.542615, 0.337057, -2.0862, -2.16819, -0.127756, -0.00329877, 0.0137938, 0.00128822, 0.0152305, -0.00456523, 0.000862531
0.075113, 1.69223, -1.22404, -1.53802, -0.899485, -1.19257, 1.23023, -1.30254, 0.0267036, 0.00270299, -0.00878386, 0.00876119, -0.0377215, 0.0426547, 0.00121164, 2.55073, 55.1266, 26.1872, 5.01404, 1.46045, 3.45309, -0.0621838, 0.000667446, -0.000950384, -0.00101427, -0.00124531, -0.00371669, 0.000134009, 0.0185517, -0.017829, 0.00308866, 0.0127408, 0.0708541, 0.0102948, 0.470933, -0.543083, 0.335921, -2.08352, -2.16579, -0.130105, 0.469997, -0.54262, 0.337055, -2.08624, -2.16822, -0.127702, -0.00339351, 0.0142102, 0.00133174, 0.0151897, -0.00384819, 0.000958645
0.076113, 1.69227, -1.22404, -1.53803, -0.899473, -1.19261, 1.23027, -1.30254, 0.0286693, 0.00273003, -0.00936622, 0.00899501, -0.0390256, 0.0413135, 6.17777e-05, 2.43568, 55.087, 26.1515, 5.05371, 1.49158, 3.46042, -0.0420422, 0.000650865, -0.000929624, -0.00101653, -0.00125405, -0.00378917, 0.000132476, 0.0184118, -0.0184648, 0.0027348, 0.0102976, 0.0718181, 0.0127399, 0.47093, -0.543069, 0.335922, -2.0835, -2.16578, -0.130115, 0.470015, -0.542622, 0.337055, -2.08626, -2.16826, -0.127648, -0.00348927, 0.0146321, 0.00137605, 0.0157111, -0.00320739, 0.000655824
0.077113, 1.6923, -1.22404, -1.53804, -0.899462, -1.19265, 1.2303, -1.30254, 0.0288624, 0.000892008, -0.0062358, 0.00611614, -0.0378548, 0.0398477, -0.00090825, 2.3603, 55.1266, 26.1118, 5.08942, 1.47327, 3.47507, -0.0164075, 0.000633545, -0.000909147, -0.00101457, -0.00125895, -0.00385513, 0.000130193, 0.0170428, -0.0197447, 0.00224733, 0.0107767, 0.0688179, 0.0186317, 0.470926, -0.543055, 0.335924, -2.08349, -2.16578, -0.130125, 0.470032, -0.542623, 0.337051, -2.08628, -2.1683, -0.127597, -0.00358604, 0.0150594, 0.00142116, 0.016826, -0.00130068, 0.000393551
0.078113, 1.69234, -1.22403, -1.53806, -0.899449, -1.1927, 1.23034, -1.30255, 0.0323582, 0.00495637, -0.00843605, 0.0079101, -0.0418582, 0.0346801, -0.00111413, 2.28492, 54.9402, 26.1118, 5.08942, 1.46045, 3.47507, -0.00267457, 0.000615905, -0.000889967, -0.00102192, -0.00126686, -0.00393701, 0.000133087, 0.0167823, -0.0195306, 0.00349173, 0.00318884, 0.0741484, 0.0185272, 0.470923, -0.543039, 0.335925, -2.08347, -2.16578, -0.130135, 0.470049, -0.542626, 0.337057, -2.08631, -2.16835, -0.127533, -0.00368381, 0.0154923, 0.00146708, 0.0165502, -0.000811353, 0.00171482
0.079113, 1.69238, -1.22403, -1.53807, -0.899442, -1.19274, 1.23038, -1.30254, 0.0341004, 0.00154102, -0.00909012, 0.00430689, -0.0408433, 0.0353152, 0.00122394, 2.24921, 55.0156, 26.0761, 5.16479, 1.46045, 3.48239, -0.0557752, 0.000598411, -0.000869212, -0.0010184, -0.00126778, -0.00400261, 0.000137313, 0.0157145, -0.0215746, 0.000740786, 0.00140812, 0.0711098, 0.0214339, 0.470919, -0.543024, 0.335926, -2.08345, -2.16578, -0.130146, 0.470066, -0.542626, 0.337051, -2.08633, -2.16838, -0.127478, -0.00378258, 0.0159305, 0.0015138, 0.0183549, 0.00118944, -0.000850625
0.080113, 1.69241, -1.22402, -1.53808, -0.899429, -1.19279, 1.23041, -1.30255, 0.0363367, 0.0036258, -0.0112905, 0.00976093, -0.0450905, 0.0355714, -0.000879462, 2.17384, 54.9045, 26.1118, 5.16479, 1.46686, 3.49612, -0.00999879, 0.000580082, -0.000850105, -0.00102058, -0.00126513, -0.00407948, 0.000136485, 0.017912, -0.0208363, 0.00188048, 0.000188143, 0.0770039, 0.0187451, 0.470915, -0.543008, 0.335928, -2.08344, -2.16577, -0.130157, 0.470082, -0.542628, 0.337052, -2.08636, -2.16842, -0.127408, -0.00388232, 0.0163742, 0.00156132, 0.0176381, -0.000742145, 2.36028e-06
0.081113, 1.69245, -1.22402, -1.53809, -0.899421, -1.19283, 1.23044, -1.30254, 0.0401202, 0.00241721, -0.00682462, 0.012055, -0.0472674, 0.0361831, 0.00572232, 2.13416, 54.9045, 26.0404, 5.24017, 1.44855, 3.49612, -0.0356336, 0.000563963, -0.00082875, -0.00102052, -0.0012658, -0.00414757, 0.000135266, 0.0170396, -0.0232029, 0.0029537, 0.00406561, 0.0779814, 0.0156098, 0.470911, -0.542992, 0.335929, -2.08342, -2.16577, -0.130169, 0.4701, -0.542626, 0.33705, -2.08637, -2.16845, -0.127351, -0.00398302, 0.0168232, 0.00160966, 0.0199085, 0.000499915, 0.00117423
0.082113, 1.69248, -1.22402, -1.53811, -0.899414, -1.19288, 1.23047, -1.30254, 0.0381124, 0.00161147, -0.0104296, 0.0106088, -0.0490923, 0.0360883, 0.00304077, 2.17384, 54.9045, 26.1118, 5.31555, 1.43573, 3.51077, -0.00267457, 0.00054281, -0.000812722, -0.00101637, -0.00125409, -0.0042165, 0.000141828, 0.0191471, -0.0216429, 0.00112746, -0.000435203, 0.0794217, 0.0155349, 0.470907, -0.542975, 0.335931, -2.0834, -2.16577, -0.13018, 0.470113, -0.542629, 0.337044, -2.08639, -2.16848, -0.127279, -0.00408468, 0.0172776, 0.00165881, 0.0182586, -0.000908267, -0.00086089
0.083113, 1.69252, -1.22401, -1.53812, -0.899403, -1.19293, 1.23049, -1.30255, 0.0396159, 0.00450799, -0.00435423, 0.011373, -0.0519266, 0.0323886, 0.00212477, 2.09846, 54.7577, 25.965, 5.31555, 1.46045, 3.49612, 0.00373412, 0.000527939, -0.000789678, -0.00102413, -0.00125411, -0.00430106, 0.000133198, 0.0177947, -0.022419, 0.00470821, 0.000749564, 0.0828721, 0.0194893, 0.470903, -0.542958, 0.335933, -2.08338, -2.16576, -0.130192, 0.470133, -0.542627, 0.33705, -2.08641, -2.16853, -0.127206, -0.00418727, 0.0177373, 0.00170878, 0.0190123, 0.000366012, 0.00291115
0.084113, 1.69257, -1.22401, -1.53813, -0.89939, -1.19298, 1.23052, -1.30254, 0.0406336, 0.00300533, -0.00681086, 0.0128361, -0.0481952, 0.028579, 0.00265107, 2.02308, 54.7577, 25.965, 5.27588, 1.45404, 3.51077, -0.0228162, 0.000508795, -0.000770203, -0.00102163, -0.00124146, -0.00437237, 0.000137823, 0.0177724, -0.0220687, 0.00279173, -0.00252035, 0.0769972, 0.0190765, 0.470899, -0.54294, 0.335934, -2.08336, -2.16576, -0.130204, 0.470149, -0.542627, 0.337046, -2.08642, -2.16856, -0.127132, -0.00429078, 0.0182023, 0.00175956, 0.0184889, 0.00113456, 0.00108336
0.085113, 1.69257, -1.22401, -1.53813, -0.89939, -1.19298, 1.23052, -1.30254, 0.0406336, 0.00300533, -0.00681086, 0.0128361, -0.0481952, 0.028579, 0.00265107, 2.02308, 54.7577, 25.965, 5.27588, 1.45404, 3.51077, -0.0228162, 0.000490421, -0.000766614, -0.00102284, -0.00124643, -0.00438947, 0.000145347, 0.0182485, -0.022155, 0.00281755, -0.00248448, 0.0775008, 0.0193798, 0.470895, -0.542922, 0.335936, -2.08334, -2.16576, -0.130217, 0.470149, -0.542627, 0.337046, -2.08642, -2.16856, -0.127132, -0.00439521, 0.0186725, 0.00181117, 0.0184889, 0.00113456, 0.00108336
0.086113, 1.69265, -1.22401, -1.53817, -0.899372, -1.19309, 1.23056, -1.30254, 0.0379559, 0.00282053, -0.0121264, 0.00638147, -0.0523766, 0.0240133, 0.000461823, 1.9477, 54.6823, 26.0404, 5.31555, 1.46045, 3.52542, -0.00267457, 0.000470986, -0.0007322, -0.00101701, -0.00120492, -0.00451884, 0.000141073, 0.0194913, -0.0199485, -0.000306113, -0.0156849, 0.0798343, 0.0209144, 0.47089, -0.542903, 0.335938, -2.08332, -2.16575, -0.13023, 0.470179, -0.542625, 0.337038, -2.08644, -2.16862, -0.126968, -0.00450054, 0.019148, 0.0018636, 0.0161115, 0.00077481, -0.00207552
0.087113, 1.69268, -1.224, -1.53817, -0.899364, -1.19314, 1.23057, -1.30254, 0.0394469, 0.00271558, -0.0107232, 0.00715086, -0.0536745, 0.0177994, 0.00187192, 1.98341, 54.6466, 25.965, 5.35126, 1.46686, 3.53274, -0.0420422, 0.000452943, -0.000713575, -0.00101859, -0.00119014, -0.00459298, 0.000142189, 0.0188716, -0.0196674, -0.000365961, -0.0202925, 0.078119, 0.0208458, 0.470886, -0.542884, 0.33594, -2.0833, -2.16575, -0.130243, 0.470194, -0.542623, 0.337038, -2.08645, -2.16865, -0.126889, -0.00460676, 0.0196287, 0.00191686, 0.0157002, 0.00186506, -0.00197683
0.088113, 1.69273, -1.224, -1.53819, -0.899354, -1.19319, 1.23059, -1.30254, 0.0424977, 0.0026456, -0.00812622, 0.00550295, -0.0489496, 0.0178985, 0.00207342, 1.9477, 54.6109, 25.965, 5.35126, 1.44855, 3.53915, -0.0621838, 0.000434129, -0.00069296, -0.00101576, -0.00117062, -0.0046663, 0.000145793, 0.0160559, -0.0228444, 0.000152813, -0.0169552, 0.0748122, 0.0282491, 0.470881, -0.542864, 0.335942, -2.08328, -2.16574, -0.130257, 0.470211, -0.542621, 0.337033, -2.08646, -2.16868, -0.126806, -0.00471385, 0.0201145, 0.00197095, 0.0186837, 0.00518136, -0.00106863
0.089113, 1.69277, -1.224, -1.5382, -0.899347, -1.19325, 1.2306, -1.30254, 0.0427968, 0.00269175, -0.00863499, 0.00649572, -0.0509755, 0.0184201, 0.000695908, 1.87232, 54.5712, 25.9253, 5.38696, 1.44855, 3.53274, -0.0420422, 0.000418674, -0.000670014, -0.00101565, -0.00114973, -0.00474164, 0.000132748, 0.0172708, -0.0226563, 0.00019703, -0.0174205, 0.0772572, 0.0284443, 0.470877, -0.542844, 0.335944, -2.08326, -2.16574, -0.13027, 0.470229, -0.542615, 0.337032, -2.08645, -2.16872, -0.126721, -0.00482181, 0.0206055, 0.00202587, 0.0184332, 0.00445871, -0.00115394
0.090113, 1.69281, -1.224, -1.53821, -0.899332, -1.1933, 1.23061, -1.30254, 0.0418432, 0.00262972, -0.0100772, 0.00977715, -0.0476645, 0.014379, 0.00027129, 1.9477, 54.5355, 25.9253, 5.31555, 1.44855, 3.5181, -0.0356336, 0.000396154, -0.000653806, -0.00101399, -0.00113102, -0.00481202, 0.000138717, 0.0184037, -0.0208587, -0.000176189, -0.0189088, 0.0727942, 0.0257821, 0.470872, -0.542823, 0.335946, -2.08324, -2.16574, -0.130285, 0.470241, -0.542616, 0.337028, -2.08647, -2.16874, -0.126643, -0.00493062, 0.0211016, 0.00208162, 0.0165565, 0.00382043, -0.00158916
0.091113, 1.69286, -1.22399, -1.53823, -0.899325, -1.19336, 1.23062, -1.30254, 0.0433957, 0.00342358, -0.0118879, 0.00955924, -0.0459913, 0.0107534, 0.000214393, 1.83265, 54.4641, 25.965, 5.35126, 1.46686, 3.5181, -0.0356336, 0.000380324, -0.000631193, -0.00101275, -0.00109824, -0.00489128, 0.000133922, 0.0177514, -0.0210624, -0.000759482, -0.0230949, 0.0711424, 0.0275519, 0.470867, -0.542802, 0.335948, -2.08322, -2.16573, -0.130299, 0.47026, -0.542609, 0.337026, -2.08646, -2.16878, -0.126541, -0.00504026, 0.0216028, 0.00213822, 0.0166058, 0.00506422, -0.0020135
0.092113, 1.69291, -1.22399, -1.53823, -0.899318, -1.19341, 1.23063, -1.30254, 0.0423264, 0.00404563, -0.00712628, 0.00953255, -0.048201, 0.0125762, -0.000781358, 1.79694, 54.3887, 25.8896, 5.38696, 1.45404, 3.52542, -0.00999879, 0.000363813, -0.000610182, -0.00101343, -0.00107443, -0.004964, 0.000124743, 0.0182995, -0.0214683, 0.00153479, -0.0181321, 0.0746711, 0.0293834, 0.470862, -0.542781, 0.33595, -2.08319, -2.16573, -0.130314, 0.470276, -0.542603, 0.337026, -2.08645, -2.16881, -0.126456, -0.00515073, 0.022109, 0.00219565, 0.0170038, 0.00469199, 0.000211024
0.093113, 1.69295, -1.22398, -1.53824, -0.899308, -1.19347, 1.23063, -1.30254, 0.0408956, 0.00269708, -0.00706372, 0.00724258, -0.0493617, 0.00916975, -0.00124803, 1.79694, 54.3887, 25.8143, 5.38696, 1.43024, 3.53274, 0.0101428, 0.000344014, -0.000591612, -0.00101302, -0.00104972, -0.00503677, 0.000121818, 0.0187686, -0.0205518, 0.000246205, -0.0225185, 0.0732943, 0.0304232, 0.470857, -0.542759, 0.335952, -2.08317, -2.16572, -0.130329, 0.47029, -0.5426, 0.337024, -2.08645, -2.16884, -0.126371, -0.00526201, 0.0226203, 0.00225393, 0.0159475, 0.00490181, -0.00104878
0.094113, 1.693, -1.22398, -1.53825, -0.899301, -1.19353, 1.23064, -1.30254, 0.045786, 0.00263327, -0.00982646, 0.0086107, -0.0564681, 0.00771963, -0.000580513, 1.68189, 54.353, 25.8539, 5.38696, 1.44214, 3.51077, 0.00373412, 0.000325991, -0.000568772, -0.00101072, -0.00101916, -0.00511539, 0.00011577, 0.019363, -0.0215335, -0.000932872, -0.0295552, 0.0790936, 0.0300015, 0.470851, -0.542736, 0.335954, -2.08315, -2.16572, -0.130344, 0.470308, -0.542594, 0.33702, -2.08644, -2.16888, -0.126273, -0.0053741, 0.0231366, 0.00231306, 0.0167946, 0.00505423, -0.00227661
0.095113, 1.69304, -1.22398, -1.53826, -0.899293, -1.19359, 1.23064, -1.30254, 0.0452215, 0.000920298, -0.0108067, 0.00871586, -0.0558132, 0.00546965, -0.00013904, 1.72157, 54.3887, 25.8539, 5.42664, 1.42383, 3.5181, -0.00267457, 0.000303359, -0.000552577, -0.00100656, -0.00098797, -0.00518454, 0.000119399, 0.0201815, -0.0208077, -0.00241537, -0.0320227, 0.076332, 0.0290122, 0.470846, -0.542713, 0.335957, -2.08312, -2.16571, -0.13036, 0.47032, -0.542592, 0.337015, -2.08644, -2.1689, -0.126184, -0.00548698, 0.0236579, 0.00237303, 0.0159327, 0.00496704, -0.00378644
0.096113, 1.69309, -1.22398, -1.53827, -0.899285, -1.19365, 1.23064, -1.30254, 0.0467126, 0.00321199, -0.00972514, 0.00897833, -0.0559089, 0.00436357, 0.000898608, 1.57081, 54.2776, 25.7786, 5.46234, 1.41742, 3.51077, -0.0292249, 0.000288308, -0.000528601, -0.00100932, -0.000956952, -0.00526492, 0.000109938, 0.0195846, -0.0216142, -0.000799302, -0.0319413, 0.0786565, 0.0299977, 0.470841, -0.542689, 0.335959, -2.0831, -2.16571, -0.130376, 0.470339, -0.542582, 0.337017, -2.08643, -2.16894, -0.126085, -0.00560063, 0.0241841, 0.00243385, 0.0166618, 0.00586635, -0.00206196
0.097113, 1.69313, -1.22397, -1.53828, -0.899276, -1.19372, 1.23063, -1.30254, 0.0438712, 0.00381176, -0.00747551, 0.00594529, -0.0556517, 0.00297219, 0.00131712, 1.57081, 54.2062, 25.7786, 5.50201, 1.40552, 3.5181, -0.0484509, 0.000265445, -0.000511939, -0.0010101, -0.000922665, -0.00534775, 0.000115091, 0.0197624, -0.0209509, -2.00272e-05, -0.0319707, 0.0789538, 0.0309184, 0.470835, -0.542665, 0.335962, -2.08307, -2.16571, -0.130393, 0.470351, -0.54258, 0.337016, -2.08644, -2.16896, -0.125978, -0.00571505, 0.0247152, 0.00249553, 0.0159199, 0.00607447, -0.00123908
0.098113, 1.69318, -1.22398, -1.53828, -0.899266, -1.19379, 1.23063, -1.30254, 0.044841, 0.000870738, -0.00921565, 0.00773375, -0.056164, 0.00196099, 0.000407836, 1.45576, 54.2776, 25.7786, 5.50201, 1.41192, 3.52542, -0.0356336, 0.000243749, -0.000490982, -0.00100435, -0.000885917, -0.00542246, 0.000110815, 0.0210501, -0.0206954, -0.00222869, -0.0341072, 0.0765007, 0.0305951, 0.470829, -0.54264, 0.335964, -2.08305, -2.1657, -0.13041, 0.470367, -0.542575, 0.337009, -2.08642, -2.16899, -0.125879, -0.00583022, 0.0252512, 0.00255806, 0.0155158, 0.00567064, -0.00355076
0.099113, 1.69322, -1.22397, -1.53829, -0.899264, -1.19385, 1.23063, -1.30254, 0.0453321, 0.00317895, -0.0113338, 0.00648216, -0.0556358, 0.0017667, -0.000674188, 1.45576, 54.1666, 25.8143, 5.6131, 1.3927, 3.5181, -0.00999879, 0.000221861, -0.00047233, -0.0010053, -0.000850077, -0.00550926, 0.000105635, 0.0211042, -0.0209558, -0.00181317, -0.0363072, 0.0791117, 0.0327141, 0.470823, -0.542615, 0.335967, -2.08302, -2.16569, -0.130427, 0.47038, -0.542571, 0.337008, -2.08642, -2.16902, -0.125769, -0.00594613, 0.0257921, 0.00262146, 0.0156772, 0.00610498, -0.00309405
0.100113, 1.69327, -1.22397, -1.53829, -0.899252, -1.19392, 1.23063, -1.30254, 0.0492768, 0.0021193, -0.00950011, 0.00907169, -0.0604954, 0.00131888, 0.000739854, 1.305, 54.1666, 25.7032, 5.57739, 1.38721, 3.5181, -0.0420422, 0.000201867, -0.000449917, -0.00100615, -0.000822615, -0.00558662, 0.000102634, 0.0213035, -0.0223984, -0.00164305, -0.0367597, 0.0821632, 0.0325426, 0.470817, -0.542589, 0.335969, -2.08299, -2.16569, -0.130444, 0.470397, -0.542564, 0.337008, -2.08641, -2.16905, -0.125678, -0.00606278, 0.0263379, 0.00268571, 0.0170148, 0.00648759, -0.00293723
0.101113, 1.69332, -1.22397, -1.5383, -0.899248, -1.19398, 1.23063, -1.30254, 0.0486754, 0.00224808, -0.0073311, 0.00749489, -0.0597595, 0.000713791, -0.000454311, 1.18995, 54.1309, 25.7032, 5.68848, 1.3927, 3.52542, -0.0164075, 0.000179594, -0.000429878, -0.00100502, -0.000786321, -0.00566971, 9.57629e-05, 0.0209856, -0.0228607, -0.00101565, -0.0356441, 0.0819514, 0.0361545, 0.470811, -0.542563, 0.335972, -2.08296, -2.16568, -0.130462, 0.470412, -0.542559, 0.337005, -2.0864, -2.16909, -0.125572, -0.00618014, 0.0268884, 0.00275083, 0.0173707, 0.00727427, -0.00221777
0.102113, 1.69336, -1.22397, -1.53831, -0.899237, -1.19406, 1.23063, -1.30254, 0.0479614, 0.00371294, -0.00563567, 0.00684922, -0.0641783, 0.000555217, 0.000410619, 1.07887, 54.1666, 25.7032, 5.6488, 1.40552, 3.52542, -0.0356336, 0.000154641, -0.000409661, -0.00100199, -0.000752259, -0.0057518, 9.83625e-05, 0.0220349, -0.0224456, 0.000410312, -0.0363713, 0.0874642, 0.0348054, 0.470805, -0.542536, 0.335975, -2.08294, -2.16568, -0.13048, 0.470427, -0.542555, 0.337, -2.0864, -2.16911, -0.125468, -0.0062982, 0.0274437, 0.00281681, 0.0169279, 0.00655649, -0.000895695
0.103113, 1.6934, -1.22396, -1.53832, -0.899238, -1.19413, 1.23063, -1.30254, 0.0467996, 0.00356463, -0.00691677, 0.00484365, -0.0614897, 0.00124346, -0.00118325, 1.00349, 54.1309, 25.8143, 5.79956, 1.38721, 3.50345, 0.00373412, 0.000128637, -0.000391621, -0.000999314, -0.000710918, -0.0058422, 9.4451e-05, 0.0223466, -0.0225459, -0.000263309, -0.0363787, 0.086275, 0.0376441, 0.470799, -0.542509, 0.335978, -2.08291, -2.16567, -0.130499, 0.47044, -0.542552, 0.336996, -2.08639, -2.16915, -0.12535, -0.00641697, 0.0280038, 0.00288366, 0.0168963, 0.00691758, -0.00154628
0.104113, 1.69345, -1.22396, -1.53831, -0.899233, -1.1942, 1.23063, -1.30254, 0.0440949, 0.00256701, -0.00243363, 0.00633492, -0.0650292, 0.000331079, 0.00141601, 0.85273, 54.1309, 25.7032, 5.83527, 1.38721, 3.5181, -0.0557752, 0.000107355, -0.000368011, -0.00100151, -0.00068399, -0.00592758, 9.08069e-05, 0.0243265, -0.0210321, 0.00103755, -0.0337957, 0.0878171, 0.0324059, 0.470793, -0.542481, 0.33598, -2.08288, -2.16567, -0.130518, 0.470458, -0.542545, 0.336997, -2.08639, -2.16918, -0.125252, -0.00653641, 0.0285686, 0.00295138, 0.0153841, 0.00526464, -0.000458017
0.105113, 1.69349, -1.22396, -1.53832, -0.899227, -1.19427, 1.23063, -1.30254, 0.0395274, 0.00185428, -0.00277331, 0.0072391, -0.0673516, 0.000796732, -0.00197152, 0.813057, 54.1309, 25.7389, 5.87494, 1.3808, 3.50345, 0.0229602, 7.78131e-05, -0.000351724, -0.00100017, -0.000654649, -0.00601225, 8.82187e-05, 0.0278512, -0.0181414, 0.000937564, -0.0336509, 0.0896487, 0.0299143, 0.470786, -0.542452, 0.335983, -2.08285, -2.16566, -0.130537, 0.470468, -0.542545, 0.336994, -2.08638, -2.16922, -0.125153, -0.00665653, 0.0291381, 0.00301998, 0.0125009, 0.00225124, -0.000951396
0.106113, 1.69353, -1.22396, -1.53832, -0.89922, -1.19435, 1.23063, -1.30254, 0.0402864, 0.00217861, -0.00208563, 0.00894793, -0.0698187, 0.000284996, -0.000839182, 0.737679, 54.0952, 25.7389, 5.87494, 1.3927, 3.51077, 0.0101428, 4.9166e-05, -0.00033522, -0.00100204, -0.000619411, -0.00610475, 9.82683e-05, 0.0288614, -0.0180271, 0.00155388, -0.0338544, 0.0921727, 0.0278879, 0.470779, -0.542423, 0.335986, -2.08282, -2.16566, -0.130557, 0.470479, -0.542543, 0.336994, -2.08639, -2.16924, -0.125039, -0.0067773, 0.0297122, 0.00308945, 0.0123252, 0.00172845, -0.000428562
0.107113, 1.69357, -1.22396, -1.53832, -0.899224, -1.19442, 1.23063, -1.30254, 0.038512, 0.000697595, -0.00156799, 0.00347107, -0.0710479, 0.000480096, -0.00103384, 0.626595, 54.1309, 25.7389, 6.02173, 1.38721, 3.50345, 0.0229602, 2.36398e-05, -0.000314258, -0.000999756, -0.00058503, -0.00619127, 8.79283e-05, 0.0289126, -0.0183718, 0.000241471, -0.036203, 0.0928075, 0.0313434, 0.470773, -0.542393, 0.335989, -2.08278, -2.16565, -0.130577, 0.470494, -0.542538, 0.33699, -2.08637, -2.16928, -0.124934, -0.00689872, 0.030291, 0.0031598, 0.0125024, 0.00247455, -0.00167328
0.108113, 1.69362, -1.22397, -1.53832, -0.899217, -1.19449, 1.23063, -1.30254, 0.0453609, -0.00123787, -0.0011785, 0.00301864, -0.071324, 0.000334188, 0.00076909, 0.436165, 54.2062, 25.7389, 6.02173, 1.3689, 3.50345, -0.0164075, -2.07037e-06, -0.000291106, -0.000996889, -0.000555728, -0.00627265, 8.58552e-05, 0.0264688, -0.0224631, -0.00117166, -0.037478, 0.0918683, 0.0371885, 0.470766, -0.542363, 0.335993, -2.08275, -2.16564, -0.130597, 0.470511, -0.542531, 0.336985, -2.08636, -2.16931, -0.12484, -0.00702078, 0.0308744, 0.00323103, 0.0163268, 0.00585867, -0.00274064
0.109113, 1.69366, -1.22396, -1.53832, -0.899216, -1.19456, 1.23063, -1.30254, 0.0471698, 0.00181844, -0.000885551, 0.00161285, -0.0770759, -0.00419788, -0.000470428, 0.360787, 54.0952, 25.7389, 6.0614, 1.36249, 3.49612, 0.0101428, -2.93195e-05, -0.000271166, -0.00100155, -0.000527063, -0.00636909, 8.08338e-05, 0.0261549, -0.0224121, 6.74909e-05, -0.0444618, 0.0981641, 0.0399542, 0.470759, -0.542332, 0.335996, -2.08272, -2.16564, -0.130618, 0.470525, -0.542527, 0.336988, -2.08636, -2.16935, -0.124731, -0.00714347, 0.0314625, 0.00330314, 0.0161873, 0.00656295, -0.0013955
0.110113, 1.6937, -1.22397, -1.53832, -0.899215, -1.19463, 1.23063, -1.30254, 0.0469716, -0.000424224, -0.0015933, -0.000291669, -0.0763143, -0.00294516, 0.00138194, 0.245735, 54.1666, 25.7786, 6.13678, 1.34967, 3.48971, -0.0356336, -5.82684e-05, -0.000250464, -0.000996294, -0.000494625, -0.00645085, 8.30954e-05, 0.0266242, -0.0230595, -0.00162006, -0.0446328, 0.0967585, 0.0398927, 0.470751, -0.542301, 0.335999, -2.08269, -2.16563, -0.130639, 0.47054, -0.542523, 0.336981, -2.08635, -2.16938, -0.124633, -0.00726676, 0.032055, 0.00337613, 0.0166663, 0.00698099, -0.00308243
0.111113, 1.69374, -1.22396, -1.53832, -0.899214, -1.1947, 1.23062, -1.30254, 0.0424384, 0.000577842, -0.00111838, 0.00243805, -0.0751564, -0.00198013, 0.00166739, 0.170357, 54.1309, 25.7786, 6.17248, 1.32587, 3.48239, -0.0557752, -8.7488e-05, -0.000231994, -0.000998567, -0.000464744, -0.00654114, 8.56391e-05, 0.0297287, -0.0203767, -0.000130549, -0.0406963, 0.0975043, 0.0337077, 0.470744, -0.542268, 0.336003, -2.08265, -2.16562, -0.13066, 0.470552, -0.542519, 0.336982, -2.08635, -2.16941, -0.124529, -0.00739066, 0.0326521, 0.00345001, 0.01403, 0.00417235, -0.0019426
0.112113, 1.69378, -1.22397, -1.53833, -0.899215, -1.19477, 1.23062, -1.30253, 0.0438352, -0.000430909, -0.00255096, 0.00127729, -0.0757134, -0.00153605, 0.000603045, 0.0196001, 54.1666, 25.8539, 6.20819, 1.33136, 3.48239, -0.0420422, -0.000116943, -0.000210897, -0.000993772, -0.000427288, -0.00662813, 8.39999e-05, 0.0299278, -0.0213074, -0.00140024, -0.0426092, 0.0980483, 0.036677, 0.470737, -0.542236, 0.336006, -2.08262, -2.16562, -0.130682, 0.470567, -0.542514, 0.336975, -2.08634, -2.16944, -0.124421, -0.00751515, 0.0332538, 0.00352478, 0.0147962, 0.00481324, -0.00318175
0.113113, 1.69381, -1.22398, -1.53833, -0.899214, -1.19484, 1.23062, -1.30254, 0.0450247, -0.00370664, -0.000804226, 0.00121688, -0.0746598, -0.000914735, -0.000784705, -0.0161054, 54.3134, 25.8143, 6.20819, 1.30115, 3.47507, -0.00999879, -0.000149229, -0.000192397, -0.000989909, -0.000401871, -0.00670756, 8.25707e-05, 0.0298027, -0.0226897, -0.00270031, -0.0404794, 0.0947911, 0.0409147, 0.470729, -0.542203, 0.33601, -2.08258, -2.16561, -0.130704, 0.470579, -0.542511, 0.336969, -2.08633, -2.16947, -0.124335, -0.00764022, 0.0338599, 0.00360044, 0.0160001, 0.00580216, -0.00441308
0.114113, 1.69385, -1.22397, -1.53833, -0.899217, -1.19491, 1.23063, -1.30253, 0.0424057, -0.00162514, -0.000559853, 0.000157254, -0.0749263, -0.000188768, 0.000901062, -0.131157, 54.2776, 25.8143, 6.24786, 1.29474, 3.46042, -0.0484509, -0.000180203, -0.000172355, -0.000990712, -0.000370974, -0.00680266, 8.26753e-05, 0.0311472, -0.0216664, -0.00130803, -0.0396093, 0.0980812, 0.0379351, 0.470722, -0.542169, 0.336013, -2.08255, -2.1656, -0.130727, 0.470592, -0.542507, 0.336968, -2.08633, -2.1695, -0.124227, -0.00776586, 0.0344704, 0.00367699, 0.0149522, 0.00482787, -0.00314223
0.115113, 1.69389, -1.22398, -1.53832, -0.899219, -1.19498, 1.23063, -1.30254, 0.043071, -0.00367383, 0.00137223, 0.000310349, -0.0703922, 0.000291672, -0.0015694, -0.242241, 54.3887, 25.7389, 6.24786, 1.29474, 3.44668, 0.0101428, -0.000211709, -0.000151232, -0.000988598, -0.000347275, -0.00688761, 7.45193e-05, 0.0304662, -0.0230836, -0.00178097, -0.0355369, 0.0930864, 0.0437899, 0.470714, -0.542134, 0.336017, -2.08251, -2.16559, -0.13075, 0.470607, -0.542503, 0.336964, -2.08632, -2.16954, -0.124138, -0.00789206, 0.0350854, 0.00375444, 0.0161998, 0.00624773, -0.00346941
0.116113, 1.69392, -1.22398, -1.53832, -0.899219, -1.19505, 1.23063, -1.30254, 0.0427164, -0.0032784, -2.65356e-05, 0.00128905, -0.0712519, 0.000668651, -0.00104624, -0.317619, 54.4244, 25.7786, 6.20819, 1.28284, 3.43204, 0.0101428, -0.000246055, -0.000133729, -0.000985283, -0.000316891, -0.00697132, 7.90371e-05, 0.0320063, -0.0224875, -0.00182753, -0.0362049, 0.0950156, 0.0414674, 0.470706, -0.542099, 0.336021, -2.08248, -2.16559, -0.130773, 0.470617, -0.5425, 0.336959, -2.08631, -2.16957, -0.124042, -0.0080188, 0.0357048, 0.00383279, 0.0155322, 0.00533007, -0.00366096
0.117113, 1.69396, -1.22399, -1.53832, -0.899223, -1.19512, 1.23063, -1.30254, 0.0393506, -0.00310909, -2.76899e-05, 4.6951e-05, -0.0674853, 0.00144568, 4.85111e-05, -0.392998, 54.4641, 25.7786, 6.24786, 1.27643, 3.40365, -0.00999879, -0.000280209, -0.000113573, -0.000982287, -0.000293283, -0.00705767, 8.10209e-05, 0.0330868, -0.0215425, -0.00163353, -0.0337641, 0.0931434, 0.0397748, 0.470698, -0.542063, 0.336024, -2.08244, -2.16558, -0.130797, 0.470631, -0.542497, 0.336954, -2.08631, -2.1696, -0.123952, -0.00814607, 0.0363285, 0.00391203, 0.0145078, 0.00481863, -0.00353171
0.118113, 1.69399, -1.224, -1.53833, -0.899229, -1.19518, 1.23063, -1.30254, 0.040161, -0.00457499, 0.00450533, -0.00164524, -0.0700153, 0.000687991, -0.00071363, -0.468376, 54.5712, 25.8896, 6.32324, 1.28833, 3.41006, 0.0101428, -0.00031398, -9.44288e-05, -0.000975042, -0.000254953, -0.00713925, 7.80743e-05, 0.0324757, -0.0228796, -0.00121044, -0.0326199, 0.0939122, 0.0445544, 0.47069, -0.542027, 0.336028, -2.0824, -2.16557, -0.130821, 0.470643, -0.542492, 0.336945, -2.08629, -2.16962, -0.123851, -0.00827387, 0.0369566, 0.00399218, 0.015709, 0.00604028, -0.00298023
0.119113, 1.69403, -1.224, -1.53833, -0.899231, -1.19525, 1.23063, -1.30253, 0.0384693, -0.00397546, 0.00275685, -0.00186702, -0.0718187, 0.000429833, 0.00074496, -0.583427, 54.6109, 25.9253, 6.35895, 1.30115, 3.41006, -0.0228162, -0.000347482, -7.36816e-05, -0.000971223, -0.000225363, -0.00722283, 7.96975e-05, 0.0344429, -0.0215152, -0.00141249, -0.0349259, 0.0966051, 0.0405417, 0.470682, -0.54199, 0.336032, -2.08236, -2.16556, -0.130845, 0.470656, -0.542487, 0.336939, -2.08628, -2.16965, -0.123758, -0.00840218, 0.0375891, 0.00407323, 0.0142825, 0.00470641, -0.0033663
0.120113, 1.69407, -1.22401, -1.53833, -0.899231, -1.19531, 1.23063, -1.30253, 0.0363475, -0.00524686, 0.00311451, -0.00119591, -0.0729548, -0.00392712, 0.000971366, -0.658806, 54.722, 25.8896, 6.35895, 1.30755, 3.39633, -0.0356336, -0.000382503, -5.30694e-05, -0.000968089, -0.000201983, -0.0073051, 8.10157e-05, 0.0360545, -0.0194399, -0.0021873, -0.0383165, 0.0946325, 0.0378142, 0.470673, -0.541953, 0.336036, -2.08232, -2.16556, -0.13087, 0.470669, -0.542483, 0.336934, -2.08627, -2.16968, -0.123673, -0.008531, 0.0382258, 0.00415518, 0.0121117, 0.00378713, -0.00423974
0.121113, 1.6941, -1.22401, -1.53834, -0.899234, -1.19537, 1.23063, -1.30253, 0.0356919, -0.00433169, -0.000191073, -0.00159591, -0.0684364, -0.00248348, 0.000884942, -0.76989, 54.7577, 26.0007, 6.39465, 1.30115, 3.38168, -0.0420422, -0.000418624, -3.34266e-05, -0.000964859, -0.000173355, -0.00739165, 8.34933e-05, 0.0367376, -0.0194412, -0.00269236, -0.0377847, 0.0934599, 0.0379001, 0.470665, -0.541914, 0.33604, -2.08228, -2.16555, -0.130895, 0.470682, -0.542479, 0.336928, -2.08626, -2.16971, -0.123578, -0.0086603, 0.0388668, 0.00423804, 0.0119905, 0.00383294, -0.00476391
0.122113, 1.69413, -1.22402, -1.53834, -0.899239, -1.19543, 1.23063, -1.30254, 0.0367105, -0.00455715, -0.00080712, -0.00279975, -0.0647002, -0.00196161, -0.000868096, -0.809562, 54.8291, 26.0404, 6.47003, 1.28284, 3.38168, -0.00267457, -0.000454992, -1.43523e-05, -0.000959771, -0.000148092, -0.00746899, 7.92123e-05, 0.0360483, -0.0207995, -0.00319968, -0.0368085, 0.0912833, 0.0430613, 0.470656, -0.541875, 0.336045, -2.08224, -2.16554, -0.130921, 0.470693, -0.542474, 0.336921, -2.08624, -2.16974, -0.123498, -0.00879009, 0.039512, 0.00432181, 0.0131741, 0.00529449, -0.00511583
0.123113, 1.69417, -1.22402, -1.53834, -0.899246, -1.19548, 1.23063, -1.30253, 0.0389555, -0.00480053, -0.000351868, -0.00360916, -0.0625595, -0.000486045, -7.0101e-05, -0.920646, 54.9045, 26.0404, 6.54541, 1.27643, 3.3533, -0.0164075, -0.000487809, 9.05023e-06, -0.00095563, -0.000124801, -0.00754584, 7.17823e-05, 0.0351257, -0.0229413, -0.00326234, -0.0347992, 0.0908026, 0.0465234, 0.470647, -0.541836, 0.336049, -2.0822, -2.16553, -0.130947, 0.470709, -0.542466, 0.336916, -2.08622, -2.16977, -0.123421, -0.00892034, 0.0401615, 0.0044065, 0.0151475, 0.006954, -0.00501521
0.124113, 1.6942, -1.22403, -1.53835, -0.899247, -1.19554, 1.23063, -1.30254, 0.034759, -0.00403497, -0.00176536, -0.00239068, -0.065476, -0.000496129, -0.00126743, -0.920646, 54.9402, 26.1118, 6.54541, 1.26453, 3.3533, 0.0165515, -0.000527587, 2.54364e-05, -0.000952866, -0.000100464, -0.00762639, 7.58064e-05, 0.0388154, -0.0198257, -0.00289055, -0.0360365, 0.0944885, 0.0412261, 0.470638, -0.541796, 0.336053, -2.08216, -2.16552, -0.130973, 0.470718, -0.542464, 0.336911, -2.08621, -2.16979, -0.123338, -0.00905105, 0.0408151, 0.00449209, 0.0120534, 0.00377929, -0.00504729
0.125113, 1.69424, -1.22403, -1.53835, -0.899245, -1.19559, 1.23063, -1.30254, 0.0363447, -0.00361755, -0.00200018, -0.000746993, -0.0636031, 0.000625242, -0.000844955, -1.11108, 54.9799, 26.1515, 6.5097, 1.27002, 3.324, 0.0165515, -0.000561955, 5.02668e-05, -0.000952186, -8.30115e-05, -0.00770849, 7.08178e-05, 0.0390184, -0.0208203, -0.00246234, -0.0337381, 0.0945261, 0.0418341, 0.470629, -0.541755, 0.336058, -2.08212, -2.16551, -0.131, 0.470735, -0.542456, 0.336908, -2.08619, -2.16983, -0.123263, -0.00918221, 0.0414729, 0.0045786, 0.0129392, 0.00421236, -0.00460181
0.126113, 1.69427, -1.22403, -1.53835, -0.899255, -1.19564, 1.23063, -1.30254, 0.0355673, -0.00408179, -0.00209011, -0.00308777, -0.0620632, 0.000557381, -0.000563302, -1.11108, 55.0513, 26.1872, 6.62079, 1.27643, 3.31759, 0.0165515, -0.000599182, 7.04101e-05, -0.000946952, -6.06025e-05, -0.00778324, 6.76211e-05, 0.0390949, -0.0211679, -0.00303721, -0.0341093, 0.093646, 0.0437074, 0.47062, -0.541714, 0.336063, -2.08207, -2.1655, -0.131027, 0.470747, -0.542449, 0.336901, -2.08617, -2.16986, -0.12319, -0.00931381, 0.0421348, 0.00466602, 0.0131369, 0.00490331, -0.00510615
0.127113, 1.6943, -1.22404, -1.53836, -0.899258, -1.19569, 1.23063, -1.30253, 0.0343767, -0.0053194, -0.00309773, -0.002052, -0.0554069, 0.000841518, 0.00179461, -1.18645, 55.1624, 26.2626, 6.62079, 1.26453, 3.30295, -0.0420422, -0.000637797, 9.0295e-05, -0.000940344, -3.80484e-05, -0.00785329, 7.4722e-05, 0.0396515, -0.0210211, -0.00387458, -0.0309868, 0.0877296, 0.0414318, 0.470611, -0.541671, 0.336067, -2.08203, -2.16549, -0.131055, 0.470759, -0.542443, 0.336893, -2.08616, -2.16987, -0.123121, -0.00944583, 0.0428008, 0.00475437, 0.0128484, 0.00514484, -0.00592893
0.128113, 1.69433, -1.22404, -1.53837, -0.899263, -1.19573, 1.23063, -1.30254, 0.0365394, -0.00354607, -0.0037842, -0.00219834, -0.0516835, -0.000273335, -0.000973734, -1.26183, 55.1624, 26.3379, 6.65649, 1.28284, 3.324, 0.0165515, -0.000675069, 0.000110872, -0.000937126, -1.13417e-05, -0.00793145, 6.63235e-05, 0.0384457, -0.0224362, -0.00329177, -0.0309995, 0.0867136, 0.0477441, 0.470601, -0.541629, 0.336072, -2.08198, -2.16548, -0.131083, 0.470771, -0.542436, 0.336888, -2.08613, -2.16991, -0.123041, -0.00957827, 0.043471, 0.00484363, 0.0141071, 0.00697417, -0.00512015
0.129113, 1.69436, -1.22405, -1.53837, -0.899259, -1.19578, 1.23063, -1.30253, 0.0324824, -0.00496236, -0.00248966, -0.00291058, -0.0483865, 1.42956e-05, 0.000571547, -1.22613, 55.2734, 26.3379, 6.58508, 1.28833, 3.31759, -0.0164075, -0.000718387, 0.00012755, -0.000933877, -2.54285e-07, -0.0080009, 7.98176e-05, 0.0399675, -0.0211024, -0.0035068, -0.027832, 0.0832948, 0.0449676, 0.470592, -0.541585, 0.336077, -2.08194, -2.16548, -0.131111, 0.470779, -0.542434, 0.336882, -2.08613, -2.16992, -0.122985, -0.00971111, 0.0441452, 0.00493382, 0.0126904, 0.00612507, -0.00544202
0.130113, 1.69439, -1.22405, -1.53837, -0.899267, -1.19582, 1.23063, -1.30254, 0.032823, -0.00414335, -0.00423337, -0.003868, -0.0460007, 0.000250168, -0.000364953, -1.33721, 55.3091, 26.449, 6.65649, 1.29474, 3.31027, 0.00373412, -0.000755657, 0.000150631, -0.000929189, 2.13141e-05, -0.00807527, 7.18634e-05, 0.0400595, -0.0216052, -0.00375352, -0.0283952, 0.0831859, 0.0474251, 0.470582, -0.541541, 0.336082, -2.08189, -2.16547, -0.13114, 0.470794, -0.542425, 0.336876, -2.0861, -2.16995, -0.122915, -0.00984435, 0.0448234, 0.00502493, 0.0130541, 0.00677267, -0.00562607
0.131113, 1.69442, -1.22406, -1.53837, -0.89928, -1.19586, 1.23063, -1.30253, 0.0336384, -0.00536061, -0.00280361, -0.00866549, -0.0441372, 0.000415073, 0.00145212, -1.33721, 55.4202, 26.449, 6.77154, 1.30115, 3.30295, -0.0420422, -0.0007924, 0.000172967, -0.000923493, 3.85669e-05, -0.0081397, 6.73463e-05, 0.0384351, -0.0237579, -0.00464357, -0.0285493, 0.0815894, 0.0523487, 0.470572, -0.541496, 0.336087, -2.08185, -2.16546, -0.131169, 0.470808, -0.542415, 0.336869, -2.08608, -2.16997, -0.122861, -0.00997797, 0.0455056, 0.00511696, 0.014979, 0.00928737, -0.00622524
0.132113, 1.69445, -1.22406, -1.53838, -0.899281, -1.19589, 1.23062, -1.30253, 0.0361398, -0.0044089, -0.00445354, -0.00526052, -0.0426549, 0.000259486, 0.00120544, -1.41259, 55.4559, 26.5601, 6.73187, 1.30755, 3.30295, -0.0484509, -0.000832395, 0.000193134, -0.000919526, 5.7688e-05, -0.00820737, 6.89841e-05, 0.0389721, -0.0243378, -0.00431897, -0.0280308, 0.081839, 0.0521736, 0.470562, -0.541451, 0.336092, -2.0818, -2.16545, -0.131199, 0.470819, -0.542407, 0.336863, -2.08606, -2.16999, -0.1228, -0.010112, 0.0461918, 0.00520992, 0.0154562, 0.0094182, -0.00591572
0.133113, 1.69449, -1.22407, -1.53838, -0.899284, -1.19592, 1.23062, -1.30253, 0.0347709, -0.00470246, -0.00379376, -0.0061422, -0.0413433, 0.000160069, 9.15492e-05, -1.48797, 55.5313, 26.5958, 6.69617, 1.30755, 3.30295, -0.0292249, -0.000872315, 0.000215758, -0.000916121, 6.71456e-05, -0.00827473, 6.38342e-05, 0.0396411, -0.0241251, -0.00429753, -0.027079, 0.0811275, 0.0538731, 0.470552, -0.541404, 0.336097, -2.08175, -2.16543, -0.131229, 0.470833, -0.542399, 0.336858, -2.08603, -2.17002, -0.122752, -0.0102463, 0.0468819, 0.00530381, 0.0151351, 0.00943681, -0.00590112
0.134113, 1.69451, -1.22407, -1.53838, -0.89929, -1.19596, 1.23062, -1.30253, 0.0318493, -0.00313494, -0.00252131, -0.00770398, -0.0358286, 0.000910823, 6.10329e-05, -1.48797, 55.5313, 26.5958, 6.69617, 1.31305, 3.28097, -0.0292249, -0.000912364, 0.000237213, -0.000916309, 7.66803e-05, -0.00834741, 6.07406e-05, 0.0397494, -0.0238951, -0.00290887, -0.0228204, 0.0792218, 0.055228, 0.470542, -0.541358, 0.336102, -2.0817, -2.16542, -0.131259, 0.470846, -0.542391, 0.336856, -2.08601, -2.17005, -0.122699, -0.010381, 0.047576, 0.00539863, 0.0148262, 0.00979909, -0.00444746
0.135113, 1.69455, -1.22407, -1.53838, -0.899294, -1.19599, 1.23062, -1.30253, 0.0314152, -0.00376037, -0.000839757, -0.00813488, -0.0362323, 0.000599947, -0.00019667, -1.56335, 55.6027, 26.5601, 6.65649, 1.31305, 3.28097, -0.0228162, -0.000949617, 0.000262193, -0.00091289, 8.41498e-05, -0.00840567, 4.98888e-05, 0.0402794, -0.0240603, -0.00272494, -0.021908, 0.0794082, 0.0565244, 0.470531, -0.54131, 0.336108, -2.08165, -2.16541, -0.13129, 0.470861, -0.542378, 0.336852, -2.08598, -2.17009, -0.122663, -0.0105161, 0.048274, 0.00549438, 0.0148828, 0.00995314, -0.00426048
0.136113, 1.69458, -1.22408, -1.53839, -0.899298, -1.19601, 1.23062, -1.30254, 0.0292701, -0.00427013, -0.00231865, -0.00930686, -0.0368885, 0.000394513, -0.00206389, -1.56335, 55.6781, 26.6355, 6.65649, 1.31946, 3.28097, 0.0293689, -0.00099122, 0.000284451, -0.000909363, 9.17331e-05, -0.00847001, 4.49623e-05, 0.0420685, -0.0228648, -0.00359243, -0.0238693, 0.0801957, 0.0567825, 0.470521, -0.541262, 0.336113, -2.0816, -2.1654, -0.131321, 0.470875, -0.54237, 0.336846, -2.08595, -2.17011, -0.122621, -0.0106515, 0.0489759, 0.00559107, 0.0135877, 0.0089754, -0.00526678
0.137113, 1.6946, -1.22409, -1.53839, -0.899306, -1.19604, 1.23062, -1.30254, 0.0312583, -0.0054452, -0.00154245, -0.0101409, -0.0325703, -1.23473e-05, -0.000901211, -1.56335, 55.7892, 26.6355, 6.65649, 1.32587, 3.2883, 0.0165515, -0.00103103, 0.000307738, -0.000904738, 0.000100631, -0.00852833, 3.62652e-05, 0.0407089, -0.0248456, -0.00425444, -0.0222381, 0.0760949, 0.0605648, 0.47051, -0.541213, 0.336119, -2.08155, -2.16539, -0.131353, 0.470889, -0.542358, 0.33684, -2.08592, -2.17014, -0.122585, -0.0107872, 0.0496816, 0.00568869, 0.0153566, 0.01121, -0.0056716
0.138113, 1.69463, -1.22409, -1.5384, -0.899313, -1.19606, 1.23062, -1.30254, 0.0316615, -0.00446534, -0.00445949, -0.0107423, -0.0288442, 0.000259969, -0.000600807, -1.52764, 55.8249, 26.7823, 6.65649, 1.31946, 3.28097, 0.0165515, -0.0010742, 0.000328826, -0.000898704, 0.000112102, -0.00858832, 3.44207e-05, 0.0408803, -0.0252536, -0.0047762, -0.0229843, 0.0751414, 0.0614292, 0.470499, -0.541163, 0.336125, -2.0815, -2.16538, -0.131385, 0.4709, -0.54235, 0.336833, -2.08589, -2.17016, -0.122544, -0.0109232, 0.0503911, 0.00578725, 0.0156157, 0.0118499, -0.00612962
0.139113, 1.69467, -1.2241, -1.5384, -0.899322, -1.19608, 1.23061, -1.30254, 0.0325577, -0.00474012, -0.00297112, -0.00900547, -0.0306988, -0.000371522, 0.000311539, -1.63873, 55.9003, 26.7823, 6.69617, 1.31305, 3.29562, -0.00267457, -0.00110905, 0.000358606, -0.000894012, 0.000121402, -0.00864397, 1.56066e-05, 0.0417367, -0.0254181, -0.00424956, -0.0223266, 0.0765821, 0.0603902, 0.470489, -0.541113, 0.33613, -2.08145, -2.16537, -0.131418, 0.47092, -0.542332, 0.336827, -2.08584, -2.1702, -0.122512, -0.0110595, 0.0511045, 0.00588674, 0.015695, 0.011644, -0.00565221
0.140113, 1.6947, -1.22409, -1.5384, -0.899325, -1.19609, 1.23061, -1.30254, 0.0302704, -0.00399529, -0.00114413, -0.00803785, -0.0279659, 0.000293129, -0.000267025, -1.63873, 55.936, 26.7466, 6.62079, 1.31946, 3.28097, 0.0101428, -0.00115033, 0.000382354, -0.000896644, 0.000117149, -0.00870772, 8.29674e-06, 0.0428408, -0.0247621, -0.00283381, -0.0179107, 0.0758707, 0.060062, 0.470477, -0.541062, 0.336136, -2.0814, -2.16536, -0.13145, 0.470934, -0.542321, 0.336829, -2.08581, -2.17023, -0.122486, -0.0111962, 0.0518216, 0.00598718, 0.0149965, 0.0110241, -0.00431023
0.141113, 1.69472, -1.2241, -1.5384, -0.899337, -1.19611, 1.23061, -1.30253, 0.0271447, -0.00526198, -0.00252494, -0.0100763, -0.0252269, 0.000194126, 0.00175476, -1.56335, 56.0471, 26.822, 6.65649, 1.30755, 3.28097, -0.0420422, -0.00119367, 0.000404713, -0.000889461, 0.000122962, -0.00876, 1.10239e-05, 0.0442218, -0.0236439, -0.00417791, -0.0184195, 0.0732316, 0.0574278, 0.470466, -0.54101, 0.336142, -2.08134, -2.16535, -0.131484, 0.470947, -0.54231, 0.33682, -2.08579, -2.17025, -0.122459, -0.0113331, 0.0525425, 0.00608855, 0.0137447, 0.0105461, -0.005721
0.142113, 1.69475, -1.22411, -1.5384, -0.899346, -1.19612, 1.23061, -1.30253, 0.0284212, -0.0043432, -0.00335294, -0.0106777, -0.0187121, 0.00090834, 0.000932483, -1.63873, 56.0828, 26.8934, 6.65649, 1.30115, 3.25992, -0.0356336, -0.0012328, 0.000432099, -0.000886422, 0.000125274, -0.00881594, -3.28668e-06, 0.0430807, -0.0253052, -0.00401093, -0.0157994, 0.070051, 0.0622273, 0.470455, -0.540957, 0.336148, -2.08129, -2.16533, -0.131518, 0.470964, -0.542294, 0.336816, -2.08574, -2.17028, -0.122435, -0.0114702, 0.0532671, 0.00619087, 0.0152316, 0.0124415, -0.00532752
0.143114, 1.69477, -1.22412, -1.5384, -0.899358, -1.19613, 1.23061, -1.30253, 0.02258, -0.00549392, 0.000363751, -0.00800832, -0.0140734, 0.00114737, -9.04214e-05, -1.56335, 56.1938, 26.7823, 6.65649, 1.30115, 3.24527, -0.0164075, -0.00127586, 0.000455855, -0.000882785, 0.000117797, -0.00886485, -1.50112e-05, 0.0456482, -0.0227772, -0.00265585, -0.0080241, 0.0653023, 0.0589297, 0.470443, -0.540904, 0.336154, -2.08123, -2.16532, -0.131552, 0.470978, -0.542282, 0.336811, -2.0857, -2.17031, -0.12243, -0.0116077, 0.0539954, 0.00629413, 0.0127144, 0.0103194, -0.004216
0.144114, 1.6948, -1.22411, -1.5384, -0.899366, -1.19613, 1.23061, -1.30253, 0.023841, -0.00282739, -0.000685077, -0.00825608, -0.0103439, 0.000764366, -0.00151834, -1.60302, 56.1581, 26.822, 6.62079, 1.29474, 3.24527, 0.0229602, -0.00131719, 0.000481725, -0.000882748, 0.000115607, -0.00892271, -3.00212e-05, 0.04494, -0.0237653, -0.0015822, -0.00752495, 0.0655915, 0.0629364, 0.470432, -0.54085, 0.336161, -2.08118, -2.16531, -0.131586, 0.470994, -0.542267, 0.33681, -2.08566, -2.17035, -0.12241, -0.0117453, 0.0547273, 0.00639834, 0.0135779, 0.0116251, -0.00297333
0.145114, 1.69482, -1.22412, -1.53841, -0.899378, -1.19614, 1.23061, -1.30253, 0.0232523, -0.00439058, -0.00305484, -0.0102013, -0.00755784, 0.00156033, -0.00101223, -1.56335, 56.2653, 26.933, 6.65649, 1.28833, 3.21689, 0.0229602, -0.00136148, 0.000505409, -0.000877207, 0.000116537, -0.00897347, -3.82077e-05, 0.0455552, -0.0240514, -0.00349454, -0.00846953, 0.0632083, 0.0637954, 0.47042, -0.540795, 0.336167, -2.08112, -2.1653, -0.131621, 0.471007, -0.542255, 0.336803, -2.08562, -2.17037, -0.122393, -0.0118833, 0.0554629, 0.00650349, 0.0136785, 0.0120655, -0.00486401
0.146114, 1.69485, -1.22412, -1.5384, -0.899387, -1.19614, 1.23061, -1.30254, 0.02463, -0.00385507, -0.000273074, -0.0091429, -0.00550955, 0.00158245, -0.00043746, -1.60302, 56.3049, 26.8577, 6.58508, 1.28284, 3.20224, 0.0165515, -0.00140367, 0.000532127, -0.00087744, 0.000106775, -0.00902756, -5.36337e-05, 0.044967, -0.0254097, -0.00210571, -0.00461952, 0.0625914, 0.0660938, 0.470408, -0.54074, 0.336174, -2.08106, -2.16528, -0.131657, 0.471024, -0.54224, 0.336802, -2.08558, -2.17041, -0.122386, -0.0120214, 0.0562022, 0.00660959, 0.0149272, 0.0132264, -0.0033387
0.147114, 1.69486, -1.22412, -1.53841, -0.899398, -1.19614, 1.23061, -1.30254, 0.0228952, -0.00340527, -0.00101708, -0.0133169, -0.0039415, 0.00129209, -5.42812e-05, -1.52764, 56.3406, 26.8934, 6.58508, 1.27643, 3.19583, 0.0101428, -0.00145254, 0.000551264, -0.000875599, 0.000100269, -0.0090795, -5.35611e-05, 0.0450302, -0.0254641, -0.00260522, -0.0063633, 0.0627352, 0.0682306, 0.470396, -0.540684, 0.33618, -2.08101, -2.16527, -0.131692, 0.471032, -0.542231, 0.336798, -2.08556, -2.17043, -0.122377, -0.0121598, 0.056945, 0.00671664, 0.0148278, 0.0139884, -0.00373895
0.148114, 1.69488, -1.22414, -1.5384, -0.899415, -1.19614, 1.23061, -1.30253, 0.0203375, -0.00570385, -0.000677913, -0.014132, -0.00368521, 0.00113249, 0.00118452, -1.52764, 56.4874, 26.8934, 6.62079, 1.29474, 3.18851, -0.0228162, -0.00149627, 0.00057694, -0.000868157, 9.56386e-05, -0.00911982, -6.55315e-05, 0.0467719, -0.0244219, -0.00381041, -0.00616317, 0.0608878, 0.0658913, 0.470384, -0.540627, 0.336187, -2.08095, -2.16526, -0.131729, 0.471047, -0.542215, 0.33679, -2.08551, -2.17045, -0.122379, -0.0122984, 0.0576914, 0.00682465, 0.0136687, 0.0131618, -0.00506589
0.149114, 1.69491, -1.22414, -1.53841, -0.899426, -1.19614, 1.23061, -1.30253, 0.0202759, -0.0055658, -0.00221508, -0.0129286, -0.00250397, 0.00156867, 0.0012644, -1.60302, 56.5628, 26.9687, 6.58508, 1.28833, 3.16653, -0.0356336, -0.00154172, 0.000603178, -0.000863113, 8.99803e-05, -0.00916829, -7.18249e-05, 0.0480392, -0.0241671, -0.00404629, -0.00587265, 0.061029, 0.0647767, 0.470372, -0.540569, 0.336194, -2.08089, -2.16524, -0.131765, 0.471063, -0.5422, 0.336784, -2.08547, -2.17048, -0.122374, -0.0124372, 0.0584414, 0.0069336, 0.0133141, 0.0126886, -0.0053847
0.150114, 1.69492, -1.22414, -1.5384, -0.899446, -1.19614, 1.23061, -1.30253, 0.0164033, -0.00371054, 0.0002866, -0.0145373, -0.0014419, 0.00155431, -0.00108985, -1.52764, 56.5628, 26.8934, 6.65649, 1.27643, 3.1528, 0.0165515, -0.0015865, 0.000627409, -0.000865574, 7.5974e-05, -0.00922232, -9.02691e-05, 0.0491328, -0.0229842, -0.00207448, -0.00311629, 0.0626229, 0.0666674, 0.470359, -0.54051, 0.336201, -2.08083, -2.16523, -0.131802, 0.471076, -0.542185, 0.336785, -2.08542, -2.17052, -0.122374, -0.0125762, 0.0591949, 0.00704351, 0.0121079, 0.0120058, -0.00346779
0.151114, 1.69494, -1.22415, -1.53841, -0.899459, -1.19613, 1.23061, -1.30253, 0.015433, -0.00507215, -0.000736894, -0.0131339, -0.000205789, 0.00184993, 0.000256778, -1.52764, 56.6739, 26.933, 6.62079, 1.25171, 3.13083, -0.00999879, -0.00163437, 0.00065135, -0.000860325, 6.93714e-05, -0.00926786, -9.85185e-05, 0.0508843, -0.0222732, -0.00294691, -0.00235882, 0.0610815, 0.0635076, 0.470347, -0.540451, 0.336208, -2.08077, -2.16522, -0.13184, 0.471089, -0.542171, 0.336779, -2.08538, -2.17054, -0.122374, -0.0127154, 0.0599519, 0.00715437, 0.0112918, 0.0111422, -0.00447569
0.152114, 1.69496, -1.22415, -1.53841, -0.899474, -1.19613, 1.23061, -1.30253, 0.0116312, -0.00338143, -0.000491218, -0.0143679, 0.00086175, 0.0015045, 0.000645903, -1.52764, 56.6739, 26.933, 6.54541, 1.2215, 3.1235, -0.0228162, -0.00168231, 0.000674963, -0.000860335, 5.95121e-05, -0.00932174, -0.00010337, 0.0525196, -0.0205932, -0.00185022, -0.00168974, 0.0624679, 0.0613156, 0.470334, -0.540391, 0.336215, -2.0807, -2.1652, -0.131878, 0.471102, -0.542158, 0.336778, -2.08535, -2.17057, -0.122369, -0.0128547, 0.0607124, 0.00726618, 0.0095766, 0.0100475, -0.00349119
0.153114, 1.69498, -1.22414, -1.5384, -0.899491, -1.19612, 1.23061, -1.30253, 0.0136662, 0.000344169, 0.00143579, -0.0172048, 0.00163736, 0.000731693, -4.41159e-05, -1.60302, 56.5628, 26.8577, 6.54541, 1.19037, 3.13083, -0.00999879, -0.0017262, 0.000701936, -0.00086692, 4.32252e-05, -0.00938082, -0.000121336, 0.0505477, -0.0226944, 0.000461247, -0.00154659, 0.0661229, 0.0680456, 0.470321, -0.540331, 0.336222, -2.08064, -2.16519, -0.131916, 0.471118, -0.54214, 0.336783, -2.08531, -2.17061, -0.122367, -0.0129943, 0.0614763, 0.00737895, 0.0115494, 0.012485, -0.000853406
0.154114, 1.69499, -1.22415, -1.5384, -0.899515, -1.19611, 1.23061, -1.30253, 0.0091998, -0.00320423, 0.000122002, -0.0170719, 0.00170222, 0.000487765, 0.000207948, -1.56335, 56.7096, 26.8934, 6.58508, 1.17206, 3.13083, -0.0164075, -0.00177578, 0.000725392, -0.000860507, 3.7276e-05, -0.00942657, -0.000131756, 0.0539406, -0.020065, -0.00183589, -0.00231138, 0.0631291, 0.0631454, 0.470308, -0.540269, 0.33623, -2.08058, -2.16517, -0.131955, 0.47113, -0.542126, 0.336776, -2.08526, -2.17064, -0.122368, -0.0131339, 0.0622436, 0.00749268, 0.00882488, 0.0101543, -0.00346536
0.155114, 1.695, -1.22415, -1.5384, -0.899533, -1.19611, 1.23061, -1.30253, 0.00901483, -0.00213615, 8.13532e-05, -0.0173168, 0.00152498, 0.00110505, -0.000369994, -1.52764, 56.7096, 26.8934, 6.5097, 1.16015, 3.10977, -0.00267457, -0.00182752, 0.000747557, -0.000861727, 2.37347e-05, -0.00948513, -0.000139093, 0.0547372, -0.0201909, -0.00117515, -0.00177159, 0.0654418, 0.0640892, 0.470295, -0.540207, 0.336237, -2.08051, -2.16516, -0.131994, 0.471141, -0.542114, 0.336775, -2.08522, -2.17067, -0.122364, -0.0132738, 0.0630144, 0.00760737, 0.00886582, 0.010042, -0.00283179
0.156114, 1.69502, -1.22415, -1.53839, -0.899558, -1.19611, 1.23061, -1.30253, 0.00999235, -0.00225932, 0.00346673, -0.0225799, 0.00121603, 0.000736681, -0.0011961, -1.52764, 56.7453, 26.8934, 6.5097, 1.15375, 3.10977, 0.0229602, -0.0018775, 0.000771968, -0.000860209, 1.57575e-05, -0.00954211, -0.000154971, 0.0528544, -0.0225215, -0.000857132, -0.00182435, 0.0664468, 0.0724447, 0.470282, -0.540144, 0.336245, -2.08045, -2.16514, -0.132034, 0.471154, -0.542099, 0.336773, -2.08517, -2.17071, -0.122356, -0.0134137, 0.0637885, 0.00772302, 0.0109967, 0.0127238, -0.00217977
0.157114, 1.69502, -1.22416, -1.53839, -0.899583, -1.19611, 1.23061, -1.30254, 0.00894991, -0.00326945, 0.00259554, -0.0254314, 0.000782205, 0.00103364, -0.00127212, -1.45226, 56.8207, 26.8934, 6.47003, 1.15375, 3.09512, 0.0357776, -0.00193242, 0.000792407, -0.000855581, 5.90823e-06, -0.00959354, -0.000161226, 0.0536638, -0.0225554, -0.00205905, -0.00368918, 0.0670073, 0.0738714, 0.470268, -0.54008, 0.336252, -2.08038, -2.16513, -0.132074, 0.471163, -0.542087, 0.336767, -2.08513, -2.17073, -0.122356, -0.0135538, 0.064566, 0.00783963, 0.0108767, 0.0128938, -0.00338193
0.158114, 1.69504, -1.22416, -1.53839, -0.899609, -1.1961, 1.23062, -1.30253, 0.00865238, -0.00301485, 0.00707798, -0.0247211, 0.000974824, 0.00123162, 0.0010847, -1.52764, 56.8564, 26.822, 6.43433, 1.14093, 3.08047, -0.0164075, -0.00198091, 0.000820055, -0.000856356, -9.54045e-06, -0.00965004, -0.000174636, 0.0538149, -0.0231781, -0.000177771, 0.00102991, 0.0676193, 0.0732526, 0.470255, -0.540016, 0.33626, -2.08032, -2.16511, -0.132115, 0.471179, -0.54207, 0.336766, -2.08509, -2.17077, -0.122358, -0.013694, 0.0653468, 0.00795721, 0.011435, 0.0132579, -0.00145436
0.159114, 1.69505, -1.22415, -1.53839, -0.899637, -1.1961, 1.23062, -1.30253, 0.00729538, -0.000246663, 0.00433206, -0.0271545, 0.00486353, 0.0013297, -0.000497568, -1.56335, 56.781, 26.8577, 6.39465, 1.15375, 3.06674, 0.0165515, -0.00203229, 0.000844846, -0.000858511, -1.77979e-05, -0.00971662, -0.000191573, 0.0540426, -0.0229918, 0.000227864, -7.32243e-05, 0.068386, 0.0759906, 0.470241, -0.53995, 0.336268, -2.08025, -2.1651, -0.132156, 0.471192, -0.542054, 0.336767, -2.08504, -2.17081, -0.122343, -0.0138343, 0.0661309, 0.00807574, 0.0111332, 0.013747, -0.000969396
0.160114, 1.69505, -1.22416, -1.53838, -0.899668, -1.19609, 1.23062, -1.30253, 0.00575857, -0.00192768, 0.00405972, -0.0290992, 0.00854563, 0.001429, 0.000651632, -1.45226, 56.8564, 26.822, 6.35895, 1.14734, 3.05209, -0.00999879, -0.00208814, 0.000865642, -0.00085547, -2.92928e-05, -0.00977101, -0.000196629, 0.0544555, -0.0230896, -0.00102974, 0.000784988, 0.0646799, 0.0765951, 0.470227, -0.539884, 0.336276, -2.08018, -2.16508, -0.132197, 0.471201, -0.542042, 0.336763, -2.08501, -2.17084, -0.122343, -0.0139747, 0.0669183, 0.00819524, 0.0110602, 0.0143299, -0.0021631
0.161114, 1.69506, -1.22415, -1.53839, -0.899703, -1.19609, 1.23062, -1.30253, 0.00750529, -0.00128512, 0.000360377, -0.0314007, 0.00569442, 0.00149519, 0.000434421, -1.45226, 56.8564, 26.933, 6.35895, 1.16565, 3.03744, -0.00999879, -0.00214194, 0.000889742, -0.000852694, -2.98426e-05, -0.00983668, -0.000209896, 0.0550886, -0.0237238, -0.00234978, -0.00489466, 0.0689887, 0.0782331, 0.470213, -0.539817, 0.336284, -2.08012, -2.16506, -0.132239, 0.471213, -0.542027, 0.336759, -2.08496, -2.17087, -0.12232, -0.0141153, 0.067709, 0.00831571, 0.0115284, 0.0147315, -0.00346901
0.162114, 1.69506, -1.22415, -1.53838, -0.899737, -1.19609, 1.23062, -1.30253, 0.00594678, -0.000856747, 0.00302797, -0.0290895, 0.00885166, 0.000725526, 0.000289614, -1.33721, 56.8564, 26.822, 6.32324, 1.17206, 3.04477, -0.00999879, -0.00219732, 0.000910782, -0.000855159, -4.48019e-05, -0.00989789, -0.000221049, 0.0559662, -0.0231148, -0.000808486, -0.000261661, 0.0668155, 0.0775873, 0.470199, -0.539749, 0.336293, -2.08005, -2.16505, -0.132281, 0.471222, -0.542013, 0.33676, -2.08492, -2.17091, -0.122318, -0.0142558, 0.0685029, 0.00843714, 0.0108708, 0.0143927, -0.00195063
0.163114, 1.69507, -1.22415, -1.53838, -0.89977, -1.19608, 1.23062, -1.30253, 0.003919, -0.00140638, 0.000490158, -0.0296361, 0.00600175, 0.000754949, -7.81912e-05, -1.30151, 56.8921, 26.8934, 6.24786, 1.19037, 3.03744, -0.00267457, -0.0022542, 0.000933299, -0.000852687, -4.9446e-05, -0.00996179, -0.000228054, 0.0586734, -0.0214571, -0.00197354, -0.00364185, 0.0695725, 0.0746954, 0.470185, -0.539681, 0.336301, -2.07998, -2.16503, -0.132324, 0.471232, -0.541999, 0.336756, -2.08487, -2.17094, -0.122302, -0.0143965, 0.0692999, 0.00855954, 0.00913287, 0.0126328, -0.00335996
0.164114, 1.69507, -1.22415, -1.53837, -0.899803, -1.19608, 1.23062, -1.30253, 0.00320494, 0.00306684, 0.00126845, -0.0293282, 0.00928782, 0.000774565, -0.000289486, -1.30151, 56.8564, 26.8577, 6.13678, 1.19037, 3.03012, 0.00373412, -0.00230856, 0.000958252, -0.000854894, -6.36033e-05, -0.0100251, -0.000246261, 0.0586448, -0.0215216, 0.00102096, -0.000649598, 0.0720477, 0.0757678, 0.47017, -0.539612, 0.33631, -2.0799, -2.16502, -0.132367, 0.471245, -0.541983, 0.336757, -2.08482, -2.17098, -0.122299, -0.0145372, 0.0701002, 0.0086829, 0.00916856, 0.0129944, -0.000283005
0.165114, 1.69508, -1.22415, -1.53837, -0.899846, -1.19607, 1.23062, -1.30254, 0.00165281, 0.0040719, -0.000837759, -0.0318474, 0.0114557, 0.000753734, -0.00165105, -1.26183, 56.781, 26.933, 6.13678, 1.19678, 3.02371, 0.0431018, -0.00236341, 0.000982421, -0.00085437, -6.69104e-05, -0.0100923, -0.000268791, 0.0593207, -0.0211742, 0.000604978, -0.00224909, 0.0723832, 0.0779321, 0.470156, -0.539541, 0.336318, -2.07983, -2.165, -0.132411, 0.471257, -0.541966, 0.336756, -2.08476, -2.17103, -0.122281, -0.014678, 0.0709037, 0.00880724, 0.00869175, 0.0131828, -0.000669853
0.166114, 1.69508, -1.22415, -1.53837, -0.899885, -1.19606, 1.23062, -1.30253, -0.000328209, 0.000314219, -0.00133384, -0.0318419, 0.00820805, 0.000773756, 0.0013407, -1.18645, 56.8921, 26.9687, 6.0614, 1.20868, 3.01639, -0.0228162, -0.00242337, 0.00100278, -0.000848885, -7.04912e-05, -0.0101498, -0.000270733, 0.0621438, -0.019791, -0.00165012, -0.00403437, 0.07209, 0.0721535, 0.470141, -0.539471, 0.336327, -2.07976, -2.16498, -0.132455, 0.471264, -0.541952, 0.336749, -2.08472, -2.17105, -0.122271, -0.0148189, 0.0717102, 0.00893254, 0.00719159, 0.0115015, -0.00317961
0.167114, 1.69508, -1.22415, -1.53837, -0.899929, -1.19605, 1.23062, -1.30254, 3.106e-05, 0.00119325, -9.09546e-06, -0.0358339, 0.00667165, 0.000515837, -0.0015476, -1.18645, 56.8564, 26.933, 6.02173, 1.19678, 3.01639, 0.0431018, -0.00247676, 0.00102955, -0.000850661, -7.96986e-05, -0.0102157, -0.000301662, 0.0615386, -0.0209901, -0.00125201, -0.0055737, 0.0751868, 0.0794326, 0.470126, -0.539399, 0.336336, -2.07969, -2.16496, -0.132499, 0.471278, -0.541933, 0.33675, -2.08465, -2.17111, -0.122263, -0.0149597, 0.0725199, 0.00905882, 0.00824199, 0.0128981, -0.00260592
0.168114, 1.69508, -1.22415, -1.53836, -0.899976, -1.19605, 1.23062, -1.30254, -0.00239035, -0.000856317, 0.000955641, -0.0417997, 0.00366053, 0.000886425, -0.000760468, -1.07537, 56.9318, 26.8934, 5.98602, 1.2334, 3.00174, 0.0357776, -0.00253702, 0.00105073, -0.000848527, -8.89297e-05, -0.0102798, -0.000314254, 0.06231, -0.0210114, -0.00277024, -0.00830636, 0.077001, 0.0814035, 0.470112, -0.539326, 0.336345, -2.07961, -2.16495, -0.132544, 0.471287, -0.541918, 0.336747, -2.0846, -2.17114, -0.122255, -0.0151006, 0.0733327, 0.00918606, 0.00809563, 0.0131914, -0.00410458
0.169114, 1.69508, -1.22414, -1.53836, -0.900023, -1.19604, 1.23062, -1.30253, -0.00238104, 0.00127592, 0.0023931, -0.0427539, 0.0066394, 0.000319682, 0.000679816, -1.0357, 56.8564, 26.9687, 5.91064, 1.25812, 3.00906, 0.00373412, -0.00259396, 0.00107467, -0.000850786, -9.53432e-05, -0.0103506, -0.000329478, 0.0616933, -0.0217814, -0.00118861, -0.00628743, 0.0772095, 0.0828995, 0.470096, -0.539253, 0.336354, -2.07954, -2.16493, -0.132589, 0.471298, -0.5419, 0.336748, -2.08455, -2.17118, -0.122237, -0.0152415, 0.0741485, 0.00931428, 0.0087613, 0.0144007, -0.002346
0.170114, 1.69507, -1.22413, -1.53835, -0.900073, -1.19602, 1.23062, -1.30253, -0.00240997, 0.000913288, 0.00190551, -0.0441552, 0.00513703, 0.000484389, -0.000258866, -0.996025, 56.8564, 26.9687, 5.87494, 1.25812, 3.00174, 0.0229602, -0.0026508, 0.00109967, -0.000852817, -0.000108407, -0.0104165, -0.000353405, 0.0625781, -0.0219686, -0.0017399, -0.00782528, 0.0791342, 0.0847424, 0.470081, -0.539179, 0.336364, -2.07946, -2.16491, -0.132635, 0.47131, -0.541882, 0.336749, -2.08449, -2.17123, -0.122234, -0.0153825, 0.0749674, 0.00944347, 0.00882105, 0.0144431, -0.00291196
0.171114, 1.69506, -1.22414, -1.53835, -0.900128, -1.19601, 1.23062, -1.30254, -0.00505406, -0.00194259, 0.00309406, -0.0450518, 0.00754689, 0.000594193, -0.000409936, -0.845268, 56.9675, 27.0441, 5.83527, 1.28833, 2.99441, 0.0293689, -0.00271393, 0.00111897, -0.000848476, -0.000113833, -0.010479, -0.000366697, 0.0638911, -0.0213461, -0.00296521, -0.00569358, 0.0751076, 0.0849417, 0.470066, -0.539104, 0.336373, -2.07939, -2.16489, -0.132681, 0.471316, -0.541867, 0.336744, -2.08444, -2.17127, -0.122224, -0.0155234, 0.0757893, 0.00957364, 0.008063, 0.0141379, -0.00418515
0.172114, 1.69506, -1.22412, -1.53835, -0.90018, -1.196, 1.23062, -1.30253, -0.00238206, 0.00355046, 0.00168146, -0.0449439, 0.00511133, -0.00904458, 0.00142213, -0.884941, 56.8921, 27.0798, 5.76385, 1.30755, 2.99441, -0.0164075, -0.00276982, 0.00114487, -0.000852312, -0.000120953, -0.0105499, -0.000386806, 0.0628203, -0.02054, -0.00120924, -0.016177, 0.0788003, 0.0844514, 0.47005, -0.539028, 0.336383, -2.07931, -2.16487, -0.132728, 0.471329, -0.541846, 0.336747, -2.08438, -2.17131, -0.122209, -0.0156643, 0.0766142, 0.00970477, 0.00714454, 0.0157092, -0.00213048
0.173114, 1.69505, -1.22412, -1.53834, -0.900237, -1.19599, 1.23062, -1.30253, -0.00330681, 0.00401264, -0.000301789, -0.047978, 0.00770659, -0.00654518, 0.00043946, -0.809562, 56.9675, 27.1552, 5.68848, 1.33777, 2.98709, -0.00267457, -0.00283041, 0.00116756, -0.000853154, -0.000129414, -0.0106195, -0.00040809, 0.063293, -0.0211995, -0.00178664, -0.0156555, 0.0795653, 0.0875343, 0.470035, -0.538951, 0.336392, -2.07923, -2.16485, -0.132775, 0.471338, -0.541829, 0.336747, -2.08432, -2.17136, -0.122198, -0.0158053, 0.0774421, 0.00983689, 0.0076596, 0.0161916, -0.00266873
0.174114, 1.69504, -1.22411, -1.53834, -0.9003, -1.19597, 1.23062, -1.30253, -0.00569766, 0.00630533, 0.00250643, -0.0530081, 0.00945287, -0.00495349, 0.000292974, -0.658806, 56.9675, 27.1909, 5.72418, 1.37439, 2.98709, -0.00267457, -0.00289124, 0.00118995, -0.000856985, -0.000141417, -0.0106947, -0.000429971, 0.0627138, -0.0220271, 0.000123648, -0.0126958, 0.0822202, 0.0920682, 0.470019, -0.538874, 0.336402, -2.07915, -2.16483, -0.132822, 0.471347, -0.541811, 0.33675, -2.08426, -2.17141, -0.122185, -0.0159461, 0.0782729, 0.00996998, 0.00839688, 0.017329, -0.00058903
0.175114, 1.69503, -1.22411, -1.53833, -0.900362, -1.19595, 1.23062, -1.30253, -0.0085302, 0.00467039, -0.000554827, -0.0538229, 0.0110843, -0.00323624, 0.000703942, -0.583427, 57.1143, 27.306, 5.6488, 1.39911, 2.97336, -0.0164075, -0.00295234, 0.00121338, -0.000853135, -0.000149281, -0.0107542, -0.000452017, 0.0652425, -0.0207175, -0.00172056, -0.0130603, 0.0811169, 0.0891232, 0.470003, -0.538796, 0.336412, -2.07907, -2.16481, -0.13287, 0.471357, -0.541791, 0.336746, -2.08419, -2.17145, -0.122184, -0.016087, 0.0791067, 0.010104, 0.00697492, 0.0159051, -0.00264189
0.176114, 1.69502, -1.22409, -1.53832, -0.900429, -1.19594, 1.23061, -1.30253, -0.00860876, 0.00561288, 0.00449788, -0.0555514, 0.0123487, -0.00248939, -0.000514049, -0.468376, 57.0389, 27.2663, 5.6131, 1.42383, 2.97336, 0.0101428, -0.00300939, 0.00123807, -0.000862793, -0.000163312, -0.0108315, -0.000482387, 0.0642859, -0.0223137, 0.000452529, -0.00800041, 0.0820397, 0.0950669, 0.469987, -0.538717, 0.336422, -2.07899, -2.16479, -0.132919, 0.471368, -0.541769, 0.336755, -2.08413, -2.17152, -0.122173, -0.0162278, 0.0799433, 0.0102391, 0.00847567, 0.0174118, -0.000264975
0.177114, 1.695, -1.22409, -1.53831, -0.900498, -1.19592, 1.23061, -1.30254, -0.00851065, 0.00557177, 0.00528886, -0.0558594, 0.0132868, -0.00605004, -0.0015634, -0.357292, 57.1143, 27.3417, 5.53772, 1.44855, 2.95871, 0.0431018, -0.00307036, 0.00126154, -0.000862472, -0.000169415, -0.0108994, -0.000515371, 0.0642912, -0.0221371, 0.000348361, -0.00999081, 0.0802821, 0.0976058, 0.469971, -0.538637, 0.336433, -2.07891, -2.16477, -0.132968, 0.471378, -0.541748, 0.336754, -2.08405, -2.17157, -0.122164, -0.0163686, 0.0807828, 0.0103751, 0.00815647, 0.0182565, -0.000232187
0.178114, 1.69499, -1.22409, -1.5383, -0.900568, -1.1959, 1.23061, -1.30253, -0.00756678, 0.000948289, 0.00595337, -0.0593455, 0.0143289, -0.00515293, -5.89243e-05, -0.281914, 57.261, 27.417, 5.46234, 1.46686, 2.97336, 0.0165515, -0.00312989, 0.00128742, -0.000860662, -0.000177964, -0.0109615, -0.000545827, 0.0639006, -0.0240377, -0.00258749, -0.0101858, 0.0763966, 0.101284, 0.469954, -0.538556, 0.336443, -2.07883, -2.16475, -0.133017, 0.471389, -0.541724, 0.336752, -2.08397, -2.17162, -0.122164, -0.0165093, 0.0816252, 0.0105121, 0.00979012, 0.0200321, -0.00299412
0.179114, 1.69497, -1.22407, -1.53829, -0.900645, -1.19588, 1.2306, -1.30254, -0.00866832, 0.00648014, 0.00998676, -0.0637308, 0.0202565, -0.00437669, -0.00102263, -0.131157, 57.2968, 27.4885, 5.46234, 1.47327, 2.98709, 0.0431018, -0.00319002, 0.00131029, -0.000864717, -0.000186011, -0.0110321, -0.000580115, 0.0614621, -0.0259175, 0.00159456, -0.00454292, 0.0783633, 0.109282, 0.469938, -0.538474, 0.336454, -2.07875, -2.16473, -0.133067, 0.471398, -0.541702, 0.336756, -2.08389, -2.17168, -0.122155, -0.01665, 0.0824704, 0.0106501, 0.0115944, 0.0227032, 0.00159567
0.180114, 1.69496, -1.22406, -1.53827, -0.900718, -1.19585, 1.2306, -1.30254, -0.00677989, 0.0100343, 0.0113356, -0.0641414, 0.0191202, -0.00300501, -0.00091911, -0.0914839, 57.2253, 27.4885, 5.35126, 1.49707, 2.98068, 0.0495105, -0.00324673, 0.00133849, -0.000874499, -0.000200446, -0.0111114, -0.000619605, 0.0610944, -0.0274661, 0.00413027, -0.0027326, 0.0843599, 0.112057, 0.469921, -0.538392, 0.336464, -2.07866, -2.16471, -0.133117, 0.471412, -0.541675, 0.336766, -2.08382, -2.17176, -0.122145, -0.0167906, 0.0833185, 0.010789, 0.0130839, 0.0235805, 0.00424164
0.181114, 1.69494, -1.22405, -1.53827, -0.900793, -1.19583, 1.23059, -1.30253, -0.0111482, 0.00418657, 0.0129677, -0.0679307, 0.0186585, -0.00197551, 0.000607963, 0.059273, 57.3721, 27.6035, 5.24017, 1.50989, 2.97336, 0.0165515, -0.00331256, 0.00135793, -0.000872494, -0.000205956, -0.0111734, -0.000639112, 0.0632139, -0.0265007, 0.00107675, -0.00208871, 0.0803575, 0.110717, 0.469904, -0.538309, 0.336475, -2.07858, -2.16469, -0.133167, 0.471417, -0.541656, 0.336764, -2.08374, -2.17179, -0.122142, -0.0169311, 0.0841693, 0.010929, 0.0119453, 0.0227844, 0.00105497
0.182114, 1.69493, -1.22404, -1.53825, -0.900884, -1.19581, 1.23059, -1.30254, -0.0147858, 0.00488265, 0.0143856, -0.0743419, 0.0233036, -0.00682641, -0.000578036, 0.0949785, 57.4475, 27.5638, 5.27588, 1.5163, 2.98709, 0.0431018, -0.00336558, 0.00138918, -0.000876651, -0.000213692, -0.0112429, -0.000696549, 0.0620163, -0.0258679, 0.00084627, -0.00520087, 0.0760568, 0.116572, 0.469887, -0.538224, 0.336486, -2.07849, -2.16467, -0.133218, 0.471434, -0.541623, 0.336769, -2.08364, -2.17188, -0.122137, -0.0170715, 0.0850228, 0.0110699, 0.0111209, 0.0248302, 0.00117446
0.183114, 1.69491, -1.22403, -1.53824, -0.900971, -1.19578, 1.23058, -1.30253, -0.0186987, 0.00467559, 0.0118568, -0.0740606, 0.0264264, -0.00430949, 0.00107271, 0.170357, 57.5546, 27.6749, 5.24017, 1.53461, 2.96603, 0.00373412, -0.00342671, 0.00141499, -0.000876753, -0.000219571, -0.0113125, -0.00073093, 0.0649069, -0.0240848, 0.000306603, -0.00288482, 0.0753975, 0.111101, 0.46987, -0.538139, 0.336497, -2.07841, -2.16465, -0.13327, 0.471445, -0.541597, 0.336769, -2.08355, -2.17193, -0.122129, -0.0172118, 0.0858791, 0.0112118, 0.00928998, 0.0228456, 0.00037187
