alisrour97/Franka_experiments/Real_Robot_scripts/servo-franka/Data2/log_dyn_INIT2_14.csv
Time,q1,q2,q3,q4,q5,q6,q7,dq1,dq2,dq3,dq4,dq5,dq6,dq7,t1,t2,t3,t4,t5,t6,t7,ex1,ex2,ex3,ex4,ex5,ex6,ev1,ev2,ev3,ev4,ev5,ev6,xd,yd,zd,uxd,uyd,uzd,x,y,z,ux,uy,uz,vxd,vyd,vzd,vx,vy,vz
2.44141e-07, 1.69091, -1.23059, -1.54148, -0.900535, -1.19262, 1.22746, -1.3026, -0.00459802, -0.00862175, -0.0127581, 0.00322331, 0.00396956, -0.00395023, 0.000964584, 1.68189, 71.4401, 36.9822, 7.70386, 3.12488, 4.92343, -0.226063, -0.000355792, -0.0025272, 0.00440666, 0.00513852, 0.00415338, 0.00189764, 0.0052506, 0.00567379, -0.00924284, -0.011226, -0.0133554, -0.0129111, 0.471008, -0.543389, 0.335894, -2.08385, -2.16584, -0.129887, 0.468351, -0.543157, 0.331572, -2.08098, -2.15952, -0.128203, -1.48327e-05, 4.00419e-05, -1.29039e-06, -0.00582718, -0.00395303, -0.0097718
0.0131174, 1.69085, -1.23062, -1.54158, -0.900506, -1.19255, 1.2274, -1.30259, -0.00744874, -0.00324182, -0.0110988, 0.00283753, 0.00362489, -0.00857356, 0.00210382, 1.38038, 71.4798, 37.0933, 7.5531, 3.05713, 4.90146, -0.284657, -0.000395012, -0.002588, 0.00445657, 0.00521552, 0.00427067, 0.00201282, 0.00518942, 0.00786762, -0.00579076, -0.013237, -0.0101231, -0.0159212, 0.471008, -0.543389, 0.335894, -2.08385, -2.16584, -0.129887, 0.468277, -0.543199, 0.33151, -2.08101, -2.15926, -0.128225, -2.49008e-05, 7.8927e-05, 1.60533e-06, -0.00790582, -0.00447482, -0.00628463
0.0141174, 1.69085, -1.23062, -1.54158, -0.900506, -1.19255, 1.2274, -1.30259, -0.00744874, -0.00324182, -0.0110988, 0.00283753, 0.00362489, -0.00857356, 0.00210382, 1.38038, 71.4798, 37.0933, 7.5531, 3.05713, 4.90146, -0.284657, -0.000395021, -0.002588, 0.00445657, 0.00521552, 0.00427066, 0.00201283, 0.00523248, 0.00785826, -0.00578696, -0.013237, -0.0100749, -0.0158905, 0.471008, -0.543389, 0.335894, -2.08385, -2.16584, -0.129887, 0.468277, -0.543199, 0.33151, -2.08101, -2.15926, -0.128225, -3.59273e-05, 0.000121646, 4.81928e-06, -0.00790582, -0.00447482, -0.00628463
0.0151174, 1.69085, -1.23062, -1.54158, -0.900506, -1.19255, 1.2274, -1.30259, -0.00744874, -0.00324182, -0.0110988, 0.00283753, 0.00362489, -0.00857356, 0.00210382, 1.38038, 71.4798, 37.0933, 7.5531, 3.05713, 4.90146, -0.284657, -0.000395044, -0.00258799, 0.00445657, 0.00521552, 0.00427064, 0.00201284, 0.00527957, 0.00784806, -0.00578284, -0.0132369, -0.0100223, -0.0158571, 0.471008, -0.543389, 0.335894, -2.08385, -2.16584, -0.129887, 0.468277, -0.543199, 0.33151, -2.08101, -2.15926, -0.128225, -4.79476e-05, 0.000168349, 8.36616e-06, -0.00790582, -0.00447482, -0.00628463
0.0161174, 1.69085, -1.23062, -1.54158, -0.900506, -1.19255, 1.2274, -1.30259, -0.00744874, -0.00324182, -0.0110988, 0.00283753, 0.00362489, -0.00857356, 0.00210382, 1.38038, 71.4798, 37.0933, 7.5531, 3.05713, 4.90146, -0.284657, -0.000395091, -0.00258798, 0.00445656, 0.0052155, 0.0042706, 0.00201286, 0.00533083, 0.00783699, -0.00577839, -0.0132367, -0.00996505, -0.0158207, 0.471008, -0.543389, 0.335894, -2.08385, -2.16584, -0.129887, 0.468277, -0.543199, 0.33151, -2.08101, -2.15926, -0.128225, -6.09969e-05, 0.000219187, 1.22607e-05, -0.00790582, -0.00447482, -0.00628463
0.0171174, 1.69085, -1.23062, -1.54158, -0.900506, -1.19255, 1.2274, -1.30259, -0.00744874, -0.00324182, -0.0110988, 0.00283753, 0.00362489, -0.00857356, 0.00210382, 1.38038, 71.4798, 37.0933, 7.5531, 3.05713, 4.90146, -0.284657, -0.000395168, -0.00258796, 0.00445656, 0.00521548, 0.00427052, 0.00201289, 0.00538641, 0.00782502, -0.0057736, -0.0132365, -0.00990306, -0.0157814, 0.471008, -0.543389, 0.335894, -2.08385, -2.16584, -0.129887, 0.468277, -0.543199, 0.33151, -2.08101, -2.15926, -0.128225, -7.51097e-05, 0.000274308, 1.65177e-05, -0.00790582, -0.00447482, -0.00628463
0.0181174, 1.69085, -1.23062, -1.54158, -0.900506, -1.19255, 1.2274, -1.30259, -0.00744874, -0.00324182, -0.0110988, 0.00283753, 0.00362489, -0.00857356, 0.00210382, 1.38038, 71.4798, 37.0933, 7.5531, 3.05713, 4.90146, -0.284657, -0.000395282, -0.00258794, 0.00445655, 0.00521546, 0.00427042, 0.00201294, 0.00544647, 0.00781212, -0.00576846, -0.0132361, -0.00983615, -0.015739, 0.471008, -0.543389, 0.335894, -2.08385, -2.16584, -0.129887, 0.468277, -0.543199, 0.33151, -2.08101, -2.15926, -0.128225, -9.03198e-05, 0.000333859, 2.1152e-05, -0.00790582, -0.00447482, -0.00628463
0.0191174, 1.69085, -1.23062, -1.54158, -0.900506, -1.19255, 1.2274, -1.30259, -0.00744874, -0.00324182, -0.0110988, 0.00283753, 0.00362489, -0.00857356, 0.00210382, 1.38038, 71.4798, 37.0933, 7.5531, 3.05713, 4.90146, -0.284657, -0.000395442, -0.0025879, 0.00445653, 0.00521542, 0.00427026, 0.00201301, 0.00551114, 0.00779828, -0.00576296, -0.0132357, -0.00976416, -0.0156934, 0.471008, -0.543389, 0.335894, -2.08385, -2.16584, -0.129887, 0.468277, -0.543199, 0.33151, -2.08101, -2.15926, -0.128225, -0.000106661, 0.000397984, 2.61782e-05, -0.00790582, -0.00447482, -0.00628463
0.0201174, 1.69085, -1.23062, -1.54158, -0.900506, -1.19255, 1.2274, -1.30259, -0.00744874, -0.00324182, -0.0110988, 0.00283753, 0.00362489, -0.00857356, 0.00210382, 1.38038, 71.4798, 37.0933, 7.5531, 3.05713, 4.90146, -0.284657, -0.000395654, -0.00258786, 0.00445652, 0.00521537, 0.00427006, 0.00201311, 0.00558057, 0.00778345, -0.0057571, -0.0132351, -0.00968694, -0.0156446, 0.471008, -0.543389, 0.335894, -2.08385, -2.16584, -0.129887, 0.468277, -0.543199, 0.33151, -2.08101, -2.15926, -0.128225, -0.000124165, 0.000466826, 3.16113e-05, -0.00790582, -0.00447482, -0.00628463
0.0211174, 1.69085, -1.23062, -1.54158, -0.900506, -1.19255, 1.2274, -1.30259, -0.00744874, -0.00324182, -0.0110988, 0.00283753, 0.00362489, -0.00857356, 0.00210382, 1.38038, 71.4798, 37.0933, 7.5531, 3.05713, 4.90146, -0.284657, -0.000395925, -0.0025878, 0.00445649, 0.0052153, 0.00426981, 0.00201323, 0.00565491, 0.00776761, -0.00575086, -0.0132344, -0.00960432, -0.0155924, 0.471008, -0.543388, 0.335894, -2.08385, -2.16584, -0.129887, 0.468277, -0.543199, 0.33151, -2.08101, -2.15926, -0.128225, -0.000142864, 0.000540525, 3.74658e-05, -0.00790582, -0.00447482, -0.00628463
0.0221174, 1.69078, -1.23064, -1.5416, -0.900518, -1.19247, 1.22739, -1.3026, -0.00622236, -0.00161869, -0.00187911, 0.000675236, 0.00407214, -0.000855026, -0.00205153, 1.22962, 71.5155, 36.9068, 7.66418, 2.94635, 4.95914, -0.199513, -0.000411452, -0.0026196, 0.00447715, 0.0052081, 0.0043641, 0.00204208, 0.0032198, 0.0035081, -0.00121374, 0.0006769, -0.00481592, -0.00374149, 0.471008, -0.543388, 0.335894, -2.08384, -2.16584, -0.129888, 0.468245, -0.543212, 0.331488, -2.08099, -2.15918, -0.128326, -0.000162789, 0.000619218, 4.37565e-05, -0.00359504, -0.00251618, -0.00154871
0.0231174, 1.69078, -1.23064, -1.54161, -0.900528, -1.19245, 1.22739, -1.30259, -0.00296185, -0.00176134, -0.00245898, -0.00223377, 0.00474041, -0.000353888, 0.00107371, 1.15424, 71.4044, 36.9465, 7.77924, 2.89783, 4.95181, -0.265431, -0.000407594, -0.00261803, 0.00447568, 0.00520686, 0.00436824, 0.00204073, 0.00105116, 0.00094225, -0.00202569, -0.000992508, -0.00475902, -0.00109299, 0.471008, -0.543388, 0.335894, -2.08384, -2.16584, -0.129888, 0.468246, -0.543208, 0.33149, -2.08099, -2.15918, -0.128332, -0.000183971, 0.000703042, 5.04979e-05, -0.00116054, -6.14571e-05, -0.00208446
0.0241174, 1.69077, -1.23065, -1.54161, -0.900528, -1.19244, 1.22739, -1.30259, -0.00554796, -0.0153369, -0.00839491, 0.000279562, 0.00607824, -0.0030106, 0.000207183, 1.15424, 71.1823, 36.6846, 7.70386, 2.82367, 4.90878, -0.251698, -0.000412004, -0.00262209, 0.00448588, 0.00520889, 0.00438992, 0.00204949, 0.00494729, 0.00408383, -0.0118545, -0.0074055, -0.020521, -0.00704861, 0.471008, -0.543387, 0.335894, -2.08384, -2.16584, -0.129888, 0.468242, -0.543211, 0.33148, -2.08098, -2.15916, -0.128351, -0.000206438, 0.000792126, 5.77046e-05, -0.004536, -0.00243446, -0.0122925
0.0251174, 1.69077, -1.23064, -1.54163, -0.900535, -1.19244, 1.22738, -1.3026, -0.00562124, -0.00865129, -0.0180557, -0.00410969, 0.00504791, -0.00634766, -0.00325272, 1.07887, 69.9683, 36.1649, 7.62848, 2.67627, 4.77969, -0.160145, -0.000413975, -0.00262653, 0.00448636, 0.00522982, 0.00437917, 0.00205009, 0.00501392, 0.00568579, -0.0122336, -0.0207403, -0.0135774, -0.00485631, 0.471007, -0.543387, 0.335894, -2.08384, -2.16584, -0.129889, 0.468237, -0.543212, 0.331479, -2.08098, -2.15916, -0.128318, -0.000230219, 0.000886601, 6.53909e-05, -0.00617097, -0.00241294, -0.0126212
0.0261174, 1.69078, -1.23063, -1.54167, -0.900547, -1.19243, 1.22737, -1.3026, 0.000361312, -0.00697031, -0.0296169, -0.00774367, 0.00192313, -0.00916782, 0.00103918, 0.737679, 68.421, 35.4191, 7.5531, 2.45563, 4.6506, -0.120778, -0.000409654, -0.00262377, 0.00449806, 0.00527655, 0.00437568, 0.00204246, 0.00394372, 0.00444448, -0.0163987, -0.0372981, -0.00936711, -0.00660818, 0.471007, -0.543386, 0.335894, -2.08384, -2.16584, -0.129889, 0.468239, -0.543205, 0.331468, -2.08095, -2.15915, -0.128264, -0.000255341, 0.00098659, 7.35711e-05, -0.005145, -0.000564533, -0.0165971
0.0271174, 1.69079, -1.23064, -1.54173, -0.900557, -1.19243, 1.22735, -1.30259, 0.00381458, -0.00816897, -0.0376402, -0.012032, 0.00402998, -0.00821154, 0.00131896, 0.551216, 66.727, 34.6375, 7.40631, 2.22858, 4.54349, -0.127186, -0.000415089, -0.00263139, 0.00452689, 0.00534883, 0.00438998, 0.00206032, 0.00269787, 0.00251522, -0.0206312, -0.0451799, -0.0106964, -0.00277017, 0.471007, -0.543385, 0.335894, -2.08384, -2.16584, -0.12989, 0.46823, -0.543206, 0.331439, -2.08092, -2.15909, -0.128197, -0.00028183, 0.00109222, 8.22592e-05, -0.00344206, 0.00150144, -0.0206324
0.0281174, 1.69079, -1.23066, -1.5418, -0.900562, -1.19244, 1.22732, -1.30259, 0.00724178, -0.0115742, -0.0495429, -0.00969507, 0.00213078, -0.0164351, 0.000696194, 0.325081, 65.0687, 33.7806, 7.14447, 2.08667, 4.4501, -0.114369, -0.000425134, -0.00264284, 0.00456995, 0.005444, 0.00441816, 0.00208229, 0.00426369, 0.0048629, -0.0274153, -0.063341, -0.0158125, -0.00700412, 0.471007, -0.543384, 0.335894, -2.08384, -2.16584, -0.129891, 0.468218, -0.543209, 0.331395, -2.08088, -2.15902, -0.128118, -0.000309711, 0.0012036, 9.14692e-05, -0.00600348, 0.00101517, -0.0274942
0.0291174, 1.69082, -1.23071, -1.54188, -0.900579, -1.19244, 1.22729, -1.3026, 0.0123656, -0.0213195, -0.0579776, -0.0116172, -0.000834912, -0.0208808, -0.00175857, -0.0161054, 63.6682, 32.7768, 7.02942, 1.98871, 4.30636, -0.0484509, -0.000430091, -0.00264601, 0.00463027, 0.00555656, 0.00446402, 0.00207897, 0.00428715, 0.0040066, -0.0370483, -0.0784969, -0.0242964, -0.00256201, 0.471007, -0.543383, 0.335894, -2.08384, -2.16584, -0.129891, 0.468212, -0.543204, 0.331335, -2.08079, -2.15895, -0.128041, -0.000339009, 0.00132085, 0.000101215, -0.00552448, 0.00262704, -0.0370258
0.0301174, 1.69083, -1.23077, -1.54197, -0.900589, -1.19246, 1.22727, -1.30259, 0.0106025, -0.0308096, -0.067081, -0.0106013, -0.00163604, -0.016897, 0.00143305, -0.131157, 62.4899, 31.8445, 6.80725, 1.9823, 4.07016, -0.114369, -0.000450178, -0.00265948, 0.0047027, 0.00567533, 0.00451226, 0.00211837, 0.00880497, 0.00600896, -0.0452711, -0.0834199, -0.0305389, -0.0127404, 0.471006, -0.543382, 0.335894, -2.08384, -2.16584, -0.129892, 0.468197, -0.543212, 0.331261, -2.08074, -2.15884, -0.127955, -0.000369746, 0.00144407, 0.00011151, -0.00769027, -0.000526098, -0.0457757
0.0311174, 1.69084, -1.23085, -1.54207, -0.900607, -1.19247, 1.22725, -1.30259, 0.0108222, -0.0413341, -0.074437, -0.0125007, -0.00583946, -0.0174905, 0.00131575, -0.166862, 61.6092, 30.8765, 6.69617, 1.95758, 3.81198, -0.120778, -0.000468909, -0.00266974, 0.00478765, 0.00579994, 0.00457899, 0.00213937, 0.0115103, 0.00714073, -0.0543863, -0.0941531, -0.0370905, -0.0153645, 0.471006, -0.543381, 0.335894, -2.08384, -2.16584, -0.129893, 0.468184, -0.543216, 0.331175, -2.08066, -2.15873, -0.127884, -0.000401943, 0.00157338, 0.000122367, -0.00908508, -0.00171082, -0.0551512
0.0321174, 1.69086, -1.23091, -1.54217, -0.900619, -1.19249, 1.22724, -1.30259, 0.0140817, -0.0453033, -0.0793001, -0.0111407, -0.00978341, -0.0153155, 0.000257357, -0.317619, 60.7245, 29.9085, 6.47003, 1.95758, 3.58951, -0.101552, -0.000483693, -0.00267463, 0.00486462, 0.00592348, 0.00462851, 0.00215751, 0.0129722, 0.00642958, -0.0582309, -0.0985614, -0.0362874, -0.0157499, 0.471006, -0.54338, 0.335895, -2.08384, -2.16584, -0.129894, 0.468176, -0.543218, 0.331097, -2.08059, -2.15863, -0.127796, -0.00043562, 0.00170887, 0.000133799, -0.00849505, -0.00239756, -0.0591843
0.0331174, 1.69088, -1.23099, -1.54228, -0.900632, -1.1925, 1.22722, -1.3026, 0.0169815, -0.0522665, -0.0885668, -0.0113321, -0.00664777, -0.0156035, -0.000505214, -0.357292, 60.173, 29.1666, 6.28357, 1.92737, 3.41739, -0.0814099, -0.000502838, -0.00268267, 0.00495294, 0.00605543, 0.00469232, 0.0021804, 0.013659, 0.00595395, -0.0658051, -0.106587, -0.0450731, -0.0151106, 0.471005, -0.543378, 0.335895, -2.08383, -2.16584, -0.129895, 0.468165, -0.543222, 0.331007, -2.08051, -2.15852, -0.127714, -0.000470796, 0.00185063, 0.00014582, -0.00830409, -0.0017484, -0.0667721
0.0341174, 1.69091, -1.23105, -1.54239, -0.900641, -1.19251, 1.2272, -1.30259, 0.0200732, -0.0539545, -0.0915263, -0.0127936, -0.00844822, -0.013365, 0.00141051, -0.43267, 59.5065, 28.4208, 6.02173, 1.88434, 3.29562, -0.127186, -0.000519063, -0.00268934, 0.00503048, 0.00618296, 0.00474222, 0.00220856, 0.0133539, 0.00415409, -0.0680072, -0.109399, -0.0435807, -0.0145717, 0.471005, -0.543376, 0.335895, -2.08383, -2.16584, -0.129896, 0.468156, -0.543225, 0.330928, -2.08044, -2.15842, -0.127621, -0.000507488, 0.00199877, 0.000158442, -0.00663368, -0.000886355, -0.0689408
0.0351174, 1.69093, -1.23111, -1.5425, -0.900648, -1.19252, 1.22719, -1.30259, 0.0184833, -0.0520327, -0.0990437, -0.0119186, -0.00845408, -0.00706063, -0.00142823, -0.468376, 58.9908, 27.9011, 5.79956, 1.80469, 3.17386, -0.0621838, -0.000536369, -0.00269498, 0.00510882, 0.0063125, 0.00478718, 0.00223021, 0.0165057, 0.00543149, -0.0687819, -0.109672, -0.038021, -0.0176047, 0.471004, -0.543375, 0.335895, -2.08383, -2.16584, -0.129898, 0.468148, -0.543228, 0.330848, -2.08037, -2.15832, -0.127522, -0.000545713, 0.00215336, 0.000171677, -0.00786292, -0.00377626, -0.0701432
0.0361174, 1.69097, -1.23116, -1.54262, -0.900667, -1.19253, 1.22718, -1.30259, 0.0238612, -0.0513109, -0.100348, -0.0115751, -0.00891137, -0.00351502, -0.00143159, -0.508049, 58.6615, 27.4528, 5.72418, 1.73053, 3.0878, -0.0484509, -0.000547768, -0.0026935, 0.00518347, 0.00643958, 0.00481979, 0.00224186, 0.0150496, 0.00210576, -0.068736, -0.10857, -0.0347563, -0.0132715, 0.471004, -0.543373, 0.335895, -2.08383, -2.16584, -0.129899, 0.468146, -0.543226, 0.330773, -2.08029, -2.15824, -0.127415, -0.000585484, 0.00231447, 0.000185536, -0.00463171, -0.00204854, -0.0699583
0.0371174, 1.69099, -1.23119, -1.54273, -0.900683, -1.19254, 1.22719, -1.30259, 0.022261, -0.0465524, -0.102023, -0.0150284, -0.00917175, -0.00197488, -0.000661229, -0.317619, 58.3282, 27.2306, 5.68848, 1.65729, 3.03744, -0.0557752, -0.000563946, -0.00269722, 0.00524565, 0.00655444, 0.00483087, 0.00226644, 0.015029, 0.00233347, -0.0667782, -0.109805, -0.028498, -0.0134616, 0.471003, -0.54337, 0.335895, -2.08383, -2.16584, -0.129901, 0.46814, -0.54323, 0.330709, -2.08025, -2.15816, -0.127298, -0.000626814, 0.0024822, 0.000200032, -0.00483054, -0.00217097, -0.0680006
0.0381174, 1.69102, -1.23122, -1.54283, -0.900703, -1.19255, 1.22719, -1.30258, 0.0226821, -0.0378521, -0.0991796, -0.0159874, -0.00941848, 0.000809281, 0.0019831, -0.166862, 58.3282, 27.1195, 5.72418, 1.58313, 3.06674, -0.120778, -0.000572009, -0.00269284, 0.00530271, 0.00666062, 0.00484142, 0.002278, 0.0137016, 0.00101746, -0.0605524, -0.104806, -0.01813, -0.0136239, 0.471003, -0.543368, 0.335896, -2.08382, -2.16584, -0.129903, 0.468142, -0.543227, 0.330652, -2.0802, -2.1581, -0.127192, -0.000669715, 0.00265659, 0.000215176, -0.00338187, -0.00159056, -0.0616716
0.0391174, 1.69104, -1.23123, -1.54293, -0.900733, -1.19255, 1.22719, -1.30259, 0.0188756, -0.0257574, -0.0953647, -0.0207944, -0.00966375, 0.00169902, -0.000123679, 0.170357, 58.4036, 27.1195, 5.95032, 1.50989, 3.13815, -0.0814099, -0.000579264, -0.00269138, 0.00534779, 0.00676246, 0.00483315, 0.00227692, 0.0124092, 0.00144955, -0.0524582, -0.101461, -0.00520365, -0.0094344, 0.471002, -0.543365, 0.335896, -2.08382, -2.16584, -0.129904, 0.468142, -0.543224, 0.330606, -2.08014, -2.15807, -0.127073, -0.000714195, 0.00283772, 0.000230977, -0.00361191, -0.00139703, -0.0534498
0.0401174, 1.69105, -1.23123, -1.54302, -0.900761, -1.19256, 1.2272, -1.30259, 0.0182079, -0.0171075, -0.0933012, -0.023001, -0.0108567, 0.00215215, -0.00176864, 0.701973, 58.6615, 27.306, 6.13678, 1.46045, 3.23153, -0.0356336, -0.000589264, -0.00269449, 0.00538618, 0.00685791, 0.00481843, 0.00228293, 0.0113189, 0.00113503, -0.046854, -0.100023, 0.00485234, -0.00596926, 0.471001, -0.543363, 0.335896, -2.08382, -2.16584, -0.129906, 0.468137, -0.543226, 0.330567, -2.0801, -2.15803, -0.126954, -0.000760263, 0.00302564, 0.000247448, -0.00318056, -0.000982436, -0.0477399
0.0411174, 1.69106, -1.23123, -1.5431, -0.900798, -1.19256, 1.2272, -1.30259, 0.016382, -0.010842, -0.0880122, -0.0268414, -0.00828514, 0.0018614, -0.000697446, 1.18995, 59.1019, 27.6392, 6.43433, 1.44855, 3.34598, -0.0484509, -0.000593268, -0.00269228, 0.00541791, 0.00694651, 0.00479589, 0.00228093, 0.00899242, 0.000198708, -0.0417375, -0.0954466, 0.00899285, -0.00207879, 0.471001, -0.54336, 0.335896, -2.08381, -2.16584, -0.129908, 0.468137, -0.543222, 0.330535, -2.08006, -2.15801, -0.126835, -0.000807924, 0.0032204, 0.000264596, -0.00219163, 0.000759893, -0.0423377
0.0421174, 1.69107, -1.23121, -1.54318, -0.900831, -1.19257, 1.2272, -1.30258, 0.00863246, -0.00221705, -0.0824499, -0.0298572, -0.006843, 0.00205277, 0.000523576, 1.83265, 59.5462, 28.0875, 6.62079, 1.45404, 3.46042, -0.0750012, -0.000600596, -0.00269626, 0.00544075, 0.00702665, 0.0047669, 0.00229431, 0.00954574, 0.0028043, -0.0346693, -0.0892173, 0.0163669, -0.00519787, 0.471, -0.543357, 0.335896, -2.08381, -2.16584, -0.129911, 0.468132, -0.543222, 0.330512, -2.08005, -2.15798, -0.126718, -0.000857184, 0.00342203, 0.000282433, -0.00456814, -0.000779363, -0.0353479
0.0431174, 1.69107, -1.2312, -1.54324, -0.900869, -1.19258, 1.22721, -1.30259, 0.00552387, 0.00120829, -0.0721123, -0.033686, -0.00746751, 0.00206862, -0.00232582, 2.51106, 60.2802, 28.5715, 6.88263, 1.50989, 3.58218, -0.00267457, -0.000607185, -0.00269979, 0.00546166, 0.0070987, 0.00473936, 0.00228632, 0.00768398, 0.00194271, -0.0293385, -0.0814706, 0.0200797, 0.00275982, 0.470999, -0.543353, 0.335897, -2.08381, -2.16584, -0.129913, 0.468127, -0.543222, 0.330491, -2.08001, -2.15798, -0.126614, -0.000908043, 0.00363059, 0.000300968, -0.00363268, 0.000481864, -0.0298026
0.0441174, 1.69108, -1.2312, -1.54331, -0.900902, -1.19258, 1.22721, -1.30259, 0.00912135, 0.00101828, -0.0697968, -0.0321946, -0.00743722, -0.00162469, -0.00202234, 2.96729, 61.1649, 29.3134, 6.95801, 1.55932, 3.69021, 0.0101428, -0.000609863, -0.00269713, 0.00548526, 0.0071709, 0.00471754, 0.00228154, 0.00589784, 0.000470483, -0.028914, -0.082508, 0.0181195, 0.00597262, 0.470998, -0.54335, 0.335897, -2.0838, -2.16584, -0.129916, 0.468128, -0.543218, 0.330467, -2.07997, -2.15797, -0.126515, -0.000960503, 0.00384608, 0.000320207, -0.0022634, 0.00245569, -0.0291313
0.0451174, 1.69108, -1.23119, -1.54336, -0.90093, -1.19259, 1.22721, -1.30259, 0.00645668, 0.00277584, -0.0672539, -0.0286119, -0.00746351, -0.00379372, 0.00109537, 3.37989, 62.1606, 30.0593, 6.91833, 1.61426, 3.7836, -0.0557752, -0.000614291, -0.00269808, 0.00550277, 0.00723357, 0.00469617, 0.0022864, 0.00746, 0.00270151, -0.0265129, -0.0799139, 0.0185131, -0.00158862, 0.470997, -0.543346, 0.335897, -2.0838, -2.16584, -0.129919, 0.468126, -0.543216, 0.33045, -2.07995, -2.15795, -0.126426, -0.00101456, 0.00406854, 0.000340161, -0.00440305, 0.000675079, -0.0269158
0.0461174, 1.69109, -1.23118, -1.5434, -0.900956, -1.1926, 1.22721, -1.30259, 0.00371757, 0.00554745, -0.0584215, -0.0285276, -0.00827886, -0.00163335, 0.000223265, 3.6814, 63.2635, 30.8051, 6.84296, 1.69391, 3.89071, -0.0420422, -0.00061839, -0.00269709, 0.00551655, 0.00729068, 0.00466663, 0.00228215, 0.00724741, 0.00238523, -0.0213922, -0.0699736, 0.0225973, 0.00056785, 0.470996, -0.543342, 0.335898, -2.08379, -2.16583, -0.129921, 0.468125, -0.543214, 0.330436, -2.07993, -2.15795, -0.126336, -0.00107022, 0.00429798, 0.000360835, -0.00396555, 0.000339041, -0.0218153
0.0471174, 1.6911, -1.23118, -1.54345, -0.900974, -1.19261, 1.2272, -1.30259, 0.00623237, 0.00486871, -0.0544759, -0.0221488, -0.00829332, -0.0050907, -0.0017827, 3.90754, 64.5172, 31.547, 6.62079, 1.76166, 4.0198, 0.0101428, -0.000623675, -0.00269677, 0.00553437, 0.00734483, 0.00465196, 0.0022804, 0.00715163, 0.00226928, -0.0199217, -0.0669483, 0.019759, 0.00152804, 0.470995, -0.543338, 0.335898, -2.08379, -2.16583, -0.129925, 0.468124, -0.543212, 0.330418, -2.0799, -2.15794, -0.126265, -0.00112746, 0.0045344, 0.000382238, -0.00385732, 0.000448448, -0.0203306
0.0481174, 1.6911, -1.23116, -1.54348, -0.900993, -1.19262, 1.2272, -1.30259, 0.00448574, 0.00541649, -0.0527261, -0.0202225, -0.00752468, -0.00677662, -0.000441559, 4.13764, 65.6241, 32.2175, 6.35895, 1.81018, 4.12692, -0.00999879, -0.000628965, -0.00269924, 0.00553999, 0.00739315, 0.00462095, 0.00228819, 0.00800343, 0.0035516, -0.0187479, -0.0652828, 0.0187765, -0.00197636, 0.470994, -0.543333, 0.335898, -2.08379, -2.16583, -0.129928, 0.468121, -0.543212, 0.330412, -2.07989, -2.15793, -0.126182, -0.00118629, 0.0047778, 0.000404375, -0.00512397, -0.000382212, -0.019243
0.0491174, 1.69111, -1.23113, -1.54353, -0.901006, -1.19263, 1.22719, -1.30258, 0.00823276, 0.00698476, -0.0531415, -0.0160671, -0.0121442, -0.00808059, 0.00187646, 4.13764, 66.6913, 32.9633, 6.09711, 1.87244, 4.23495, -0.0685925, -0.000633933, -0.0026999, 0.00554656, 0.00745229, 0.00458281, 0.00230103, 0.00855095, 0.00318765, -0.0176874, -0.0674227, 0.023559, -0.00583767, 0.470993, -0.543328, 0.335899, -2.08378, -2.16583, -0.129931, 0.468119, -0.543211, 0.330405, -2.07989, -2.15791, -0.12608, -0.00124669, 0.00502817, 0.000427252, -0.00476301, -0.000820672, -0.0182691
0.0501174, 1.69111, -1.23112, -1.54359, -0.90102, -1.19264, 1.22719, -1.30259, 0.00562562, 0.00579866, -0.0531896, -0.0140608, -0.0157402, -0.00797442, 3.07903e-05, 4.21302, 67.8696, 33.7052, 5.87494, 1.93927, 4.31369, -0.0356336, -0.000646086, -0.00270688, 0.00555919, 0.00751201, 0.00455159, 0.00231609, 0.0113987, 0.00542349, -0.0179596, -0.0677776, 0.025394, -0.00934408, 0.470992, -0.543323, 0.335899, -2.08377, -2.16583, -0.129935, 0.46811, -0.543216, 0.330391, -2.07989, -2.15789, -0.125985, -0.00130866, 0.00528549, 0.000450875, -0.00696586, -0.00342426, -0.0188889
0.0511174, 1.69111, -1.23109, -1.54363, -0.901042, -1.19265, 1.22719, -1.30259, 0.00434046, 0.00791743, -0.053126, -0.0192489, -0.0186926, -0.00720594, -0.00119979, 4.24873, 68.79, 34.3043, 5.79956, 2.01343, 4.37137, -0.00267457, -0.000654265, -0.00271095, 0.00556121, 0.00756836, 0.00449995, 0.00232248, 0.0111584, 0.0051548, -0.017256, -0.0704985, 0.0309867, -0.00565275, 0.47099, -0.543318, 0.3359, -2.08377, -2.16583, -0.129939, 0.468105, -0.543219, 0.330389, -2.07988, -2.15789, -0.125873, -0.00137217, 0.00554973, 0.000475247, -0.00674423, -0.00302005, -0.0181407
0.0521174, 1.69112, -1.23107, -1.54368, -0.901058, -1.19268, 1.22718, -1.30259, 0.00396258, 0.00861215, -0.0544442, -0.0166935, -0.0177324, -0.00539892, 0.000183779, 4.24873, 69.7461, 34.824, 5.72418, 2.1297, 4.39242, -0.0292249, -0.000665935, -0.00271574, 0.00556701, 0.00762662, 0.00444823, 0.002341, 0.0125665, 0.00569123, -0.0167649, -0.0682974, 0.0319431, -0.00979283, 0.470989, -0.543313, 0.3359, -2.08376, -2.16583, -0.129943, 0.468099, -0.543224, 0.330382, -2.07989, -2.15787, -0.125758, -0.00143722, 0.00582086, 0.000500373, -0.00727688, -0.00423649, -0.0178331
0.0531174, 1.69113, -1.23103, -1.54374, -0.901081, -1.1927, 1.22719, -1.30258, 0.00604189, 0.0165542, -0.0552488, -0.0181745, -0.0202903, -0.00346059, 0.00181816, 4.13764, 70.3729, 35.4548, 5.79956, 2.20935, 4.39242, -0.0750012, -0.0006739, -0.00271685, 0.00556897, 0.00769126, 0.00438237, 0.00235456, 0.0116498, 0.00435667, -0.0125039, -0.0688654, 0.0434721, -0.00929367, 0.470987, -0.543307, 0.335901, -2.08376, -2.16583, -0.129947, 0.468097, -0.543226, 0.330379, -2.0799, -2.15787, -0.125623, -0.00150377, 0.00609884, 0.000526256, -0.00588951, -0.00365504, -0.0134978
0.0541174, 1.69113, -1.23101, -1.54378, -0.901109, -1.19273, 1.22719, -1.30259, 0.00462921, 0.0160278, -0.0520677, -0.0206076, -0.0224612, -0.00301684, -0.000957868, 4.13764, 71.1108, 35.792, 5.95032, 2.29541, 4.4144, -0.0164075, -0.000683676, -0.00272105, 0.00557188, 0.00774747, 0.00432721, 0.00235646, 0.0117095, 0.00413883, -0.0118903, -0.0676673, 0.0452045, -0.00477376, 0.470986, -0.543301, 0.335901, -2.08375, -2.16583, -0.129951, 0.468092, -0.543229, 0.330375, -2.07989, -2.15788, -0.125509, -0.00157182, 0.00638361, 0.000552899, -0.00571568, -0.00351471, -0.0128811
0.0551174, 1.69113, -1.23098, -1.54382, -0.901128, -1.19275, 1.22718, -1.30258, 0.00446512, 0.020568, -0.0477448, -0.0211194, -0.0232469, -0.00298437, 0.000310981, 4.09797, 71.6266, 36.1649, 6.0614, 2.36316, 4.44278, -0.0420422, -0.000695186, -0.00272626, 0.00557264, 0.00780747, 0.0042647, 0.00237402, 0.0107848, 0.0034521, -0.00772478, -0.0640471, 0.0504744, -0.00384465, 0.470984, -0.543294, 0.335902, -2.08374, -2.16583, -0.129956, 0.468085, -0.543234, 0.330373, -2.0799, -2.15787, -0.125382, -0.00164135, 0.0066751, 0.000580303, -0.00498199, -0.00292362, -0.00861786
0.0561174, 1.69113, -1.23096, -1.54386, -0.901149, -1.19278, 1.22718, -1.30258, 0.00507821, 0.0179785, -0.0414447, -0.0190112, -0.0279449, -0.00430466, 0.000953398, 4.02259, 72.1027, 36.3871, 6.20819, 2.4126, 4.50686, -0.0621838, -0.000704174, -0.00272878, 0.00557674, 0.00786591, 0.00421377, 0.00238664, 0.0111637, 0.00312311, -0.00684737, -0.0611784, 0.0508572, -0.00401734, 0.470983, -0.543288, 0.335902, -2.08374, -2.16583, -0.12996, 0.468081, -0.543236, 0.330369, -2.07991, -2.15786, -0.12527, -0.00171231, 0.00697325, 0.000608468, -0.00467912, -0.0031211, -0.00779213
0.0571174, 1.69114, -1.23093, -1.54391, -0.901174, -1.19281, 1.22717, -1.30258, 0.00540237, 0.0235097, -0.0450847, -0.0212674, -0.0241138, -0.00682708, 0.000635668, 3.94721, 72.3605, 36.6846, 6.39465, 2.38788, 4.6149, -0.0621838, -0.000711591, -0.00273077, 0.00558129, 0.00793487, 0.0041589, 0.00239255, 0.00989205, 0.00315463, -0.00540842, -0.0654053, 0.052749, -0.00178675, 0.470981, -0.543281, 0.335903, -2.08373, -2.16582, -0.129965, 0.468078, -0.543235, 0.330364, -2.0799, -2.15786, -0.125142, -0.00178469, 0.00727797, 0.000637396, -0.0047765, -0.00178386, -0.00614401
0.0581174, 1.69115, -1.23091, -1.54394, -0.9012, -1.19283, 1.22715, -1.30259, 0.00872678, 0.0241359, -0.0399201, -0.0236752, -0.0205823, -0.00848576, -0.00201758, 3.87183, 72.6184, 36.76, 6.62079, 2.33844, 4.72201, 0.00373412, -0.000716659, -0.00273097, 0.00558642, 0.00800008, 0.00411252, 0.00238363, 0.00602861, -0.000316232, -0.00383899, -0.0622676, 0.0499792, 0.010103, 0.470979, -0.543273, 0.335904, -2.08372, -2.16582, -0.129971, 0.468076, -0.543232, 0.330359, -2.07987, -2.15787, -0.125029, -0.00185846, 0.00758918, 0.000667086, -0.0014655, 0.00224188, -0.00406936
0.0591174, 1.69116, -1.23089, -1.54398, -0.90122, -1.19286, 1.22714, -1.30258, 0.0089161, 0.0234203, -0.0430212, -0.0225775, -0.02304, -0.00963368, 0.000587769, 3.75678, 72.7692, 36.8354, 6.73187, 2.28992, 4.83005, -0.0484509, -0.00072546, -0.00273296, 0.00559247, 0.00806647, 0.00406277, 0.00239574, 0.00766115, 0.00078913, -0.00529313, -0.066687, 0.0511798, 0.00464434, 0.470977, -0.543266, 0.335904, -2.08371, -2.16582, -0.129976, 0.468072, -0.543233, 0.330352, -2.07986, -2.15786, -0.124909, -0.00193359, 0.00790677, 0.000697537, -0.00263863, 0.00112653, -0.005695
0.0601174, 1.69117, -1.23088, -1.54402, -0.90124, -1.1929, 1.22713, -1.30258, 0.00884777, 0.022559, -0.0405456, -0.0240942, -0.0248169, -0.00932006, -0.000557561, 3.6457, 72.916, 36.8354, 6.80725, 2.24048, 4.90878, -0.0228162, -0.000734056, -0.00273295, 0.00560273, 0.00813423, 0.004018, 0.00239623, 0.00752081, 0.000112492, -0.00507958, -0.0658406, 0.0522525, 0.00788143, 0.470975, -0.543258, 0.335905, -2.0837, -2.16582, -0.129982, 0.46807, -0.543232, 0.330341, -2.07984, -2.15785, -0.124795, -0.00201003, 0.00823062, 0.000728745, -0.00203661, 0.0015838, -0.00545159
0.0611174, 1.69119, -1.23087, -1.54406, -0.901258, -1.19293, 1.22712, -1.30258, 0.0109855, 0.0182247, -0.039079, -0.021254, -0.0259732, -0.00965815, -0.000371685, 3.57032, 73.0627, 36.8354, 6.84296, 2.18555, 5.00216, -0.0228162, -0.000743114, -0.00273225, 0.00561894, 0.00820598, 0.00398304, 0.00239907, 0.00803029, -0.00066475, -0.00683449, -0.0647302, 0.0488134, 0.00794662, 0.470973, -0.54325, 0.335906, -2.08369, -2.16582, -0.129988, 0.468068, -0.54323, 0.330324, -2.07981, -2.15784, -0.124686, -0.00208776, 0.00856062, 0.000760709, -0.00138326, 0.00171307, -0.00725505
0.0621174, 1.6912, -1.23087, -1.54409, -0.901279, -1.19297, 1.2271, -1.30258, 0.0104446, 0.0150194, -0.0350011, -0.019446, -0.0321163, -0.00880194, -0.000993759, 3.45527, 73.0627, 36.6846, 6.88263, 2.13611, 5.06625, -0.00267457, -0.000750536, -0.00272937, 0.00563182, 0.00827767, 0.00393896, 0.00239468, 0.00989653, -0.000269769, -0.00689844, -0.0625971, 0.0510089, 0.00665394, 0.470971, -0.543241, 0.335906, -2.08369, -2.16582, -0.129994, 0.468069, -0.543226, 0.330311, -2.07978, -2.15784, -0.124568, -0.00216672, 0.00889664, 0.000793423, -0.00179216, 0.000200446, -0.00756352
0.0631174, 1.69122, -1.23088, -1.54414, -0.901297, -1.193, 1.22708, -1.30258, 0.00812046, 0.00873148, -0.0379189, -0.0172422, -0.0366323, -0.00799638, 0.00600922, 3.41956, 73.2095, 36.6489, 6.88263, 2.08667, 5.12393, -0.0557752, -0.000762238, -0.0027282, 0.00565855, 0.00836002, 0.0039118, 0.00240773, 0.0140682, 0.00223327, -0.0111112, -0.0656768, 0.0491646, -0.00711344, 0.470969, -0.543232, 0.335907, -2.08368, -2.16582, -0.13, 0.468067, -0.543225, 0.330284, -2.07976, -2.15781, -0.124454, -0.0022469, 0.00923859, 0.000826888, -0.00437495, -0.00302942, -0.0122624
0.0641174, 1.69125, -1.23089, -1.54419, -0.901321, -1.19304, 1.22708, -1.30258, 0.0104752, 0.00356245, -0.0402682, -0.019812, -0.0363174, -0.0108002, 0.00511032, 3.34419, 73.2452, 36.6092, 6.91833, 2.06195, 5.15231, -0.0750012, -0.000770854, -0.00272183, 0.00568453, 0.00843878, 0.00388015, 0.00240196, 0.0132093, 0.00107636, -0.0156832, -0.0720249, 0.0431962, -0.00231879, 0.470967, -0.543223, 0.335908, -2.08367, -2.16581, -0.130006, 0.468071, -0.54322, 0.330257, -2.07972, -2.1578, -0.124342, -0.00232828, 0.00958644, 0.000861108, -0.00349691, -0.0010817, -0.0166441
0.0651174, 1.69126, -1.23089, -1.54423, -0.901346, -1.19308, 1.22707, -1.30257, 0.0119772, 0.000160757, -0.0415562, -0.0218085, -0.0360052, -0.0121238, 0.00322623, 3.41956, 73.2452, 36.4228, 6.95801, 2.03815, 5.15964, -0.0621838, -0.000781632, -0.00271864, 0.00570529, 0.00851165, 0.00384239, 0.00240191, 0.0126816, 9.6221e-05, -0.0185873, -0.0756024, 0.0395796, 0.00259112, 0.470965, -0.543213, 0.335909, -2.08366, -2.16581, -0.130013, 0.468071, -0.543217, 0.330236, -2.07969, -2.15779, -0.12423, -0.00241084, 0.00994017, 0.000896084, -0.00272448, 0.000280773, -0.0194243
0.0661174, 1.69128, -1.23088, -1.54427, -0.901375, -1.19312, 1.22706, -1.30258, 0.0124343, 0.00315944, -0.0408297, -0.0232206, -0.0360192, -0.00976421, -7.00314e-05, 3.53065, 73.1342, 36.276, 6.99371, 2.01984, 5.18802, 0.00373412, -0.000790455, -0.00271394, 0.00572195, 0.00859005, 0.00379193, 0.00238735, 0.0122558, -0.00105202, -0.016558, -0.0733857, 0.0442164, 0.00809462, 0.470962, -0.543204, 0.33591, -2.08365, -2.16581, -0.13002, 0.468073, -0.543213, 0.330219, -2.07965, -2.15781, -0.124101, -0.00249458, 0.0102997, 0.000931821, -0.00160337, 0.000795254, -0.0173534
0.0671174, 1.6913, -1.23088, -1.54432, -0.901401, -1.19316, 1.22705, -1.30258, 0.0138842, 0.00495231, -0.0423156, -0.0234535, -0.0359304, -0.0104722, 0.00133943, 3.60603, 73.027, 36.2006, 6.99371, 2.00061, 5.16696, -0.0292249, -0.000801267, -0.00270908, 0.0057408, 0.00866939, 0.00374082, 0.0023921, 0.0119687, -0.00157135, -0.0161745, -0.0754288, 0.0461491, 0.00784027, 0.47096, -0.543193, 0.335911, -2.08363, -2.16581, -0.130028, 0.468075, -0.543211, 0.3302, -2.07962, -2.1578, -0.123968, -0.00257947, 0.0106651, 0.000968322, -0.00116603, 0.00140644, -0.0169094
0.0681174, 1.69132, -1.23086, -1.54436, -0.901428, -1.1932, 1.22705, -1.30258, 0.0183252, 0.00875372, -0.0404878, -0.0259758, -0.034781, -0.0104394, 0.00125437, 3.6814, 72.8049, 36.0142, 6.95801, 1.95209, 5.12393, -0.0356336, -0.000808763, -0.00270068, 0.00575046, 0.00873812, 0.00367772, 0.00238238, 0.00868958, -0.00509412, -0.0138461, -0.0748146, 0.0496688, 0.0159404, 0.470957, -0.543183, 0.335912, -2.08362, -2.16581, -0.130035, 0.468081, -0.543206, 0.33019, -2.0796, -2.15782, -0.123837, -0.00266552, 0.0110363, 0.00100559, 0.00223279, 0.00480057, -0.0141699
0.0691174, 1.69134, -1.23084, -1.54442, -0.90146, -1.19324, 1.22705, -1.30258, 0.0207375, 0.0128946, -0.0436575, -0.028884, -0.0348674, -0.00598929, 0.00140401, 3.79646, 72.5113, 35.9784, 6.95801, 1.92737, 5.07358, -0.0484509, -0.000818902, -0.00269471, 0.00576075, 0.00881764, 0.00360408, 0.00238033, 0.00790777, -0.00733618, -0.0126552, -0.0751493, 0.0570161, 0.0193332, 0.470954, -0.543172, 0.335913, -2.08361, -2.1658, -0.130043, 0.468084, -0.543203, 0.330179, -2.07958, -2.15783, -0.123682, -0.00275269, 0.0114132, 0.00104363, 0.0043998, 0.00585788, -0.0129022
0.0701174, 1.69137, -1.23082, -1.54446, -0.901483, -1.19328, 1.22705, -1.30258, 0.02581, 0.0147721, -0.0414188, -0.0251447, -0.0342255, -0.0025276, -0.000926987, 3.90754, 72.2534, 35.792, 6.84296, 1.88434, 5.0159, 0.00373412, -0.00082753, -0.00268529, 0.00577093, 0.00888403, 0.00354123, 0.00237119, 0.00676323, -0.010498, -0.0101821, -0.0687225, 0.060196, 0.024893, 0.470952, -0.54316, 0.335914, -2.0836, -2.1658, -0.130051, 0.468091, -0.543198, 0.330168, -2.07955, -2.15784, -0.123554, -0.00284098, 0.0117958, 0.00108244, 0.00751761, 0.0071191, -0.0103391
0.0711174, 1.6914, -1.23079, -1.54451, -0.901505, -1.19331, 1.22705, -1.30257, 0.0284171, 0.0195144, -0.0441381, -0.0219642, -0.0343724, -8.59765e-05, 0.00163839, 3.94721, 71.8448, 35.6412, 6.69617, 1.85321, 4.95914, -0.0557752, -0.000834923, -0.0026746, 0.00577551, 0.00895223, 0.00346607, 0.00237199, 0.00736506, -0.0111879, -0.00781495, -0.0675322, 0.0666771, 0.0209141, 0.470949, -0.543148, 0.335915, -2.08359, -2.1658, -0.130059, 0.468099, -0.543192, 0.330163, -2.07954, -2.15786, -0.123411, -0.00293038, 0.0121842, 0.00112203, 0.00822443, 0.00657692, -0.00807667
0.0721174, 1.69143, -1.23076, -1.54456, -0.901529, -1.19335, 1.22705, -1.30257, 0.0302776, 0.0225562, -0.0464835, -0.023785, -0.0347099, 0.000379062, 0.00160623, 3.98292, 71.4401, 35.4944, 6.58508, 1.82941, 4.93716, -0.0685925, -0.000841887, -0.00266359, 0.00577937, 0.0090225, 0.00338821, 0.0023653, 0.00672769, -0.0122875, -0.00714096, -0.0702114, 0.0710136, 0.0233333, 0.470946, -0.543136, 0.335916, -2.08357, -2.1658, -0.130068, 0.468107, -0.543186, 0.330159, -2.07953, -2.15788, -0.123264, -0.00302087, 0.0125781, 0.0011624, 0.00923362, 0.00754149, -0.00730504
0.0731174, 1.69146, -1.23074, -1.54462, -0.90154, -1.19339, 1.22705, -1.30258, 0.0332865, 0.0219654, -0.0473773, -0.0175091, -0.0354817, 0.000749534, -0.00012044, 3.94721, 71.1465, 35.4548, 6.28357, 1.823, 4.91611, -0.0356336, -0.000852134, -0.00265289, 0.00578924, 0.0090958, 0.00331923, 0.00236119, 0.00808868, -0.0124846, -0.00703368, -0.0685515, 0.0712935, 0.0221181, 0.470943, -0.543124, 0.335917, -2.08356, -2.16579, -0.130077, 0.468115, -0.543181, 0.330149, -2.0795, -2.15789, -0.123122, -0.00311245, 0.0129778, 0.00120355, 0.00939157, 0.00658928, -0.00737555
0.0741174, 1.6915, -1.23073, -1.54466, -0.901559, -1.19342, 1.22705, -1.30258, 0.0336604, 0.0181227, -0.0444118, -0.0160271, -0.0362527, 0.000287389, -0.00199099, 3.98292, 70.9998, 35.2683, 6.09711, 1.82941, 4.91611, 0.0165515, -0.000859873, -0.00263864, 0.00580101, 0.00915979, 0.0032585, 0.00234407, 0.00860946, -0.0128664, -0.00807235, -0.0663687, 0.0679979, 0.024572, 0.47094, -0.543111, 0.335918, -2.08355, -2.16579, -0.130086, 0.468126, -0.543173, 0.330136, -2.07947, -2.15792, -0.123, -0.00320508, 0.013383, 0.00124549, 0.00966131, 0.00665639, -0.00845178
0.0751174, 1.69153, -1.23072, -1.54472, -0.901568, -1.19345, 1.22706, -1.30258, 0.034936, 0.0155495, -0.0478011, -0.0131354, -0.0322111, 0.000303635, 0.00085937, 3.98292, 70.853, 35.308, 5.83527, 1.8349, 4.90878, -0.0420422, -0.00087292, -0.00262803, 0.0058192, 0.00923177, 0.00320451, 0.00235247, 0.0094507, -0.0129148, -0.0104269, -0.0664579, 0.0626048, 0.0204888, 0.470937, -0.543097, 0.33592, -2.08353, -2.16579, -0.130095, 0.468133, -0.54317, 0.330117, -2.07945, -2.15791, -0.122875, -0.00329877, 0.0137938, 0.00128822, 0.00956098, 0.00660195, -0.0108662
0.0761174, 1.69157, -1.2307, -1.54479, -0.901579, -1.19349, 1.22706, -1.30257, 0.033868, 0.0155888, -0.0531302, -0.0129704, -0.0300492, 0.0016767, 0.00133132, 4.06226, 70.6308, 35.3437, 5.6488, 1.86603, 4.86575, -0.0621838, -0.000888494, -0.00261947, 0.00583288, 0.0093038, 0.00313624, 0.0023616, 0.011207, -0.011899, -0.0120689, -0.0686428, 0.0622964, 0.0172532, 0.470933, -0.543083, 0.335921, -2.08352, -2.16579, -0.130105, 0.468138, -0.543169, 0.330103, -2.07944, -2.15791, -0.122734, -0.00339351, 0.0142102, 0.00133174, 0.0084554, 0.00549629, -0.0126866
0.0771174, 1.69161, -1.23069, -1.54484, -0.901585, -1.19353, 1.22707, -1.30258, 0.0378476, 0.0146806, -0.0562316, -0.00650431, -0.0282811, 0.00343573, -0.00079856, 3.94721, 70.4483, 35.3437, 5.46234, 1.89624, 4.80075, -0.0164075, -0.000899839, -0.00260285, 0.00584844, 0.00937064, 0.00307226, 0.0023524, 0.0123443, -0.0127552, -0.0128356, -0.0666085, 0.0610474, 0.0170403, 0.47093, -0.543069, 0.335922, -2.0835, -2.16578, -0.130115, 0.468151, -0.543162, 0.330086, -2.07942, -2.15793, -0.122607, -0.00348927, 0.0146321, 0.00137605, 0.00922778, 0.00494904, -0.0136022
0.0781174, 1.69165, -1.23069, -1.5449, -0.901589, -1.19357, 1.22708, -1.30258, 0.0385797, 0.00980145, -0.0554519, -0.00340205, -0.0275521, 0.00486817, -0.000762746, 3.90754, 70.4483, 35.2326, 5.35126, 1.94568, 4.72934, -0.00999879, -0.000914242, -0.00258662, 0.0058669, 0.0094312, 0.00301165, 0.00234998, 0.0136546, -0.0131252, -0.0148894, -0.0633692, 0.0564748, 0.0160105, 0.470926, -0.543055, 0.335924, -2.08349, -2.16578, -0.130125, 0.468164, -0.543158, 0.330067, -2.0794, -2.15794, -0.122489, -0.00358604, 0.0150594, 0.00142116, 0.00947321, 0.00441513, -0.0158
0.0791174, 1.6917, -1.23068, -1.54495, -0.90159, -1.1936, 1.22709, -1.30257, 0.0417318, 0.00914354, -0.0557765, -0.00175302, -0.0306407, 0.00556866, 0.00119216, 3.75678, 70.3372, 35.2683, 5.27588, 1.96399, 4.66525, -0.0557752, -0.000926759, -0.00256882, 0.00588377, 0.00949606, 0.00294952, 0.0023521, 0.0139959, -0.0143409, -0.0152397, -0.064228, 0.0591677, 0.0148349, 0.470923, -0.543039, 0.335925, -2.08347, -2.16578, -0.130135, 0.468178, -0.543152, 0.330049, -2.07938, -2.15794, -0.122364, -0.00368381, 0.0154923, 0.00146708, 0.0105891, 0.0046153, -0.01619
0.0801174, 1.69175, -1.23069, -1.54501, -0.901583, -1.19365, 1.2271, -1.30257, 0.0453279, 0.00526856, -0.0551104, 0.000493613, -0.0332892, 0.00635342, 0.00103606, 3.6814, 70.3729, 35.2683, 5.16479, 1.99512, 4.59292, -0.0621838, -0.000944878, -0.00255299, 0.00590594, 0.00955493, 0.00289575, 0.00235936, 0.0143289, -0.0159731, -0.0170659, -0.0639964, 0.0582341, 0.0163805, 0.470919, -0.543024, 0.335926, -2.08345, -2.16578, -0.130146, 0.46819, -0.543151, 0.330025, -2.07937, -2.15794, -0.122255, -0.00378258, 0.0159305, 0.0015138, 0.0120663, 0.00507397, -0.0180477
0.0811174, 1.6918, -1.23069, -1.54507, -0.901584, -1.19368, 1.22711, -1.30258, 0.0425102, 0.00435365, -0.0551818, 0.000118329, -0.0347952, 0.0063096, -0.00100176, 3.57032, 70.3372, 35.308, 5.27588, 2.01343, 4.53616, -0.0164075, -0.000960801, -0.00253604, 0.00592679, 0.00962052, 0.00283524, 0.00235483, 0.0163042, -0.0143809, -0.0175101, -0.0645784, 0.058945, 0.0157387, 0.470915, -0.543008, 0.335928, -2.08344, -2.16577, -0.130157, 0.468202, -0.543146, 0.330003, -2.07934, -2.15795, -0.122132, -0.00388232, 0.0163742, 0.00156132, 0.0104313, 0.00357121, -0.0186981
0.0821174, 1.69186, -1.23069, -1.54513, -0.901576, -1.19373, 1.22712, -1.30258, 0.0476243, 0.00207177, -0.0589202, 0.00199351, -0.0359631, 0.0103599, -0.000428273, 3.41956, 70.3729, 35.3834, 5.31555, 2.03174, 4.48581, -0.0228162, -0.000976815, -0.00251662, 0.00594964, 0.00968416, 0.0027794, 0.00235656, 0.0166814, -0.0169007, -0.0198095, -0.0649527, 0.0603847, 0.0167342, 0.470911, -0.542992, 0.335929, -2.08342, -2.16577, -0.130169, 0.468218, -0.543141, 0.329979, -2.07932, -2.15795, -0.122017, -0.00398302, 0.0168232, 0.00160966, 0.0127773, 0.00410653, -0.0210552
0.0831174, 1.69191, -1.23069, -1.5452, -0.90157, -1.19377, 1.22713, -1.30258, 0.0511683, 0.00138459, -0.060881, 0.00192634, -0.0357565, 0.0131193, 0.000428219, 3.26881, 70.3729, 35.4191, 5.42664, 2.01984, 4.44278, -0.0420422, -0.000993009, -0.00249687, 0.00597234, 0.00975324, 0.00271784, 0.00235942, 0.0162669, -0.0191803, -0.0208398, -0.0647888, 0.061652, 0.0188751, 0.470907, -0.542975, 0.335931, -2.0834, -2.16577, -0.13018, 0.468233, -0.543136, 0.329955, -2.0793, -2.15795, -0.121889, -0.00408468, 0.0172776, 0.00165881, 0.0149001, 0.00522322, -0.022028
0.0841174, 1.69197, -1.2307, -1.54526, -0.901568, -1.19381, 1.22714, -1.30257, 0.0537781, -0.00788165, -0.0637333, 0.00272539, -0.0370032, 0.00990247, 0.00499855, 3.11805, 70.484, 35.5301, 5.6488, 2.04364, 4.42813, -0.0420422, -0.00100802, -0.00247542, 0.00600162, 0.00983046, 0.00266474, 0.00235797, 0.0171428, -0.0194746, -0.0275795, -0.0714505, 0.0525775, 0.0148957, 0.470903, -0.542958, 0.335933, -2.08338, -2.16576, -0.130192, 0.46825, -0.543128, 0.329925, -2.07927, -2.15795, -0.121762, -0.00418727, 0.0177373, 0.00170878, 0.0148788, 0.00587098, -0.028778
0.0851174, 1.69204, -1.2307, -1.54532, -0.901557, -1.19386, 1.22714, -1.30258, 0.0557688, -0.00753316, -0.0637101, 0.0061444, -0.0373629, 0.00916426, 0.00155581, 2.96729, 70.5594, 35.5301, 5.76385, 2.05005, 4.37137, 0.0165515, -0.0010255, -0.00245461, 0.00602788, 0.00990003, 0.00260853, 0.00235371, 0.0177022, -0.0197366, -0.0270313, -0.0708625, 0.0531185, 0.017489, 0.470899, -0.54294, 0.335934, -2.08336, -2.16576, -0.130204, 0.468266, -0.543123, 0.329897, -2.07923, -2.15796, -0.121641, -0.00429078, 0.0182023, 0.00175956, 0.0150768, 0.00571058, -0.0282812
0.0861174, 1.69209, -1.23072, -1.54539, -0.901556, -1.1939, 1.22715, -1.30258, 0.058869, -0.0105128, -0.0642237, 0.00222024, -0.0420739, 0.00859096, 0.0025531, 2.85224, 70.7776, 35.5698, 6.02173, 2.05646, 4.31369, -0.0164075, -0.00104306, -0.00243275, 0.00606158, 0.00997513, 0.00255966, 0.00235078, 0.0168872, -0.0217608, -0.0296959, -0.076574, 0.0547202, 0.0215476, 0.470895, -0.542922, 0.335936, -2.08334, -2.16576, -0.130217, 0.468283, -0.543116, 0.329862, -2.0792, -2.15796, -0.121521, -0.00439521, 0.0186725, 0.00181117, 0.0168681, 0.00748052, -0.0307951
0.0871174, 1.69216, -1.23074, -1.54546, -0.901545, -1.19395, 1.22717, -1.30257, 0.0625301, -0.0124954, -0.0620426, 0.00618477, -0.0414057, 0.0124573, 0.00338152, 2.70148, 70.9998, 35.6055, 6.13678, 2.06836, 4.25601, -0.0557752, -0.00106354, -0.00241051, 0.0060944, 0.0100461, 0.00250597, 0.00236026, 0.0169209, -0.0242295, -0.0293733, -0.0698235, 0.0542854, 0.0224805, 0.47089, -0.542903, 0.335938, -2.08332, -2.16575, -0.13023, 0.4683, -0.543111, 0.329828, -2.07918, -2.15795, -0.1214, -0.00450054, 0.019148, 0.0018636, 0.0192411, 0.00797518, -0.0305043
0.0881174, 1.69222, -1.23076, -1.54554, -0.901549, -1.194, 1.22718, -1.30257, 0.0604252, -0.0145799, -0.0694755, 0.001661, -0.0454003, 0.0106914, 0.00119969, 2.62611, 71.2576, 35.792, 6.43433, 2.07477, 4.20657, -0.0228162, -0.0010823, -0.00238709, 0.0061355, 0.010135, 0.00245573, 0.00235201, 0.0193252, -0.0220728, -0.0338727, -0.0816791, 0.0559067, 0.022013, 0.470886, -0.542884, 0.33594, -2.0833, -2.16575, -0.130243, 0.468319, -0.543103, 0.329786, -2.07913, -2.15794, -0.121265, -0.00460676, 0.0196287, 0.00191686, 0.0169042, 0.00668907, -0.0352029
0.0891174, 1.69229, -1.23078, -1.5456, -0.901551, -1.19405, 1.22719, -1.30258, 0.0669381, -0.0185136, -0.0669887, -0.00282725, -0.047547, 0.00862922, 0.00017834, 2.47535, 71.6266, 35.7523, 6.65649, 2.06195, 4.17727, -0.00267457, -0.00109621, -0.00235655, 0.00617535, 0.0102126, 0.00241086, 0.00232848, 0.0156499, -0.026712, -0.036425, -0.0857396, 0.0537024, 0.0342721, 0.470881, -0.542864, 0.335942, -2.08328, -2.16574, -0.130257, 0.468343, -0.54309, 0.329745, -2.07906, -2.15796, -0.12115, -0.00471385, 0.0201145, 0.00197095, 0.0212055, 0.0113889, -0.0372372
0.0901174, 1.69236, -1.2308, -1.54567, -0.901548, -1.1941, 1.2272, -1.30258, 0.0659292, -0.0167336, -0.0702935, -0.00529978, -0.0500936, 0.0106185, 0.000958278, 2.43568, 71.8091, 35.792, 6.84296, 2.06836, 4.16995, -0.0228162, -0.00111561, -0.0023317, 0.00621158, 0.0102923, 0.00235526, 0.00232534, 0.0170951, -0.0262379, -0.0366381, -0.0889165, 0.059472, 0.0325119, 0.470877, -0.542844, 0.335944, -2.08326, -2.16574, -0.13027, 0.468363, -0.543082, 0.329708, -2.07902, -2.15796, -0.121019, -0.00482181, 0.0206055, 0.00202587, 0.0206682, 0.0104676, -0.0376036
0.0911174, 1.69242, -1.23082, -1.54574, -0.901555, -1.19415, 1.22722, -1.30258, 0.0644831, -0.0181148, -0.0721636, -0.00811284, -0.0504074, 0.0124668, -0.000274443, 2.43568, 72.1027, 35.8277, 7.06909, 2.03815, 4.15622, 0.00373412, -0.00113528, -0.00230595, 0.00625301, 0.0103758, 0.00230304, 0.00231326, 0.0181687, -0.0261341, -0.038243, -0.0902766, 0.0601087, 0.0341343, 0.470872, -0.542823, 0.335946, -2.08324, -2.16574, -0.130285, 0.468383, -0.543073, 0.329665, -2.07897, -2.15797, -0.12089, -0.00493062, 0.0211016, 0.00208162, 0.0204361, 0.0101485, -0.0392969
0.0921174, 1.6925, -1.23085, -1.54582, -0.901563, -1.1942, 1.22723, -1.30258, 0.0693502, -0.0181775, -0.0722182, -0.0100729, -0.0512565, 0.0137482, -0.000367783, 2.32459, 72.3605, 35.9388, 7.29126, 2.02533, 4.14889, 0.0101428, -0.00115017, -0.00227463, 0.0062959, 0.0104699, 0.00224779, 0.00229634, 0.0162578, -0.0295233, -0.0386908, -0.0912633, 0.062264, 0.0407655, 0.470867, -0.542802, 0.335948, -2.08322, -2.16573, -0.130299, 0.468408, -0.543059, 0.329621, -2.07891, -2.15798, -0.120746, -0.00504026, 0.0216028, 0.00213822, 0.0236261, 0.0127458, -0.0394876
0.0931174, 1.69256, -1.23086, -1.54589, -0.901571, -1.19426, 1.22724, -1.30258, 0.0673124, -0.0165316, -0.070402, -0.00746107, -0.0519317, 0.0141374, -0.00115522, 2.32459, 72.547, 35.9784, 7.47772, 2.00702, 4.15622, 0.0357776, -0.00116878, -0.00224805, 0.00633267, 0.0105559, 0.00218581, 0.00227993, 0.0180974, -0.0281769, -0.0365469, -0.0879104, 0.064781, 0.0381851, 0.470862, -0.542781, 0.33595, -2.08319, -2.16573, -0.130314, 0.468429, -0.543049, 0.329584, -2.07885, -2.15799, -0.120604, -0.00515073, 0.022109, 0.00219565, 0.0223148, 0.0110506, -0.0375597
0.0941174, 1.69264, -1.23087, -1.54597, -0.901583, -1.19431, 1.22726, -1.30258, 0.0708529, -0.0168387, -0.0734607, -0.00876814, -0.0577764, 0.0140755, 0.000954825, 2.24921, 72.6581, 36.0538, 7.66418, 2.00061, 4.17727, -0.00999879, -0.00118485, -0.00221829, 0.00636856, 0.0106492, 0.00211573, 0.00226681, 0.0184674, -0.0293317, -0.0381522, -0.0945286, 0.0702342, 0.0376414, 0.470857, -0.542759, 0.335952, -2.08317, -2.16572, -0.130329, 0.468453, -0.543036, 0.329547, -2.0788, -2.15801, -0.120447, -0.00526201, 0.0226203, 0.00225393, 0.0233118, 0.0114932, -0.0391793
0.0951174, 1.69271, -1.23088, -1.54604, -0.901598, -1.19437, 1.22727, -1.30257, 0.0734588, -0.0131903, -0.0755705, -0.00978142, -0.0579081, 0.013756, 0.00113343, 2.17384, 72.7295, 36.1252, 7.85065, 2.00702, 4.20657, -0.0228162, -0.00120088, -0.00218727, 0.00640229, 0.010742, 0.00203693, 0.00225139, 0.0176373, -0.0305951, -0.0370283, -0.0972455, 0.0746928, 0.0401141, 0.470851, -0.542736, 0.335954, -2.08315, -2.16572, -0.130344, 0.468478, -0.543022, 0.329512, -2.07875, -2.15803, -0.120281, -0.0053741, 0.0231366, 0.00231306, 0.0244722, 0.0127085, -0.0379198
0.0961174, 1.69278, -1.23088, -1.54612, -0.901615, -1.19444, 1.22728, -1.30258, 0.0752373, -0.00994212, -0.0777174, -0.0128604, -0.057596, 0.0093559, -0.0002111, 2.09846, 72.7692, 36.2363, 8.0014, 2.01343, 4.23495, 0.00373412, -0.00121797, -0.00215757, 0.00643704, 0.0108454, 0.00195263, 0.00222873, 0.016096, -0.0311557, -0.0367475, -0.104212, 0.0765132, 0.0452372, 0.470846, -0.542713, 0.335957, -2.08312, -2.16571, -0.13036, 0.468502, -0.543009, 0.329477, -2.07869, -2.15805, -0.1201, -0.00548698, 0.0236579, 0.00237303, 0.0248737, 0.0147321, -0.0373598
0.0971174, 1.69285, -1.23089, -1.5462, -0.901629, -1.19449, 1.2273, -1.30258, 0.0722269, -0.00144178, -0.0761846, -0.0134497, -0.0621945, 0.0108444, -0.00158633, 2.05878, 72.8049, 36.3117, 8.07678, 2.01343, 4.25601, 0.0431018, -0.00123699, -0.00212838, 0.00646624, 0.0109326, 0.00186524, 0.00221272, 0.0177759, -0.0295649, -0.0309625, -0.102754, 0.0898916, 0.0435095, 0.470841, -0.542689, 0.335959, -2.0831, -2.16571, -0.130376, 0.468525, -0.542999, 0.329447, -2.07865, -2.15808, -0.119932, -0.00560063, 0.0241841, 0.00243385, 0.0234417, 0.0126416, -0.0318014
0.0981174, 1.69292, -1.23088, -1.54628, -0.901651, -1.19455, 1.22731, -1.30258, 0.0695463, 0.000265545, -0.0778476, -0.0158797, -0.0608833, 0.0149589, 0.00064722, 2.05878, 72.7692, 36.3871, 8.22754, 2.01343, 4.30636, -0.00267457, -0.00125442, -0.00210032, 0.00649656, 0.0110334, 0.0017772, 0.00220115, 0.0191435, -0.0292679, -0.0303627, -0.10056, 0.0933588, 0.0407025, 0.470835, -0.542665, 0.335962, -2.08307, -2.16571, -0.130393, 0.468547, -0.542986, 0.329416, -2.0786, -2.1581, -0.119749, -0.00571505, 0.0247152, 0.00249553, 0.0231017, 0.0117188, -0.0313521
0.0991174, 1.69298, -1.23088, -1.54636, -0.901674, -1.19462, 1.22733, -1.30258, 0.0683943, -0.00119977, -0.0796874, -0.0176305, -0.0596531, 0.015003, 0.000947119, 2.02308, 72.8406, 36.4982, 8.37433, 2.01343, 4.32834, -0.0164075, -0.00127538, -0.00207279, 0.00653059, 0.0111352, 0.00168693, 0.00218601, 0.0199506, -0.0289467, -0.0320293, -0.102281, 0.0917181, 0.0406979, 0.470829, -0.54264, 0.335964, -2.08305, -2.1657, -0.13041, 0.468568, -0.542975, 0.32938, -2.07855, -2.15812, -0.119564, -0.00583022, 0.0252512, 0.00255806, 0.0226342, 0.0117036, -0.0330517
0.100117, 1.69305, -1.23087, -1.54643, -0.901694, -1.19467, 1.22734, -1.30258, 0.0687127, 0.00285406, -0.0750503, -0.0180771, -0.0595229, 0.0131597, -0.00082139, 1.9477, 72.6938, 36.4982, 8.48541, 2.03174, 4.39975, 0.0229602, -0.00129242, -0.00204393, 0.00655387, 0.0112295, 0.00159011, 0.0021623, 0.0186868, -0.0297534, -0.0282102, -0.0996227, 0.0950589, 0.0456798, 0.470823, -0.542615, 0.335967, -2.08302, -2.16569, -0.130427, 0.468591, -0.542962, 0.329356, -2.0785, -2.15816, -0.119381, -0.00594613, 0.0257921, 0.00262146, 0.0234171, 0.0129359, -0.0290455
0.101117, 1.69311, -1.23087, -1.5465, -0.90172, -1.19474, 1.22735, -1.30258, 0.0694879, 0.00123266, -0.0738203, -0.0226015, -0.0631078, 0.0121659, -0.000306289, 1.83265, 72.7295, 36.4625, 8.63617, 2.02533, 4.46383, 0.0165515, -0.00131027, -0.00201372, 0.00658418, 0.0113279, 0.00149938, 0.00214398, 0.0180517, -0.0309519, -0.0294559, -0.103432, 0.0968146, 0.0496724, 0.470817, -0.542589, 0.335969, -2.08299, -2.16569, -0.130444, 0.468614, -0.542948, 0.329325, -2.07845, -2.15819, -0.1192, -0.00606278, 0.0263379, 0.00268571, 0.0244291, 0.0143517, -0.0301489
0.102117, 1.69318, -1.23086, -1.54659, -0.901746, -1.19481, 1.22736, -1.30257, 0.0691615, 0.00604976, -0.0775429, -0.0227671, -0.0621784, 0.0113519, 0.00173155, 1.75727, 72.5113, 36.6092, 8.78693, 2.04364, 4.53616, -0.0356336, -0.0013316, -0.00198897, 0.00660915, 0.0114401, 0.00138916, 0.0021364, 0.0187759, -0.0301017, -0.0279832, -0.106524, 0.101293, 0.0462137, 0.470811, -0.542563, 0.335972, -2.08296, -2.16568, -0.130462, 0.468633, -0.542937, 0.329299, -2.07841, -2.15821, -0.118982, -0.00618014, 0.0268884, 0.00275083, 0.0235422, 0.0139257, -0.0287175
0.103117, 1.69324, -1.23085, -1.54666, -0.901759, -1.19487, 1.22736, -1.30258, 0.0676465, 0.0050541, -0.0780234, -0.017581, -0.0605823, 0.0101247, 0.000207147, 1.60651, 72.4716, 36.6489, 8.71155, 2.03815, 4.62222, -0.00999879, -0.00135474, -0.00196458, 0.00663539, 0.011538, 0.00129657, 0.0021293, 0.0212908, -0.0280763, -0.0280152, -0.104601, 0.0985069, 0.0423603, 0.470805, -0.542536, 0.335975, -2.08294, -2.16568, -0.13048, 0.468651, -0.542928, 0.329272, -2.07837, -2.15823, -0.118799, -0.0062982, 0.0274437, 0.00281681, 0.021491, 0.011921, -0.0290145
0.104117, 1.69331, -1.23084, -1.54673, -0.901783, -1.19493, 1.22737, -1.30258, 0.0675365, 0.00603754, -0.0720197, -0.0184391, -0.0640786, 0.00905583, -0.00230164, 1.38038, 72.3605, 36.5735, 8.82263, 2.03815, 4.7156, 0.0559192, -0.00137239, -0.00193564, 0.00665696, 0.0116356, 0.00119562, 0.00209813, 0.0209043, -0.0287688, -0.0254862, -0.102152, 0.102091, 0.0475511, 0.470799, -0.542509, 0.335978, -2.08291, -2.16567, -0.130499, 0.468673, -0.542913, 0.32925, -2.0783, -2.15828, -0.118611, -0.00641697, 0.0280038, 0.00288366, 0.0221418, 0.012501, -0.0264121
0.105117, 1.69337, -1.23083, -1.5468, -0.901807, -1.195, 1.22737, -1.30258, 0.0645929, 0.00658294, -0.0724135, -0.0213802, -0.0660151, 0.00484581, 0.000399599, 1.15424, 72.2534, 36.6489, 8.89801, 2.01343, 4.78702, 0.00373412, -0.00139388, -0.00191139, 0.00668189, 0.0117399, 0.00109975, 0.00209328, 0.0218859, -0.0267942, -0.0258898, -0.107885, 0.102927, 0.0440179, 0.470793, -0.542481, 0.33598, -2.08288, -2.16567, -0.130518, 0.468691, -0.542901, 0.329224, -2.07826, -2.15829, -0.118418, -0.00653641, 0.0285686, 0.00295138, 0.020071, 0.0120788, -0.0268368
0.106117, 1.69343, -1.23083, -1.54686, -0.901826, -1.19506, 1.22737, -1.30258, 0.0621622, 0.00535584, -0.0671357, -0.0186621, -0.0624328, 0.00221831, 0.00125068, 0.928108, 72.2137, 36.5378, 8.89801, 1.97681, 4.84378, -0.0228162, -0.00141545, -0.00188545, 0.0067022, 0.0118298, 0.00100272, 0.00207961, 0.0223813, -0.025811, -0.0244402, -0.102255, 0.0974203, 0.0424736, 0.470786, -0.542452, 0.335983, -2.08285, -2.16566, -0.130537, 0.46871, -0.54289, 0.329203, -2.07822, -2.15832, -0.118241, -0.00665653, 0.0291381, 0.00301998, 0.0190396, 0.0118954, -0.0253851
0.107117, 1.69349, -1.23082, -1.54691, -0.90185, -1.19513, 1.22737, -1.30258, 0.0611053, 0.00359996, -0.063737, -0.0217567, -0.0642472, 0.00538489, 8.85031e-05, 0.6623, 72.2137, 36.4228, 8.97339, 1.93378, 4.8804, -0.00267457, -0.00143572, -0.00185888, 0.00672406, 0.0119218, 0.00091014, 0.00205714, 0.0226592, -0.0270217, -0.0243478, -0.0987651, 0.0993397, 0.0467331, 0.470779, -0.542423, 0.335986, -2.08282, -2.16566, -0.130557, 0.46873, -0.542876, 0.32918, -2.07816, -2.15835, -0.118067, -0.0067773, 0.0297122, 0.00308945, 0.0201413, 0.012232, -0.0253052
0.108117, 1.69354, -1.23082, -1.54697, -0.901869, -1.19519, 1.22737, -1.30258, 0.0571113, 0.00465698, -0.0665714, -0.0230109, -0.0662192, 0.00433614, -0.000889907, 0.400459, 72.2534, 36.3871, 9.00909, 1.90265, 4.88681, 0.0229602, -0.00145969, -0.00183588, 0.00674851, 0.0120141, 0.00082515, 0.00204312, 0.0254166, -0.0242128, -0.0247515, -0.102894, 0.102246, 0.0431847, 0.470773, -0.542393, 0.335989, -2.08278, -2.16565, -0.130577, 0.468746, -0.542865, 0.329155, -2.07811, -2.15837, -0.117901, -0.00689872, 0.030291, 0.0031598, 0.0172997, 0.0100366, -0.0259794
0.109117, 1.69361, -1.23082, -1.54703, -0.901888, -1.19526, 1.22737, -1.30258, 0.0597428, 0.00431279, -0.0608924, -0.0200217, -0.0672608, 0.00440833, 0.000627827, 0.0196001, 72.2137, 36.3117, 9.00909, 1.86603, 4.86575, -0.00999879, -0.00147932, -0.00180675, 0.00676934, 0.0121013, 0.000735254, 0.00202551, 0.0247979, -0.0260436, -0.0226332, -0.09731, 0.102899, 0.0443835, 0.470766, -0.542363, 0.335993, -2.08275, -2.16564, -0.130597, 0.468768, -0.54285, 0.329133, -2.07806, -2.1584, -0.117735, -0.00702078, 0.0308744, 0.00323103, 0.0190607, 0.0109796, -0.0237766
0.110117, 1.69366, -1.23081, -1.54708, -0.90191, -1.19531, 1.22736, -1.30258, 0.057067, 0.0039205, -0.0578766, -0.023606, -0.0677751, -0.000864917, 0.000656206, -0.166862, 72.178, 36.276, 9.12018, 1.82941, 4.86575, -0.0164075, -0.00150294, -0.00178479, 0.00678743, 0.0121853, 0.000648447, 0.00201393, 0.024481, -0.0249593, -0.0225812, -0.10074, 0.100957, 0.0464833, 0.470759, -0.542332, 0.335996, -2.08272, -2.16564, -0.130618, 0.468783, -0.542838, 0.329114, -2.07801, -2.15843, -0.117576, -0.00714347, 0.0314625, 0.00330314, 0.0178457, 0.0118285, -0.0235715
0.111117, 1.69371, -1.23081, -1.54712, -0.901931, -1.19537, 1.22736, -1.30258, 0.05463, 0.00360645, -0.0545922, -0.0253791, -0.0648829, 1.77793e-05, -0.000545651, -0.468376, 72.1423, 36.2006, 9.19556, 1.81659, 4.8511, 0.0101428, -0.0015251, -0.00175903, 0.00680485, 0.0122641, 0.000560581, 0.00199312, 0.0245062, -0.0251692, -0.0216249, -0.0961689, 0.099182, 0.0497365, 0.470751, -0.542301, 0.335999, -2.08269, -2.16563, -0.130639, 0.468802, -0.542825, 0.329096, -2.07796, -2.15846, -0.117423, -0.00726676, 0.032055, 0.00337613, 0.0179678, 0.0122579, -0.0225656
0.112117, 1.69377, -1.2308, -1.54716, -0.901958, -1.19543, 1.22735, -1.30258, 0.0558311, 0.00558275, -0.0490446, -0.025401, -0.0624215, 0.000559371, -0.000838319, -0.76989, 72.1423, 36.1252, 9.34631, 1.79828, 4.83737, 0.0229602, -0.00154463, -0.00173027, 0.00682198, 0.0123409, 0.000473725, 0.00196531, 0.0228194, -0.0272867, -0.018496, -0.0896563, 0.0997201, 0.055025, 0.470744, -0.542268, 0.336003, -2.08265, -2.16562, -0.13066, 0.468824, -0.542808, 0.329079, -2.0779, -2.1585, -0.117275, -0.00739066, 0.0326521, 0.00345001, 0.0200116, 0.014124, -0.0192042
0.113117, 1.69377, -1.2308, -1.54716, -0.901958, -1.19543, 1.22735, -1.30258, 0.0558311, 0.00558275, -0.0490446, -0.025401, -0.0624215, 0.000559371, -0.000838319, -0.76989, 72.1423, 36.1252, 9.34631, 1.79828, 4.83737, 0.0229602, -0.00157785, -0.00172409, 0.00682002, 0.0123316, 0.000443416, 0.00197851, 0.0234303, -0.0273882, -0.0184711, -0.0895929, 0.100353, 0.0553882, 0.470737, -0.542236, 0.336006, -2.08262, -2.16562, -0.130682, 0.468824, -0.542808, 0.329079, -2.0779, -2.1585, -0.117275, -0.00751515, 0.0332538, 0.00352478, 0.0200116, 0.014124, -0.0192042
0.114117, 1.69386, -1.2308, -1.54724, -0.902003, -1.19555, 1.22735, -1.30258, 0.0537392, 0.000431475, -0.0449354, -0.0230459, -0.0623057, -0.000128272, 0.000599632, -1.18645, 72.2137, 36.1252, 9.53278, 1.76166, 4.84378, -0.0228162, -0.00159346, -0.0016809, 0.00685522, 0.0124842, 0.000303148, 0.00193725, 0.0251848, -0.0265046, -0.0196458, -0.0854701, 0.0949001, 0.0523125, 0.470729, -0.542203, 0.33601, -2.08258, -2.16561, -0.130704, 0.468858, -0.542782, 0.329044, -2.07781, -2.15856, -0.11699, -0.00764022, 0.0338599, 0.00360044, 0.0190249, 0.0131449, -0.0205365
0.115117, 1.69391, -1.23079, -1.54727, -0.902021, -1.1956, 1.22735, -1.30258, 0.0505062, 0.000480955, -0.0374776, -0.0237085, -0.0558613, -0.00478848, -0.00177031, -1.41259, 72.2137, 36.0142, 9.56848, 1.74884, 4.8511, 0.0357776, -0.00161741, -0.00165558, 0.00686239, 0.0125374, 0.000214683, 0.0019133, 0.0237329, -0.0261483, -0.0172843, -0.0797193, 0.0874429, 0.0581338, 0.470722, -0.542169, 0.336013, -2.08255, -2.1656, -0.130727, 0.468877, -0.54277, 0.329036, -2.07777, -2.15861, -0.116867, -0.00776586, 0.0344704, 0.00367699, 0.018577, 0.0148088, -0.0178915
0.116117, 1.69396, -1.23079, -1.5473, -0.902047, -1.19565, 1.22734, -1.30258, 0.0513862, 0.00271808, -0.0359103, -0.0262517, -0.0509715, -0.00463576, 0.000752623, -1.63873, 72.2534, 36.0538, 9.67957, 1.73694, 4.8804, -0.0164075, -0.00163962, -0.00162949, 0.00687542, 0.0126037, 0.000132864, 0.0018959, 0.0217388, -0.0281325, -0.0157821, -0.0770133, 0.0865502, 0.0613982, 0.470714, -0.542134, 0.336017, -2.08251, -2.16559, -0.13075, 0.468895, -0.542754, 0.329022, -2.07772, -2.15864, -0.116736, -0.00789206, 0.0350854, 0.00375444, 0.020415, 0.0172424, -0.0160804
0.117117, 1.694, -1.23079, -1.54732, -0.902069, -1.1957, 1.22734, -1.30258, 0.0460632, -0.000319826, -0.0352219, -0.0240628, -0.0524461, -0.00386791, 0.000739147, -1.75378, 72.3605, 36.1252, 9.75494, 1.73694, 4.89413, -0.0228162, -0.0016658, -0.00160587, 0.00688844, 0.0126615, 5.42106e-05, 0.0018807, 0.0258753, -0.0249106, -0.0166483, -0.0747542, 0.0853406, 0.0545242, 0.470706, -0.542099, 0.336021, -2.08248, -2.16559, -0.130773, 0.468911, -0.542742, 0.329008, -2.07768, -2.15867, -0.116617, -0.0080188, 0.0357048, 0.00383279, 0.017189, 0.0137807, -0.0174071
0.118117, 1.69404, -1.23079, -1.54735, -0.90209, -1.19575, 1.22734, -1.30258, 0.0440028, -0.00345936, -0.0337915, -0.0216453, -0.0538396, -0.00722022, -0.00120263, -1.94024, 72.5113, 36.1649, 9.79462, 1.74335, 4.89413, 0.0229602, -0.00169134, -0.00158041, 0.00690344, 0.0127153, -1.68954e-05, 0.00185598, 0.0280476, -0.0228572, -0.017806, -0.0757971, 0.0819666, 0.0529724, 0.470698, -0.542063, 0.336024, -2.08244, -2.16558, -0.130797, 0.468929, -0.542728, 0.328993, -2.07762, -2.15871, -0.116511, -0.00814607, 0.0363285, 0.00391203, 0.0150477, 0.0123558, -0.0187492
0.119117, 1.69409, -1.2308, -1.54737, -0.902112, -1.1958, 1.22733, -1.30258, 0.0426002, -0.00236046, -0.0300485, -0.0229677, -0.0455321, -0.00533467, -0.00103909, -2.13067, 72.6581, 36.2363, 9.83032, 1.75525, 4.89413, 0.0293689, -0.00171556, -0.00155285, 0.00691769, 0.0127693, -8.95842e-05, 0.00183503, 0.0265962, -0.0244048, -0.0157717, -0.067248, 0.0776633, 0.0574861, 0.47069, -0.542027, 0.336028, -2.0824, -2.16557, -0.130821, 0.468949, -0.542712, 0.328978, -2.07757, -2.15875, -0.116404, -0.00827387, 0.0369566, 0.00399218, 0.0164872, 0.0141662, -0.0164818
0.120117, 1.69413, -1.2308, -1.54739, -0.902131, -1.19585, 1.22734, -1.30258, 0.0365936, -0.00375031, -0.0284292, -0.0231692, -0.0486864, -0.00235364, 0.000765354, -2.24175, 72.7692, 36.3514, 9.83032, 1.76807, 4.8511, -0.00999879, -0.00174489, -0.00152888, 0.0069288, 0.0128122, -0.000166264, 0.00182371, 0.0305644, -0.0216878, -0.0154439, -0.0639135, 0.0807096, 0.0500789, 0.470682, -0.54199, 0.336032, -2.08236, -2.16556, -0.130845, 0.468965, -0.542701, 0.328966, -2.07753, -2.15878, -0.116305, -0.00840218, 0.0375891, 0.00407323, 0.0138016, 0.0107192, -0.0166165
0.121117, 1.69417, -1.2308, -1.54741, -0.902142, -1.1959, 1.22734, -1.30257, 0.0346887, -0.00468952, -0.0267238, -0.0216947, -0.0518266, -0.000811102, 0.00145968, -2.3211, 72.8763, 36.4625, 9.75494, 1.79828, 4.82272, -0.0356336, -0.00177625, -0.00150643, 0.00693973, 0.0128541, -0.000239947, 0.00182079, 0.0330047, -0.0206457, -0.0149262, -0.0615546, 0.0834803, 0.0463933, 0.470673, -0.541953, 0.336036, -2.08232, -2.16556, -0.13087, 0.46898, -0.542691, 0.328953, -2.07751, -2.1588, -0.116209, -0.008531, 0.0382258, 0.00415518, 0.0127398, 0.00882486, -0.0163749
0.122117, 1.69422, -1.23081, -1.54743, -0.902164, -1.19594, 1.22734, -1.30258, 0.0365609, -0.00548755, -0.0195816, -0.0234392, -0.052712, -0.00373092, -0.000959648, -2.54723, 72.9874, 36.4625, 9.79462, 1.79828, 4.78702, 0.0165515, -0.00179757, -0.00147214, 0.00695049, 0.0128874, -0.000307592, 0.00178104, 0.0307723, -0.0228498, -0.0134401, -0.0593639, 0.0823792, 0.0557074, 0.470665, -0.541914, 0.33604, -2.08228, -2.16555, -0.130895, 0.469006, -0.542671, 0.328942, -2.07744, -2.15886, -0.116133, -0.0086603, 0.0388668, 0.00423804, 0.0147851, 0.0115312, -0.0145437
0.123117, 1.69426, -1.23081, -1.54745, -0.90218, -1.19598, 1.22734, -1.30258, 0.0352692, -0.00348042, -0.0211415, -0.0196717, -0.0501279, -0.00192485, -0.0016231, -2.65832, 72.9874, 36.6092, 9.75494, 1.82941, 4.75772, 0.0431018, -0.00182783, -0.00144681, 0.00695927, 0.0129267, -0.000387004, 0.00176444, 0.0329364, -0.0216981, -0.0120384, -0.0557197, 0.0835566, 0.052243, 0.470656, -0.541875, 0.336045, -2.08224, -2.16554, -0.130921, 0.469023, -0.542659, 0.328932, -2.0774, -2.1589, -0.116036, -0.00879009, 0.039512, 0.00432181, 0.0136353, 0.00977585, -0.0133813
0.124117, 1.6943, -1.23082, -1.54746, -0.902194, -1.19603, 1.22734, -1.30258, 0.0386371, -0.00478528, -0.016293, -0.0171077, -0.0479473, -0.000624047, 0.00112198, -2.80907, 73.0984, 36.6489, 9.71924, 1.85962, 4.72934, -0.0164075, -0.00185619, -0.00141833, 0.00697028, 0.0129623, -0.000457453, 0.00174767, 0.0316796, -0.0245024, -0.0107819, -0.0486751, 0.0814031, 0.0540386, 0.470647, -0.541836, 0.336049, -2.0822, -2.16553, -0.130947, 0.469043, -0.542644, 0.328921, -2.07736, -2.15893, -0.115953, -0.00892034, 0.0401615, 0.0044065, 0.0163062, 0.0115882, -0.0119462
0.125117, 1.69435, -1.23081, -1.54748, -0.902205, -1.19608, 1.22734, -1.30257, 0.0402118, -0.0030901, -0.0194384, -0.01425, -0.046462, -0.000438746, 0.000985352, -2.92413, 73.0984, 36.8354, 9.64386, 1.89624, 4.72201, -0.0228162, -0.00188816, -0.00139348, 0.00697776, 0.0130026, -0.000539137, 0.00174006, 0.0327167, -0.024462, -0.0105409, -0.0492423, 0.0826656, 0.0525557, 0.470638, -0.541796, 0.336053, -2.08216, -2.16552, -0.130973, 0.46906, -0.542633, 0.328912, -2.07733, -2.15896, -0.115853, -0.00905105, 0.0408151, 0.00449209, 0.0161819, 0.0111802, -0.0117852
0.126117, 1.6944, -1.23082, -1.54749, -0.902216, -1.19612, 1.22735, -1.30258, 0.0431203, -0.00374823, -0.0130175, -0.0122948, -0.0450127, 0.00108071, -0.00127588, -3.11059, 73.1738, 36.7957, 9.56848, 1.92096, 4.67898, 0.0293689, -0.00191586, -0.00136106, 0.00698479, 0.0130289, -0.0006154, 0.00171108, 0.0312754, -0.0273731, -0.00838927, -0.0411317, 0.0817723, 0.0599378, 0.470629, -0.541755, 0.336058, -2.08212, -2.16551, -0.131, 0.469084, -0.542617, 0.328904, -2.07728, -2.15902, -0.115777, -0.00918221, 0.0414729, 0.0045786, 0.0189846, 0.0130484, -0.00943891
0.127117, 1.69443, -1.23082, -1.54751, -0.902227, -1.19617, 1.22735, -1.30258, 0.0407721, -0.00327774, -0.0170549, -0.00866874, -0.049031, 0.00238616, -0.000613222, -3.11059, 73.2095, 36.9822, 9.53278, 1.96399, 4.62955, 0.0229602, -0.00195313, -0.00133811, 0.00699633, 0.0130664, -0.000695104, 0.00170791, 0.0357867, -0.0244058, -0.00876513, -0.0431982, 0.0867432, 0.0508946, 0.47062, -0.541714, 0.336063, -2.08207, -2.1655, -0.131027, 0.469099, -0.542609, 0.328891, -2.07726, -2.15904, -0.115682, -0.00931381, 0.0421348, 0.00466602, 0.0160404, 0.00919366, -0.0103407
0.128117, 1.69449, -1.23084, -1.54753, -0.902241, -1.19622, 1.22736, -1.30257, 0.0444851, -0.00641182, -0.0172086, -0.0106839, -0.0512671, 0.00333171, 0.00152397, -3.33672, 73.392, 37.0575, 9.56848, 1.98871, 4.57919, -0.0292249, -0.00198204, -0.00130361, 0.00701142, 0.0130999, -0.00076523, 0.00168733, 0.0350729, -0.0269946, -0.0110374, -0.045275, 0.0869528, 0.0538423, 0.470611, -0.541671, 0.336067, -2.08203, -2.16549, -0.131055, 0.469124, -0.542592, 0.328875, -2.07721, -2.15908, -0.115603, -0.00944583, 0.0428008, 0.00475437, 0.0183849, 0.0110263, -0.012464
0.129117, 1.69453, -1.23083, -1.54754, -0.902251, -1.19626, 1.22737, -1.30258, 0.0461131, -0.00340766, -0.0163426, -0.0104456, -0.0493717, 0.00585805, -0.000442083, -3.3764, 73.3563, 37.0933, 9.53278, 2.03815, 4.47848, 0.0101428, -0.00201646, -0.00127354, 0.00701516, 0.0131215, -0.000857383, 0.00166949, 0.0345425, -0.0287423, -0.00877749, -0.0412362, 0.0903105, 0.0585798, 0.470601, -0.541629, 0.336072, -2.08198, -2.16548, -0.131083, 0.469146, -0.542581, 0.32887, -2.07718, -2.15914, -0.115516, -0.00957827, 0.043471, 0.00484363, 0.0200617, 0.0119425, -0.0101156
0.130117, 1.69458, -1.23084, -1.54755, -0.902259, -1.19631, 1.22738, -1.30258, 0.0483474, -0.00401126, -0.0159659, -0.0111265, -0.0470515, 0.007023, -0.0010068, -3.45177, 73.4317, 37.1329, 9.53278, 2.06195, 4.39242, 0.0293689, -0.00205178, -0.00124344, 0.00702399, 0.0131475, -0.000941052, 0.00165083, 0.0336734, -0.0308094, -0.0090951, -0.0394512, 0.089198, 0.0633088, 0.470592, -0.541585, 0.336077, -2.08194, -2.16548, -0.131111, 0.469167, -0.542569, 0.328859, -2.07714, -2.15918, -0.115433, -0.00971111, 0.0441452, 0.00493382, 0.0219503, 0.0136112, -0.0102673
0.131117, 1.69463, -1.23085, -1.54757, -0.902263, -1.19636, 1.2274, -1.30258, 0.0477847, -0.00609003, -0.0180988, -0.00984779, -0.0450919, 0.00859696, 0.000515597, -3.56683, 73.5785, 37.1329, 9.4574, 2.08118, 4.28531, -0.00267457, -0.00208754, -0.00121024, 0.00703402, 0.0131661, -0.0010228, 0.00163833, 0.035394, -0.0304803, -0.0107108, -0.0384362, 0.0870228, 0.0601891, 0.470582, -0.541541, 0.336082, -2.08189, -2.16547, -0.13114, 0.469191, -0.542557, 0.328848, -2.07712, -2.15923, -0.115359, -0.00984435, 0.0448234, 0.00502493, 0.0214922, 0.0128301, -0.0120327
0.132117, 1.69468, -1.23086, -1.54758, -0.902275, -1.19641, 1.22741, -1.30257, 0.0463276, -0.00664512, -0.0164728, -0.0116146, -0.043072, 0.00996453, 0.00132708, -3.6422, 73.6896, 37.1329, 9.4931, 2.08667, 4.16995, -0.0292249, -0.00212143, -0.00117482, 0.00704356, 0.0131863, -0.00110839, 0.00162213, 0.0356651, -0.0309441, -0.0104972, -0.0354504, 0.0861964, 0.0613525, 0.470572, -0.541496, 0.336087, -2.08185, -2.16546, -0.131169, 0.469218, -0.542543, 0.328837, -2.07709, -2.15927, -0.115281, -0.00997797, 0.0455056, 0.00511696, 0.0218398, 0.0132322, -0.0117882
0.133117, 1.69474, -1.23087, -1.5476, -0.902277, -1.19647, 1.22743, -1.30258, 0.0486251, -0.00952417, -0.0130277, -0.0102178, -0.0427693, 0.00980098, -0.00128542, -3.71758, 73.9078, 37.1686, 9.42169, 2.1178, 4.08389, 0.0293689, -0.00216016, -0.00114153, 0.00705743, 0.0132118, -0.00119265, 0.00160101, 0.0352239, -0.0327046, -0.0108959, -0.0322949, 0.0834385, 0.0672252, 0.470562, -0.541451, 0.336092, -2.0818, -2.16545, -0.131199, 0.469242, -0.542532, 0.328821, -2.07705, -2.15933, -0.115199, -0.010112, 0.0461918, 0.00520992, 0.0234336, 0.0144907, -0.012075
0.134117, 1.6948, -1.23089, -1.54761, -0.902281, -1.19652, 1.22745, -1.30258, 0.0503699, -0.0107036, -0.0104283, -0.0100824, -0.0463211, 0.0141987, -0.000382229, -3.79296, 74.0942, 37.2043, 9.38202, 2.1297, 3.99142, 0.0165515, -0.0021969, -0.00110464, 0.00706926, 0.0132314, -0.0012793, 0.00158627, 0.0359187, -0.0346569, -0.0103416, -0.0280728, 0.0879623, 0.0684383, 0.470552, -0.541404, 0.336097, -2.08175, -2.16543, -0.131229, 0.469269, -0.542518, 0.328808, -2.07702, -2.15937, -0.115122, -0.0102463, 0.0468819, 0.00530381, 0.0252951, 0.0144918, -0.0116045
0.135117, 1.69485, -1.2309, -1.54761, -0.902285, -1.19658, 1.22746, -1.30257, 0.0488454, -0.011399, -0.00503467, -0.0100077, -0.0495035, 0.0132631, 0.000728525, -3.75329, 74.2767, 37.0933, 9.34631, 2.15442, 3.89804, -0.00999879, -0.00223578, -0.00107041, 0.00707884, 0.0132443, -0.00136384, 0.00157463, 0.0367979, -0.0343421, -0.00880744, -0.02534, 0.0897317, 0.0677004, 0.470542, -0.541358, 0.336102, -2.0817, -2.16542, -0.131259, 0.469294, -0.542506, 0.328796, -2.07699, -2.15942, -0.115053, -0.010381, 0.047576, 0.00539863, 0.0249348, 0.0140674, -0.0101257
0.136117, 1.69491, -1.23092, -1.54763, -0.902287, -1.19664, 1.22748, -1.30257, 0.0538831, -0.012792, -0.00803978, -0.00678128, -0.0564526, 0.0120121, 0.000485683, -3.82867, 74.4989, 37.1329, 9.30664, 2.17273, 3.8193, -0.00999879, -0.0022742, -0.00103136, 0.00709383, 0.0132671, -0.00145262, 0.00155642, 0.0382195, -0.0350303, -0.0105798, -0.0315837, 0.0942538, 0.0667753, 0.470531, -0.54131, 0.336108, -2.08165, -2.16541, -0.13129, 0.469324, -0.542492, 0.32878, -2.07696, -2.15947, -0.114971, -0.0105161, 0.048274, 0.00549438, 0.0254742, 0.0136687, -0.0120258
0.137117, 1.69497, -1.23093, -1.54765, -0.902288, -1.1967, 1.2275, -1.30258, 0.0525073, -0.0137218, -0.0108269, -0.00446377, -0.0573112, 0.0144243, -0.00137163, -3.82867, 74.7211, 37.2043, 9.27094, 2.20386, 3.76895, 0.0357776, -0.00231462, -0.000994502, 0.00711031, 0.0132952, -0.00154028, 0.00153656, 0.04131, -0.0337125, -0.011485, -0.0310031, 0.0958723, 0.0640595, 0.470521, -0.541262, 0.336113, -2.0816, -2.1654, -0.131321, 0.469351, -0.542479, 0.328761, -2.07691, -2.15952, -0.114884, -0.0106515, 0.0489759, 0.00559107, 0.0241029, 0.011408, -0.0132701
0.138117, 1.69503, -1.23095, -1.54766, -0.902291, -1.19676, 1.22751, -1.30257, 0.0549129, -0.0183505, -0.0112224, -0.00355945, -0.0613697, 0.0160059, 0.00101836, -3.82867, 74.9789, 37.2043, 9.27094, 2.19745, 3.73324, -0.0164075, -0.00235406, -0.000956817, 0.00712586, 0.0133208, -0.00162592, 0.00152377, 0.0426916, -0.0348142, -0.0141903, -0.0321176, 0.0961591, 0.0622389, 0.47051, -0.541213, 0.336119, -2.08155, -2.16539, -0.131353, 0.469379, -0.542465, 0.328744, -2.07688, -2.15956, -0.114802, -0.0107872, 0.0496816, 0.00568869, 0.0250189, 0.0112196, -0.0160959
0.139117, 1.6951, -1.23096, -1.54767, -0.902295, -1.19682, 1.22753, -1.30257, 0.0590056, -0.0124963, -0.0106021, -0.00364588, -0.0647671, 0.0212586, 0.000678906, -3.79296, 74.9789, 37.1686, 9.30664, 2.19745, 3.69754, -0.0164075, -0.00239375, -0.000919174, 0.00713046, 0.0133421, -0.00173407, 0.00150664, 0.0421377, -0.0378285, -0.0102725, -0.0286679, 0.108228, 0.0661531, 0.470499, -0.541163, 0.336125, -2.0815, -2.16538, -0.131385, 0.469407, -0.542452, 0.328738, -2.07685, -2.15962, -0.114703, -0.0109232, 0.0503911, 0.00578725, 0.0280174, 0.0119929, -0.0121376
0.140117, 1.69515, -1.23097, -1.54769, -0.902297, -1.19689, 1.22755, -1.30258, 0.0590252, -0.01456, -0.0137183, -0.0058259, -0.0626317, 0.0205576, 0.000689963, -3.6422, 75.2368, 37.2797, 9.30664, 2.20386, 3.67557, -0.0228162, -0.00244116, -0.000885953, 0.0071477, 0.0133709, -0.00182983, 0.00149874, 0.042543, -0.0380228, -0.0129388, -0.0321249, 0.105201, 0.0677438, 0.470489, -0.541113, 0.33613, -2.08145, -2.16537, -0.131418, 0.46943, -0.542444, 0.328718, -2.07683, -2.15966, -0.114607, -0.0110595, 0.0511045, 0.00588674, 0.0279923, 0.0127318, -0.014742
0.141117, 1.69521, -1.23098, -1.5477, -0.902306, -1.19695, 1.22757, -1.30258, 0.062577, -0.0115248, -0.00831085, -0.00707698, -0.0599078, 0.0196327, -0.00198143, -3.60253, 75.3082, 37.2043, 9.42169, 2.17273, 3.66824, 0.0431018, -0.00247871, -0.000843874, 0.00715444, 0.0133902, -0.00193428, 0.00146381, 0.0392975, -0.0414581, -0.00966781, -0.0277109, 0.106142, 0.0788436, 0.470477, -0.541062, 0.336136, -2.0814, -2.16536, -0.13145, 0.469462, -0.542427, 0.32871, -2.07678, -2.15974, -0.114516, -0.0111962, 0.0518216, 0.00598718, 0.0312886, 0.0162873, -0.0110098
0.142117, 1.69528, -1.23098, -1.54772, -0.902316, -1.19702, 1.22759, -1.30258, 0.0602579, -0.00695879, -0.00892823, -0.00769279, -0.05814, 0.0184238, 0.000645734, -3.48748, 75.2725, 37.3194, 9.53278, 2.14801, 3.67557, -0.00999879, -0.00252121, -0.000805517, 0.00716191, 0.0134203, -0.00205181, 0.00145249, 0.0401183, -0.0401866, -0.00724335, -0.0279039, 0.109409, 0.0750546, 0.470466, -0.54101, 0.336142, -2.08134, -2.16535, -0.131484, 0.46949, -0.542414, 0.328701, -2.07676, -2.15979, -0.114398, -0.0113331, 0.0525425, 0.00608855, 0.0300017, 0.015768, -0.00860783
0.143117, 1.69534, -1.23099, -1.54774, -0.902325, -1.19708, 1.22761, -1.30257, 0.0617521, -0.00639273, -0.00973484, -0.00800924, -0.0611638, 0.021652, 0.00114257, -3.3764, 75.3439, 37.3194, 9.64386, 2.11139, 3.69754, -0.0292249, -0.0025647, -0.000766898, 0.00717043, 0.0134449, -0.0021636, 0.00144055, 0.0411482, -0.0413019, -0.00701539, -0.0274426, 0.114937, 0.0753337, 0.470455, -0.540957, 0.336148, -2.08129, -2.16533, -0.131518, 0.469519, -0.542401, 0.32869, -2.07673, -2.15985, -0.114293, -0.0114702, 0.0532671, 0.00619087, 0.0310251, 0.0154891, -0.00847925
0.144117, 1.69539, -1.23098, -1.54776, -0.902335, -1.19715, 1.22763, -1.30258, 0.0588818, -0.00348893, -0.0112201, -0.00814964, -0.0594473, 0.0231646, -0.00215441, -3.22564, 75.3082, 37.3551, 9.75494, 2.09308, 3.74057, 0.0495105, -0.00261043, -0.000731811, 0.00717537, 0.0134726, -0.00228258, 0.0014213, 0.0429845, -0.0399839, -0.00554802, -0.025892, 0.117898, 0.0761287, 0.470443, -0.540904, 0.336154, -2.08123, -2.16532, -0.131552, 0.469544, -0.54239, 0.328683, -2.07671, -2.15991, -0.114178, -0.0116077, 0.0539954, 0.00629413, 0.0296934, 0.0141224, -0.00717892
0.145117, 1.69545, -1.23097, -1.54777, -0.902345, -1.19721, 1.22765, -1.30258, 0.0617935, 0.00106098, -0.0104468, -0.00651989, -0.0622816, 0.0233314, -0.00167363, -3.15026, 75.1614, 37.3194, 9.79462, 2.06195, 3.81198, 0.0559192, -0.00265286, -0.000693162, 0.00717405, 0.0134944, -0.00240834, 0.0014026, 0.0429283, -0.0411325, -0.00247963, -0.0255699, 0.125513, 0.0768294, 0.470432, -0.54085, 0.336161, -2.08118, -2.16531, -0.131586, 0.469572, -0.542376, 0.328683, -2.07668, -2.15998, -0.114063, -0.0117453, 0.0547273, 0.00639834, 0.0308147, 0.0144803, -0.00407509
0.146117, 1.6955, -1.23097, -1.54779, -0.902357, -1.19728, 1.22767, -1.30257, 0.062673, 0.00150748, -0.0118248, -0.00622891, -0.0683533, 0.0245988, 0.00156301, -3.03521, 75.1257, 37.3551, 9.87, 2.01984, 3.86233, -0.0164075, -0.00269974, -0.000656811, 0.00717805, 0.0135172, -0.00253033, 0.00139782, 0.0449499, -0.0409628, -0.0025681, -0.02835, 0.132443, 0.0719438, 0.47042, -0.540795, 0.336167, -2.08112, -2.1653, -0.131621, 0.469598, -0.542365, 0.328677, -2.07667, -2.16004, -0.11395, -0.0118833, 0.0554629, 0.00650349, 0.0305789, 0.0132291, -0.00437334
0.147117, 1.69555, -1.23097, -1.5478, -0.902375, -1.19735, 1.22769, -1.30257, 0.0607247, 0.000978695, -0.0144907, -0.00994722, -0.0701472, 0.0210402, 0.00127936, -2.92413, 75.1257, 37.3194, 9.98108, 2.01343, 3.9191, -0.0228162, -0.00274629, -0.000620522, 0.00718451, 0.0135435, -0.00264835, 0.00138158, 0.0460486, -0.0394798, -0.00451981, -0.0360018, 0.132802, 0.0721067, 0.470408, -0.54074, 0.336174, -2.08106, -2.16528, -0.131657, 0.469624, -0.542353, 0.328669, -2.07664, -2.1601, -0.113838, -0.0120214, 0.0562022, 0.00660959, 0.0289287, 0.0131283, -0.0063241
0.148117, 1.6956, -1.23096, -1.54782, -0.902388, -1.19741, 1.22772, -1.30258, 0.0560009, 0.0032312, -0.0108724, -0.0100981, -0.0655645, 0.0229703, -0.000605152, -2.80907, 75.0146, 37.3194, 9.98108, 1.97681, 3.96945, 0.0165515, -0.00279641, -0.000586584, 0.00718378, 0.0135605, -0.00277736, 0.00136971, 0.0471951, -0.0384526, -0.00150732, -0.0280498, 0.132591, 0.0730851, 0.470396, -0.540684, 0.33618, -2.08101, -2.16527, -0.131692, 0.469648, -0.542344, 0.328667, -2.07663, -2.16016, -0.113726, -0.0121598, 0.056945, 0.00671664, 0.0279187, 0.0122271, -0.00339581
0.149117, 1.69565, -1.23096, -1.54783, -0.90241, -1.19748, 1.22773, -1.30258, 0.0502575, 0.00297456, -0.0104413, -0.01532, -0.0675773, 0.0199216, -0.00138678, -2.7337, 74.9789, 37.2797, 10.0565, 1.95758, 4.02713, 0.0431018, -0.00284374, -0.000551342, 0.00718834, 0.0135867, -0.00289648, 0.00134935, 0.0489691, -0.0357945, -0.00216938, -0.032742, 0.133441, 0.072726, 0.470384, -0.540627, 0.336187, -2.08095, -2.16526, -0.131729, 0.469672, -0.542332, 0.32866, -2.07659, -2.16023, -0.113614, -0.0122984, 0.0576914, 0.00682465, 0.0251672, 0.011216, -0.00414241
0.150117, 1.6957, -1.23095, -1.54784, -0.902425, -1.19754, 1.22776, -1.30257, 0.0467805, 0.00633364, -0.0103359, -0.0132704, -0.0689503, 0.0228677, 0.00127953, -2.69799, 74.7925, 37.244, 10.0168, 1.93927, 4.05551, -0.0164075, -0.00289379, -0.000516915, 0.00718387, 0.0136037, -0.00303303, 0.00134602, 0.0521343, -0.0338411, 0.000596276, -0.0288033, 0.139844, 0.0647785, 0.470372, -0.540569, 0.336194, -2.08089, -2.16524, -0.131765, 0.469696, -0.542322, 0.328663, -2.07659, -2.16029, -0.113494, -0.0124372, 0.0584414, 0.0069336, 0.0232973, 0.00832889, -0.00174631
0.151117, 1.69574, -1.23095, -1.54785, -0.902442, -1.1976, 1.22777, -1.30257, 0.0479864, 0.00337889, -0.0111655, -0.0120634, -0.0705836, 0.0199614, 0.00061566, -2.69799, 74.8282, 37.244, 9.98108, 1.93378, 4.11319, -0.00999879, -0.00294635, -0.00048432, 0.00718986, 0.0136262, -0.00314963, 0.00133702, 0.0531812, -0.0335439, -0.00156067, -0.0325747, 0.137565, 0.0651135, 0.470359, -0.54051, 0.336201, -2.08083, -2.16523, -0.131802, 0.469718, -0.542313, 0.328654, -2.07657, -2.16034, -0.113389, -0.0125762, 0.0591949, 0.00704351, 0.0228212, 0.00837575, -0.00392467
0.152117, 1.69578, -1.23094, -1.54786, -0.902468, -1.19766, 1.22779, -1.30258, 0.0457894, 0.00475201, -0.00819624, -0.0161017, -0.0624566, 0.0177934, -0.00203097, -2.69799, 74.7211, 37.0933, 10.0168, 1.93378, 4.16354, 0.0559192, -0.0029955, -0.000451171, 0.00718869, 0.0136426, -0.00326981, 0.00131295, 0.0511566, -0.0343461, -0.000336619, -0.0294097, 0.132017, 0.0736254, 0.470347, -0.540451, 0.336208, -2.08077, -2.16522, -0.13184, 0.46974, -0.542301, 0.328654, -2.07654, -2.16042, -0.113289, -0.0127154, 0.0599519, 0.00715437, 0.023455, 0.0109741, -0.00231401
0.153117, 1.69582, -1.23094, -1.54787, -0.902488, -1.19772, 1.22781, -1.30258, 0.046555, 0.00576178, -0.00969365, -0.0173609, -0.060745, 0.0122015, 0.000578802, -2.80907, 74.61, 37.0933, 9.98108, 1.92737, 4.20657, 0.00373412, -0.00304693, -0.000418983, 0.00718848, 0.0136647, -0.00339273, 0.00130814, 0.0505171, -0.034043, -0.000952983, -0.0352863, 0.129879, 0.0730958, 0.470334, -0.540391, 0.336215, -2.0807, -2.1652, -0.131878, 0.469761, -0.54229, 0.328652, -2.07652, -2.16047, -0.113179, -0.0128547, 0.0607124, 0.00726618, 0.0229675, 0.0124507, -0.00270347
0.154117, 1.69585, -1.23092, -1.54787, -0.902512, -1.19777, 1.22781, -1.30257, 0.0378894, 0.00819937, -0.00490398, -0.0192944, -0.0544691, 0.00666787, 0.000894495, -2.80907, 74.4235, 36.9822, 9.98108, 1.90906, 4.28531, -0.00999879, -0.0030995, -0.00039233, 0.00718275, 0.0136819, -0.00351192, 0.00130234, 0.0515348, -0.0302251, 0.00189613, -0.0322066, 0.124727, 0.0706319, 0.470321, -0.540331, 0.336222, -2.08064, -2.16519, -0.131916, 0.469777, -0.54228, 0.328655, -2.0765, -2.16052, -0.113078, -0.0129943, 0.0614763, 0.00737895, 0.0191594, 0.0116041, 0.000174732
0.155117, 1.69587, -1.2309, -1.54788, -0.902534, -1.19783, 1.22782, -1.30258, 0.0356379, 0.0105677, -0.00543298, -0.0221257, -0.0548992, 0.00829029, -0.000387014, -2.84875, 74.2053, 36.9068, 9.9057, 1.90265, 4.32834, 0.0165515, -0.00315508, -0.000368477, 0.00717472, 0.0136986, -0.00363553, 0.00129881, 0.052626, -0.029813, 0.00298686, -0.0321226, 0.129206, 0.0721503, 0.470308, -0.540269, 0.33623, -2.08058, -2.16517, -0.131955, 0.46979, -0.542273, 0.328661, -2.07649, -2.16058, -0.112974, -0.0131339, 0.0622436, 0.00749268, 0.01869, 0.0111076, 0.00120178
0.156117, 1.6959, -1.23089, -1.54788, -0.902561, -1.19787, 1.22782, -1.30258, 0.0316254, 0.0114049, -0.00187077, -0.0262031, -0.0551192, 0.00487386, -0.00147871, -2.92413, 74.0189, 36.7957, 9.9057, 1.89624, 4.37778, 0.0495105, -0.00320791, -0.000343523, 0.00716975, 0.013719, -0.00374667, 0.00128712, 0.0528557, -0.0285492, 0.00410496, -0.0331843, 0.129274, 0.0748746, 0.470295, -0.540207, 0.336237, -2.08051, -2.16516, -0.131994, 0.469804, -0.542263, 0.328664, -2.07646, -2.16063, -0.112879, -0.0132738, 0.0630144, 0.00760737, 0.0173391, 0.011424, 0.00241912
0.157117, 1.69592, -1.23088, -1.54787, -0.902593, -1.19792, 1.22781, -1.30257, 0.0243311, 0.0102002, -0.00335485, -0.0300356, -0.0549427, 0.00331899, 0.00121824, -2.95983, 73.9078, 36.7203, 9.94141, 1.87793, 4.39975, -0.00999879, -0.00326267, -0.000321501, 0.00716792, 0.0137422, -0.0038511, 0.00128702, 0.0559643, -0.0249057, 0.00260672, -0.036402, 0.128115, 0.0681305, 0.470282, -0.540144, 0.336245, -2.08045, -2.16514, -0.132034, 0.469815, -0.542252, 0.328664, -2.07643, -2.16067, -0.112787, -0.0134137, 0.0637885, 0.00772302, 0.0136211, 0.0092128, 0.000673223
0.158117, 1.69594, -1.23087, -1.54788, -0.902624, -1.19796, 1.22781, -1.30258, 0.0224844, 0.0119031, -0.00214754, -0.0279402, -0.0496848, -0.00473823, 0.00475576, -3.15026, 73.6896, 36.6846, 9.9057, 1.85321, 4.37137, 0.0101428, -0.00331517, -0.000295455, 0.00716272, 0.0137632, -0.00396249, 0.00127335, 0.055913, -0.0228087, 0.00374178, -0.0383378, 0.121995, 0.063596, 0.470268, -0.54008, 0.336252, -2.08038, -2.16513, -0.132074, 0.46983, -0.54224, 0.328668, -2.0764, -2.16072, -0.112693, -0.0135538, 0.064566, 0.00783963, 0.0114284, 0.00977508, 0.00197921
0.159117, 1.69595, -1.23085, -1.54787, -0.902664, -1.198, 1.22781, -1.30258, 0.0171817, 0.0139667, 0.000607114, -0.0299393, -0.0473712, -0.00717466, 0.00210324, -3.18597, 73.4317, 36.5735, 10.0168, 1.86603, 4.35672, 0.0495105, -0.0033697, -0.000274845, 0.00715192, 0.0137776, -0.00407536, 0.00126037, 0.0569984, -0.0206564, 0.00573539, -0.0367832, 0.121512, 0.0652153, 0.470255, -0.540016, 0.33626, -2.08032, -2.16511, -0.132115, 0.469839, -0.542229, 0.328677, -2.07637, -2.16078, -0.112604, -0.013694, 0.0653468, 0.00795721, 0.00925434, 0.00908179, 0.00395521
0.160117, 1.69595, -1.23085, -1.54787, -0.902664, -1.198, 1.22781, -1.30258, 0.0171817, 0.0139667, 0.000607114, -0.0299393, -0.0473712, -0.00717466, 0.00210324, -3.18597, 73.4317, 36.5735, 10.0168, 1.86603, 4.35672, 0.0495105, -0.00343636, -0.000263633, 0.00714881, 0.0137577, -0.00413503, 0.00128511, 0.0577962, -0.0207655, 0.00575057, -0.0366571, 0.122304, 0.0656418, 0.470241, -0.53995, 0.336268, -2.08025, -2.1651, -0.132156, 0.469839, -0.542229, 0.328677, -2.07637, -2.16078, -0.112604, -0.0138343, 0.0661309, 0.00807574, 0.00925434, 0.00908179, 0.00395521
0.161117, 1.69596, -1.23082, -1.54787, -0.902743, -1.19807, 1.2278, -1.30257, 0.0126354, 0.0151465, -0.000324796, -0.0330888, -0.0431901, -0.00757783, 0.0033619, -3.3764, 72.9874, 36.5735, 10.0168, 1.86603, 4.37137, -0.00267457, -0.0034833, -0.000237659, 0.00713894, 0.0138175, -0.00428484, 0.001256, 0.0588996, -0.0192319, 0.00588975, -0.0364215, 0.120816, 0.0639899, 0.470227, -0.539884, 0.336276, -2.08018, -2.16508, -0.132197, 0.469853, -0.54221, 0.328686, -2.07631, -2.16085, -0.112431, -0.0139747, 0.0669183, 0.00819524, 0.00762988, 0.00869436, 0.00408075
0.162117, 1.69596, -1.2308, -1.54786, -0.902787, -1.1981, 1.22779, -1.30258, 0.00983125, 0.0143662, 0.00214582, -0.0373972, -0.0416648, -0.00612411, 0.000710713, -3.4121, 72.8049, 36.4625, 10.0168, 1.85962, 4.3851, 0.0431018, -0.00354116, -0.000221501, 0.00713142, 0.01383, -0.00438037, 0.00124561, 0.0590789, -0.0196232, 0.00598338, -0.0338309, 0.120392, 0.0697927, 0.470213, -0.539817, 0.336284, -2.08012, -2.16506, -0.132239, 0.469858, -0.5422, 0.328692, -2.07628, -2.1609, -0.112363, -0.0141153, 0.067709, 0.00831571, 0.00789167, 0.00931079, 0.00424911
0.163117, 1.69596, -1.23079, -1.54786, -0.902846, -1.19813, 1.22778, -1.30258, 0.00791151, 0.0139389, 0.00218149, -0.0470322, -0.0365989, -0.00423417, -0.000351976, -3.45177, 72.6184, 36.4228, 10.1675, 1.87793, 4.37778, 0.0687366, -0.0035968, -0.000202822, 0.00712805, 0.0138529, -0.00447854, 0.00122738, 0.0571117, -0.0217328, 0.00465877, -0.0339698, 0.118293, 0.0795522, 0.470199, -0.539749, 0.336293, -2.08005, -2.16505, -0.132281, 0.469864, -0.542186, 0.328694, -2.07623, -2.16095, -0.112283, -0.0142558, 0.0685029, 0.00843714, 0.00973696, 0.0123443, 0.00330594
0.164117, 1.69596, -1.23077, -1.54785, -0.902888, -1.19815, 1.22777, -1.30258, 0.000337712, 0.0153245, 0.00299196, -0.0477017, -0.0329173, -0.00784429, 0.00155351, -3.48748, 72.3605, 36.3514, 10.0565, 1.90265, 4.3851, 0.0229602, -0.00365672, -0.000187766, 0.00711891, 0.0138655, -0.00457697, 0.00123061, 0.0596868, -0.0176102, 0.00576853, -0.0335595, 0.115401, 0.0727421, 0.470185, -0.539681, 0.336301, -2.07998, -2.16503, -0.132324, 0.469867, -0.542177, 0.328702, -2.0762, -2.16098, -0.112212, -0.0143965, 0.0692999, 0.00855954, 0.00561762, 0.0102519, 0.00423868
0.165117, 1.69595, -1.23075, -1.54785, -0.902943, -1.19817, 1.22776, -1.30258, -0.00146915, 0.0162483, 0.00189503, -0.0515244, -0.0291546, -0.00637926, 0.00157994, -3.56683, 72.1027, 36.3514, 10.0565, 1.89624, 4.39975, 0.0101428, -0.00371166, -0.000168448, 0.00711234, 0.0138856, -0.0046726, 0.00121647, 0.0597235, -0.0180354, 0.00561585, -0.0328099, 0.115097, 0.0754193, 0.47017, -0.539612, 0.33631, -2.0799, -2.16502, -0.132367, 0.469875, -0.542162, 0.328707, -2.07615, -2.16103, -0.112137, -0.0145372, 0.0701002, 0.0086829, 0.00589865, 0.0110589, 0.00418825
0.166117, 1.69593, -1.23074, -1.54785, -0.902997, -1.19819, 1.22775, -1.30258, -0.00822766, 0.0159362, 0.00211667, -0.0556877, -0.0275139, -0.00902742, -0.000827318, -3.4121, 71.8845, 36.3117, 9.98108, 1.92096, 4.39975, 0.0623279, -0.0037767, -0.000159517, 0.00710546, 0.0139009, -0.00476827, 0.00121526, 0.0616889, -0.0150198, 0.00506949, -0.0349663, 0.113009, 0.075878, 0.470156, -0.539541, 0.336318, -2.07983, -2.165, -0.132411, 0.469872, -0.542156, 0.328712, -2.07612, -2.16106, -0.112067, -0.014678, 0.0709037, 0.00880724, 0.00280055, 0.00988168, 0.00355067
0.167117, 1.69593, -1.23073, -1.54785, -0.903059, -1.1982, 1.22774, -1.30258, -0.0106708, 0.0132225, 0.00135509, -0.0576282, -0.021003, -0.0064485, -0.000275063, -3.48748, 71.7734, 36.3117, 9.98108, 1.93378, 4.39242, 0.0559192, -0.00383291, -0.000138855, 0.00710581, 0.0139196, -0.00485283, 0.0011957, 0.0624029, -0.0153095, 0.00327771, -0.0309983, 0.107179, 0.076921, 0.470141, -0.539471, 0.336327, -2.07976, -2.16498, -0.132455, 0.469879, -0.542139, 0.328711, -2.07606, -2.1611, -0.112007, -0.0148189, 0.0717102, 0.00893254, 0.00291014, 0.0102791, 0.00178113
0.168117, 1.69592, -1.23072, -1.54784, -0.903116, -1.19821, 1.22773, -1.30258, -0.00986822, 0.0114134, 0.00262461, -0.0584983, -0.0207387, -0.00839205, 0.000320686, -3.4121, 71.6623, 36.2363, 9.83032, 1.94568, 4.37137, 0.0431018, -0.0038942, -0.000124395, 0.00710254, 0.0139292, -0.00493394, 0.00118885, 0.0622595, -0.0159948, 0.0023386, -0.0320092, 0.10504, 0.0790402, 0.470126, -0.539399, 0.336336, -2.07969, -2.16496, -0.132499, 0.469881, -0.542127, 0.328712, -2.07602, -2.16114, -0.111959, -0.0149597, 0.0725199, 0.00905882, 0.00341472, 0.0114084, 0.000977801
0.169117, 1.6959, -1.2307, -1.54784, -0.903185, -1.19821, 1.22772, -1.30258, -0.0112068, 0.0128058, 0.00338866, -0.061412, -0.0156806, -0.00502909, 0.000744424, -3.3764, 71.4401, 36.1649, 9.75494, 1.95209, 4.33566, 0.0293689, -0.00395236, -0.000105666, 0.00709561, 0.0139368, -0.00502688, 0.00117157, 0.0618817, -0.0173009, 0.00337906, -0.0269756, 0.10491, 0.0823095, 0.470112, -0.539326, 0.336345, -2.07961, -2.16495, -0.132544, 0.469888, -0.542112, 0.328718, -2.07597, -2.16119, -0.111904, -0.0151006, 0.0733327, 0.00918606, 0.00460449, 0.0124866, 0.00214683
0.170117, 1.69589, -1.23068, -1.54784, -0.903255, -1.19822, 1.22771, -1.30258, -0.0154294, 0.0136413, 0.00140025, -0.0666316, -0.0125824, -0.00718365, -0.000707915, -3.33672, 71.2219, 36.2006, 9.67957, 1.97681, 4.30636, 0.0623279, -0.00401058, -8.76204e-05, 0.00709147, 0.013954, -0.00511692, 0.0011487, 0.0625415, -0.0157805, 0.00248094, -0.0307508, 0.103358, 0.0846429, 0.470096, -0.539253, 0.336354, -2.07954, -2.16493, -0.132589, 0.469893, -0.542096, 0.328722, -2.07591, -2.16124, -0.111841, -0.0152415, 0.0741485, 0.00931428, 0.0029378, 0.0127293, 0.00132663
0.171117, 1.69586, -1.23066, -1.54784, -0.903323, -1.19822, 1.22771, -1.30258, -0.0167029, 0.0134559, 0.000915773, -0.0687382, -0.00997629, -0.00776142, 1.51536e-05, -3.11059, 71.0355, 36.2006, 9.53278, 1.99512, 4.2496, 0.0495105, -0.00407707, -7.68065e-05, 0.00708797, 0.0139619, -0.00520335, 0.00114631, 0.0628587, -0.015746, 0.00192727, -0.0311364, 0.101738, 0.0855754, 0.470081, -0.539179, 0.336364, -2.07946, -2.16491, -0.132635, 0.469891, -0.542087, 0.328723, -2.07587, -2.16127, -0.111791, -0.0153825, 0.0749674, 0.00944347, 0.00275501, 0.0133222, 0.00085555
0.172117, 1.69585, -1.23065, -1.54783, -0.903392, -1.19822, 1.2277, -1.30258, -0.0151509, 0.0155561, 0.00467182, -0.0697128, -0.00801142, -0.00887005, 0.00124009, -3.11059, 70.8887, 36.1649, 9.34631, 2.01343, 4.20657, 0.0165515, -0.00413599, -5.77052e-05, 0.00708492, 0.0139687, -0.00528178, 0.00112899, 0.0612432, -0.0175953, 0.00417965, -0.0282762, 0.102402, 0.0895632, 0.470066, -0.539104, 0.336373, -2.07939, -2.16489, -0.132681, 0.469897, -0.542069, 0.328726, -2.07581, -2.16131, -0.111752, -0.0155234, 0.0757893, 0.00957364, 0.00448658, 0.0154626, 0.00340325
0.173117, 1.69582, -1.23064, -1.54783, -0.903469, -1.19822, 1.22769, -1.30258, -0.0199356, 0.0153653, 0.00513776, -0.0724525, 0.00340632, -0.00962894, 0.00107105, -2.9995, 70.8173, 36.0895, 9.23523, 2.01984, 4.16354, 0.0101428, -0.00419774, -4.16676e-05, 0.00708504, 0.0139793, -0.0053583, 0.00111039, 0.0609766, -0.0168613, 0.00401851, -0.0236398, 0.0933148, 0.0918577, 0.47005, -0.539028, 0.336383, -2.07931, -2.16487, -0.132728, 0.469899, -0.542053, 0.328725, -2.07575, -2.16135, -0.111712, -0.0156643, 0.0766142, 0.00970477, 0.0035983, 0.0165455, 0.00343607
0.174117, 1.6958, -1.23063, -1.54782, -0.903548, -1.19822, 1.22769, -1.30258, -0.021029, 0.0164683, 0.00774643, -0.0734993, 0.0022376, -0.00598335, -0.00121353, -2.84875, 70.7062, 36.0538, 9.08447, 2.03174, 4.12051, 0.0623279, -0.0042612, -2.66572e-05, 0.00708127, 0.0139892, -0.00544589, 0.00108763, 0.0619609, -0.0175743, 0.00582653, -0.0188243, 0.0978696, 0.0952704, 0.470035, -0.538951, 0.336392, -2.07923, -2.16485, -0.132775, 0.469901, -0.542038, 0.328727, -2.07568, -2.16141, -0.111662, -0.0158053, 0.0774421, 0.00983689, 0.00427566, 0.0161484, 0.00516861
0.175117, 1.69578, -1.23061, -1.54782, -0.903629, -1.19822, 1.22768, -1.30258, -0.0215, 0.0141809, 0.00734802, -0.0743189, 0.00179738, -0.00272098, -0.00104246, -2.84875, 70.5951, 35.9784, 8.93372, 2.03174, 4.06283, 0.0687366, -0.00431976, -5.17258e-06, 0.00707703, 0.0140002, -0.00553522, 0.00105765, 0.0634891, -0.0181192, 0.00453899, -0.0169101, 0.0984768, 0.0955254, 0.470019, -0.538874, 0.336402, -2.07915, -2.16483, -0.132822, 0.469909, -0.542018, 0.328731, -2.07561, -2.16146, -0.11161, -0.0159461, 0.0782729, 0.00996998, 0.00468928, 0.0156993, 0.00376594
0.176117, 1.69575, -1.23059, -1.54781, -0.903708, -1.19822, 1.22767, -1.30257, -0.0215679, 0.018841, 0.00614207, -0.0763068, 0.00119013, -0.000600259, 0.00195282, -2.7337, 70.484, 35.9388, 8.71155, 2.03815, 4.01248, -0.00267457, -0.00438526, 8.42134e-06, 0.00707071, 0.0140102, -0.00562724, 0.00105148, 0.0639477, -0.0186498, 0.00677524, -0.0167785, 0.105765, 0.0937566, 0.470003, -0.538796, 0.336412, -2.07907, -2.16481, -0.13287, 0.469909, -0.542004, 0.328736, -2.07557, -2.1615, -0.111554, -0.016087, 0.0791067, 0.010104, 0.0051812, 0.015751, 0.00601196
0.177117, 1.69573, -1.23059, -1.54781, -0.903796, -1.19821, 1.22767, -1.30258, -0.0214538, 0.0146906, 0.00600167, -0.0838249, 0.0012027, -0.00240445, 0.00011729, -2.62261, 70.5594, 35.8674, 8.60046, 2.03174, 3.93374, 0.0293689, -0.00444938, 2.65149e-05, 0.00707212, 0.0140173, -0.00570778, 0.00102349, 0.0627415, -0.0202131, 0.00306951, -0.0222595, 0.102209, 0.102758, 0.469987, -0.538717, 0.336422, -2.07899, -2.16479, -0.132919, 0.469914, -0.541987, 0.328734, -2.07549, -2.16155, -0.111516, -0.0162278, 0.0799433, 0.0102391, 0.00641875, 0.0184315, 0.00262911
0.178117, 1.6957, -1.23057, -1.5478, -0.903885, -1.19821, 1.22766, -1.30258, -0.0228179, 0.0137985, 0.00826951, -0.0853031, 0.000252576, -0.000473654, -0.00066614, -2.58294, 70.5594, 35.8277, 8.44971, 2.05005, 3.88339, 0.0495105, -0.004512, 4.55328e-05, 0.00707059, 0.0140307, -0.00579613, 0.000993434, 0.0637608, -0.0205535, 0.00338638, -0.0194558, 0.103817, 0.104731, 0.469971, -0.538637, 0.336433, -2.07891, -2.16477, -0.132968, 0.469919, -0.541967, 0.328735, -2.07542, -2.16161, -0.111464, -0.0163686, 0.0807828, 0.0103751, 0.00666962, 0.0182312, 0.00289949
0.179117, 1.69567, -1.23056, -1.54779, -0.903981, -1.19821, 1.22766, -1.30258, -0.0279331, 0.0131876, 0.00590964, -0.0905166, 0.000265092, 0.00150608, -0.000442854, -2.50756, 70.5594, 35.8277, 8.33862, 2.05005, 3.8193, 0.0495105, -0.00457664, 6.33058e-05, 0.00706924, 0.0140447, -0.00588895, 0.000966807, 0.0660936, -0.0189005, 0.00191307, -0.0213657, 0.105422, 0.103362, 0.469954, -0.538556, 0.336443, -2.07883, -2.16475, -0.133017, 0.469922, -0.541949, 0.328735, -2.07535, -2.16167, -0.111407, -0.0165093, 0.0816252, 0.0105121, 0.00491185, 0.0169358, 0.00125687
0.180117, 1.69564, -1.23054, -1.54778, -0.904074, -1.19822, 1.22766, -1.30258, -0.0262761, 0.0130306, 0.00923594, -0.0912326, -0.00019155, -0.00184216, 0.00140111, -2.39648, 70.5594, 35.7523, 8.22754, 2.06195, 3.76895, 0.00373412, -0.00464261, 8.13485e-05, 0.00706421, 0.0140492, -0.00598513, 0.000946559, 0.0650726, -0.0200278, 0.00252458, -0.0220311, 0.10475, 0.105644, 0.469938, -0.538474, 0.336454, -2.07875, -2.16473, -0.133067, 0.469926, -0.541932, 0.328739, -2.07529, -2.16172, -0.111357, -0.01665, 0.0824704, 0.0106501, 0.00588349, 0.0187412, 0.00212072
0.181117, 1.69561, -1.23053, -1.54777, -0.904174, -1.19821, 1.22766, -1.30258, -0.0311479, 0.0151859, 0.00748524, -0.0953443, -0.00054802, -0.000302882, -0.000998006, -2.28143, 70.5951, 35.7166, 8.15216, 2.07477, 3.72592, 0.0559192, -0.00470797, 0.000100129, 0.00706104, 0.0140569, -0.00608029, 0.000914061, 0.0672777, -0.0182018, 0.00299975, -0.0232454, 0.109055, 0.106272, 0.469921, -0.538392, 0.336464, -2.07866, -2.16471, -0.133117, 0.469931, -0.541913, 0.328742, -2.07522, -2.16179, -0.111305, -0.0167906, 0.0833185, 0.010789, 0.00402191, 0.0172614, 0.00242793
0.182117, 1.69558, -1.23052, -1.54777, -0.90427, -1.19821, 1.22765, -1.30258, -0.0267141, 0.0142878, 0.00619492, -0.0962299, -8.71889e-05, 0.000619157, 0.000793247, -2.24175, 70.7419, 35.6809, 8.0014, 2.06836, 3.69021, 0.0165515, -0.00477428, 0.000120536, 0.00706136, 0.0140631, -0.00616875, 0.000886605, 0.0662721, -0.0209987, 0.00173555, -0.0243909, 0.109424, 0.109631, 0.469904, -0.538309, 0.336475, -2.07858, -2.16469, -0.133167, 0.469937, -0.541894, 0.328741, -2.07515, -2.16184, -0.111263, -0.0169311, 0.0841693, 0.010929, 0.00659065, 0.0194263, 0.00138826
0.183117, 1.69555, -1.2305, -1.54776, -0.904379, -1.19821, 1.22766, -1.30257, -0.026631, 0.0181872, 0.00600102, -0.100194, -2.7527e-05, 0.00112183, 0.0012413, -2.20605, 70.7062, 35.7523, 7.9657, 2.06836, 3.66092, -0.00267457, -0.00483839, 0.000142215, 0.00705828, 0.0140777, -0.00627244, 0.000851315, 0.0656572, -0.0220243, 0.00344839, -0.0254969, 0.114713, 0.113006, 0.469887, -0.538224, 0.336486, -2.07849, -2.16467, -0.133218, 0.469944, -0.541872, 0.328744, -2.07507, -2.16191, -0.111196, -0.0170715, 0.0850228, 0.0110699, 0.00751787, 0.0206606, 0.00327981
0.184117, 1.69552, -1.23048, -1.54775, -0.904489, -1.19821, 1.22766, -1.30258, -0.0307253, 0.0201102, 0.00615102, -0.106955, -0.00047012, 0.000465875, 0.000115751, -2.13067, 70.7062, 35.6809, 7.9657, 2.08118, 3.66092, 0.0165515, -0.00490289, 0.000163431, 0.00705108, 0.0140847, -0.00637779, 0.000811172, 0.0661567, -0.0211551, 0.00385151, -0.0283873, 0.117923, 0.116324, 0.46987, -0.538139, 0.336497, -2.07841, -2.16465, -0.13327, 0.469951, -0.54185, 0.328751, -2.07499, -2.16199, -0.111138, -0.0172118, 0.0858791, 0.0112118, 0.00654549, 0.0209241, 0.00376115
0.185117, 1.69548, -1.23046, -1.54775, -0.904594, -1.1982, 1.22766, -1.30258, -0.0347195, 0.0187464, 0.00279016, -0.106251, 0.000856685, 9.90761e-05, -0.00185539, -2.01562, 70.8173, 35.7523, 7.85065, 2.05005, 3.66092, 0.0687366, -0.00497295, 0.000181589, 0.00705102, 0.0140929, -0.00647285, 0.000780844, 0.0695345, -0.0183633, 0.00214616, -0.0300349, 0.116128, 0.113032, 0.469853, -0.538053, 0.336508, -2.07832, -2.16463, -0.133322, 0.469954, -0.541832, 0.32875, -2.07491, -2.16206, -0.111088, -0.017352, 0.0867382, 0.0113547, 0.00368182, 0.0186028, 0.00176262
0.186117, 1.69544, -1.23045, -1.54774, -0.904708, -1.1982, 1.22766, -1.30258, -0.036808, 0.0188943, 0.00213005, -0.107584, 0.00480348, -0.000363847, 0.000458658, -1.94024, 70.8887, 35.7523, 7.81494, 2.06195, 3.66824, 0.0229602, -0.00504004, 0.000202312, 0.00704952, 0.0141034, -0.00657185, 0.000746291, 0.0702388, -0.0178288, 0.00187796, -0.0293045, 0.113751, 0.111248, 0.469836, -0.537967, 0.33652, -2.07823, -2.1646, -0.133374, 0.46996, -0.54181, 0.328751, -2.07483, -2.16212, -0.111032, -0.0174921, 0.0875999, 0.0114985, 0.00302632, 0.0187907, 0.00153992
0.187117, 1.6954, -1.23043, -1.54773, -0.904826, -1.1982, 1.22766, -1.30258, -0.0359609, 0.0169346, 0.00329293, -0.109387, 0.00769321, -0.000904072, 0.00101797, -1.82915, 70.9244, 35.6809, 7.81494, 2.08118, 3.68289, 0.00373412, -0.00510659, 0.000222695, 0.00704289, 0.014111, -0.00667723, 0.000708152, 0.0695193, -0.0192792, 0.00078318, -0.0284066, 0.110133, 0.115104, 0.469818, -0.537879, 0.336531, -2.07815, -2.16458, -0.133427, 0.469966, -0.541788, 0.328757, -2.07475, -2.1622, -0.110974, -0.0176321, 0.0884643, 0.0116434, 0.00426805, 0.0206029, 0.000668448
