alisrour97/Franka_experiments/Real_Robot_scripts/servo-franka/Data2/log_dyn_INIT2_2.csv
Time,q1,q2,q3,q4,q5,q6,q7,dq1,dq2,dq3,dq4,dq5,dq6,dq7,t1,t2,t3,t4,t5,t6,t7,ex1,ex2,ex3,ex4,ex5,ex6,ev1,ev2,ev3,ev4,ev5,ev6,xd,yd,zd,uxd,uyd,uzd,x,y,z,ux,uy,uz,vxd,vyd,vzd,vx,vy,vz
2.44141e-07, 1.69125, -1.2269, -1.53866, -0.900109, -1.19214, 1.22839, -1.30258, -0.00321411, 0.00117232, -0.00160624, 0.00367766, 0.000186287, -0.00460877, -0.00294274, 0.0949785, 60.7245, 29.6506, 6.80725, 2.36316, 3.37436, -0.186696, 0.000592647, -0.00177549, 0.00111057, 0.0011755, 0.000611995, 0.000501197, 0.00226302, 0.00373829, 0.000401677, -0.00298569, -0.00153209, -0.00414354, 0.471008, -0.543389, 0.335894, -2.08385, -2.16584, -0.129887, 0.469179, -0.5427, 0.334935, -2.08342, -2.16451, -0.129161, -1.48327e-05, 4.00419e-05, -1.29039e-06, -0.00365288, -0.00240885, 0.000156769
0.0121467, 1.69121, -1.22687, -1.53868, -0.900106, -1.19214, 1.22836, -1.30259, -0.00141124, 0.00416044, -0.00427738, 0.00171665, 0.000170796, -0.00109599, 0.000425967, -0.0914839, 60.6134, 29.7617, 6.73187, 2.35675, 3.41006, -0.232472, 0.000576727, -0.00180652, 0.0011004, 0.00120421, 0.000599984, 0.000544916, 0.00156363, 0.00216332, 0.00115456, -0.00323965, 0.0036411, -0.00533138, 0.471008, -0.543389, 0.335894, -2.08385, -2.16584, -0.129887, 0.469144, -0.542725, 0.334951, -2.08348, -2.16445, -0.129103, -2.49008e-05, 7.8927e-05, 1.60533e-06, -0.00208784, -0.00173095, 0.000964163
0.0131467, 1.69121, -1.22687, -1.53868, -0.900106, -1.19214, 1.22836, -1.30259, -0.00141124, 0.00416044, -0.00427738, 0.00171665, 0.000170796, -0.00109599, 0.000425967, -0.0914839, 60.6134, 29.7617, 6.73187, 2.35675, 3.41006, -0.232472, 0.000576718, -0.00180652, 0.0011004, 0.00120421, 0.000599975, 0.00054492, 0.0016067, 0.00215396, 0.00115836, -0.00323962, 0.00368921, -0.00530063, 0.471008, -0.543389, 0.335894, -2.08385, -2.16584, -0.129887, 0.469144, -0.542725, 0.334951, -2.08348, -2.16445, -0.129103, -3.59273e-05, 0.000121646, 4.81928e-06, -0.00208784, -0.00173095, 0.000964163
0.0141467, 1.69121, -1.22687, -1.53868, -0.900106, -1.19214, 1.22836, -1.30259, -0.00141124, 0.00416044, -0.00427738, 0.00171665, 0.000170796, -0.00109599, 0.000425967, -0.0914839, 60.6134, 29.7617, 6.73187, 2.35675, 3.41006, -0.232472, 0.000576694, -0.00180651, 0.0011004, 0.0012042, 0.000599952, 0.000544931, 0.00165378, 0.00214376, 0.00116248, -0.00323951, 0.00374176, -0.00526707, 0.471008, -0.543389, 0.335894, -2.08385, -2.16584, -0.129887, 0.469144, -0.542725, 0.334951, -2.08348, -2.16445, -0.129103, -4.79476e-05, 0.000168349, 8.36616e-06, -0.00208784, -0.00173095, 0.000964163
0.0151467, 1.69121, -1.22687, -1.53868, -0.900106, -1.19214, 1.22836, -1.30259, -0.00141124, 0.00416044, -0.00427738, 0.00171665, 0.000170796, -0.00109599, 0.000425967, -0.0914839, 60.6134, 29.7617, 6.73187, 2.35675, 3.41006, -0.232472, 0.000576648, -0.0018065, 0.0011004, 0.00120419, 0.000599908, 0.000544952, 0.00170504, 0.00213269, 0.00116693, -0.00323932, 0.0037989, -0.00523063, 0.471008, -0.543389, 0.335894, -2.08385, -2.16584, -0.129887, 0.469144, -0.542725, 0.334951, -2.08348, -2.16445, -0.129103, -6.09969e-05, 0.000219187, 1.22607e-05, -0.00208784, -0.00173095, 0.000964163
0.0161467, 1.69121, -1.22687, -1.53868, -0.900106, -1.19214, 1.22836, -1.30259, -0.00141124, 0.00416044, -0.00427738, 0.00171665, 0.000170796, -0.00109599, 0.000425967, -0.0914839, 60.6134, 29.7617, 6.73187, 2.35675, 3.41006, -0.232472, 0.000576571, -0.00180649, 0.00110039, 0.00120417, 0.000599835, 0.000544986, 0.00176063, 0.00212072, 0.00117172, -0.00323903, 0.00386081, -0.00519118, 0.471008, -0.543389, 0.335894, -2.08385, -2.16584, -0.129887, 0.469144, -0.542725, 0.334951, -2.08348, -2.16445, -0.129103, -7.51097e-05, 0.000274308, 1.65177e-05, -0.00208784, -0.00173095, 0.000964163
0.0171467, 1.69121, -1.22687, -1.53868, -0.900106, -1.19214, 1.22836, -1.30259, -0.00141124, 0.00416044, -0.00427738, 0.00171665, 0.000170796, -0.00109599, 0.000425967, -0.0914839, 60.6134, 29.7617, 6.73187, 2.35675, 3.41006, -0.232472, 0.000576457, -0.00180646, 0.00110038, 0.00120415, 0.000599727, 0.000545037, 0.00182068, 0.00210783, 0.00117686, -0.00323865, 0.00392763, -0.00514864, 0.471008, -0.543389, 0.335894, -2.08385, -2.16584, -0.129887, 0.469144, -0.542725, 0.334951, -2.08348, -2.16445, -0.129103, -9.03198e-05, 0.000333859, 2.1152e-05, -0.00208784, -0.00173095, 0.000964163
0.0181467, 1.69121, -1.22687, -1.53868, -0.900106, -1.19214, 1.22836, -1.30259, -0.00141124, 0.00416044, -0.00427738, 0.00171665, 0.000170796, -0.00109599, 0.000425967, -0.0914839, 60.6134, 29.7617, 6.73187, 2.35675, 3.41006, -0.232472, 0.000576298, -0.00180643, 0.00110036, 0.00120411, 0.000599575, 0.000545108, 0.00188535, 0.00209398, 0.00118235, -0.00323816, 0.00399953, -0.00510292, 0.471008, -0.543389, 0.335894, -2.08385, -2.16584, -0.129887, 0.469144, -0.542725, 0.334951, -2.08348, -2.16445, -0.129103, -0.000106661, 0.000397984, 2.61782e-05, -0.00208784, -0.00173095, 0.000964163
0.0191467, 1.69121, -1.22687, -1.53868, -0.900106, -1.19214, 1.22836, -1.30259, -0.00141124, 0.00416044, -0.00427738, 0.00171665, 0.000170796, -0.00109599, 0.000425967, -0.0914839, 60.6134, 29.7617, 6.73187, 2.35675, 3.41006, -0.232472, 0.000576087, -0.00180638, 0.00110035, 0.00120406, 0.000599375, 0.000545202, 0.00195478, 0.00207915, 0.00118822, -0.00323754, 0.00407666, -0.00505391, 0.471008, -0.543389, 0.335894, -2.08385, -2.16584, -0.129887, 0.469144, -0.542725, 0.334951, -2.08348, -2.16445, -0.129103, -0.000124165, 0.000466826, 3.16113e-05, -0.00208784, -0.00173095, 0.000964163
0.0201467, 1.69121, -1.22687, -1.53868, -0.900106, -1.19214, 1.22836, -1.30259, -0.00141124, 0.00416044, -0.00427738, 0.00171665, 0.000170796, -0.00109599, 0.000425967, -0.0914839, 60.6134, 29.7617, 6.73187, 2.35675, 3.41006, -0.232472, 0.000575816, -0.00180632, 0.00110032, 0.00120399, 0.000599117, 0.000545323, 0.00202912, 0.00206331, 0.00119446, -0.00323681, 0.00415918, -0.00500153, 0.471008, -0.543388, 0.335894, -2.08385, -2.16584, -0.129887, 0.469144, -0.542725, 0.334951, -2.08348, -2.16445, -0.129103, -0.000142864, 0.000540525, 3.74658e-05, -0.00208784, -0.00173095, 0.000964163
0.0211467, 1.69119, -1.22688, -1.53869, -0.900124, -1.19213, 1.22833, -1.30259, -0.00217987, 0.000927824, -0.00263164, -0.000526108, 0.00118149, -0.002459, -0.00182127, -0.0914839, 60.7602, 29.7617, 6.88263, 2.32013, 3.44668, -0.232472, 0.000571597, -0.00182123, 0.00111418, 0.00124616, 0.000622987, 0.000554768, 0.00140514, 0.00176403, -0.000504118, -0.00372603, -0.000409949, -0.000305557, 0.471008, -0.543388, 0.335894, -2.08384, -2.16584, -0.129888, 0.469128, -0.542727, 0.334937, -2.08345, -2.16441, -0.129079, -0.000162789, 0.000619218, 4.37565e-05, -0.00189249, -0.000762561, -0.000618939
0.0221467, 1.6912, -1.22688, -1.53869, -0.900127, -1.19213, 1.22833, -1.3026, 0.000281702, -0.00113401, -0.0020719, -0.00121464, 0.00102508, -0.00205761, -0.00307753, -0.166862, 60.8356, 29.7617, 6.91833, 2.31372, 3.45309, -0.186696, 0.000576115, -0.00181628, 0.00111963, 0.0012521, 0.000634019, 0.000534952, 0.000344017, 1.91867e-05, -0.00169942, -0.00384125, -0.00194459, 0.00429723, 0.471008, -0.543388, 0.335894, -2.08384, -2.16584, -0.129888, 0.469133, -0.542721, 0.334933, -2.08342, -2.16442, -0.129086, -0.000183971, 0.000703042, 5.04979e-05, -0.000252174, 0.000624201, -0.00168036
0.0231467, 1.69119, -1.22689, -1.53869, -0.900121, -1.19213, 1.22832, -1.3026, 0.000166584, -0.00745549, -0.00428954, -0.00134948, 0.00271794, -0.000727529, -0.00316098, -0.166862, 60.7245, 29.611, 6.80725, 2.25879, 3.43204, -0.160145, 0.00057339, -0.00181886, 0.00112378, 0.00125432, 0.000644793, 0.000540069, 0.00130568, -0.000123372, -0.00608728, -0.00440697, -0.00872048, 0.00406186, 0.471008, -0.543387, 0.335894, -2.08384, -2.16584, -0.129888, 0.46913, -0.542723, 0.334928, -2.08342, -2.16441, -0.129095, -0.000206438, 0.000792126, 5.77046e-05, -0.000256266, 0.000445104, -0.00615938
0.0241467, 1.69119, -1.2269, -1.5387, -0.900131, -1.19213, 1.22832, -1.3026, -0.000740075, -0.00908317, -0.00455196, -0.00516998, 0.00635572, -0.0058761, -0.00220179, -0.131157, 60.4666, 29.3888, 6.84296, 2.13611, 3.43936, -0.160145, 0.000571621, -0.00182037, 0.00113467, 0.00127071, 0.000654182, 0.000543309, -0.000377658, 6.04936e-05, -0.00806205, -0.00922514, -0.0154376, 0.00674078, 0.471007, -0.543387, 0.335894, -2.08384, -2.16584, -0.129889, 0.469128, -0.542722, 0.334917, -2.08341, -2.1644, -0.129086, -0.000230219, 0.000886601, 6.53909e-05, -0.00059515, 0.00249786, -0.00783484
0.0251467, 1.6912, -1.2269, -1.53872, -0.900134, -1.19213, 1.22831, -1.3026, 0.00125792, -0.00239363, -0.0082617, -0.00131836, 0.00786537, -0.00856079, -0.00252205, -0.206535, 59.9866, 29.1666, 6.73187, 2.03815, 3.42471, -0.133595, 0.000571197, -0.00182055, 0.00114036, 0.00129157, 0.000651405, 0.000545289, -0.000458964, 0.000873524, -0.00524674, -0.0120186, -0.0112625, 0.00433321, 0.471007, -0.543386, 0.335894, -2.08384, -2.16584, -0.129889, 0.469127, -0.542721, 0.334912, -2.0834, -2.16439, -0.12906, -0.000255341, 0.00098659, 7.35711e-05, -0.00133354, 0.00221153, -0.00500963
0.0261467, 1.6912, -1.22692, -1.53873, -0.900142, -1.19214, 1.22831, -1.30259, 0.00166488, -0.00098688, -0.0144005, -0.00356054, 0.00446887, -0.00728282, -0.00244658, -0.242241, 59.7644, 28.9405, 6.69617, 1.93378, 3.44668, -0.114369, 0.00056881, -0.00182045, 0.001158, 0.00131934, 0.00066287, 0.000547146, 0.000751702, 0.00137727, -0.00680863, -0.018868, -0.00572476, 0.00257941, 0.471007, -0.543385, 0.335894, -2.08384, -2.16584, -0.12989, 0.469127, -0.54272, 0.334894, -2.08338, -2.16437, -0.129042, -0.00028183, 0.00109222, 8.22592e-05, -0.00187621, 0.00134175, -0.0067159
0.0271467, 1.6912, -1.22693, -1.53876, -0.900148, -1.19214, 1.22831, -1.3026, 0.00110321, -0.00317399, -0.0169646, -0.00341391, 0.00442362, -0.00515531, -0.00336632, -0.242241, 59.5462, 28.754, 6.58508, 1.88434, 3.43936, -0.0685925, 0.000562586, -0.00182364, 0.00117279, 0.00134854, 0.000662439, 0.000552423, 0.00212665, 0.00172966, -0.00875688, -0.0193049, -0.00655594, 0.00168511, 0.471007, -0.543384, 0.335894, -2.08384, -2.16584, -0.129891, 0.469123, -0.542723, 0.334878, -2.08337, -2.16435, -0.129009, -0.000309711, 0.0012036, 9.14692e-05, -0.00227719, 0.000381192, -0.00883322
0.0281467, 1.6912, -1.22694, -1.53879, -0.900154, -1.19215, 1.22831, -1.3026, 0.000730436, -0.00694574, -0.0197027, -0.00511622, 0.00425277, -0.0038654, -0.00302009, -0.242241, 59.5462, 28.6072, 6.54541, 1.84131, 3.43936, -0.0484509, 0.000555081, -0.00182643, 0.0011946, 0.00138215, 0.000670388, 0.000559684, 0.00299846, 0.00173129, -0.012037, -0.021721, -0.00909094, 0.00123685, 0.471007, -0.543383, 0.335894, -2.08384, -2.16584, -0.129891, 0.469119, -0.542726, 0.334856, -2.08336, -2.16433, -0.12898, -0.000339009, 0.00132085, 0.000101215, -0.00239534, 0.000142578, -0.0121975
0.0291467, 1.6912, -1.22695, -1.53881, -0.900165, -1.19217, 1.22831, -1.3026, 0.00104771, -0.00824944, -0.0208203, -0.00416172, -0.00252011, -0.00208453, -0.00176454, -0.131157, 59.5065, 28.4208, 6.54541, 1.85321, 3.41739, -0.0557752, 0.000545703, -0.00183195, 0.00121036, 0.00141467, 0.000662757, 0.000573113, 0.00514579, 0.00235158, -0.0129171, -0.0240095, -0.00382713, -0.00323804, 0.471006, -0.543382, 0.335894, -2.08384, -2.16584, -0.129892, 0.469113, -0.542732, 0.334839, -2.08336, -2.1643, -0.128935, -0.000369746, 0.00144407, 0.00011151, -0.00300056, -0.001744, -0.0133709
0.0301467, 1.6912, -1.22697, -1.53884, -0.900173, -1.19218, 1.22832, -1.30259, 0.00400865, -0.0117708, -0.0202442, -0.00562033, -0.00602604, -3.70343e-05, -6.37963e-06, -0.131157, 59.5819, 28.3097, 6.5097, 1.82941, 3.37436, -0.0878186, 0.00053869, -0.00183168, 0.00122902, 0.00144334, 0.000659109, 0.000582772, 0.00464869, 0.000192522, -0.0149494, -0.024806, -0.00312459, -0.0015387, 0.471006, -0.543381, 0.335894, -2.08384, -2.16584, -0.129893, 0.469113, -0.542735, 0.33482, -2.08335, -2.16428, -0.1289, -0.000401943, 0.00157338, 0.000122367, -0.000967623, -0.000722784, -0.0153547
0.031147, 1.69121, -1.22697, -1.53887, -0.900183, -1.1922, 1.22832, -1.30259, 0.00543474, -0.00828511, -0.0206489, -0.0044291, -0.00550086, 0.00057442, 0.0014412, -0.0914839, 59.5462, 28.2343, 6.5097, 1.84772, 3.3533, -0.127186, 0.000530641, -0.00183413, 0.0012412, 0.00147452, 0.000640863, 0.000597135, 0.00422142, -0.000406675, -0.0128909, -0.0237464, 0.000338322, -0.00260749, 0.471006, -0.54338, 0.335895, -2.08384, -2.16584, -0.129894, 0.46911, -0.54274, 0.334807, -2.08336, -2.16427, -0.128846, -0.00043562, 0.00170887, 0.000133799, -0.000343853, -0.000457792, -0.0132624
0.032147, 1.69121, -1.22697, -1.5389, -0.900187, -1.19221, 1.22833, -1.30259, 0.00636862, -0.00647825, -0.0206641, -0.00481781, -0.00745716, 0.00598716, 0.000476625, -0.0557783, 59.5462, 28.1589, 6.43433, 1.81018, 3.33133, -0.114369, 0.000522931, -0.00183657, 0.00125407, 0.00150397, 0.000630465, 0.000606875, 0.00461895, -0.0017815, -0.0114522, -0.0201434, 0.00663904, -0.000976039, 0.471005, -0.543378, 0.335895, -2.08383, -2.16584, -0.129895, 0.469107, -0.542744, 0.334793, -2.08336, -2.16425, -0.128803, -0.000470796, 0.00185063, 0.00014582, 0.00106017, -0.000873673, -0.0119329
0.033147, 1.69122, -1.22698, -1.53892, -0.900197, -1.19222, 1.22833, -1.30259, 0.00494902, -0.00587018, -0.0238608, -0.00697569, -0.00893006, 0.00430025, 0.000310657, -0.0557783, 59.5819, 28.0875, 6.43433, 1.76807, 3.33133, -0.114369, 0.000519941, -0.00183435, 0.00126546, 0.00153332, 0.000618002, 0.000606633, 0.00548185, -0.000448817, -0.0125891, -0.0258416, 0.00813222, -0.00226155, 0.471005, -0.543376, 0.335895, -2.08383, -2.16584, -0.129896, 0.469109, -0.542743, 0.334781, -2.08335, -2.16425, -0.128759, -0.000507488, 0.00199877, 0.000158442, -0.00031767, -0.00145692, -0.0131366
0.034147, 1.69123, -1.22697, -1.53895, -0.900203, -1.19223, 1.22833, -1.30259, 0.00617119, -0.0018521, -0.0246142, -0.00678292, -0.0104677, 0.00336971, -0.00196835, -0.0161054, 59.4708, 28.0875, 6.35895, 1.73694, 3.324, -0.0557752, 0.000515202, -0.00183426, 0.00127336, 0.00156725, 0.000594959, 0.000609157, 0.00513858, -0.000574716, -0.0106028, -0.0277846, 0.0131738, 0.000212953, 0.471004, -0.543375, 0.335895, -2.08383, -2.16584, -0.129898, 0.469108, -0.542745, 0.334773, -2.08334, -2.16424, -0.128699, -0.000545713, 0.00215336, 0.000171677, -0.000170731, -0.00126403, -0.0111126
0.035147, 1.69123, -1.22696, -1.53898, -0.90021, -1.19224, 1.22834, -1.3026, 0.0083879, 3.28788e-05, -0.0241152, -0.00669756, -0.0112575, 0.00265754, -0.00206221, 0.0949785, 59.3994, 28.0478, 6.28357, 1.69391, 3.31759, -0.0356336, 0.000508754, -0.00183606, 0.00127863, 0.00159364, 0.000570917, 0.000616658, 0.0041439, -0.00166759, -0.00947304, -0.0284782, 0.015554, 0.00247442, 0.471004, -0.543373, 0.335895, -2.08383, -2.16584, -0.129899, 0.469106, -0.542749, 0.334767, -2.08334, -2.16424, -0.128646, -0.000585484, 0.00231447, 0.000185536, 0.000886173, -0.000250089, -0.00986178
0.036147, 1.69124, -1.22695, -1.539, -0.900216, -1.19226, 1.22834, -1.30259, 0.00798766, 0.00408149, -0.0214691, -0.00668337, -0.0120775, 0.00190197, 0.000317622, 0.170357, 59.213, 28.0478, 6.20819, 1.65729, 3.31759, -0.0814099, 0.000505467, -0.00183543, 0.00127872, 0.00162242, 0.000538011, 0.000629724, 0.00364738, -0.00163676, -0.00618658, -0.026793, 0.0198895, 0.000728437, 0.471003, -0.54337, 0.335895, -2.08383, -2.16584, -0.129901, 0.469106, -0.54275, 0.334766, -2.08336, -2.16423, -0.128581, -0.000626814, 0.0024822, 0.000200032, 0.000914929, -9.93204e-05, -0.00652417
0.037147, 1.69124, -1.22695, -1.53902, -0.900228, -1.19228, 1.22834, -1.30259, 0.0091718, 0.00073117, -0.0225134, -0.0125684, -0.0127126, 0.000857063, -0.000265214, 0.325081, 59.2883, 28.0478, 6.24786, 1.62067, 3.33133, -0.0685925, 0.000499813, -0.00183525, 0.00129103, 0.00165565, 0.000521462, 0.000632094, 0.00210284, -0.00326574, -0.00948139, -0.032166, 0.017367, 0.0070993, 0.471003, -0.543368, 0.335896, -2.08382, -2.16584, -0.129903, 0.469105, -0.542751, 0.334754, -2.08335, -2.16423, -0.128529, -0.000669715, 0.00265659, 0.000215176, 0.00232471, 0.00217376, -0.00957175
0.038147, 1.69124, -1.22694, -1.53905, -0.900245, -1.1923, 1.22835, -1.30259, 0.00833452, 0.0046792, -0.0236099, -0.0145226, -0.0145389, 0.000644657, -0.000924478, 0.551216, 59.1019, 28.1986, 6.32324, 1.62067, 3.33133, -0.0484509, 0.00049306, -0.00183777, 0.00129517, 0.00169285, 0.000483622, 0.000637431, 0.00227389, -0.00276025, -0.00778239, -0.0346245, 0.023107, 0.0075573, 0.471002, -0.543365, 0.335896, -2.08382, -2.16584, -0.129904, 0.469102, -0.542755, 0.334749, -2.08335, -2.16423, -0.128451, -0.000714195, 0.00283772, 0.000230977, 0.00184285, 0.00190382, -0.00788964
0.039147, 1.69124, -1.22694, -1.53907, -0.900253, -1.19232, 1.22835, -1.30259, 0.00792573, 0.00206399, -0.0206532, -0.0122995, -0.0150413, -0.000600337, 0.00111175, 0.777352, 59.1415, 28.1986, 6.24786, 1.60144, 3.36062, -0.0951428, 0.000486262, -0.00183903, 0.00130222, 0.00171757, 0.000464839, 0.000646244, 0.00290491, -0.00235671, -0.00803512, -0.0324488, 0.0201087, 0.00460302, 0.471001, -0.543363, 0.335896, -2.08382, -2.16584, -0.129906, 0.4691, -0.542757, 0.334741, -2.08335, -2.16422, -0.128406, -0.000760263, 0.00302564, 0.000247448, 0.00140721, 0.00149119, -0.00820851
0.040147, 1.69124, -1.22694, -1.53909, -0.900271, -1.19234, 1.22835, -1.30258, 0.00725813, -0.000390035, -0.0191723, -0.0142082, -0.0119615, 0.00302244, 0.00121494, 1.03919, 59.213, 28.2343, 6.32324, 1.61426, 3.40365, -0.10796, 0.000480579, -0.0018387, 0.00131259, 0.00174713, 0.000445077, 0.000649714, 0.00252296, -0.00376372, -0.00884929, -0.0275726, 0.0172006, 0.00743627, 0.471001, -0.54336, 0.335896, -2.08381, -2.16584, -0.129908, 0.4691, -0.542759, 0.33473, -2.08335, -2.16421, -0.128355, -0.000807924, 0.0032204, 0.000264596, 0.00272168, 0.00224596, -0.00897842
0.041147, 1.69125, -1.22694, -1.53911, -0.900285, -1.19236, 1.22836, -1.30258, 0.00765293, -0.00116694, -0.0168209, -0.0168793, -0.01351, 0.00195185, 0.00033453, 1.26533, 59.2487, 28.3454, 6.32324, 1.60785, 3.41739, -0.0951428, 0.000474079, -0.00183831, 0.00132176, 0.00177868, 0.000419624, 0.000651655, 0.00153858, -0.00468129, -0.00894172, -0.0285582, 0.0174818, 0.011811, 0.471, -0.543357, 0.335896, -2.08381, -2.16584, -0.129911, 0.469099, -0.54276, 0.33472, -2.08334, -2.16421, -0.128296, -0.000857184, 0.00342203, 0.000282433, 0.00355025, 0.00347122, -0.0089267
0.042147, 1.69126, -1.22695, -1.53912, -0.900291, -1.19238, 1.22836, -1.30258, 0.00742102, -0.00175975, -0.0140578, -0.0130344, -0.0205491, 0.000821563, 0.00394539, 1.38038, 59.2883, 28.4208, 6.20819, 1.63257, 3.43936, -0.0685925, 0.000468214, -0.00183545, 0.00132946, 0.00180619, 0.000393818, 0.000654418, 0.00374802, -0.00323229, -0.0078472, -0.0285856, 0.0218082, 0.00373123, 0.470999, -0.543353, 0.335897, -2.08381, -2.16584, -0.129913, 0.469101, -0.542762, 0.334712, -2.08334, -2.16421, -0.128241, -0.000908043, 0.00363059, 0.000300968, 0.00217081, 0.00127078, -0.00812672
0.043147, 1.69126, -1.22695, -1.53913, -0.900301, -1.19241, 1.22836, -1.30259, 0.00446681, -0.00288393, -0.0140731, -0.011418, -0.020078, 1.84149e-05, 0.00132663, 1.60651, 59.3597, 28.4565, 6.13678, 1.63257, 3.46042, -0.0228162, 0.000460569, -0.00183573, 0.00133686, 0.00182855, 0.00037284, 0.000654862, 0.00568755, -0.00118099, -0.00818753, -0.0279364, 0.0199083, 0.00233748, 0.470998, -0.54335, 0.335897, -2.0838, -2.16584, -0.129916, 0.4691, -0.542764, 0.334704, -2.08334, -2.16422, -0.128198, -0.000960503, 0.00384608, 0.000320207, 0.000126788, -0.000460014, -0.00868279
0.044147, 1.69127, -1.22696, -1.53915, -0.900306, -1.19244, 1.22837, -1.30258, 0.00900097, -0.00538654, -0.0146062, -0.0116072, -0.0209416, -0.000613575, 0.00189034, 1.68189, 59.5065, 28.6429, 5.98602, 1.66369, 3.48239, -0.0420422, 0.000452039, -0.00183299, 0.00135047, 0.00185799, 0.000352136, 0.000662247, 0.00429558, -0.00355175, -0.0101502, -0.0303504, 0.0182477, 0.0060696, 0.470997, -0.543346, 0.335897, -2.0838, -2.16584, -0.129919, 0.469102, -0.542767, 0.334689, -2.08334, -2.16421, -0.128146, -0.00101456, 0.00406854, 0.000340161, 0.00231976, 0.00153587, -0.0104562
0.045147, 1.69129, -1.22697, -1.53916, -0.900309, -1.19246, 1.22837, -1.30258, 0.00977249, -0.00220399, -0.0103844, -0.00876391, -0.0263241, -0.00186178, 0.00148061, 1.72157, 59.5819, 28.6429, 5.83527, 1.70581, 3.52542, -0.0420422, 0.000448114, -0.00182689, 0.00135671, 0.0018794, 0.000328405, 0.000658805, 0.00478539, -0.00324784, -0.00652147, -0.0287475, 0.0249648, 0.00507938, 0.470996, -0.543342, 0.335898, -2.08379, -2.16583, -0.129921, 0.469107, -0.542765, 0.334683, -2.08333, -2.16422, -0.128102, -0.00107022, 0.00429798, 0.000360835, 0.00210914, 0.000710685, -0.00691935
0.046147, 1.6913, -1.22697, -1.53918, -0.900317, -1.19249, 1.22837, -1.30258, 0.0124943, -0.00382038, -0.0100065, -0.00868356, -0.0295143, -0.0024579, 0.00237306, 1.79694, 59.693, 28.754, 5.76385, 1.71863, 3.56112, -0.0750012, 0.000443705, -0.00182075, 0.00136785, 0.00191006, 0.000305963, 0.000661241, 0.00448288, -0.00443271, -0.00750338, -0.0309333, 0.0259873, 0.00610912, 0.470995, -0.543338, 0.335898, -2.08379, -2.16583, -0.129925, 0.469111, -0.542764, 0.334671, -2.08332, -2.16421, -0.128048, -0.00112746, 0.0045344, 0.000382238, 0.00318895, 0.00144546, -0.00785626
0.047147, 1.69131, -1.22697, -1.53918, -0.900318, -1.19253, 1.22837, -1.30257, 0.0105364, -0.00236137, -0.0079629, -0.00672806, -0.027075, -0.00342427, 0.00245199, 1.90803, 59.693, 28.7937, 5.6131, 1.73053, 3.61148, -0.0951428, 0.000436678, -0.00181807, 0.00137068, 0.00193277, 0.00027435, 0.000668825, 0.00503152, -0.00337841, -0.00561447, -0.0274852, 0.0248699, 0.00432485, 0.470994, -0.543333, 0.335898, -2.08379, -2.16583, -0.129928, 0.469113, -0.542765, 0.334668, -2.08333, -2.16421, -0.127993, -0.00118629, 0.0047778, 0.000404375, 0.00216502, 0.000813292, -0.00602241
0.0481479, 1.69133, -1.22699, -1.53919, -0.90032, -1.19256, 1.22837, -1.30258, 0.0129929, -0.006632, -0.00969685, -0.0039403, -0.0257557, 0.00113825, 0.000981647, 1.98341, 59.9152, 28.8294, 5.53772, 1.75525, 3.64718, -0.0750012, 0.000428445, -0.00181308, 0.00138187, 0.00195635, 0.000250931, 0.000668523, 0.00599714, -0.00494031, -0.00806274, -0.0238256, 0.0220103, 0.00563929, 0.470993, -0.543328, 0.335899, -2.08378, -2.16583, -0.129931, 0.469117, -0.542767, 0.334655, -2.08332, -2.16422, -0.127946, -0.00124669, 0.00502817, 0.000427252, 0.00361063, 0.00055131, -0.008614
0.0491479, 1.69134, -1.22699, -1.5392, -0.90032, -1.1926, 1.22837, -1.30258, 0.0130596, -0.00598739, -0.00870582, -0.00489885, -0.0291124, -0.000128654, 0.00096152, 2.13416, 59.9866, 28.9048, 5.46234, 1.77356, 3.68289, -0.0814099, 0.000417694, -0.00181301, 0.00138905, 0.00198243, 0.000223439, 0.000679591, 0.00620886, -0.00479668, -0.00756085, -0.0260267, 0.0250804, 0.00608068, 0.470992, -0.543323, 0.335899, -2.08377, -2.16583, -0.129935, 0.469116, -0.542771, 0.334647, -2.08333, -2.16421, -0.127892, -0.00130866, 0.00528549, 0.000450875, 0.00343093, 0.000516508, -0.00812337
0.0501479, 1.69135, -1.227, -1.53921, -0.900329, -1.19264, 1.22838, -1.30258, 0.0170534, -0.00567656, -0.00699761, -0.00597449, -0.0316947, 0.00460161, -0.000527392, 2.24921, 60.062, 28.9405, 5.53772, 1.79187, 3.69754, -0.0484509, 0.00041111, -0.00180675, 0.00139433, 0.00200599, 0.000185979, 0.000676274, 0.00500405, -0.00820198, -0.00669799, -0.0227207, 0.0302432, 0.0125885, 0.47099, -0.543318, 0.3359, -2.08377, -2.16583, -0.129939, 0.469121, -0.542772, 0.334641, -2.08333, -2.16423, -0.127832, -0.00137217, 0.00554973, 0.000475247, 0.00675637, 0.00197679, -0.00716263
0.0511482, 1.69136, -1.22701, -1.53921, -0.900335, -1.19268, 1.22838, -1.30258, 0.0173052, -0.00882977, -0.0066972, -0.00562003, -0.033739, 0.00348368, -0.00126181, 2.3603, 60.2802, 29.0159, 5.57739, 1.81018, 3.70395, -0.0228162, 0.000401594, -0.00180196, 0.00140832, 0.0020372, 0.000159882, 0.000675693, 0.00579325, -0.00799364, -0.00848612, -0.0245055, 0.0284779, 0.0129636, 0.470989, -0.543313, 0.3359, -2.08376, -2.16583, -0.129943, 0.469124, -0.542773, 0.334626, -2.08332, -2.16423, -0.127775, -0.00143722, 0.00582086, 0.000500373, 0.0064469, 0.00173568, -0.0090194
0.0521482, 1.69138, -1.22702, -1.53922, -0.900331, -1.19272, 1.22838, -1.30258, 0.0181786, -0.00760572, -0.0064297, -0.00335043, -0.0291035, 0.00226989, -0.00033707, 2.43568, 60.3555, 29.0912, 5.53772, 1.79187, 3.7186, -0.0356336, 0.000390954, -0.00179938, 0.0014146, 0.00206357, 0.000126857, 0.000686203, 0.00514482, -0.00835823, -0.00749063, -0.0221099, 0.0254186, 0.0127616, 0.470987, -0.543307, 0.335901, -2.08376, -2.16583, -0.129947, 0.469125, -0.542777, 0.334619, -2.08332, -2.16422, -0.127715, -0.00150377, 0.00609884, 0.000526256, 0.00675722, 0.00251551, -0.00792091
0.0531482, 1.69139, -1.22703, -1.53922, -0.900336, -1.19276, 1.22838, -1.30258, 0.0146988, -0.00847113, -0.00443772, -0.00439568, -0.0364191, 0.00160947, -0.000914727, 2.55073, 60.5023, 29.0912, 5.6131, 1.80469, 3.72592, -0.0164075, 0.000382223, -0.00179395, 0.00142056, 0.00208646, 9.07935e-05, 0.00068432, 0.00771253, -0.00611698, -0.0072908, -0.0243678, 0.0303876, 0.00953604, 0.470986, -0.543301, 0.335901, -2.08375, -2.16583, -0.129951, 0.469129, -0.542778, 0.334612, -2.08332, -2.16424, -0.127658, -0.00157182, 0.00638361, 0.000552899, 0.00454993, 0.000142892, -0.00802812
0.0541482, 1.69141, -1.22704, -1.53923, -0.900334, -1.19281, 1.22838, -1.30257, 0.0162207, -0.00822111, -0.00483515, -0.00322957, -0.0402357, 0.000806056, 0.000593524, 2.62611, 60.6134, 29.1666, 5.6131, 1.77356, 3.74057, -0.0484509, 0.000370869, -0.00179001, 0.00142775, 0.0021093, 5.70288e-05, 0.000694938, 0.00840803, -0.0061171, -0.00725202, -0.0268411, 0.0336576, 0.0072332, 0.470984, -0.543294, 0.335902, -2.08374, -2.16583, -0.129956, 0.469132, -0.542782, 0.334604, -2.08333, -2.16424, -0.127602, -0.00164135, 0.0066751, 0.000580303, 0.00450684, -0.000258127, -0.00807047
0.0551482, 1.69142, -1.22704, -1.53923, -0.900338, -1.19285, 1.22839, -1.30257, 0.018166, -0.0071326, -0.00238049, -0.00414062, -0.0435359, 0.000235452, 0.00115408, 2.66181, 60.6848, 29.1269, 5.68848, 1.74884, 3.7543, -0.0685925, 0.000362802, -0.00178273, 0.00143154, 0.00213197, 1.45684e-05, 0.000695008, 0.00755679, -0.00740875, -0.00599929, -0.0273591, 0.0374729, 0.00964827, 0.470983, -0.543288, 0.335902, -2.08374, -2.16583, -0.12996, 0.469138, -0.542782, 0.334599, -2.08333, -2.16425, -0.127539, -0.00171231, 0.00697325, 0.000608468, 0.00574063, 0.000740426, -0.00671215
0.0561482, 1.69144, -1.22705, -1.53923, -0.900333, -1.1929, 1.22839, -1.30257, 0.0193395, -0.00566915, -0.00257882, -0.00200064, -0.0451241, -0.000230537, 0.00125341, 2.70148, 60.7245, 29.1666, 5.6488, 1.70032, 3.76895, -0.0814099, 0.000352226, -0.00177787, 0.00143424, 0.00215568, -2.75764e-05, 0.000702926, 0.00814765, -0.00732427, -0.00499367, -0.0277068, 0.0401973, 0.00838565, 0.470981, -0.543281, 0.335903, -2.08373, -2.16582, -0.129965, 0.469141, -0.542785, 0.334595, -2.08334, -2.16425, -0.127474, -0.00178469, 0.00727797, 0.000637396, 0.00564137, 0.00030357, -0.00577954
0.0571482, 1.69146, -1.22705, -1.53924, -0.900335, -1.19295, 1.22839, -1.30257, 0.0193848, -0.00636744, -0.00436553, -0.00238797, -0.0473113, -0.000579953, 0.00036787, 2.77686, 60.8356, 29.2777, 5.68848, 1.68201, 3.7836, -0.0685925, 0.000340051, -0.00177351, 0.00144162, 0.0021884, -7.24583e-05, 0.000708028, 0.0091608, -0.00688513, -0.00610161, -0.030827, 0.0416111, 0.00828646, 0.470979, -0.543273, 0.335904, -2.08372, -2.16582, -0.129971, 0.469144, -0.542788, 0.334586, -2.08335, -2.16426, -0.127397, -0.00185846, 0.00758918, 0.000667086, 0.00512529, -0.000232692, -0.006988
0.0581482, 1.69148, -1.22706, -1.53924, -0.900333, -1.19301, 1.22839, -1.30258, 0.0244335, -0.00590756, -0.00201822, -0.00168662, -0.0498616, 0.00508704, -0.000970221, 2.77686, 60.907, 29.238, 5.68848, 1.68201, 3.76895, -0.0356336, 0.000329578, -0.00176564, 0.00144548, 0.00221298, -0.000120877, 0.000706358, 0.00801281, -0.0107804, -0.00464864, -0.025435, 0.0472531, 0.0144793, 0.470977, -0.543266, 0.335904, -2.08371, -2.16582, -0.129976, 0.46915, -0.54279, 0.334581, -2.08335, -2.16428, -0.127326, -0.00193359, 0.00790677, 0.000697537, 0.00895177, 0.00115406, -0.00546211
0.0591482, 1.6915, -1.22706, -1.53925, -0.900327, -1.19306, 1.2284, -1.30257, 0.0257202, -0.0039325, -0.00489888, 0.000567841, -0.0517963, 0.00413169, 0.000103098, 2.73719, 60.907, 29.3888, 5.6131, 1.68201, 3.76163, -0.0557752, 0.000315458, -0.00175956, 0.00144895, 0.00224165, -0.000179194, 0.000722458, 0.00913395, -0.0101264, -0.00432479, -0.0286331, 0.0507171, 0.0108509, 0.470975, -0.543258, 0.335905, -2.0837, -2.16582, -0.129982, 0.469154, -0.542795, 0.334576, -2.08337, -2.16428, -0.127239, -0.00201003, 0.00823062, 0.000728745, 0.00827406, 0.000294505, -0.00526562
0.0601482, 1.69152, -1.22707, -1.53925, -0.900329, -1.19312, 1.2284, -1.30258, 0.0230279, -0.00864939, -0.00245089, -0.000509894, -0.0529842, 0.00388615, -0.00138638, 2.85224, 61.1649, 29.3531, 5.6488, 1.68201, 3.74057, -0.0164075, 0.000301572, -0.00175433, 0.00145764, 0.00226336, -0.000218056, 0.000720911, 0.0104864, -0.00925917, -0.00623509, -0.0277321, 0.0470806, 0.011714, 0.470973, -0.54325, 0.335906, -2.08369, -2.16582, -0.129988, 0.469158, -0.542799, 0.334566, -2.08337, -2.1643, -0.127181, -0.00208776, 0.00856062, 0.000760709, 0.00730965, -0.000451854, -0.00730389
0.0611482, 1.69154, -1.22709, -1.53926, -0.900329, -1.19318, 1.22841, -1.30257, 0.0246046, -0.00919662, -0.00248429, -0.000379856, -0.0543135, 0.00835432, -0.000922048, 2.81654, 61.3116, 29.3888, 5.6488, 1.69391, 3.7186, -0.0164075, 0.000289621, -0.00174473, 0.00146631, 0.0022913, -0.000265926, 0.00072423, 0.0109515, -0.0108531, -0.00621874, -0.0247092, 0.050243, 0.0124706, 0.470971, -0.543241, 0.335906, -2.08369, -2.16582, -0.129994, 0.469165, -0.542801, 0.334556, -2.08337, -2.16431, -0.127108, -0.00216672, 0.00889664, 0.000793423, 0.00883986, -0.000512081, -0.00737545
0.0621482, 1.69156, -1.2271, -1.53927, -0.900327, -1.19323, 1.22842, -1.30258, 0.023907, -0.00872706, -0.00343078, 0.00281514, -0.0545108, 0.0119698, -0.00112167, 2.85224, 61.4227, 29.4642, 5.6488, 1.6875, 3.69021, -0.00267457, 0.000273175, -0.00173826, 0.00147442, 0.00231739, -0.000319198, 0.00073336, 0.0131218, -0.0102788, -0.00545839, -0.0208041, 0.0527935, 0.00888625, 0.470969, -0.543232, 0.335907, -2.08368, -2.16582, -0.13, 0.46917, -0.542807, 0.334546, -2.08339, -2.16432, -0.12703, -0.0022469, 0.00923859, 0.000826888, 0.00829127, -0.00245322, -0.00691113
0.0631482, 1.69158, -1.2271, -1.53927, -0.900323, -1.1933, 1.22843, -1.30257, 0.0203562, -0.00757942, -0.00534154, 0.00294771, -0.0600378, 0.0142874, 0.000236808, 2.89191, 61.4981, 29.4642, 5.6131, 1.70581, 3.67557, -0.0292249, 0.000257189, -0.00173239, 0.00147712, 0.00234273, -0.000380235, 0.000746712, 0.0167126, -0.00776731, -0.00502737, -0.0223075, 0.059992, 0.00135006, 0.470967, -0.543223, 0.335908, -2.08367, -2.16581, -0.130006, 0.469174, -0.542813, 0.334542, -2.08341, -2.16432, -0.126945, -0.00232828, 0.00958644, 0.000861108, 0.00584595, -0.00581949, -0.00693353
0.0641482, 1.6916, -1.22711, -1.53927, -0.900328, -1.19336, 1.22843, -1.30257, 0.0177948, -0.00672199, -0.00465645, 0.000378703, -0.0530969, 0.0102928, 0.000396163, 2.92762, 61.5695, 29.4999, 5.68848, 1.66919, 3.68289, -0.0356336, 0.000244389, -0.00172383, 0.00148144, 0.00236964, -0.000437281, 0.000748572, 0.0154328, -0.00712944, -0.00483075, -0.0226769, 0.0536725, 0.00378263, 0.470965, -0.543213, 0.335909, -2.08366, -2.16581, -0.130013, 0.469181, -0.542815, 0.334536, -2.08342, -2.16434, -0.126864, -0.00241084, 0.00994017, 0.000896084, 0.00508764, -0.00425866, -0.0064865
0.0651482, 1.69163, -1.2271, -1.53927, -0.900326, -1.19341, 1.22845, -1.30257, 0.0165818, -0.00448028, -0.00329946, 0.00131309, -0.0524114, 0.012169, 0.00124815, 2.92762, 61.5695, 29.4999, 5.6488, 1.62616, 3.69021, -0.0621838, 0.000231285, -0.00171349, 0.00148137, 0.00238828, -0.000500243, 0.000754535, 0.0161781, -0.00692914, -0.00265089, -0.0187002, 0.056458, 0.00199677, 0.470962, -0.543204, 0.33591, -2.08365, -2.16581, -0.13002, 0.469189, -0.542817, 0.334535, -2.08343, -2.16436, -0.126786, -0.00249458, 0.0102997, 0.000931821, 0.00490941, -0.0049789, -0.00440829
0.0661482, 1.69165, -1.22711, -1.53927, -0.900323, -1.19347, 1.22846, -1.30257, 0.014826, -0.00474931, -0.00151079, 0.000974843, -0.0519345, 0.0140414, 8.66399e-05, 2.96729, 61.6449, 29.4642, 5.6488, 1.58313, 3.68289, -0.0420422, 0.000215892, -0.00170484, 0.00148483, 0.00240564, -0.000555859, 0.000757901, 0.0169802, -0.00680672, -0.00194159, -0.0151772, 0.0569814, 0.00299042, 0.47096, -0.543193, 0.335911, -2.08363, -2.16581, -0.130028, 0.469196, -0.542821, 0.33453, -2.08345, -2.16438, -0.126717, -0.00257947, 0.0106651, 0.000968322, 0.0047567, -0.00551958, -0.00379254
0.0671482, 1.69167, -1.22711, -1.53928, -0.900323, -1.19353, 1.22847, -1.30257, 0.0183715, -0.0023304, -0.000188947, -0.000203537, -0.0561047, 0.0147145, -0.00139991, 2.92762, 61.6092, 29.4245, 5.68848, 1.53461, 3.69754, -0.00267457, 0.0002042, -0.00169299, 0.00148255, 0.00242925, -0.000626702, 0.000752381, 0.0158257, -0.00897463, -0.000316735, -0.0162646, 0.0636716, 0.00845149, 0.470957, -0.543183, 0.335912, -2.08362, -2.16581, -0.130035, 0.469205, -0.542822, 0.334531, -2.08345, -2.16442, -0.126627, -0.00266552, 0.0110363, 0.00100559, 0.00685319, -0.00417004, -0.00203708
0.0681482, 1.6917, -1.22712, -1.53928, -0.90032, -1.1936, 1.22848, -1.30257, 0.0169, -0.00498683, -0.00113632, 0.00396247, -0.0603834, 0.0118666, 0.00451369, 2.92762, 61.756, 29.4642, 5.6488, 1.50989, 3.67557, -0.0228162, 0.000187963, -0.00168264, 0.00148861, 0.00245081, -0.000684532, 0.000763101, 0.0190912, -0.00616766, -0.00178159, -0.0195539, 0.0631865, -0.00415385, 0.470954, -0.543172, 0.335913, -2.08361, -2.1658, -0.130043, 0.469213, -0.542826, 0.334523, -2.08347, -2.16443, -0.126552, -0.00275269, 0.0114132, 0.00104363, 0.00402683, -0.00690619, -0.00386839
0.0691482, 1.69172, -1.22712, -1.53928, -0.900315, -1.19366, 1.22849, -1.30257, 0.0197245, -0.00499466, 0.000108728, 0.00377834, -0.0590367, 0.00938599, 0.00218037, 2.89191, 61.8274, 29.4245, 5.6131, 1.49158, 3.66092, 0.0101428, 0.000171851, -0.00167137, 0.00148993, 0.00246697, -0.000750504, 0.000765352, 0.0173871, -0.00778559, -0.00171251, -0.020497, 0.0612858, 0.00243065, 0.470952, -0.54316, 0.335914, -2.0836, -2.1658, -0.130051, 0.469222, -0.542829, 0.33452, -2.08348, -2.16446, -0.126475, -0.00284098, 0.0117958, 0.00108244, 0.00549585, -0.00478546, -0.00354557
0.0701482, 1.69176, -1.22713, -1.53928, -0.900309, -1.19372, 1.22851, -1.30257, 0.0205815, -0.00509276, -0.00173706, 0.00358021, -0.0575499, 0.0077365, 0.00174754, 2.77686, 61.9028, 29.4999, 5.57739, 1.46686, 3.63986, 0.0101428, 0.000157523, -0.00165574, 0.00149518, 0.00248838, -0.000815863, 0.000761964, 0.0172678, -0.00792753, -0.0026172, -0.0230633, 0.0597394, 0.00375141, 0.470949, -0.543148, 0.335915, -2.08359, -2.1658, -0.130059, 0.469236, -0.54283, 0.334513, -2.08349, -2.16449, -0.126393, -0.00293038, 0.0121842, 0.00112203, 0.00551129, -0.00413399, -0.00438521
0.0711482, 1.69179, -1.22713, -1.53929, -0.900303, -1.19379, 1.22853, -1.30257, 0.0215153, -0.00423021, -0.00119278, 0.00348441, -0.062467, 0.00700455, 0.00406426, 2.77686, 61.9385, 29.4999, 5.53772, 1.47327, 3.60415, -0.0621838, 0.000140487, -0.00164309, 0.00149611, 0.00250338, -0.000886603, 0.000774264, 0.0179257, -0.00794063, -0.00201668, -0.0256061, 0.0646972, 0.00129964, 0.470946, -0.543136, 0.335916, -2.08357, -2.1658, -0.130068, 0.469246, -0.542834, 0.33451, -2.08352, -2.1645, -0.126312, -0.00302087, 0.0125781, 0.0011624, 0.00547925, -0.00448138, -0.00385477
0.0721482, 1.69182, -1.22714, -1.53929, -0.900303, -1.19386, 1.22855, -1.30257, 0.0263233, -0.00541845, 1.39836e-05, 0.00463385, -0.0613488, 0.0105316, 0.00212887, 2.73719, 62.0496, 29.4642, 5.57739, 1.47876, 3.58218, -0.0420422, 0.000126321, -0.00162462, 0.00150025, 0.00251533, -0.000955285, 0.000768743, 0.0165432, -0.0114652, -0.00204766, -0.0212389, 0.0647458, 0.00821991, 0.470943, -0.543124, 0.335917, -2.08356, -2.16579, -0.130077, 0.469262, -0.542834, 0.334504, -2.08353, -2.16454, -0.126239, -0.00311245, 0.0129778, 0.00120355, 0.00885702, -0.00256748, -0.00373591
0.0731482, 1.69185, -1.22714, -1.53929, -0.900299, -1.19392, 1.22857, -1.30257, 0.029778, -0.00277698, -0.0048169, 0.00437195, -0.0650848, 0.0178384, 0.00178062, 2.70148, 62.0139, 29.5395, 5.53772, 1.47876, 3.57577, -0.0484509, 0.000109889, -0.00160976, 0.00149962, 0.00253304, -0.00103503, 0.000772776, 0.0175981, -0.0135566, -0.00175751, -0.0212657, 0.0749362, 0.00886255, 0.47094, -0.543111, 0.335918, -2.08355, -2.16579, -0.130086, 0.469274, -0.542837, 0.334503, -2.08355, -2.16457, -0.126147, -0.00320508, 0.013383, 0.00124549, 0.0109015, -0.00316236, -0.00363482
0.0741482, 1.69189, -1.22716, -1.53929, -0.900292, -1.19399, 1.22859, -1.30257, 0.0316649, -0.0111713, -0.00431475, 0.00401588, -0.0635096, 0.0228429, -0.000890048, 2.70148, 62.2717, 29.5752, 5.50201, 1.49158, 3.56845, 0.0101428, 9.08121e-05, -0.00159353, 0.00150909, 0.0025467, -0.00109749, 0.000769325, 0.0179646, -0.0161077, -0.00619927, -0.0168848, 0.0682589, 0.0149096, 0.470937, -0.543097, 0.33592, -2.08353, -2.16579, -0.130095, 0.469287, -0.54284, 0.334492, -2.08356, -2.1646, -0.126078, -0.00329877, 0.0137938, 0.00128822, 0.0132081, -0.00232363, -0.00811204
0.0751482, 1.69192, -1.22716, -1.5393, -0.900293, -1.19406, 1.22862, -1.30257, 0.0279895, -0.00772143, -0.00307771, 0.00204155, -0.0662538, 0.0175523, -0.000286249, 2.77686, 62.2717, 29.5752, 5.53772, 1.49158, 3.5538, 0.00373412, 7.43255e-05, -0.00157762, 0.00151115, 0.00256082, -0.00117047, 0.000768565, 0.0188421, -0.0134425, -0.00424976, -0.0217281, 0.0717554, 0.0122852, 0.470933, -0.543083, 0.335921, -2.08352, -2.16579, -0.130105, 0.4693, -0.542842, 0.334488, -2.08357, -2.16464, -0.125998, -0.00339351, 0.0142102, 0.00133174, 0.0105538, -0.00318332, -0.00619986
0.0761482, 1.69195, -1.22717, -1.5393, -0.90029, -1.19412, 1.22864, -1.30257, 0.0313579, -0.00702351, -0.00396595, 0.00151067, -0.0640543, 0.0177457, -0.000375873, 2.73719, 62.3431, 29.6506, 5.53772, 1.49707, 3.56112, 0.0101428, 5.79815e-05, -0.0015585, 0.00151501, 0.00257821, -0.00124791, 0.000765096, 0.0173202, -0.0156461, -0.00436377, -0.0219981, 0.0714118, 0.0167401, 0.47093, -0.543069, 0.335922, -2.0835, -2.16578, -0.130115, 0.469316, -0.542842, 0.334482, -2.08358, -2.16468, -0.12591, -0.00348927, 0.0146321, 0.00137605, 0.0126001, -0.0011508, -0.00609827
0.0771482, 1.692, -1.22717, -1.53931, -0.900293, -1.19419, 1.22867, -1.30257, 0.0315843, -0.00576444, -0.0053556, 0.00253032, -0.0668466, 0.0178823, -0.000211343, 2.66181, 62.3828, 29.7617, 5.6131, 1.49707, 3.56112, 0.0101428, 4.53176e-05, -0.00153389, 0.00152001, 0.00259721, -0.00132763, 0.000751598, 0.018691, -0.0150682, -0.00394699, -0.0238105, 0.0754911, 0.0145612, 0.470926, -0.543055, 0.335924, -2.08349, -2.16578, -0.130125, 0.469338, -0.542838, 0.334476, -2.08358, -2.16473, -0.12582, -0.00358604, 0.0150594, 0.00142116, 0.0119905, -0.00216454, -0.00583766
0.0781482, 1.69203, -1.22718, -1.53931, -0.900289, -1.19426, 1.22869, -1.30256, 0.0303359, -0.00479375, -0.00105683, 0.00287079, -0.0696728, 0.0175104, 0.00232994, 2.77686, 62.4185, 29.6506, 5.57739, 1.5163, 3.58218, -0.0557752, 2.70532e-05, -0.00151649, 0.00151772, 0.00260137, -0.0014086, 0.000758571, 0.0193185, -0.0147265, -0.001745, -0.0212206, 0.0787118, 0.0118728, 0.470923, -0.543039, 0.335925, -2.08347, -2.16578, -0.130135, 0.469352, -0.542841, 0.334476, -2.08361, -2.16476, -0.125743, -0.00368381, 0.0154923, 0.00146708, 0.0116538, -0.00270465, -0.00370514
0.0791482, 1.69207, -1.22718, -1.53932, -0.900289, -1.19432, 1.22873, -1.30257, 0.0313087, -0.00411772, -0.00336667, 0.00528835, -0.0711945, 0.0211895, 0.00082938, 2.81654, 62.4542, 29.7617, 5.57739, 1.5163, 3.6188, -0.0356336, 9.86064e-06, -0.00149471, 0.0015226, 0.00261728, -0.00149055, 0.000751069, 0.021147, -0.0148965, -0.00153212, -0.0196683, 0.0828911, 0.0108765, 0.470919, -0.543024, 0.335926, -2.08345, -2.16578, -0.130146, 0.469371, -0.542841, 0.33447, -2.08362, -2.16481, -0.125654, -0.00378258, 0.0159305, 0.0015138, 0.0117982, -0.0040971, -0.00373809
0.0801482, 1.69211, -1.22718, -1.53932, -0.900291, -1.19439, 1.22875, -1.30257, 0.0320989, -0.00281015, -0.00136417, 0.0031459, -0.0673985, 0.0293127, 0.000569474, 2.85224, 62.4542, 29.722, 5.6131, 1.5163, 3.64718, -0.0356336, -4.65455e-06, -0.00147225, 0.00152191, 0.00262589, -0.00157216, 0.000740303, 0.020164, -0.0181464, 0.000343682, -0.0100848, 0.0856652, 0.0163016, 0.470915, -0.543008, 0.335928, -2.08344, -2.16577, -0.130157, 0.46939, -0.542838, 0.334469, -2.08363, -2.16486, -0.125574, -0.00388232, 0.0163742, 0.00156132, 0.0149769, -0.00283869, -0.00178408
0.0811482, 1.69215, -1.22719, -1.53933, -0.900291, -1.19446, 1.22879, -1.30257, 0.0354754, -0.00368543, -0.00679329, 0.00243893, -0.0690691, 0.0307034, -8.26534e-05, 2.89191, 62.5296, 29.8371, 5.6131, 1.52179, 3.67557, -0.0228162, -2.34491e-05, -0.00145013, 0.00152928, 0.00264263, -0.00165279, 0.000734522, 0.0205965, -0.0194083, -0.00222103, -0.0153016, 0.0878545, 0.0180519, 0.470911, -0.542992, 0.335929, -2.08342, -2.16577, -0.130169, 0.469409, -0.542838, 0.33446, -2.08364, -2.1649, -0.125485, -0.00398302, 0.0168232, 0.00160966, 0.0160592, -0.0023689, -0.00437382
0.0821482, 1.69219, -1.22719, -1.53934, -0.900289, -1.19452, 1.22882, -1.30257, 0.039444, -0.00552387, -0.00798426, 0.0018822, -0.0672855, 0.031836, -0.00150385, 2.89191, 62.5296, 29.8371, 5.6131, 1.55932, 3.69754, 0.0165515, -3.92673e-05, -0.00142486, 0.0015304, 0.00265137, -0.00173849, 0.000719787, 0.0193146, -0.0220769, -0.00388559, -0.0155276, 0.0858615, 0.0242366, 0.470907, -0.542975, 0.335931, -2.0834, -2.16577, -0.13018, 0.46943, -0.542836, 0.334457, -2.08365, -2.16496, -0.125402, -0.00408468, 0.0172776, 0.00165881, 0.0185165, -0.000282314, -0.00584976
0.0831482, 1.69223, -1.2272, -1.53935, -0.90029, -1.19459, 1.22885, -1.30257, 0.0413997, -0.00396253, -0.00840252, 0.00144699, -0.0651045, 0.0383396, -0.00170766, 2.92762, 62.5296, 29.9482, 5.6131, 1.57764, 3.70395, 0.0357776, -5.69942e-05, -0.00139963, 0.00153508, 0.00266622, -0.00182763, 0.00070901, 0.0189668, -0.0246917, -0.00268366, -0.00956745, 0.0894703, 0.0275617, 0.470903, -0.542958, 0.335933, -2.08338, -2.16576, -0.130192, 0.469452, -0.542834, 0.334451, -2.08366, -2.16501, -0.125308, -0.00418727, 0.0177373, 0.00170878, 0.0210564, 0.000443051, -0.00463833
0.0841482, 1.69227, -1.2272, -1.53936, -0.900291, -1.19465, 1.22889, -1.30257, 0.0411896, -0.00684365, -0.00995832, 0.0011088, -0.0638217, 0.0333376, -0.000658486, 3.04267, 62.5653, 29.9839, 5.6131, 1.60785, 3.71127, 0.0229602, -7.70248e-05, -0.00137688, 0.00153902, 0.00267279, -0.0019109, 0.000709031, 0.0192506, -0.0237421, -0.00537748, -0.0150108, 0.0837004, 0.0266323, 0.470899, -0.54294, 0.335934, -2.08336, -2.16576, -0.130204, 0.469471, -0.542835, 0.334445, -2.08368, -2.16505, -0.125229, -0.00429078, 0.0182023, 0.00175956, 0.0199173, 0.00100483, -0.00726317
0.0851482, 1.69232, -1.22721, -1.53937, -0.900289, -1.19472, 1.22893, -1.30257, 0.0446811, -0.00674621, -0.0104544, 0.000847304, -0.0622504, 0.0347094, 0.00126036, 3.003, 62.6407, 29.9839, 5.6131, 1.62067, 3.71127, -0.0228162, -9.44513e-05, -0.00134873, 0.00154461, 0.00268015, -0.00199471, 0.000700126, 0.0180239, -0.0261864, -0.0055706, -0.0141367, 0.0838628, 0.0289834, 0.470895, -0.542922, 0.335936, -2.08334, -2.16576, -0.130217, 0.469495, -0.542832, 0.334437, -2.08369, -2.1651, -0.125149, -0.00439521, 0.0186725, 0.00181117, 0.022203, 0.00281666, -0.00728561
0.0861482, 1.69237, -1.22722, -1.53938, -0.900293, -1.19479, 1.22897, -1.30257, 0.0441042, -0.00481288, -0.0134075, -0.00018927, -0.0671624, 0.035788, 0.00155526, 2.96729, 62.6407, 30.095, 5.6488, 1.66919, 3.7186, -0.0420422, -0.000113493, -0.00132166, 0.00155347, 0.00270045, -0.00208506, 0.000691051, 0.0199697, -0.0252695, -0.00546836, -0.0182705, 0.0911236, 0.0262395, 0.47089, -0.542903, 0.335938, -2.08332, -2.16575, -0.13023, 0.469518, -0.54283, 0.334427, -2.08369, -2.16515, -0.125049, -0.00450054, 0.019148, 0.0018636, 0.0212556, 0.00131821, -0.00740778
0.0871482, 1.69242, -1.22722, -1.53939, -0.900289, -1.19486, 1.22901, -1.30257, 0.0434207, -0.000846681, -0.0120379, 0.000769847, -0.0691487, 0.0357128, 0.000801692, 2.92762, 62.5296, 30.0593, 5.6131, 1.6756, 3.73324, -0.0356336, -0.00013139, -0.00129292, 0.00155334, 0.00270565, -0.00218089, 0.000679623, 0.02077, -0.0246913, -0.00245984, -0.0171283, 0.0969848, 0.0257079, 0.470886, -0.542884, 0.33594, -2.0833, -2.16575, -0.130243, 0.469543, -0.542827, 0.334425, -2.08371, -2.16521, -0.12496, -0.00460676, 0.0196287, 0.00191686, 0.0207099, 0.000521051, -0.00449161
0.0881482, 1.69246, -1.22723, -1.53941, -0.900288, -1.19493, 1.22905, -1.30257, 0.0418212, -0.0024123, -0.0158809, 0.000558838, -0.0704439, 0.0367443, -0.000175958, 2.92762, 62.601, 30.095, 5.6131, 1.68201, 3.72592, -0.0164075, -0.000153593, -0.00126668, 0.00156279, 0.00271901, -0.00226822, 0.000674815, 0.0232193, -0.0233225, -0.00456803, -0.0201422, 0.0977351, 0.0233577, 0.470881, -0.542864, 0.335942, -2.08328, -2.16574, -0.130257, 0.469565, -0.542827, 0.334413, -2.08372, -2.16526, -0.124871, -0.00471385, 0.0201145, 0.00197095, 0.0192476, -0.00114147, -0.00685946
0.0891482, 1.69251, -1.22723, -1.53942, -0.90029, -1.195, 1.22909, -1.30257, 0.039302, -0.00712464, -0.0108976, -0.000428454, -0.0717181, 0.0366758, -0.00109941, 2.85224, 62.5653, 30.0593, 5.6488, 1.6875, 3.73324, 0.0101428, -0.000171953, -0.00123632, 0.0015667, 0.00272941, -0.00236493, 0.000658375, 0.0241929, -0.0230267, -0.00555551, -0.0168717, 0.0942585, 0.0250298, 0.470877, -0.542844, 0.335944, -2.08326, -2.16574, -0.13027, 0.469591, -0.542823, 0.334408, -2.08372, -2.16532, -0.124776, -0.00482181, 0.0206055, 0.00202587, 0.0188436, -0.00147087, -0.00792269
0.0901482, 1.69256, -1.22724, -1.53943, -0.90029, -1.19508, 1.22913, -1.30257, 0.0395057, -0.00661604, -0.00812421, -0.000259983, -0.0738275, 0.040593, -0.00195271, 2.81654, 62.4899, 30.0593, 5.6488, 1.71863, 3.76163, 0.0431018, -0.000193099, -0.00120876, 0.00157071, 0.00274157, -0.00246193, 0.000646892, 0.0248532, -0.0241528, -0.00388868, -0.0118906, 0.0987727, 0.0268794, 0.470872, -0.542823, 0.335946, -2.08324, -2.16574, -0.130285, 0.469615, -0.542821, 0.334401, -2.08373, -2.16538, -0.12468, -0.00493062, 0.0211016, 0.00208162, 0.0199437, -0.00183729, -0.00635865
0.0911482, 1.69261, -1.22724, -1.53944, -0.900288, -1.19515, 1.22917, -1.30257, 0.0438443, -0.00651017, -0.00909918, -0.000154081, -0.0745207, 0.040554, -8.04035e-05, 2.73719, 62.4185, 30.0593, 5.6488, 1.73053, 3.76163, 0.0101428, -0.000214186, -0.00117986, 0.00157512, 0.00275297, -0.00255854, 0.000638428, 0.0237906, -0.0263965, -0.00436186, -0.0136651, 0.100158, 0.028819, 0.470867, -0.542802, 0.335948, -2.08322, -2.16573, -0.130299, 0.469639, -0.542819, 0.334395, -2.08374, -2.16544, -0.124584, -0.00504026, 0.0216028, 0.00213822, 0.0220196, -0.000121306, -0.00667221
0.0921482, 1.69265, -1.22726, -1.53946, -0.900291, -1.19522, 1.22921, -1.30257, 0.0452517, -0.0116077, -0.0117313, 0.00138657, -0.0708005, 0.0401103, 0.00042164, 2.73719, 62.5653, 30.1346, 5.72418, 1.75525, 3.7543, -0.00267457, -0.000240202, -0.00115331, 0.00159063, 0.00276992, -0.00264386, 0.000634423, 0.0243798, -0.0268998, -0.00816769, -0.014494, 0.0924348, 0.0287581, 0.470862, -0.542781, 0.33595, -2.08319, -2.16573, -0.130314, 0.469661, -0.54282, 0.334377, -2.08375, -2.16548, -0.124494, -0.00515073, 0.022109, 0.00219565, 0.022295, 0.000412405, -0.01048
0.0931482, 1.6927, -1.22726, -1.53947, -0.900292, -1.1953, 1.22925, -1.30257, 0.0470108, -0.00736188, -0.0108596, 0.000277028, -0.0772316, 0.0396739, 0.00150219, 2.70148, 62.3828, 30.095, 5.76385, 1.78638, 3.7543, -0.0356336, -0.000262606, -0.00112491, 0.00159049, 0.00278007, -0.0027531, 0.000629532, 0.0244324, -0.0274996, -0.00561414, -0.017496, 0.102363, 0.0289017, 0.470857, -0.542759, 0.335952, -2.08317, -2.16572, -0.130329, 0.469685, -0.542818, 0.334375, -2.08377, -2.16554, -0.124388, -0.00526201, 0.0226203, 0.00225393, 0.0228775, 0.000502517, -0.00792743
0.0941482, 1.69275, -1.22727, -1.53948, -0.90029, -1.19537, 1.22929, -1.30257, 0.0503105, -0.00663181, -0.0104422, 0.000395183, -0.0719006, 0.0400767, 0.000527037, 2.58643, 62.4185, 30.0593, 5.76385, 1.78638, 3.74698, -0.0228162, -0.000284772, -0.00109468, 0.00159749, 0.00278763, -0.00284286, 0.000617376, 0.0223551, -0.0301534, -0.00513708, -0.0146446, 0.0995387, 0.0353323, 0.470851, -0.542736, 0.335954, -2.08315, -2.16572, -0.130344, 0.46971, -0.542815, 0.334366, -2.08378, -2.16559, -0.124305, -0.0053741, 0.0231366, 0.00231306, 0.0253584, 0.00310548, -0.00715458
0.0951482, 1.6928, -1.22726, -1.53951, -0.900297, -1.19544, 1.22934, -1.30257, 0.0494093, -0.00165404, -0.0127998, -0.00217713, -0.0778161, 0.0395922, 0.000351579, 2.47535, 62.2717, 30.1346, 5.87494, 1.79828, 3.74057, -0.0228162, -0.000307463, -0.00106462, 0.00160182, 0.00281138, -0.00295722, 0.000606627, 0.0236617, -0.0290542, -0.00336328, -0.0204928, 0.110014, 0.0340007, 0.470846, -0.542713, 0.335957, -2.08312, -2.16571, -0.13036, 0.469736, -0.542813, 0.33436, -2.08379, -2.16565, -0.12418, -0.00548698, 0.0236579, 0.00237303, 0.0242594, 0.00201804, -0.00551425
0.0961482, 1.69286, -1.22727, -1.53952, -0.900295, -1.19552, 1.22938, -1.30257, 0.0487554, -0.000674554, -0.0117011, -0.00133301, -0.0777244, 0.039464, -0.00169823, 2.3603, 62.2321, 30.095, 5.87494, 1.81659, 3.74057, 0.0293689, -0.000333149, -0.0010356, 0.0016071, 0.0028235, -0.00306161, 0.000598665, 0.0243818, -0.0287551, -0.00223, -0.0189699, 0.111243, 0.0355402, 0.470841, -0.542689, 0.335959, -2.0831, -2.16571, -0.130376, 0.46976, -0.542812, 0.334352, -2.0838, -2.16571, -0.124077, -0.00560063, 0.0241841, 0.00243385, 0.0239142, 0.00164643, -0.00443835
0.0971482, 1.69291, -1.22728, -1.53953, -0.900302, -1.1956, 1.22942, -1.30257, 0.0522443, -0.000824612, -0.0126218, -0.00339833, -0.0756902, 0.0446255, -0.00136939, 2.20954, 62.2321, 29.9839, 5.98602, 1.77997, 3.7186, 0.0357776, -0.00035423, -0.0010015, 0.00161318, 0.00283232, -0.00316213, 0.000580082, 0.0230959, -0.0322848, -0.00263687, -0.0158212, 0.1129, 0.0410561, 0.470835, -0.542665, 0.335962, -2.08307, -2.16571, -0.130393, 0.469789, -0.542807, 0.334344, -2.0838, -2.16578, -0.123984, -0.00571505, 0.0247152, 0.00249553, 0.027264, 0.00365575, -0.00468551
0.0981482, 1.69296, -1.22727, -1.53955, -0.900304, -1.19568, 1.22947, -1.30257, 0.0473026, -0.000557748, -0.0168206, -0.00396219, -0.0763335, 0.0432402, 0.000273964, 2.09846, 62.0853, 30.0236, 6.0614, 1.80469, 3.71127, 0.00373412, -0.00038119, -0.000974096, 0.00161649, 0.00285611, -0.0032799, 0.000580767, 0.0264984, -0.0286594, -0.00387692, -0.0204253, 0.113749, 0.0331298, 0.470829, -0.54264, 0.335964, -2.08305, -2.1657, -0.13041, 0.469811, -0.542807, 0.334338, -2.08383, -2.16583, -0.123855, -0.00583022, 0.0252512, 0.00255806, 0.0236059, 0.000875849, -0.00626863
0.0991482, 1.693, -1.22728, -1.53957, -0.900304, -1.19575, 1.22951, -1.30257, 0.0457606, -0.00260933, -0.0165641, -0.0025915, -0.0793876, 0.0420925, 0.000182712, 2.02308, 62.1606, 30.0593, 6.0614, 1.78638, 3.71127, 0.00373412, -0.000410667, -0.000947113, 0.00162727, 0.00287253, -0.00337736, 0.000576713, 0.0287619, -0.0271106, -0.00479136, -0.0218549, 0.11403, 0.0299786, 0.470823, -0.542615, 0.335967, -2.08302, -2.16569, -0.130427, 0.469833, -0.542808, 0.334325, -2.08384, -2.16588, -0.123755, -0.00594613, 0.0257921, 0.00262146, 0.0219918, -0.000739576, -0.00741486
0.100148, 1.69306, -1.22729, -1.53959, -0.900301, -1.19583, 1.22955, -1.30257, 0.0467619, -0.00126003, -0.0123986, -0.00169021, -0.0775971, 0.0416086, -0.000827575, 1.87232, 62.1249, 30.0593, 6.0614, 1.76807, 3.69021, 0.0293689, -0.000437431, -0.000916476, 0.00163086, 0.00288241, -0.00348598, 0.00056674, 0.0277369, -0.028391, -0.00246696, -0.0173583, 0.113926, 0.0341044, 0.470817, -0.542589, 0.335969, -2.08299, -2.16569, -0.130444, 0.469859, -0.542807, 0.334319, -2.08385, -2.16594, -0.123653, -0.00606278, 0.0263379, 0.00268571, 0.0232016, 0.000511785, -0.0049355
0.101148, 1.69311, -1.22729, -1.5396, -0.900306, -1.19591, 1.2296, -1.30257, 0.0497257, -0.00194201, -0.0106576, -0.00286194, -0.0825899, 0.0418106, 0.000906385, 1.75727, 62.1606, 29.9839, 6.13678, 1.79187, 3.66092, -0.00999879, -0.000465354, -0.000885532, 0.00163772, 0.00289518, -0.00359595, 0.000565314, 0.0273402, -0.0302077, -0.00252079, -0.0189955, 0.118109, 0.0358515, 0.470811, -0.542563, 0.335972, -2.08296, -2.16568, -0.130462, 0.469884, -0.542806, 0.334309, -2.08387, -2.166, -0.123545, -0.00618014, 0.0268884, 0.00275083, 0.0248826, 0.0015378, -0.00491752
0.102148, 1.69316, -1.22729, -1.53962, -0.900316, -1.19599, 1.22965, -1.30256, 0.0528131, 0.000268484, -0.011291, -0.00532056, -0.0803175, 0.0462996, 0.000604286, 1.60651, 62.0853, 29.9839, 6.28357, 1.77997, 3.63254, -0.00999879, -0.000489544, -0.000852033, 0.00163995, 0.00291012, -0.00371363, 0.000550446, 0.0257409, -0.0335145, -0.00152983, -0.015987, 0.121616, 0.0421317, 0.470805, -0.542536, 0.335975, -2.08294, -2.16568, -0.13048, 0.469912, -0.542801, 0.334305, -2.08388, -2.16607, -0.123429, -0.0062982, 0.0274437, 0.00281681, 0.0280454, 0.00365556, -0.00372475
0.103148, 1.69321, -1.22729, -1.53963, -0.900319, -1.19607, 1.22969, -1.30257, 0.0548573, -0.00089909, -0.0121669, -0.00445926, -0.0835088, 0.0398621, -0.000580465, 1.45576, 62.1249, 29.8728, 6.32324, 1.77356, 3.6188, 0.0165515, -0.000516895, -0.000819846, 0.00164312, 0.00292097, -0.00382833, 0.000537621, 0.0259101, -0.0328957, -0.00305019, -0.0237844, 0.120523, 0.043453, 0.470799, -0.542509, 0.335978, -2.08291, -2.16567, -0.130499, 0.469939, -0.542798, 0.334299, -2.08389, -2.16614, -0.12332, -0.00641697, 0.0280038, 0.00288366, 0.0272598, 0.00425882, -0.00516742
0.104148, 1.69326, -1.2273, -1.53965, -0.900319, -1.19616, 1.22973, -1.30257, 0.0526838, -0.00238237, -0.0157281, -0.0037962, -0.0814994, 0.045047, -0.000149601, 1.34071, 62.1964, 29.8728, 6.35895, 1.76807, 3.60415, 0.0101428, -0.000548222, -0.000789933, 0.00165118, 0.00293895, -0.00394163, 0.000532364, 0.0286659, -0.0321993, -0.00449583, -0.0208766, 0.120669, 0.0396535, 0.470793, -0.542481, 0.33598, -2.08288, -2.16567, -0.130518, 0.469963, -0.542799, 0.334289, -2.0839, -2.1662, -0.123204, -0.00653641, 0.0285686, 0.00295138, 0.026492, 0.002299, -0.00693674
0.105148, 1.69331, -1.22729, -1.53967, -0.900335, -1.19624, 1.22978, -1.30257, 0.0476884, 0.00176102, -0.0190248, -0.0068836, -0.0841787, 0.0436358, -0.00104916, 1.22962, 62.0496, 29.9085, 6.54541, 1.75525, 3.58951, 0.0357776, -0.000575485, -0.000758822, 0.0016515, 0.00296276, -0.00407346, 0.000515845, 0.0312258, -0.0289663, -0.00348247, -0.0265168, 0.127227, 0.0361246, 0.470786, -0.542452, 0.335983, -2.08285, -2.16566, -0.130537, 0.469989, -0.542796, 0.334286, -2.08391, -2.16627, -0.123065, -0.00665653, 0.0291381, 0.00301998, 0.0232727, 5.18183e-05, -0.00617013
0.106148, 1.69336, -1.22729, -1.53967, -0.900337, -1.19632, 1.22982, -1.30257, 0.0489047, 0.0011107, -0.0171699, -0.0117484, -0.0854062, 0.0425692, 0.000250007, 1.03919, 62.0496, 29.7617, 6.58508, 1.72504, 3.58218, 0.0101428, -0.000601698, -0.000724832, 0.00165072, 0.00297032, -0.00419053, 0.000507315, 0.0296307, -0.0308424, -0.00401314, -0.0288747, 0.128014, 0.0411374, 0.470779, -0.542423, 0.335986, -2.08282, -2.16566, -0.130557, 0.470017, -0.542791, 0.334285, -2.08392, -2.16634, -0.122959, -0.0067773, 0.0297122, 0.00308945, 0.0249489, 0.00236074, -0.00643351
0.107148, 1.69341, -1.2273, -1.53969, -0.900342, -1.19641, 1.22986, -1.30257, 0.0511143, -0.00107025, -0.0161807, -0.00918231, -0.0820918, 0.0422361, 0.00115002, 0.928108, 62.1249, 29.7617, 6.62079, 1.70032, 3.56112, -0.0164075, -0.000634554, -0.000695229, 0.00165749, 0.00298914, -0.00430894, 0.000504781, 0.0293047, -0.0321354, -0.00471256, -0.0260018, 0.123353, 0.042155, 0.470773, -0.542393, 0.335989, -2.08278, -2.16565, -0.130577, 0.470041, -0.542792, 0.334275, -2.08394, -2.1664, -0.122838, -0.00689872, 0.030291, 0.0031598, 0.0260817, 0.00342381, -0.00704299
0.108148, 1.69347, -1.2273, -1.5397, -0.900348, -1.1965, 1.22991, -1.30257, 0.0538518, -0.000749108, -0.0155105, -0.0082709, -0.0847589, 0.0413675, 0.000258061, 0.777352, 62.1249, 29.7617, 6.69617, 1.68201, 3.54648, -0.00267457, -0.000665012, -0.000662891, 0.00165956, 0.00300464, -0.00443471, 0.000496575, 0.0292165, -0.0332215, -0.00435056, -0.027312, 0.126008, 0.0447372, 0.470766, -0.542363, 0.335993, -2.08275, -2.16564, -0.130597, 0.470067, -0.54279, 0.33427, -2.08396, -2.16646, -0.122714, -0.00702078, 0.0308744, 0.00323103, 0.0270546, 0.00408387, -0.00663457
0.109148, 1.69351, -1.22729, -1.53971, -0.90035, -1.19659, 1.22994, -1.30256, 0.0546819, 0.00123712, -0.0123244, -0.00580352, -0.0868443, 0.035679, 0.000443312, 0.6623, 62.0496, 29.6506, 6.69617, 1.66369, 3.5538, -0.00999879, -0.000695845, -0.000633514, 0.00165677, 0.00302058, -0.00456153, 0.000492698, 0.0291455, -0.0324857, -0.00222503, -0.0291626, 0.127103, 0.0443528, 0.470759, -0.542332, 0.335996, -2.08272, -2.16564, -0.130618, 0.470091, -0.542788, 0.334271, -2.08398, -2.16653, -0.122589, -0.00714347, 0.0314625, 0.00330314, 0.0262722, 0.00438298, -0.00443163
0.110148, 1.69356, -1.22729, -1.53972, -0.900358, -1.19668, 1.22999, -1.30257, 0.0523405, -0.00388276, -0.0116706, -0.00668467, -0.0931322, 0.0367365, -0.000925159, 0.551216, 61.9742, 29.611, 6.80725, 1.65088, 3.53915, 0.0229602, -0.000728641, -0.000603724, 0.00165535, 0.00303797, -0.00469616, 0.000483775, 0.0322254, -0.0311628, -0.00487615, -0.0310274, 0.128263, 0.0428609, 0.470751, -0.542301, 0.335999, -2.08269, -2.16563, -0.130639, 0.470115, -0.542788, 0.334269, -2.08399, -2.1666, -0.122455, -0.00726676, 0.032055, 0.00337613, 0.0248428, 0.00229213, -0.00741801
0.111148, 1.69362, -1.22729, -1.53974, -0.900359, -1.19678, 1.23003, -1.30257, 0.0532058, -0.00314109, -0.0147811, -0.00461934, -0.0931358, 0.04185, -0.00183747, 0.325081, 61.9742, 29.722, 6.80725, 1.64447, 3.53915, 0.0559192, -0.000763476, -0.000572354, 0.00165924, 0.00306277, -0.00483012, 0.000478346, 0.0341668, -0.0316612, -0.00482261, -0.0283336, 0.132213, 0.0416955, 0.470744, -0.542268, 0.336003, -2.08265, -2.16562, -0.13066, 0.47014, -0.542789, 0.334263, -2.08401, -2.16666, -0.122313, -0.00739066, 0.0326521, 0.00345001, 0.0252892, 0.000985991, -0.00761092
0.112148, 1.69367, -1.22728, -1.53974, -0.900367, -1.19687, 1.23007, -1.30257, 0.0534808, -0.00167328, -0.0116315, -0.00580019, -0.0981861, 0.0466127, -0.000750263, 0.245735, 61.9385, 29.611, 6.91833, 1.63898, 3.53274, 0.0431018, -0.000797306, -0.000542388, 0.00165726, 0.00307758, -0.00496434, 0.000470685, 0.0350015, -0.033014, -0.00256927, -0.0241931, 0.140713, 0.0420955, 0.470737, -0.542236, 0.336006, -2.08262, -2.16562, -0.130682, 0.470164, -0.542788, 0.334262, -2.08403, -2.16674, -0.122183, -0.00751515, 0.0332538, 0.00352478, 0.0266284, 0.000471402, -0.0054843
0.113148, 1.69372, -1.22728, -1.53975, -0.900369, -1.19697, 1.23011, -1.30257, 0.0522846, -0.00142635, -0.00892256, -0.00488644, -0.0967354, 0.0395492, 0.000245811, 0.0949785, 61.9385, 29.611, 6.95801, 1.62616, 3.53274, 0.0229602, -0.000831348, -0.000509917, 0.00165845, 0.00309458, -0.00509635, 0.000468894, 0.0348101, -0.0315837, -0.00187026, -0.0265756, 0.136619, 0.0412491, 0.470729, -0.542203, 0.33601, -2.08258, -2.16561, -0.130704, 0.47019, -0.542787, 0.334258, -2.08405, -2.1668, -0.122053, -0.00764022, 0.0338599, 0.00360044, 0.0250939, 0.00109956, -0.00464649
0.114148, 1.69377, -1.22728, -1.53976, -0.900374, -1.19707, 1.23015, -1.30256, 0.0544659, -0.000348801, -0.00995311, -0.00416157, -0.0963113, 0.039781, 0.00138458, -0.0557783, 61.9028, 29.611, 6.99371, 1.63257, 3.5181, -0.00999879, -0.000866041, -0.000478033, 0.00165815, 0.0031128, -0.00523268, 0.000467549, 0.0347267, -0.0326377, -0.00156876, -0.026904, 0.138177, 0.0416326, 0.470722, -0.542169, 0.336013, -2.08255, -2.1656, -0.130727, 0.470215, -0.542786, 0.334255, -2.08407, -2.16686, -0.121917, -0.00776586, 0.0344704, 0.00367699, 0.0260292, 0.00179008, -0.0042926
0.115148, 1.69382, -1.22728, -1.53977, -0.90038, -1.19716, 1.23019, -1.30256, 0.0552867, 0.000427843, -0.00999817, -0.00458916, -0.0960582, 0.0392335, 0.00139777, -0.166862, 61.8671, 29.5752, 7.06909, 1.63898, 3.5181, -0.0228162, -0.000902174, -0.000447854, 0.00165713, 0.00313224, -0.00537077, 0.000465436, 0.0346869, -0.0332035, -0.00125178, -0.0274905, 0.139187, 0.0432285, 0.470714, -0.542134, 0.336017, -2.08251, -2.16559, -0.13075, 0.470239, -0.542786, 0.334253, -2.08409, -2.16693, -0.121779, -0.00789206, 0.0350854, 0.00375444, 0.0264785, 0.0024194, -0.00391454
0.116148, 1.69382, -1.22728, -1.53977, -0.90038, -1.19716, 1.23019, -1.30256, 0.0552867, 0.000427843, -0.00999817, -0.00458916, -0.0960582, 0.0392335, 0.00139777, -0.166862, 61.8671, 29.5752, 7.06909, 1.63898, 3.5181, -0.0228162, -0.000937726, -0.000441309, 0.00165508, 0.00312222, -0.00540337, 0.000479411, 0.0353156, -0.0333063, -0.00122697, -0.027422, 0.139835, 0.0436029, 0.470706, -0.542099, 0.336021, -2.08248, -2.16559, -0.130773, 0.470239, -0.542786, 0.334253, -2.08409, -2.16693, -0.121779, -0.0080188, 0.0357048, 0.00383279, 0.0264785, 0.0024194, -0.00391454
0.117148, 1.69392, -1.22727, -1.53978, -0.900383, -1.19737, 1.23027, -1.30257, 0.0517764, 0.00201509, -0.0081227, -0.00357922, -0.100223, 0.0346313, -0.000678591, -0.43267, 61.756, 29.5395, 7.14447, 1.65088, 3.50345, 0.0165515, -0.000978343, -0.000388746, 0.00165217, 0.0031704, -0.0056541, 0.000461354, 0.0376114, -0.0302033, 0.000328892, -0.0304897, 0.142883, 0.0411756, 0.470698, -0.542063, 0.336024, -2.08244, -2.16558, -0.130797, 0.470285, -0.542789, 0.334252, -2.08414, -2.16706, -0.121496, -0.00814607, 0.0363285, 0.00391203, 0.0233928, 0.00040772, -0.00256555
0.118148, 1.69398, -1.22727, -1.53979, -0.900388, -1.19747, 1.23031, -1.30257, 0.0500161, 0.000434417, -0.00529074, -0.00407833, -0.098763, 0.0354701, -0.00116447, -0.543754, 61.7917, 29.4999, 7.21588, 1.65088, 3.49612, 0.0357776, -0.00101654, -0.000357627, 0.00165378, 0.0031904, -0.00579003, 0.000455583, 0.0382389, -0.0302773, 0.000523664, -0.0266291, 0.140986, 0.0426204, 0.47069, -0.542027, 0.336028, -2.0824, -2.16557, -0.130821, 0.470309, -0.542789, 0.334247, -2.08415, -2.16713, -0.121361, -0.00827387, 0.0369566, 0.00399218, 0.0233692, 0.000390067, -0.00239507
0.119148, 1.69403, -1.22728, -1.53979, -0.900387, -1.19758, 1.23034, -1.30257, 0.0528853, -0.000600927, -0.00727064, -0.00189997, -0.102407, 0.0363734, -0.0015223, -0.694511, 61.8274, 29.4999, 7.18018, 1.65729, 3.48971, 0.0559192, -0.00105642, -0.000327388, 0.00165445, 0.00321047, -0.00592744, 0.000453616, 0.0395753, -0.0309296, -0.000524329, -0.0286938, 0.144081, 0.0421436, 0.470682, -0.54199, 0.336032, -2.08236, -2.16556, -0.130845, 0.470333, -0.54279, 0.334244, -2.08417, -2.1672, -0.121224, -0.00840218, 0.0375891, 0.00407323, 0.023903, -0.000106148, -0.00357917
0.120148, 1.69408, -1.22727, -1.5398, -0.900388, -1.19768, 1.23038, -1.30257, 0.0550746, 0.00215635, -0.00648889, -0.0021141, -0.100473, 0.0324452, -0.000777507, -0.845268, 61.7163, 29.5395, 7.21588, 1.66369, 3.47507, 0.0495105, -0.00109596, -0.000297466, 0.00165045, 0.00323194, -0.00607412, 0.000454979, 0.03797, -0.0318979, 0.000907517, -0.0306438, 0.144005, 0.0450889, 0.470673, -0.541953, 0.336036, -2.08232, -2.16556, -0.13087, 0.470356, -0.54279, 0.334245, -2.0842, -2.16726, -0.121076, -0.008531, 0.0382258, 0.00415518, 0.0247358, 0.00193369, -0.00186352
0.121148, 1.69413, -1.22727, -1.5398, -0.90039, -1.19778, 1.23041, -1.30257, 0.0557425, 0.00224166, -0.00309801, -0.00141857, -0.0992537, 0.0342631, 0.000465007, -0.960319, 61.6806, 29.4642, 7.21588, 1.6756, 3.46774, 0.0229602, -0.00113566, -0.000266786, 0.00164692, 0.00324945, -0.00621756, 0.000456194, 0.0377602, -0.0332896, 0.00240376, -0.0252103, 0.144398, 0.0463203, 0.470665, -0.541914, 0.33604, -2.08228, -2.16555, -0.130895, 0.470379, -0.542791, 0.334245, -2.08422, -2.16733, -0.120936, -0.0086603, 0.0388668, 0.00423804, 0.0260439, 0.00260806, -0.000314702
0.122148, 1.69418, -1.22726, -1.53981, -0.900399, -1.19789, 1.23044, -1.30256, 0.0521975, 0.00230632, -0.00635149, -0.00364385, -0.0978142, 0.0310833, 0.00153071, -1.0357, 61.6449, 29.4999, 7.33093, 1.6756, 3.45309, -0.00999879, -0.00117627, -0.000237317, 0.00164644, 0.00327809, -0.00636342, 0.00045781, 0.0393885, -0.0309066, 0.00091399, -0.0305693, 0.142685, 0.0430017, 0.470656, -0.541875, 0.336045, -2.08224, -2.16554, -0.130921, 0.470401, -0.542791, 0.334242, -2.08424, -2.16739, -0.120781, -0.00879009, 0.039512, 0.00432181, 0.0235395, 0.00177914, -0.00188573
0.123148, 1.69424, -1.22725, -1.53981, -0.900396, -1.198, 1.23048, -1.30257, 0.0536989, 0.00495372, -0.00478957, -0.00150637, -0.102421, 0.0327984, -0.000674949, -1.15075, 61.4981, 29.4999, 7.29126, 1.70032, 3.44668, 0.0357776, -0.00121623, -0.000206157, 0.00163682, 0.00329443, -0.00651737, 0.000452611, 0.0405253, -0.0313991, 0.00342787, -0.0287706, 0.150378, 0.0443723, 0.470647, -0.541836, 0.336049, -2.0822, -2.16553, -0.130947, 0.470426, -0.542791, 0.334249, -2.08427, -2.16747, -0.120634, -0.00892034, 0.0401615, 0.0044065, 0.0240349, 0.000937293, 0.000485804
0.124148, 1.69429, -1.22725, -1.53982, -0.900404, -1.19811, 1.23051, -1.30257, 0.0539065, 0.00328935, -0.0045375, -0.00369938, -0.100786, 0.0342557, -0.000721233, -1.22613, 61.4981, 29.5395, 7.40631, 1.71863, 3.44668, 0.0431018, -0.00125792, -0.00017636, 0.00163705, 0.00332418, -0.00666297, 0.000449649, 0.0403773, -0.0326387, 0.00237327, -0.0276503, 0.148967, 0.0476418, 0.470638, -0.541796, 0.336053, -2.08216, -2.16552, -0.130973, 0.470448, -0.54279, 0.334246, -2.08428, -2.16753, -0.12048, -0.00905105, 0.0408151, 0.00449209, 0.0250987, 0.0019531, -0.000486072
0.125148, 1.69434, -1.22724, -1.53981, -0.900403, -1.19821, 1.23054, -1.30257, 0.0514361, 0.00394629, -0.00478356, -0.00154113, -0.0991493, 0.0304596, 0.00097724, -1.30151, 61.4227, 29.4642, 7.36664, 1.71863, 3.44668, 0.00373412, -0.00129988, -0.000147611, 0.00163047, 0.00333815, -0.00680392, 0.000455399, 0.0420545, -0.0303077, 0.00279342, -0.0288556, 0.146836, 0.0424066, 0.470629, -0.541755, 0.336058, -2.08212, -2.16551, -0.131, 0.470469, -0.542791, 0.334249, -2.08431, -2.16759, -0.120347, -0.00918221, 0.0414729, 0.0045786, 0.0227166, 0.000793996, -0.000178458
0.126148, 1.69438, -1.22724, -1.53982, -0.900407, -1.19831, 1.23056, -1.30256, 0.051599, 0.00522193, -0.00452596, -0.00195762, -0.0989247, 0.0279971, 0.00116012, -1.33721, 61.3116, 29.4999, 7.40631, 1.74884, 3.43204, -0.00999879, -0.00134308, -0.000120129, 0.00162436, 0.00335987, -0.00695071, 0.000459481, 0.0420555, -0.0301952, 0.00337773, -0.0306906, 0.147419, 0.0433086, 0.47062, -0.541714, 0.336063, -2.08207, -2.1655, -0.131027, 0.470489, -0.542792, 0.334252, -2.08433, -2.16765, -0.120201, -0.00931381, 0.0421348, 0.00466602, 0.0224948, 0.0013601, 0.000487123
0.127148, 1.69444, -1.22723, -1.53982, -0.900407, -1.19842, 1.23059, -1.30257, 0.0513111, 0.00514619, -0.0043216, -0.00130671, -0.102294, 0.0313343, 2.74278e-05, -1.48797, 61.2402, 29.5395, 7.40631, 1.74884, 3.41739, 0.0101428, -0.00138479, -8.82547e-05, 0.0016201, 0.0033807, -0.00709628, 0.000454891, 0.044028, -0.0302633, 0.00383712, -0.0287482, 0.152368, 0.0429696, 0.470611, -0.541671, 0.336067, -2.08203, -2.16549, -0.131055, 0.470514, -0.54279, 0.334253, -2.08435, -2.16772, -0.120058, -0.00944583, 0.0428008, 0.00475437, 0.02252, 1.15166e-05, 0.000715648
0.128148, 1.69449, -1.22723, -1.53982, -0.900412, -1.19852, 1.23062, -1.30257, 0.0499844, 0.00342664, -0.00316327, -0.0025428, -0.105135, 0.0323513, 0.000255644, -1.60302, 61.2402, 29.5395, 7.47772, 1.75525, 3.43204, 0.00373412, -0.00142686, -5.809e-05, 0.00161882, 0.00340538, -0.0072336, 0.00045199, 0.0455193, -0.0300039, 0.00325354, -0.0286103, 0.154175, 0.0425551, 0.470601, -0.541629, 0.336072, -2.08198, -2.16548, -0.131083, 0.470536, -0.542788, 0.334252, -2.08436, -2.16778, -0.11992, -0.00957827, 0.043471, 0.00484363, 0.0221622, -0.000709547, 7.76833e-07
0.129148, 1.69453, -1.22723, -1.53982, -0.900407, -1.19863, 1.23064, -1.30257, 0.0494514, 0.00228131, -0.00139248, -2.56838e-05, -0.103083, 0.0300821, -0.00128763, -1.60302, 61.2402, 29.4999, 7.40631, 1.78638, 3.40365, 0.0431018, -0.00147642, -3.31881e-05, 0.00161446, 0.00342075, -0.00737644, 0.000460039, 0.0462844, -0.0293969, 0.00340583, -0.0268198, 0.15057, 0.0433108, 0.470592, -0.541585, 0.336077, -2.08194, -2.16548, -0.131111, 0.470553, -0.542793, 0.334252, -2.08439, -2.16784, -0.119785, -0.00971111, 0.0441452, 0.00493382, 0.0214573, -0.000838731, 0.000137638
0.130148, 1.69458, -1.22722, -1.53981, -0.90041, -1.19873, 1.23067, -1.30257, 0.0487872, 0.00411699, -0.000251845, -0.000853029, -0.100864, 0.0329068, -0.00133314, -1.7141, 61.1292, 29.4642, 7.44202, 1.78638, 3.38901, 0.0559192, -0.00151967, -2.89305e-06, 0.00160712, 0.00343891, -0.00752294, 0.000456953, 0.0464628, -0.0302514, 0.0050808, -0.0223742, 0.152656, 0.0450896, 0.470582, -0.541541, 0.336082, -2.08189, -2.16547, -0.13114, 0.470576, -0.542791, 0.334257, -2.0844, -2.16791, -0.119646, -0.00984435, 0.0448234, 0.00502493, 0.0222461, -0.000560799, 0.00182589
0.131148, 1.69463, -1.22723, -1.53982, -0.90041, -1.19884, 1.23069, -1.30257, 0.0483199, 0.00107247, -0.00205019, -0.000569203, -0.100402, 0.0294827, 0.000569302, -1.82915, 61.2006, 29.5395, 7.44202, 1.823, 3.38168, 0.0165515, -0.00156725, 2.53289e-05, 0.00161017, 0.00347049, -0.00766092, 0.000465988, 0.0476654, -0.029196, 0.00243843, -0.0266646, 0.148341, 0.0422156, 0.470572, -0.541496, 0.336087, -2.08185, -2.16546, -0.131169, 0.470595, -0.542791, 0.334251, -2.08442, -2.16796, -0.119499, -0.00997797, 0.0455056, 0.00511696, 0.0210061, -0.000697525, -0.000849245
0.132148, 1.69468, -1.22723, -1.53982, -0.90041, -1.19894, 1.23071, -1.30257, 0.0499734, 0.00154889, -0.00145608, -0.000379856, -0.0983468, 0.0272067, 0.000379535, -1.90453, 61.1649, 29.5395, 7.44202, 1.81659, 3.37436, 0.0165515, -0.00161447, 5.31931e-05, 0.00160648, 0.00349062, -0.00780167, 0.000470441, 0.0468708, -0.0301009, 0.00268735, -0.0271957, 0.146713, 0.0452277, 0.470562, -0.541451, 0.336092, -2.0818, -2.16545, -0.131199, 0.470615, -0.542792, 0.334251, -2.08444, -2.16801, -0.119363, -0.010112, 0.0461918, 0.00520992, 0.0217568, 0.000772727, -0.000415784
0.133148, 1.69474, -1.22723, -1.53981, -0.90041, -1.19904, 1.23074, -1.30257, 0.0539625, 0.000196387, 0.00165357, -0.000253528, -0.0978162, 0.0257766, 0.000727741, -2.091, 61.2006, 29.4245, 7.44202, 1.82941, 3.3533, 0.00373412, -0.00165871, 8.6101e-05, 0.00160332, 0.00350801, -0.00794102, 0.00046689, 0.0450604, -0.0327928, 0.00269265, -0.0260398, 0.14485, 0.0507992, 0.470552, -0.541404, 0.336097, -2.08175, -2.16543, -0.131229, 0.47064, -0.542788, 0.334251, -2.08445, -2.16808, -0.119233, -0.0102463, 0.0468819, 0.00530381, 0.0242456, 0.00336204, -0.000116945
0.134148, 1.69478, -1.22723, -1.53982, -0.900408, -1.19915, 1.23076, -1.30257, 0.0522851, 0.000130185, -0.000711087, -0.000169236, -0.0971752, 0.0251267, 0.00072252, -2.091, 61.2006, 29.4999, 7.44202, 1.84131, 3.324, -0.00267457, -0.00171436, 0.000108151, 0.00160324, 0.00353099, -0.00808374, 0.000486542, 0.0468417, -0.0314767, 0.00188413, -0.0279884, 0.14475, 0.0485597, 0.470542, -0.541358, 0.336102, -2.0817, -2.16542, -0.131259, 0.470653, -0.542795, 0.334247, -2.08448, -2.16812, -0.119091, -0.010381, 0.047576, 0.00539863, 0.0228327, 0.00237001, -0.00106214
0.135148, 1.69482, -1.22722, -1.53981, -0.900414, -1.19925, 1.23078, -1.30257, 0.0496625, 0.00175667, 0.00032349, -0.00187623, -0.10054, 0.0285043, -0.000705115, -2.16637, 61.1292, 29.4642, 7.51739, 1.823, 3.324, 0.0293689, -0.00176151, 0.000136507, 0.00159741, 0.00355488, -0.00823069, 0.000483344, 0.0488544, -0.0308864, 0.0034393, -0.0258847, 0.151517, 0.0486552, 0.470531, -0.54131, 0.336108, -2.08165, -2.16541, -0.13129, 0.470673, -0.542794, 0.33425, -2.08449, -2.16819, -0.118946, -0.0105161, 0.048274, 0.00549438, 0.0222395, 0.000815519, 0.000268087
0.136148, 1.69486, -1.22722, -1.53982, -0.900417, -1.19936, 1.2308, -1.30257, 0.0502638, 0.00200592, -0.00064781, -0.00208616, -0.103428, 0.0261482, -0.000232718, -2.20605, 61.0934, 29.4999, 7.5531, 1.823, 3.31759, 0.0229602, -0.00181379, 0.000160155, 0.00159491, 0.00358462, -0.00837489, 0.000495086, 0.049744, -0.0304466, 0.00300339, -0.030193, 0.153796, 0.0479238, 0.470521, -0.541262, 0.336113, -2.0816, -2.1654, -0.131321, 0.470688, -0.542796, 0.334249, -2.08451, -2.16823, -0.118797, -0.0106515, 0.0489759, 0.00559107, 0.0216822, 0.000689878, -0.000194424
0.137148, 1.69491, -1.22722, -1.53982, -0.90042, -1.19946, 1.23082, -1.30257, 0.0471264, 0.00133697, -0.000453063, -0.00231888, -0.10512, 0.0254144, -0.00090113, -2.3568, 61.0934, 29.4999, 7.59277, 1.81018, 3.2883, 0.0431018, -0.00186444, 0.000188238, 0.00159303, 0.00360845, -0.00851789, 0.00049735, 0.0520681, -0.0285663, 0.00277605, -0.031036, 0.154788, 0.0456444, 0.47051, -0.541213, 0.336119, -2.08155, -2.16539, -0.131353, 0.470708, -0.542797, 0.334248, -2.08452, -2.16829, -0.118657, -0.0107872, 0.0496816, 0.00568869, 0.0197462, -0.000940477, -0.000631708
0.138148, 1.69496, -1.22722, -1.53982, -0.900422, -1.19956, 1.23084, -1.30257, 0.0459629, 0.00265431, -0.000317934, -0.00154599, -0.102539, 0.0238596, -0.000329486, -2.43218, 61.0181, 29.4999, 7.59277, 1.80469, 3.28097, 0.0357776, -0.00191543, 0.00021441, 0.00158831, 0.00363423, -0.00866222, 0.000504833, 0.0527099, -0.0278537, 0.00365047, -0.0303071, 0.153832, 0.04455, 0.470499, -0.541163, 0.336125, -2.0815, -2.16538, -0.131385, 0.470725, -0.542797, 0.334249, -2.08454, -2.16834, -0.118513, -0.0109232, 0.0503911, 0.00578725, 0.0189551, -0.00102964, 0.000248112
0.139148, 1.695, -1.22722, -1.53982, -0.900428, -1.19966, 1.23086, -1.30257, 0.045181, 0.00176937, -0.000223875, -0.00270115, -0.0992633, 0.0233238, 0.000967137, -2.50756, 61.0181, 29.4999, 7.66418, 1.77356, 3.25992, 0.00373412, -0.00196723, 0.000240445, 0.00158699, 0.003659, -0.00879918, 0.000513785, 0.0528003, -0.0280859, 0.00301243, -0.0295604, 0.150807, 0.0450589, 0.470489, -0.541113, 0.33613, -2.08145, -2.16537, -0.131418, 0.470742, -0.542796, 0.334247, -2.08455, -2.16839, -0.118378, -0.0110595, 0.0511045, 0.00588674, 0.0190314, -0.000295363, -0.000306309
0.140148, 1.69504, -1.22721, -1.53981, -0.900428, -1.19976, 1.23087, -1.30257, 0.0445277, 0.00461312, 0.00160505, -0.000965587, -0.0972283, 0.0228006, 0.00017004, -2.58294, 60.8713, 29.4245, 7.62848, 1.74884, 3.23886, 0.0165515, -0.00201934, 0.000265503, 0.00157723, 0.00368014, -0.00894738, 0.000521099, 0.0532238, -0.0278427, 0.0055831, -0.0262006, 0.152152, 0.0455989, 0.470477, -0.541062, 0.336136, -2.0814, -2.16536, -0.13145, 0.470758, -0.542797, 0.334253, -2.08457, -2.16845, -0.118236, -0.0111962, 0.0518216, 0.00598718, 0.0187631, -0.000406542, 0.00226951
0.141148, 1.69508, -1.22721, -1.53981, -0.900431, -1.19987, 1.23088, -1.30257, 0.0434911, 0.00307531, 0.000135308, -0.000643753, -0.0969613, 0.0174788, -0.0013447, -2.62261, 60.8713, 29.4642, 7.62848, 1.75525, 3.22421, 0.0559192, -0.0020748, 0.000289409, 0.00157581, 0.00370772, -0.00908821, 0.000528167, 0.0543628, -0.0261212, 0.00381025, -0.0317107, 0.148542, 0.0456106, 0.470466, -0.54101, 0.336142, -2.08134, -2.16535, -0.131484, 0.470773, -0.542799, 0.334251, -2.08458, -2.1685, -0.118096, -0.0113331, 0.0525425, 0.00608855, 0.0168844, -0.00060446, 0.000491516
0.142148, 1.69512, -1.22721, -1.53981, -0.900439, -1.19997, 1.2309, -1.30257, 0.0424105, 0.00205014, 0.0010132, -0.00533196, -0.095683, 0.0187112, 0.000798953, -2.65832, 60.8713, 29.4245, 7.70386, 1.74335, 3.20224, 0.0101428, -0.00212883, 0.000314082, 0.00157369, 0.00373372, -0.0092267, 0.000539529, 0.0539782, -0.0272176, 0.00305044, -0.0312981, 0.148155, 0.0477973, 0.470455, -0.540957, 0.336148, -2.08129, -2.16533, -0.131518, 0.470789, -0.542799, 0.33425, -2.0846, -2.16854, -0.117959, -0.0114702, 0.0532671, 0.00619087, 0.0178011, 0.000665228, -0.000132168
0.143148, 1.69516, -1.2272, -1.53981, -0.900445, -1.20006, 1.23091, -1.30257, 0.0395756, 0.0013667, 0.00150691, -0.00781822, -0.095421, 0.0182826, -0.0004168, -2.7337, 60.8713, 29.3888, 7.73956, 1.74335, 3.20956, 0.0357776, -0.00218295, 0.000338448, 0.00157147, 0.00376355, -0.00936411, 0.000544103, 0.0551075, -0.0263421, 0.00261173, -0.0318139, 0.147889, 0.0491428, 0.470443, -0.540904, 0.336154, -2.08123, -2.16532, -0.131552, 0.470804, -0.542799, 0.334249, -2.0846, -2.16859, -0.11782, -0.0116077, 0.0539954, 0.00629413, 0.0168155, 0.000311737, -0.000615966
0.144148, 1.6952, -1.22721, -1.5398, -0.900448, -1.20016, 1.23091, -1.30257, 0.0365023, 0.000911093, 0.001837, -0.00567227, -0.094361, 0.0181149, 0.000908928, -2.77337, 60.8713, 29.3531, 7.73956, 1.72504, 3.21689, 0.00373412, -0.00223909, 0.000360788, 0.00156984, 0.00379181, -0.00949648, 0.000558669, 0.0576012, -0.0243988, 0.00292768, -0.0296163, 0.146923, 0.0438363, 0.470432, -0.54085, 0.336161, -2.08118, -2.16531, -0.131586, 0.470816, -0.542799, 0.334247, -2.08461, -2.16863, -0.117687, -0.0117453, 0.0547273, 0.00639834, 0.0148414, -0.00154723, -0.000536273
0.145148, 1.69523, -1.22721, -1.5398, -0.900454, -1.20026, 1.23093, -1.30257, 0.0356487, -0.00106307, 0.000387325, -0.00412661, -0.0888783, 0.0143278, -0.00085211, -2.7337, 60.9427, 29.3888, 7.73956, 1.70581, 3.19583, 0.0431018, -0.0022998, 0.000381456, 0.00157199, 0.00381715, -0.00962794, 0.000571044, 0.0582016, -0.0233864, 0.00118735, -0.0308351, 0.139268, 0.0449736, 0.47042, -0.540795, 0.336167, -2.08112, -2.1653, -0.131621, 0.470827, -0.542803, 0.334241, -2.08462, -2.16867, -0.11756, -0.0118833, 0.0554629, 0.00650349, 0.0136514, -0.00117375, -0.00221565
0.146148, 1.69527, -1.22721, -1.5398, -0.900462, -1.20035, 1.23093, -1.30257, 0.0356135, 0.000961698, 0.000256626, -0.00393791, -0.0899357, 0.0151094, -5.94472e-05, -2.84875, 60.8713, 29.3888, 7.77924, 1.69391, 3.20224, 0.0293689, -0.00235445, 0.000405822, 0.0015688, 0.00384731, -0.00976424, 0.000578164, 0.0591485, -0.0233972, 0.0024548, -0.0303754, 0.143287, 0.0439474, 0.470408, -0.54074, 0.336174, -2.08106, -2.16528, -0.131657, 0.470842, -0.542801, 0.334242, -2.08462, -2.16871, -0.117423, -0.0120214, 0.0562022, 0.00660959, 0.0136066, -0.00156561, -0.00101147
0.147148, 1.69531, -1.22721, -1.5398, -0.900469, -1.20044, 1.23094, -1.30257, 0.0334937, -0.000194104, 0.000169891, -0.00591893, -0.0853261, 0.0110202, -0.00102298, -2.88445, 60.907, 29.3888, 7.77924, 1.66919, 3.20956, 0.0559192, -0.00241328, 0.00042667, 0.00156827, 0.00387736, -0.00989503, 0.000588335, 0.0590532, -0.022536, 0.00122977, -0.0324656, 0.137204, 0.0464724, 0.470396, -0.540684, 0.33618, -2.08101, -2.16527, -0.131692, 0.470853, -0.542802, 0.334239, -2.08463, -2.16875, -0.117291, -0.0121598, 0.056945, 0.00671664, 0.0125606, -0.000572446, -0.00207543
0.148148, 1.69534, -1.2272, -1.5398, -0.900474, -1.20053, 1.23095, -1.30257, 0.0318547, 0.000705802, 0.000112366, -0.00654093, -0.0862482, 0.00853199, -0.000681984, -2.92413, 60.8713, 29.3888, 7.73956, 1.64447, 3.20224, 0.0559192, -0.00247269, 0.000447965, 0.00156506, 0.00390001, -0.0100274, 0.000605074, 0.060208, -0.0212774, 0.00154374, -0.0349553, 0.138395, 0.0451116, 0.470384, -0.540627, 0.336187, -2.08095, -2.16526, -0.131729, 0.470864, -0.542803, 0.334238, -2.08464, -2.16879, -0.117167, -0.0122984, 0.0576914, 0.00682465, 0.0112203, -0.00106675, -0.00180445
0.149148, 1.69537, -1.22721, -1.5398, -0.900487, -1.20062, 1.23095, -1.30257, 0.0348716, -0.000364693, 0.000909457, -0.00980705, -0.0834869, 0.011021, 2.0062e-05, -2.9995, 60.907, 29.3531, 7.81494, 1.63898, 3.20224, 0.0431018, -0.00252958, 0.000472806, 0.00156679, 0.00392899, -0.0101548, 0.000608057, 0.0583072, -0.0247419, 0.000811686, -0.0327878, 0.1374, 0.0520122, 0.470372, -0.540569, 0.336194, -2.08089, -2.16524, -0.131765, 0.470879, -0.5428, 0.334234, -2.08464, -2.16883, -0.117042, -0.0124372, 0.0584414, 0.0069336, 0.0144455, 0.00182051, -0.00222807
0.150148, 1.69541, -1.2272, -1.53979, -0.900498, -1.2007, 1.23096, -1.30257, 0.0329868, 0.00235532, 0.00329706, -0.00722019, -0.0856246, 0.0131956, 0.00147144, -3.03521, 60.7959, 29.238, 7.81494, 1.62616, 3.20224, 0.00373412, -0.00258555, 0.000496685, 0.00155863, 0.00394606, -0.0102876, 0.00061568, 0.0605662, -0.0237408, 0.0039364, -0.0279293, 0.143257, 0.0472399, 0.470359, -0.54051, 0.336201, -2.08083, -2.16523, -0.131802, 0.470893, -0.542797, 0.334239, -2.08464, -2.16888, -0.116924, -0.0125762, 0.0591949, 0.00704351, 0.0135067, -0.000185376, 0.000636538
0.151148, 1.69543, -1.2272, -1.53979, -0.900502, -1.20078, 1.23096, -1.30257, 0.0329843, 0.00157021, 0.000434424, -0.00679484, -0.0821629, 0.0101227, 0.00121832, -2.9995, 60.7959, 29.3134, 7.73956, 1.60144, 3.19583, -0.00267457, -0.00264818, 0.000514245, 0.00155715, 0.00397004, -0.0104093, 0.000635075, 0.0611346, -0.0230897, 0.00226084, -0.0312456, 0.139039, 0.0473253, 0.470347, -0.540451, 0.336208, -2.08077, -2.16522, -0.13184, 0.4709, -0.542799, 0.334237, -2.08465, -2.1689, -0.11681, -0.0127154, 0.0599519, 0.00715437, 0.0126774, 0.00024659, -0.00097971
0.152148, 1.69546, -1.2272, -1.53979, -0.900522, -1.20086, 1.23096, -1.30257, 0.0291263, 0.0010468, 0.00112455, -0.0140686, -0.0849727, 0.00810721, 0.000337493, -2.92413, 60.7959, 29.2777, 7.85065, 1.59595, 3.18118, 0.0101428, -0.00270773, 0.0005336, 0.00155649, 0.00400003, -0.0105324, 0.000640997, 0.0617219, -0.0221081, 0.00123875, -0.0364756, 0.141075, 0.0505865, 0.470334, -0.540391, 0.336215, -2.0807, -2.1652, -0.131878, 0.470909, -0.542797, 0.334235, -2.08464, -2.16894, -0.116689, -0.0128547, 0.0607124, 0.00726618, 0.0115429, 0.000547256, -0.00194293
0.153148, 1.69549, -1.2272, -1.53979, -0.900534, -1.20093, 1.23096, -1.30256, 0.032219, 0.000697864, -8.57298e-05, -0.0127369, -0.0785048, 0.00601696, 0.000224996, -2.95983, 60.7959, 29.3134, 7.81494, 1.60785, 3.18118, 0.0101428, -0.00276854, 0.000554643, 0.00155701, 0.00402718, -0.0106541, 0.000654187, 0.0603094, -0.0237955, 0.000442623, -0.0360978, 0.13523, 0.0545874, 0.470321, -0.540331, 0.336222, -2.08064, -2.16519, -0.131916, 0.470919, -0.542795, 0.334231, -2.08464, -2.16897, -0.116573, -0.0129943, 0.0614763, 0.00737895, 0.0130082, 0.00290207, -0.00244842
0.154148, 1.69551, -1.22719, -1.5398, -0.900552, -1.201, 1.23096, -1.30257, 0.0304551, 0.0030637, -0.000985332, -0.0158549, -0.0726488, 0.00474169, -8.73619e-05, -2.95983, 60.6848, 29.3531, 7.81494, 1.59595, 3.17386, 0.0165515, -0.00282799, 0.000574748, 0.00155414, 0.00405734, -0.0107788, 0.000658877, 0.0596224, -0.0238368, 0.00106964, -0.0361507, 0.133213, 0.0577882, 0.470308, -0.540269, 0.33623, -2.08058, -2.16517, -0.131955, 0.470929, -0.542792, 0.334231, -2.08463, -2.16901, -0.116451, -0.0131339, 0.0622436, 0.00749268, 0.0129089, 0.00425193, -0.00161229
0.155148, 1.69553, -1.22719, -1.53979, -0.900573, -1.20107, 1.23096, -1.30257, 0.0274717, 0.00287768, 0.00286947, -0.0189208, -0.0736366, 0.004048, -0.00175366, -2.88445, 60.6491, 29.2023, 7.85065, 1.60785, 3.15921, 0.0623279, -0.00288733, 0.000595742, 0.00154966, 0.00407422, -0.0108983, 0.000656257, 0.0601599, -0.023403, 0.00201452, -0.0347315, 0.134194, 0.0611362, 0.470295, -0.540207, 0.336237, -2.08051, -2.16516, -0.131994, 0.470939, -0.542788, 0.334233, -2.08462, -2.16906, -0.116351, -0.0132738, 0.0630144, 0.00760737, 0.012392, 0.00432695, -0.000640459
0.156148, 1.69556, -1.22718, -1.53979, -0.900592, -1.20114, 1.23096, -1.30257, 0.0269728, 0.00451691, 0.000149651, -0.0203042, -0.0692409, 0.00241438, -0.000931749, -2.88445, 60.538, 29.2777, 7.85065, 1.60144, 3.17386, 0.0559192, -0.00294763, 0.000615689, 0.00154703, 0.00410114, -0.0110179, 0.000663737, 0.0601336, -0.0232278, 0.00171496, -0.0367954, 0.132489, 0.0615859, 0.470282, -0.540144, 0.336245, -2.08045, -2.16514, -0.132034, 0.470948, -0.542784, 0.334233, -2.08461, -2.16909, -0.116239, -0.0134137, 0.0637885, 0.00772302, 0.0120663, 0.00516775, -0.000814724
0.157148, 1.69558, -1.22717, -1.53979, -0.900611, -1.2012, 1.23096, -1.30257, 0.0274497, 0.00384649, 9.97003e-05, -0.0206893, -0.067443, 0.00180328, -0.000383807, -2.92413, 60.5023, 29.2777, 7.81494, 1.63898, 3.17386, 0.0495105, -0.00300711, 0.00063831, 0.00154405, 0.0041216, -0.0111357, 0.000666872, 0.0602544, -0.0237857, 0.00118143, -0.0367172, 0.130887, 0.0628605, 0.470268, -0.54008, 0.336252, -2.08038, -2.16513, -0.132074, 0.470959, -0.542778, 0.334233, -2.08459, -2.16914, -0.116136, -0.0135538, 0.064566, 0.00783963, 0.0124692, 0.00593448, -0.00126489
0.158148, 1.6956, -1.22718, -1.53979, -0.900632, -1.20126, 1.23096, -1.30256, 0.0210432, 0.000801087, -0.00169682, -0.0200576, -0.0605335, 0.00161872, 0.00143955, -2.80907, 60.5777, 29.3531, 7.73956, 1.65729, 3.16653, 0.00373412, -0.00307211, 0.00065549, 0.00154665, 0.00414212, -0.0112421, 0.000686837, 0.0633663, -0.0206371, -0.000833422, -0.0340871, 0.122741, 0.0560928, 0.470255, -0.540016, 0.33626, -2.08032, -2.16511, -0.132115, 0.470965, -0.542776, 0.334227, -2.08459, -2.16915, -0.116044, -0.013694, 0.0653468, 0.00795721, 0.0092262, 0.00382884, -0.00353518
0.159148, 1.69561, -1.22717, -1.53978, -0.900659, -1.20131, 1.23096, -1.30256, 0.0182132, 0.0022973, 0.00156001, -0.0206755, -0.0596788, 0.0011881, 0.00146833, -2.77337, 60.5023, 29.238, 7.70386, 1.66369, 3.16653, -0.00999879, -0.00313113, 0.000677322, 0.00154041, 0.00415257, -0.0113548, 0.000684045, 0.0642011, -0.0198591, 0.00124077, -0.0308134, 0.123856, 0.056052, 0.470241, -0.53995, 0.336268, -2.08025, -2.1651, -0.132156, 0.470976, -0.542769, 0.334231, -2.08457, -2.1692, -0.11596, -0.0138343, 0.0661309, 0.00807574, 0.00841832, 0.00343182, -0.00148194
0.160148, 1.69563, -1.22717, -1.53977, -0.900691, -1.20136, 1.23096, -1.30256, 0.0159596, 0.000696312, 0.00103998, -0.0249905, -0.0549433, 0.000873777, 0.000978884, -2.7337, 60.538, 29.238, 7.70386, 1.6875, 3.16653, -0.00999879, -0.00319115, 0.000699642, 0.00154253, 0.00417001, -0.0114567, 0.000682876, 0.0640194, -0.0200837, -0.000391034, -0.0310471, 0.119364, 0.0598926, 0.470227, -0.539884, 0.336276, -2.08018, -2.16508, -0.132197, 0.470987, -0.542761, 0.334227, -2.08455, -2.16924, -0.115879, -0.0139747, 0.0669183, 0.00819524, 0.00843614, 0.00466556, -0.0029552
0.161148, 1.69565, -1.22717, -1.53978, -0.900719, -1.20141, 1.23096, -1.30256, 0.0154791, 0.00296986, 0.00293199, -0.0265646, -0.0519494, 0.0014237, 0.000143963, -2.7337, 60.4309, 29.2777, 7.62848, 1.72504, 3.14548, 0.00373412, -0.00325162, 0.000722619, 0.00154015, 0.00418746, -0.0115697, 0.000677297, 0.063422, -0.0210057, 0.00147929, -0.0278687, 0.120242, 0.0639281, 0.470213, -0.539817, 0.336284, -2.08012, -2.16506, -0.132239, 0.470998, -0.542753, 0.334227, -2.08452, -2.16928, -0.115788, -0.0141153, 0.067709, 0.00831571, 0.0092653, 0.00579216, -0.000927024
0.162148, 1.69566, -1.22716, -1.53977, -0.900746, -1.20145, 1.23096, -1.30257, 0.0163502, 0.00290793, 0.00538028, -0.0269904, -0.0530078, 0.000723827, -0.00109082, -2.65832, 60.3912, 29.2777, 7.51739, 1.73053, 3.1528, 0.0357776, -0.00331333, 0.000743037, 0.00153802, 0.00419528, -0.0116674, 0.000676719, 0.0633472, -0.0218854, 0.0021576, -0.0270388, 0.121404, 0.0676432, 0.470199, -0.539749, 0.336293, -2.08005, -2.16505, -0.132281, 0.471007, -0.542745, 0.334227, -2.08449, -2.16932, -0.115722, -0.0142558, 0.0685029, 0.00843714, 0.0100272, 0.00659174, -0.000155848
0.163148, 1.69567, -1.22717, -1.53977, -0.900778, -1.20149, 1.23096, -1.30257, 0.0148431, -0.00149506, 0.00707504, -0.0274134, -0.0498423, 0.00105956, -0.00194792, -2.62261, 60.538, 29.2777, 7.40631, 1.75525, 3.13815, 0.0687366, -0.00337723, 0.000762956, 0.00154331, 0.00420859, -0.0117573, 0.000674037, 0.0641792, -0.0220414, 0.000220149, -0.0240134, 0.115265, 0.0697748, 0.470185, -0.539681, 0.336301, -2.07998, -2.16503, -0.132324, 0.471014, -0.542738, 0.334219, -2.08446, -2.16935, -0.11566, -0.0143965, 0.0692999, 0.00855954, 0.0100024, 0.00688042, -0.0020866
0.164148, 1.69567, -1.22716, -1.53977, -0.900818, -1.20153, 1.23096, -1.30257, 0.0148919, 0.00327219, 0.00447975, -0.0295505, -0.0483059, 0.00100349, -0.00106125, -2.50756, 60.3555, 29.3134, 7.36664, 1.79828, 3.13083, 0.0623279, -0.00344058, 0.000781165, 0.00153593, 0.00421916, -0.0118713, 0.000672348, 0.0641157, -0.022273, 0.00181635, -0.026085, 0.119899, 0.070418, 0.47017, -0.539612, 0.33631, -2.0799, -2.16502, -0.132367, 0.471021, -0.542731, 0.334224, -2.08444, -2.1694, -0.115576, -0.0145372, 0.0701002, 0.0086829, 0.0101516, 0.00750343, -0.000389571
0.165148, 1.69567, -1.22715, -1.53977, -0.900853, -1.20156, 1.23096, -1.30257, 0.0089496, 0.0039447, 0.00167196, -0.0315954, -0.0417692, 0.00123092, -0.000232783, -2.39648, 60.2802, 29.3888, 7.21588, 1.82941, 3.11618, 0.0495105, -0.00350459, 0.000799618, 0.00153418, 0.00422933, -0.011969, 0.000673629, 0.0662237, -0.0197707, 0.00127109, -0.0251674, 0.116302, 0.0667756, 0.470156, -0.539541, 0.336318, -2.07983, -2.165, -0.132411, 0.471027, -0.542724, 0.334223, -2.08441, -2.16943, -0.115509, -0.014678, 0.0709037, 0.00880724, 0.00757139, 0.00620756, -0.00106492
0.166148, 1.69568, -1.22715, -1.53976, -0.900901, -1.20158, 1.23096, -1.30257, 0.0085131, 0.00086656, 0.00145117, -0.0368415, -0.0413579, 0.00134378, 0.00106551, -2.3211, 60.3555, 29.3888, 7.21588, 1.85962, 3.10245, 0.0165515, -0.00356635, 0.000821478, 0.00153782, 0.00423975, -0.0120584, 0.000666316, 0.0659576, -0.0208961, -0.00130587, -0.0276037, 0.114239, 0.0701737, 0.470141, -0.539471, 0.336327, -2.07976, -2.16498, -0.132455, 0.471037, -0.542712, 0.334218, -2.08437, -2.16947, -0.115452, -0.0148189, 0.0717102, 0.00893254, 0.00844972, 0.00773168, -0.00347989
0.167148, 1.69568, -1.22714, -1.53976, -0.900951, -1.20161, 1.23096, -1.30256, 0.0107305, 0.00317616, 0.00250604, -0.0406414, -0.0361052, 0.000635496, 0.000472984, -2.3568, 60.2444, 29.4642, 7.21588, 1.87793, 3.10977, 0.0229602, -0.00362586, 0.000844284, 0.00153609, 0.00425446, -0.0121578, 0.000655103, 0.0631161, -0.0237083, -0.000286925, -0.0266562, 0.113037, 0.0789326, 0.470126, -0.539399, 0.336336, -2.07969, -2.16496, -0.132499, 0.471047, -0.542698, 0.334218, -2.08433, -2.16951, -0.115381, -0.0149597, 0.0725199, 0.00905882, 0.0110512, 0.0113055, -0.00198859
0.168148, 1.69567, -1.22714, -1.53976, -0.900993, -1.20163, 1.23096, -1.30256, 0.0047583, 0.00695834, 0.00211411, -0.0429162, -0.0326393, 0.00124565, 0.00126476, -2.20605, 60.173, 29.4642, 7.06909, 1.90906, 3.0878, -0.00267457, -0.00369329, 0.000859849, 0.00153173, 0.004251, -0.0122505, 0.000661306, 0.0650211, -0.021333, 0.00186377, -0.0245495, 0.115112, 0.075571, 0.470112, -0.539326, 0.336345, -2.07961, -2.16495, -0.132544, 0.47105, -0.542692, 0.33422, -2.08431, -2.16954, -0.115335, -0.0151006, 0.0733327, 0.00918606, 0.00869108, 0.00980016, 2.73167e-05
0.169148, 1.69567, -1.22713, -1.53975, -0.901047, -1.20164, 1.23096, -1.30256, 0.00309253, 0.00406788, 0.00174197, -0.0484425, -0.0249039, 0.000565299, 0.000368454, -2.16637, 60.2087, 29.4642, 7.06909, 1.92737, 3.09512, 0.0101428, -0.0037531, 0.000883285, 0.00153231, 0.00425505, -0.0123349, 0.000642061, 0.0637114, -0.0224797, -0.000722079, -0.0243454, 0.106833, 0.0825651, 0.470096, -0.539253, 0.336354, -2.07954, -2.16493, -0.132589, 0.471061, -0.542676, 0.334218, -2.08426, -2.16959, -0.115292, -0.0152415, 0.0741485, 0.00931428, 0.00955127, 0.012366, -0.00222825
0.170148, 1.69566, -1.22713, -1.53975, -0.901098, -1.20166, 1.23097, -1.30256, -0.00082853, 0.00291007, 0.00197402, -0.0466024, -0.0244616, 0.00143263, 0.000720354, -2.01562, 60.2087, 29.5752, 6.95801, 1.96399, 3.06674, -0.00267457, -0.00382275, 0.000897717, 0.00153327, 0.0042588, -0.0124237, 0.000645895, 0.066898, -0.0202422, -0.000766684, -0.021667, 0.106255, 0.077452, 0.470081, -0.539179, 0.336364, -2.07946, -2.16491, -0.132635, 0.471063, -0.54267, 0.334215, -2.08423, -2.16962, -0.115244, -0.0153825, 0.0749674, 0.00944347, 0.00729441, 0.00995398, -0.00258519
0.171148, 1.69565, -1.22712, -1.53975, -0.901158, -1.20166, 1.23097, -1.30256, -0.00407709, 0.00292388, 3.318e-06, -0.0511527, -0.0183201, 0.00150107, 5.5182e-06, -1.97991, 60.173, 29.6506, 6.95801, 1.9704, 3.05209, 0.0101428, -0.00388412, 0.000920225, 0.00153319, 0.00426183, -0.0125096, 0.000626348, 0.0670357, -0.0199011, -0.00191514, -0.0219943, 0.102516, 0.0804945, 0.470066, -0.539104, 0.336373, -2.07939, -2.16489, -0.132681, 0.471072, -0.542655, 0.334214, -2.08418, -2.16967, -0.115202, -0.0155234, 0.0757893, 0.00957364, 0.00677656, 0.0108082, -0.0036045
0.172148, 1.69564, -1.22711, -1.53973, -0.901218, -1.20167, 1.23097, -1.30256, -0.00531532, 0.00382395, 0.00293858, -0.0575846, -0.0144602, -0.00338022, 0.000478397, -1.86486, 60.0977, 29.5395, 6.95801, 1.99512, 3.04477, -0.00267457, -0.0039477, 0.000939177, 0.00152578, 0.00425376, -0.0126002, 0.000610699, 0.0645535, -0.0207975, -0.00161167, -0.0245006, 0.0990001, 0.0875215, 0.47005, -0.539028, 0.336383, -2.07931, -2.16487, -0.132728, 0.471078, -0.542642, 0.334219, -2.08413, -2.16972, -0.115168, -0.0156643, 0.0766142, 0.00970477, 0.00745119, 0.0140738, -0.00281157
0.173148, 1.69563, -1.22712, -1.53973, -0.90127, -1.20168, 1.23097, -1.30257, -0.00523628, -0.000800775, 0.00355589, -0.0576746, -0.0115541, -0.00236817, -0.00137649, -1.78948, 60.2444, 29.611, 6.77154, 2.01984, 3.03744, 0.0431018, -0.00401559, 0.000956842, 0.00153078, 0.00425235, -0.01267, 0.000597801, 0.0651804, -0.0216775, -0.00404268, -0.0220484, 0.0933024, 0.0913396, 0.470035, -0.538951, 0.336392, -2.07923, -2.16485, -0.132775, 0.471082, -0.54263, 0.334213, -2.08408, -2.16976, -0.115147, -0.0158053, 0.0774421, 0.00983689, 0.00812267, 0.0147063, -0.00521039
0.174148, 1.69561, -1.22711, -1.53972, -0.901333, -1.20168, 1.23097, -1.30257, -0.00837543, 0.00575725, 0.00402424, -0.0613048, -0.00889236, -0.00108836, -0.00139238, -1.7141, 60.2444, 29.6863, 6.73187, 2.03174, 3.01639, 0.0559192, -0.0040806, 0.000976748, 0.00153039, 0.00425155, -0.0127533, 0.000584083, 0.0652227, -0.0213287, -0.000236948, -0.0198148, 0.0993034, 0.0928658, 0.470019, -0.538874, 0.336402, -2.07915, -2.16483, -0.132822, 0.471089, -0.542616, 0.334211, -2.08403, -2.1698, -0.115113, -0.0159461, 0.0782729, 0.00996998, 0.00777962, 0.014881, -0.00132292
0.175148, 1.6956, -1.2271, -1.53971, -0.901397, -1.20168, 1.23097, -1.30256, -0.0107459, 0.00921175, 0.00326172, -0.0635514, -0.00716803, -0.000128871, 5.50923e-05, -1.63873, 60.173, 29.6863, 6.65649, 2.05005, 2.99441, 0.0293689, -0.00414528, 0.000997307, 0.00152485, 0.00424485, -0.012843, 0.000571456, 0.0660451, -0.0207778, 0.00143161, -0.0190918, 0.102811, 0.0916331, 0.470003, -0.538796, 0.336412, -2.07907, -2.16481, -0.13287, 0.471096, -0.542601, 0.334216, -2.08398, -2.16985, -0.115079, -0.016087, 0.0791067, 0.010104, 0.00718366, 0.0146176, 0.00033854
0.176148, 1.69557, -1.2271, -1.5397, -0.90147, -1.20168, 1.23097, -1.30256, -0.0183501, 0.00599191, 0.00564375, -0.0679267, -0.00543726, -0.000520008, -0.000200631, -1.45226, 60.2087, 29.6863, 6.69617, 2.05646, 3.00174, 0.0357776, -0.0042111, 0.00101507, 0.00152192, 0.00423797, -0.0129232, 0.00055341, 0.0684098, -0.0181958, 0.00014634, -0.0175759, 0.0988053, 0.0904358, 0.469987, -0.538717, 0.336422, -2.07899, -2.16479, -0.132919, 0.471101, -0.542587, 0.334217, -2.08393, -2.1699, -0.115056, -0.0162278, 0.0799433, 0.0102391, 0.00450627, 0.0132154, -0.0010964
0.177148, 1.69556, -1.2271, -1.53969, -0.901534, -1.20168, 1.23097, -1.30256, -0.0162563, 0.00728179, 0.00585408, -0.0674745, -0.00438156, -0.000468791, 0.000340964, -1.45226, 60.3555, 29.7617, 6.58508, 2.06836, 3.00174, 0.0229602, -0.00427678, 0.00103775, 0.00152548, 0.00423729, -0.0130001, 0.00053512, 0.0680962, -0.0195183, 0.000940308, -0.0166971, 0.1001, 0.0924336, 0.469971, -0.538637, 0.336433, -2.07891, -2.16477, -0.132968, 0.471109, -0.54257, 0.334213, -2.08387, -2.16994, -0.11503, -0.0163686, 0.0807828, 0.0103751, 0.00570607, 0.0142969, -0.000173564
0.178148, 1.69553, -1.2271, -1.53968, -0.901594, -1.20168, 1.23097, -1.30256, -0.016199, 0.0023239, 0.00460965, -0.0683884, -0.00292062, 0.000375776, 0.000939386, -1.26183, 60.5023, 29.7617, 6.39465, 2.06195, 2.98068, 0.00373412, -0.00435092, 0.00105159, 0.00152484, 0.00422312, -0.0130765, 0.000535219, 0.0691957, -0.0200543, -0.0024704, -0.0170818, 0.0953839, 0.0931328, 0.469954, -0.538556, 0.336443, -2.07883, -2.16475, -0.133017, 0.47111, -0.542561, 0.334211, -2.08383, -2.16997, -0.115018, -0.0165093, 0.0816252, 0.0105121, 0.006015, 0.0146189, -0.00359953
0.179148, 1.69552, -1.22709, -1.53966, -0.901678, -1.20168, 1.23097, -1.30256, -0.0185333, 0.00373959, 0.010745, -0.0734705, -0.00168397, -0.000326801, 0.000388899, -1.22613, 60.5777, 29.722, 6.5097, 2.05005, 2.99441, 0.0101428, -0.00441162, 0.00107759, 0.00152357, 0.00421982, -0.0131589, 0.000497797, 0.0678489, -0.0210544, -0.000110891, -0.0135226, 0.096247, 0.0995926, 0.469938, -0.538474, 0.336454, -2.07875, -2.16473, -0.133067, 0.471122, -0.542539, 0.334212, -2.08375, -2.17004, -0.114992, -0.01665, 0.0824704, 0.0106501, 0.0069133, 0.0164639, -0.000955159
0.180148, 1.69549, -1.22709, -1.53965, -0.901748, -1.20167, 1.23097, -1.30256, -0.0200746, 0.00557714, 0.0133596, -0.0747095, -0.00101856, 0.00023924, 2.19067e-05, -1.07537, 60.6134, 29.7617, 6.39465, 2.04364, 2.98068, 0.0165515, -0.00448232, 0.00109426, 0.00151755, 0.00420618, -0.0132449, 0.000484562, 0.0682316, -0.021177, 0.00186081, -0.0104718, 0.0985402, 0.101406, 0.469921, -0.538392, 0.336464, -2.07866, -2.16471, -0.133117, 0.471125, -0.542526, 0.334216, -2.08371, -2.17009, -0.114972, -0.0167906, 0.0833185, 0.010789, 0.00698567, 0.0166289, 0.00105867
0.181148, 1.69546, -1.22709, -1.53963, -0.901825, -1.20167, 1.23097, -1.30256, -0.0195464, 0.00411536, 0.0124147, -0.0711826, 0.000102621, 0.000663388, -0.000697472, -0.996025, 60.7602, 29.7974, 6.35895, 2.01984, 2.96603, 0.0357776, -0.00455242, 0.00111335, 0.00151822, 0.00419715, -0.0133234, 0.000466483, 0.070069, -0.0208523, 0.00117235, -0.00879351, 0.0969778, 0.0999531, 0.469904, -0.538309, 0.336475, -2.07858, -2.16469, -0.133167, 0.471129, -0.542511, 0.334214, -2.08365, -2.17013, -0.114955, -0.0169311, 0.0841693, 0.010929, 0.00656578, 0.0157639, 0.000230117
0.182148, 1.69544, -1.22708, -1.53963, -0.901899, -1.20166, 1.23097, -1.30256, -0.026171, 0.00186443, 0.00989088, -0.073974, -0.000210004, 0.000684547, -0.00121097, -0.884941, 60.8356, 29.9085, 6.28357, 2.02533, 2.95871, 0.0559192, -0.00462618, 0.00112881, 0.00151653, 0.00419156, -0.0134095, 0.000454872, 0.0738674, -0.0174257, -0.00106579, -0.0114702, 0.0960397, 0.0955436, 0.469887, -0.538224, 0.336486, -2.07849, -2.16467, -0.133218, 0.471131, -0.542499, 0.334214, -2.0836, -2.17018, -0.114927, -0.0170715, 0.0850228, 0.0110699, 0.00306354, 0.0130794, -0.00234323
0.183148, 1.69541, -1.22707, -1.5396, -0.901981, -1.20166, 1.23097, -1.30256, -0.0293315, 0.00266254, 0.0108881, -0.0770496, 0.00488307, 0.000705897, -6.1326e-05, -0.845268, 60.9427, 29.9085, 6.24786, 2.01343, 2.95138, 0.0357776, -0.00469457, 0.00114921, 0.00151222, 0.00418027, -0.0134934, 0.000428867, 0.0739419, -0.0171823, -0.000509384, -0.00894908, 0.0936231, 0.0965766, 0.46987, -0.538139, 0.336497, -2.07841, -2.16465, -0.13327, 0.471137, -0.542481, 0.334218, -2.08353, -2.17024, -0.114909, -0.0172118, 0.0858791, 0.0112118, 0.00270601, 0.0137652, -0.00166272
0.184148, 1.69538, -1.22707, -1.53959, -0.902071, -1.20166, 1.23097, -1.30257, -0.0286473, -5.42768e-05, 0.00872044, -0.0808983, 0.00407447, 0.000454297, -0.00054951, -0.809562, 61.0538, 30.0236, 6.28357, 2.00061, 2.95138, 0.0495105, -0.00476309, 0.00117049, 0.00151314, 0.00417765, -0.0135756, 0.000397204, 0.074226, -0.0180655, -0.00346311, -0.0134395, 0.0928127, 0.100299, 0.469853, -0.538053, 0.336508, -2.07832, -2.16463, -0.133322, 0.471144, -0.542461, 0.334216, -2.08346, -2.1703, -0.114884, -0.017352, 0.0867382, 0.0113547, 0.00334859, 0.0148525, -0.00451331
