alisrour97/Franka_experiments/Real_Robot_scripts/servo-franka/Data2/log_dyn_INIT2_7.csv
Time,q1,q2,q3,q4,q5,q6,q7,dq1,dq2,dq3,dq4,dq5,dq6,dq7,t1,t2,t3,t4,t5,t6,t7,ex1,ex2,ex3,ex4,ex5,ex6,ev1,ev2,ev3,ev4,ev5,ev6,xd,yd,zd,uxd,uyd,uzd,x,y,z,ux,uy,uz,vxd,vyd,vzd,vx,vy,vz
7.32422e-07, 1.69088, -1.22791, -1.53949, -0.900021, -1.19211, 1.22767, -1.30264, -0.00136827, -0.00341096, -0.00152944, -0.00336929, 0.0066035, -0.000311605, -0.000673463, 0.551216, 64.5529, 31.6977, 6.84296, 2.19104, 4.30636, -0.166554, 0.000218823, -0.00225598, 0.00203079, 0.00250349, 0.00196256, 0.00125693, -0.00105512, -0.000477547, -0.00295939, -0.000207941, -0.00855763, 0.00385058, 0.471008, -0.543389, 0.335894, -2.08385, -2.16584, -0.129887, 0.468671, -0.542958, 0.333997, -2.08287, -2.16242, -0.128944, -1.48327e-05, 4.00419e-05, -1.29039e-06, 0.00031755, 0.00155672, -0.0027741
0.0121812, 1.69091, -1.22795, -1.5395, -0.900059, -1.19204, 1.22767, -1.30263, 0.00389335, -0.00595105, -0.00242753, -0.000336037, 0.0086064, 0.000251643, -0.00282174, 0.325081, 64.7751, 31.8088, 6.84296, 2.10498, 4.29904, -0.186696, 0.000249176, -0.0022263, 0.00206706, 0.00251032, 0.0020561, 0.00118562, -0.00236378, -0.0029785, -0.00457371, 0.000840045, -0.0124504, 0.00885131, 0.471008, -0.543389, 0.335894, -2.08385, -2.16584, -0.129887, 0.468701, -0.542916, 0.333959, -2.08271, -2.16244, -0.129065, -2.49008e-05, 7.8927e-05, 1.60533e-06, 0.00270014, 0.00323835, -0.00423749
0.0131812, 1.69091, -1.22795, -1.5395, -0.900059, -1.19204, 1.22767, -1.30263, 0.00389335, -0.00595105, -0.00242753, -0.000336037, 0.0086064, 0.000251643, -0.00282174, 0.325081, 64.7751, 31.8088, 6.84296, 2.10498, 4.29904, -0.186696, 0.000249167, -0.00222629, 0.00206706, 0.00251032, 0.00205609, 0.00118562, -0.00232071, -0.00298786, -0.00456991, 0.000840072, -0.0124023, 0.00888203, 0.471008, -0.543389, 0.335894, -2.08385, -2.16584, -0.129887, 0.468701, -0.542916, 0.333959, -2.08271, -2.16244, -0.129065, -3.59273e-05, 0.000121646, 4.81928e-06, 0.00270014, 0.00323835, -0.00423749
0.0141812, 1.69091, -1.22795, -1.5395, -0.900059, -1.19204, 1.22767, -1.30263, 0.00389335, -0.00595105, -0.00242753, -0.000336037, 0.0086064, 0.000251643, -0.00282174, 0.325081, 64.7751, 31.8088, 6.84296, 2.10498, 4.29904, -0.186696, 0.000249143, -0.00222629, 0.00206705, 0.00251031, 0.00205606, 0.00118563, -0.00227362, -0.00299807, -0.00456579, 0.000840174, -0.0123497, 0.00891555, 0.471008, -0.543389, 0.335894, -2.08385, -2.16584, -0.129887, 0.468701, -0.542916, 0.333959, -2.08271, -2.16244, -0.129065, -4.79476e-05, 0.000168349, 8.36616e-06, 0.00270014, 0.00323835, -0.00423749
0.0151814, 1.69091, -1.22795, -1.5395, -0.900059, -1.19204, 1.22767, -1.30263, 0.00389335, -0.00595105, -0.00242753, -0.000336037, 0.0086064, 0.000251643, -0.00282174, 0.325081, 64.7751, 31.8088, 6.84296, 2.10498, 4.29904, -0.186696, 0.000249096, -0.00222628, 0.00206705, 0.0025103, 0.00205602, 0.00118565, -0.00222236, -0.00300914, -0.00456134, 0.000840359, -0.0122925, 0.00895196, 0.471008, -0.543389, 0.335894, -2.08385, -2.16584, -0.129887, 0.468701, -0.542916, 0.333959, -2.08271, -2.16244, -0.129065, -6.09969e-05, 0.000219187, 1.22607e-05, 0.00270014, 0.00323835, -0.00423749
0.0161814, 1.69091, -1.22795, -1.5395, -0.900059, -1.19204, 1.22767, -1.30263, 0.00389335, -0.00595105, -0.00242753, -0.000336037, 0.0086064, 0.000251643, -0.00282174, 0.325081, 64.7751, 31.8088, 6.84296, 2.10498, 4.29904, -0.186696, 0.00024902, -0.00222626, 0.00206704, 0.00251028, 0.00205595, 0.00118569, -0.00216678, -0.0030211, -0.00455655, 0.000840634, -0.0122306, 0.00899137, 0.471008, -0.543389, 0.335894, -2.08385, -2.16584, -0.129887, 0.468701, -0.542916, 0.333959, -2.08271, -2.16244, -0.129065, -7.51097e-05, 0.000274308, 1.65177e-05, 0.00270014, 0.00323835, -0.00423749
0.0171814, 1.69091, -1.22795, -1.5395, -0.900059, -1.19204, 1.22767, -1.30263, 0.00389335, -0.00595105, -0.00242753, -0.000336037, 0.0086064, 0.000251643, -0.00282174, 0.325081, 64.7751, 31.8088, 6.84296, 2.10498, 4.29904, -0.186696, 0.000248906, -0.00222624, 0.00206703, 0.00251025, 0.00205584, 0.00118574, -0.00210673, -0.003034, -0.00455141, 0.000841009, -0.0121637, 0.00903386, 0.471008, -0.543389, 0.335894, -2.08385, -2.16584, -0.129887, 0.468701, -0.542916, 0.333959, -2.08271, -2.16244, -0.129065, -9.03198e-05, 0.000333859, 2.1152e-05, 0.00270014, 0.00323835, -0.00423749
0.0181814, 1.69091, -1.22795, -1.5395, -0.900059, -1.19204, 1.22767, -1.30263, 0.00389335, -0.00595105, -0.00242753, -0.000336037, 0.0086064, 0.000251643, -0.00282174, 0.325081, 64.7751, 31.8088, 6.84296, 2.10498, 4.29904, -0.186696, 0.000248747, -0.0022262, 0.00206702, 0.00251021, 0.00205569, 0.00118581, -0.00204205, -0.00304785, -0.00454592, 0.000841491, -0.0120918, 0.00907954, 0.471008, -0.543389, 0.335894, -2.08385, -2.16584, -0.129887, 0.468701, -0.542916, 0.333959, -2.08271, -2.16244, -0.129065, -0.000106661, 0.000397984, 2.61782e-05, 0.00270014, 0.00323835, -0.00423749
0.0191814, 1.69091, -1.22795, -1.5395, -0.900059, -1.19204, 1.22767, -1.30263, 0.00389335, -0.00595105, -0.00242753, -0.000336037, 0.0086064, 0.000251643, -0.00282174, 0.325081, 64.7751, 31.8088, 6.84296, 2.10498, 4.29904, -0.186696, 0.000248535, -0.00222616, 0.002067, 0.00251016, 0.00205549, 0.0011859, -0.00197262, -0.00306268, -0.00454006, 0.00084209, -0.0120146, 0.0091285, 0.471008, -0.543389, 0.335894, -2.08385, -2.16584, -0.129887, 0.468701, -0.542916, 0.333959, -2.08271, -2.16244, -0.129065, -0.000124165, 0.000466826, 3.16113e-05, 0.00270014, 0.00323835, -0.00423749
0.0201814, 1.69091, -1.22795, -1.5395, -0.900059, -1.19204, 1.22767, -1.30263, 0.00389335, -0.00595105, -0.00242753, -0.000336037, 0.0086064, 0.000251643, -0.00282174, 0.325081, 64.7751, 31.8088, 6.84296, 2.10498, 4.29904, -0.186696, 0.000248264, -0.0022261, 0.00206698, 0.00251009, 0.00205523, 0.00118602, -0.00189828, -0.00307851, -0.00453382, 0.000842815, -0.0119321, 0.00918083, 0.471008, -0.543388, 0.335894, -2.08385, -2.16584, -0.129887, 0.468701, -0.542916, 0.333959, -2.08271, -2.16244, -0.129065, -0.000142864, 0.000540525, 3.74658e-05, 0.00270014, 0.00323835, -0.00423749
0.0211814, 1.69091, -1.22795, -1.5395, -0.900059, -1.19204, 1.22767, -1.30263, 0.00389335, -0.00595105, -0.00242753, -0.000336037, 0.0086064, 0.000251643, -0.00282174, 0.325081, 64.7751, 31.8088, 6.84296, 2.10498, 4.29904, -0.186696, 0.000247926, -0.00222602, 0.00206695, 0.00251001, 0.00205491, 0.00118617, -0.0018189, -0.00309538, -0.0045272, 0.000843675, -0.011844, 0.00923662, 0.471008, -0.543388, 0.335894, -2.08384, -2.16584, -0.129888, 0.468701, -0.542916, 0.333959, -2.08271, -2.16244, -0.129065, -0.000162789, 0.000619218, 4.37565e-05, 0.00270014, 0.00323835, -0.00423749
0.0221814, 1.69098, -1.22798, -1.53949, -0.900104, -1.19196, 1.22767, -1.30264, 0.0117924, -0.00292899, 0.00187543, -0.00428757, 0.00716194, 2.59191e-06, -0.000192099, -0.0557783, 64.8862, 31.6224, 7.06909, 1.95209, 4.29904, -0.166554, 0.000305723, -0.00216509, 0.00209249, 0.00249373, 0.00214738, 0.00103952, -0.00732299, -0.0089257, -0.00220293, 0.000854221, -0.00735941, 0.0194536, 0.471008, -0.543388, 0.335894, -2.08384, -2.16584, -0.129888, 0.468759, -0.542852, 0.33394, -2.08252, -2.16255, -0.129192, -0.000183971, 0.000703042, 5.04979e-05, 0.00838884, 0.00863678, -0.00125718
0.0231814, 1.69099, -1.22799, -1.53949, -0.900099, -1.19195, 1.22767, -1.30264, 0.0118404, -0.00426135, 0.000414458, -0.000417788, 0.00639065, 0.000239124, -0.00184462, -0.0557783, 64.8505, 31.6581, 6.95801, 1.92096, 4.29263, -0.120778, 0.000308904, -0.00216135, 0.00209397, 0.00249064, 0.00215858, 0.00103195, -0.00550291, -0.00782974, -0.00294253, 0.00114536, -0.00808402, 0.0168919, 0.471008, -0.543387, 0.335894, -2.08384, -2.16584, -0.129888, 0.468762, -0.542848, 0.333939, -2.08251, -2.16255, -0.129208, -0.000206438, 0.000792126, 5.77046e-05, 0.00731021, 0.00699802, -0.00222971
0.0241814, 1.691, -1.22799, -1.5395, -0.900107, -1.19195, 1.22767, -1.30263, 0.0119228, -0.00957449, -0.00355365, -0.00358144, 0.00664229, 0.00202441, 0.000212473, -0.0557783, 64.5926, 31.547, 6.95801, 1.86603, 4.24228, -0.160145, 0.000314334, -0.00215414, 0.00209898, 0.00249424, 0.00216526, 0.00102186, -0.00492634, -0.00835323, -0.00774964, -0.00261591, -0.0120578, 0.0160266, 0.471007, -0.543387, 0.335894, -2.08384, -2.16584, -0.129889, 0.468769, -0.542841, 0.333935, -2.08249, -2.16256, -0.129212, -0.000230219, 0.000886601, 6.53909e-05, 0.00765633, 0.0072846, -0.00707394
0.0251814, 1.69101, -1.22798, -1.5395, -0.900115, -1.19194, 1.22767, -1.30264, 0.0136772, -0.00606913, -0.00193122, -0.00181378, 0.00359762, 0.00166929, 0.00791503, -0.131157, 63.8547, 31.1027, 6.91833, 1.76807, 4.11319, -0.133595, 0.000322666, -0.00214417, 0.00209692, 0.00249437, 0.0021595, 0.000998739, -0.00517787, -0.00877896, -0.00498567, -0.00207468, -0.0063309, 0.00827445, 0.471007, -0.543386, 0.335894, -2.08384, -2.16584, -0.129889, 0.468779, -0.542832, 0.333938, -2.08247, -2.16259, -0.129209, -0.000255341, 0.00098659, 7.35711e-05, 0.00814716, 0.00722491, -0.00431034
0.0261814, 1.69103, -1.22799, -1.53951, -0.900122, -1.19194, 1.22767, -1.30264, 0.0176829, -0.00441952, -0.00616384, -0.00293905, 0.000702013, 0.00552218, 0.00382835, -0.317619, 62.97, 30.7297, 6.84296, 1.68201, 3.9841, -0.0750012, 0.000328064, -0.00213504, 0.0021069, 0.0025133, 0.0021611, 0.000979802, -0.00548165, -0.0109028, -0.0055391, -0.00479528, 0.000199433, 0.0143381, 0.471007, -0.543385, 0.335894, -2.08384, -2.16584, -0.12989, 0.468787, -0.542824, 0.333929, -2.08244, -2.1626, -0.129192, -0.00028183, 0.00109222, 8.22592e-05, 0.010211, 0.00780251, -0.00486497
0.0271814, 1.69103, -1.22799, -1.53951, -0.900122, -1.19194, 1.22767, -1.30264, 0.0176829, -0.00441952, -0.00616384, -0.00293905, 0.000702013, 0.00552218, 0.00382835, -0.317619, 62.97, 30.7297, 6.84296, 1.68201, 3.9841, -0.0750012, 0.000327172, -0.00213485, 0.00210682, 0.00251308, 0.00216026, 0.000980195, -0.00536925, -0.0109264, -0.00553005, -0.00479341, 0.000323611, 0.0144164, 0.471007, -0.543384, 0.335894, -2.08384, -2.16584, -0.129891, 0.468787, -0.542824, 0.333929, -2.08244, -2.1626, -0.129192, -0.000309711, 0.0012036, 9.14692e-05, 0.010211, 0.00780251, -0.00486497
0.0281814, 1.69103, -1.22799, -1.53951, -0.900122, -1.19194, 1.22767, -1.30264, 0.0176829, -0.00441952, -0.00616384, -0.00293905, 0.000702013, 0.00552218, 0.00382835, -0.317619, 62.97, 30.7297, 6.84296, 1.68201, 3.9841, -0.0750012, 0.000326163, -0.00213463, 0.00210674, 0.00251283, 0.0021593, 0.00098064, -0.00525093, -0.0109512, -0.00552057, -0.00479134, 0.000454251, 0.0144987, 0.471007, -0.543383, 0.335894, -2.08384, -2.16584, -0.129891, 0.468787, -0.542824, 0.333929, -2.08244, -2.1626, -0.129192, -0.000339009, 0.00132085, 0.000101215, 0.010211, 0.00780251, -0.00486497
0.0291814, 1.69107, -1.22805, -1.5396, -0.90015, -1.19194, 1.22767, -1.30264, 0.0116787, -0.0153214, -0.0225548, -0.00762676, 0.000464534, 0.00203555, 0.00274885, -0.619133, 60.7602, 29.4245, 6.62079, 1.50989, 3.85501, -0.0878186, 0.000329017, -0.00211984, 0.00218201, 0.00262046, 0.00221666, 0.000957584, 0.000245213, -0.00529225, -0.0183657, -0.0244602, -0.0105279, 0.00608352, 0.471006, -0.543382, 0.335894, -2.08384, -2.16584, -0.129892, 0.468799, -0.542808, 0.333855, -2.08232, -2.16255, -0.129134, -0.000369746, 0.00144407, 0.00011151, 0.00426147, 0.00424541, -0.0182208
0.0301814, 1.69108, -1.22808, -1.53964, -0.90016, -1.19195, 1.22766, -1.30264, 0.0121758, -0.0138719, -0.0269619, -0.0108225, -0.000578991, 0.00261851, 0.00111151, -0.658806, 60.173, 29.0912, 6.54541, 1.52179, 3.81198, -0.0621838, 0.000325438, -0.00211656, 0.00221438, 0.00266553, 0.00223723, 0.000952669, 0.000253936, -0.00549671, -0.0194845, -0.029765, -0.00722055, 0.00860489, 0.471006, -0.543381, 0.335894, -2.08384, -2.16584, -0.129893, 0.468801, -0.542805, 0.333822, -2.08228, -2.16253, -0.129106, -0.000401943, 0.00157338, 0.000122367, 0.00439339, 0.0045467, -0.0193221
0.0311814, 1.69109, -1.22813, -1.53967, -0.900166, -1.19195, 1.22767, -1.30264, 0.0141748, -0.0284225, -0.0285215, -0.00919981, -0.00279031, 0.0030902, 0.000674937, -0.619133, 59.9866, 28.6826, 6.43433, 1.57764, 3.76895, -0.0557752, 0.000317407, -0.00211297, 0.00225638, 0.00270029, 0.00227462, 0.000953185, 0.00214961, -0.00610783, -0.0284156, -0.0325038, -0.0195021, 0.0084702, 0.471006, -0.54338, 0.335895, -2.08384, -2.16584, -0.129894, 0.468803, -0.542805, 0.33378, -2.08224, -2.16249, -0.129106, -0.00043562, 0.00170887, 0.000133799, 0.00471543, 0.00421046, -0.0284421
0.0321814, 1.69111, -1.22816, -1.5397, -0.900184, -1.19195, 1.22768, -1.30263, 0.0144235, -0.0271498, -0.027337, -0.012348, -0.00187477, 0.00373822, 0.00203649, -0.658806, 59.5819, 28.3097, 6.5097, 1.57123, 3.7186, -0.0951428, 0.000318205, -0.00210358, 0.00228893, 0.0027367, 0.00229735, 0.000944489, 0.000770372, -0.00738756, -0.0276292, -0.0319052, -0.0182964, 0.0110627, 0.471005, -0.543378, 0.335895, -2.08383, -2.16584, -0.129895, 0.46881, -0.542798, 0.333747, -2.0822, -2.16247, -0.129091, -0.000470796, 0.00185063, 0.00014582, 0.00593738, 0.00564522, -0.0274781
0.0331814, 1.69113, -1.2282, -1.53973, -0.900192, -1.19196, 1.22768, -1.30263, 0.0137639, -0.0295112, -0.0266283, -0.0110753, -0.0014388, 0.00394569, 0.00118274, -0.658806, 59.324, 27.9368, 6.43433, 1.57123, 3.67557, -0.0878186, 0.000316206, -0.00209551, 0.00232115, 0.00276693, 0.00232336, 0.000935451, 0.00159649, -0.00701846, -0.0285249, -0.0303877, -0.0209173, 0.0107859, 0.471005, -0.543376, 0.335895, -2.08383, -2.16584, -0.129896, 0.468817, -0.542793, 0.333715, -2.08216, -2.16246, -0.129086, -0.000507488, 0.00199877, 0.000158442, 0.00552927, 0.00510061, -0.028467
0.0341814, 1.69115, -1.22824, -1.53976, -0.900197, -1.19195, 1.22768, -1.30264, 0.0174049, -0.0311813, -0.0286584, -0.0092591, 5.19804e-05, 0.00384777, -0.00154674, -0.694511, 59.213, 27.6749, 6.32324, 1.5401, 3.63986, -0.0228162, 0.000314853, -0.00208697, 0.00235814, 0.00280304, 0.00235971, 0.000918855, 0.000946177, -0.00851013, -0.0301626, -0.0313926, -0.0235954, 0.015182, 0.471004, -0.543375, 0.335895, -2.08383, -2.16584, -0.129898, 0.468824, -0.542786, 0.333678, -2.0821, -2.16244, -0.129086, -0.000545713, 0.00215336, 0.000171677, 0.00689839, 0.00621038, -0.0300149
0.0351814, 1.69117, -1.22826, -1.53979, -0.900199, -1.19196, 1.22769, -1.30264, 0.0192443, -0.0263679, -0.0266692, -0.00713479, -0.00317861, 0.00380877, -0.00145168, -0.694511, 58.9908, 27.417, 6.17248, 1.49707, 3.60415, -0.00999879, 0.000312858, -0.00207882, 0.00238352, 0.00282783, 0.0023765, 0.000910922, 0.0006966, -0.00899443, -0.0264233, -0.0300674, -0.0162498, 0.0149406, 0.471004, -0.543373, 0.335895, -2.08383, -2.16584, -0.129899, 0.46883, -0.542782, 0.333653, -2.08207, -2.16243, -0.129078, -0.000585484, 0.00231447, 0.000185536, 0.00746834, 0.00606217, -0.0262846
0.0361814, 1.69119, -1.22828, -1.53982, -0.900212, -1.19195, 1.2277, -1.30264, 0.0243238, -0.0232605, -0.0236748, -0.0101724, -0.000996815, 0.00434502, 0.000768279, -0.694511, 58.8083, 27.2306, 6.20819, 1.45404, 3.5538, -0.0557752, 0.000318149, -0.00206413, 0.00240757, 0.0028566, 0.00238976, 0.000892265, -0.00357359, -0.0133748, -0.0241635, -0.027942, -0.014252, 0.0226236, 0.471003, -0.54337, 0.335895, -2.08383, -2.16584, -0.129901, 0.468843, -0.54277, 0.33363, -2.08203, -2.16243, -0.129063, -0.000626814, 0.0024822, 0.000200032, 0.0117306, 0.010277, -0.0235079
0.0371814, 1.69122, -1.22831, -1.53984, -0.90022, -1.19195, 1.2277, -1.30264, 0.0244981, -0.0242184, -0.023758, -0.010327, 0.000779027, 0.00444603, -0.000440672, -0.694511, 58.7726, 27.1552, 6.17248, 1.40552, 3.51077, -0.0292249, 0.000323701, -0.00204828, 0.00243099, 0.00288298, 0.00240424, 0.000865781, -0.00375612, -0.0137641, -0.0247641, -0.0272741, -0.0163941, 0.0248336, 0.471003, -0.543368, 0.335896, -2.08382, -2.16584, -0.129903, 0.468858, -0.542758, 0.333607, -2.08197, -2.16244, -0.129052, -0.000669715, 0.00265659, 0.000215176, 0.0120482, 0.0107401, -0.0240692
0.0381814, 1.69124, -1.22833, -1.53987, -0.900227, -1.19195, 1.22771, -1.30263, 0.0241943, -0.0217728, -0.0253795, -0.00801407, -0.00376834, 0.00479572, 0.00118714, -0.543754, 58.8837, 27.1552, 6.17248, 1.38721, 3.46042, -0.0685925, 0.00032448, -0.00203681, 0.00245402, 0.00290493, 0.00241709, 0.000858898, -0.00170857, -0.0123352, -0.0235225, -0.0291564, -0.00996469, 0.0186593, 0.471002, -0.543365, 0.335896, -2.08382, -2.16584, -0.129904, 0.468868, -0.542751, 0.333584, -2.08195, -2.16243, -0.129044, -0.000714195, 0.00283772, 0.000230977, 0.0106947, 0.00865024, -0.0231021
0.0391814, 1.69126, -1.22834, -1.5399, -0.900247, -1.19195, 1.22771, -1.30264, 0.0204296, -0.0176219, -0.0266331, -0.0130208, -0.00218731, 0.0039521, -0.0011242, -0.357292, 58.9194, 27.306, 6.32324, 1.36249, 3.43936, -0.0164075, 0.000329827, -0.00202438, 0.00247133, 0.00293886, 0.00241521, 0.00082793, -0.00186079, -0.0111062, -0.0220826, -0.031683, -0.00693774, 0.0216178, 0.471001, -0.543363, 0.335896, -2.08382, -2.16584, -0.129906, 0.468879, -0.54274, 0.333568, -2.08189, -2.16245, -0.129009, -0.000760263, 0.00302564, 0.000247448, 0.0094678, 0.00871657, -0.0216032
0.0401814, 1.69128, -1.22835, -1.53991, -0.900264, -1.19195, 1.22771, -1.30264, 0.0144016, -0.0186485, -0.0218836, -0.0121896, -0.000748279, 0.00234476, -0.00148259, -0.0161054, 59.1415, 27.3774, 6.43433, 1.33136, 3.44668, 0.00373412, 0.000334058, -0.00201496, 0.00248581, 0.00296151, 0.00242241, 0.000807937, -8.70164e-05, -0.00830258, -0.0206948, -0.0269977, -0.0102881, 0.0182171, 0.471001, -0.54336, 0.335896, -2.08381, -2.16584, -0.129908, 0.468887, -0.54273, 0.333554, -2.08185, -2.16246, -0.128996, -0.000807924, 0.0032204, 0.000264596, 0.00673364, 0.0068319, -0.0204066
0.0411814, 1.69129, -1.22835, -1.53993, -0.900281, -1.19195, 1.22772, -1.30264, 0.0132372, -0.0148333, -0.0199588, -0.0114079, -0.00106843, 0.00209167, 4.59514e-06, 0.325081, 59.324, 27.5281, 6.54541, 1.33777, 3.43204, -0.0228162, 0.000338144, -0.00200419, 0.00249598, 0.00297983, 0.00241794, 0.000791109, 0.000147687, -0.00770464, -0.0176081, -0.0248075, -0.00635365, 0.0157821, 0.471, -0.543357, 0.335896, -2.08381, -2.16584, -0.129911, 0.468896, -0.542721, 0.333545, -2.08182, -2.16247, -0.128975, -0.000857184, 0.00342203, 0.000282433, 0.00620704, 0.00630225, -0.0173593
0.0421814, 1.69131, -1.22835, -1.53994, -0.900294, -1.19195, 1.22772, -1.30263, 0.0168989, -0.0118164, -0.0198853, -0.0123019, -0.000520641, 0.00111266, 0.000722375, 0.626595, 59.5065, 27.7503, 6.58508, 1.32587, 3.43936, -0.0420422, 0.00034345, -0.00199313, 0.00250372, 0.00299774, 0.00241485, 0.000772891, -0.00203708, -0.009843, -0.0161955, -0.0260784, -0.00385986, 0.0197682, 0.470999, -0.543353, 0.335897, -2.08381, -2.16584, -0.129913, 0.468906, -0.54271, 0.333538, -2.08179, -2.16249, -0.128956, -0.000908043, 0.00363059, 0.000300968, 0.00826461, 0.00853779, -0.0156712
0.0431814, 1.69133, -1.22836, -1.53995, -0.900308, -1.19195, 1.22772, -1.30264, 0.014376, -0.0110207, -0.0186554, -0.013813, -0.00603414, 0.00100515, -0.000971053, 0.888436, 59.7644, 27.9368, 6.65649, 1.34418, 3.43204, -0.00267457, 0.000348398, -0.00198022, 0.00251215, 0.00301241, 0.0024084, 0.000745247, -0.000398064, -0.00836976, -0.0153626, -0.0279157, 0.00160295, 0.0191743, 0.470998, -0.54335, 0.335897, -2.0838, -2.16584, -0.129916, 0.468917, -0.5427, 0.33353, -2.08176, -2.16251, -0.128939, -0.000960503, 0.00384608, 0.000320207, 0.0068295, 0.00694674, -0.0150396
0.0441814, 1.69134, -1.22837, -1.53995, -0.90032, -1.19196, 1.22773, -1.30264, 0.013185, -0.0111002, -0.0175763, -0.0132108, -0.00432739, 0.00559388, -0.00159274, 1.11457, 60.062, 28.1232, 6.65649, 1.33777, 3.42471, 0.0229602, 0.000353885, -0.001966, 0.00252142, 0.00302262, 0.00240808, 0.000717855, 0.000457898, -0.00883675, -0.0144639, -0.021715, 0.0024817, 0.019336, 0.470997, -0.543346, 0.335897, -2.0838, -2.16584, -0.129919, 0.46893, -0.542689, 0.333522, -2.08172, -2.16254, -0.128933, -0.00101456, 0.00406854, 0.000340161, 0.00730488, 0.00620498, -0.0142791
0.0451814, 1.69136, -1.22837, -1.53996, -0.900323, -1.19196, 1.22773, -1.30264, 0.0163946, -0.00736139, -0.0152527, -0.0102725, -0.00396958, 0.00411302, -0.00105877, 1.305, 60.2087, 28.3851, 6.54541, 1.35608, 3.42471, 0.0229602, 0.000356267, -0.0019556, 0.00252645, 0.00303626, 0.00239962, 0.000704456, -0.000917536, -0.0101411, -0.0113171, -0.0195901, 0.00513105, 0.0207222, 0.470996, -0.543342, 0.335898, -2.08379, -2.16583, -0.129921, 0.468939, -0.542681, 0.333517, -2.0817, -2.16255, -0.128913, -0.00107022, 0.00429798, 0.000360835, 0.00861625, 0.00736127, -0.0109771
0.0461814, 1.69139, -1.22838, -1.53998, -0.900332, -1.19196, 1.22773, -1.30263, 0.0213222, -0.00906589, -0.0163736, -0.0111917, -0.00386678, 0.00197867, 0.00146658, 1.38038, 60.538, 28.6429, 6.54541, 1.3808, 3.45309, -0.0356336, 0.0003612, -0.00194099, 0.00253946, 0.00305734, 0.00239905, 0.000687119, -0.00298948, -0.0126128, -0.0132715, -0.0237222, 0.00286605, 0.0235565, 0.470995, -0.543338, 0.335898, -2.08379, -2.16583, -0.129925, 0.468952, -0.54267, 0.333505, -2.08166, -2.16256, -0.128894, -0.00112746, 0.0045344, 0.000382238, 0.0108828, 0.0100453, -0.0126383
0.0471814, 1.69142, -1.22839, -1.53998, -0.900326, -1.19197, 1.22773, -1.30264, 0.0193396, -0.00840258, -0.0154072, -0.00978224, -0.00740741, 0.000449912, 0.00026736, 1.41608, 60.7959, 28.8294, 6.32324, 1.3808, 3.48239, -0.0164075, 0.000363586, -0.00192864, 0.00254748, 0.0030696, 0.00239903, 0.000671251, -0.00116766, -0.0107146, -0.0123556, -0.0248121, 0.00568867, 0.020999, 0.470994, -0.543333, 0.335898, -2.08379, -2.16583, -0.129928, 0.468963, -0.542661, 0.333498, -2.08163, -2.16257, -0.128885, -0.00118629, 0.0047778, 0.000404375, 0.00902652, 0.00827151, -0.0119374
0.0481814, 1.69143, -1.22839, -1.53999, -0.900323, -1.19197, 1.22773, -1.30264, 0.021039, -0.00691766, -0.0129672, -0.00342813, -0.00549317, -0.00140312, -0.00202452, 1.57081, 61.0181, 28.9405, 6.13678, 1.3808, 3.53274, 0.0431018, 0.000364455, -0.0019195, 0.00255139, 0.00307592, 0.00239737, 0.000654402, -0.00100092, -0.0105816, -0.00997033, -0.0205082, 0.00429846, 0.0213617, 0.470993, -0.543328, 0.335899, -2.08378, -2.16583, -0.129931, 0.468971, -0.542654, 0.333494, -2.08161, -2.16259, -0.128882, -0.00124669, 0.00502817, 0.000427252, 0.00892536, 0.00798464, -0.00958116
0.0491814, 1.69147, -1.2284, -1.54, -0.900318, -1.19197, 1.22772, -1.30264, 0.0280455, -0.00930477, -0.0130795, -0.00391784, -0.00499381, -0.00186515, -0.000602729, 1.49146, 61.387, 29.1269, 6.02173, 1.40552, 3.56112, 0.0229602, 0.000368885, -0.00190275, 0.00256561, 0.0030926, 0.00240491, 0.000635599, -0.00389651, -0.0146691, -0.011871, -0.0222961, 0.00184074, 0.0276191, 0.470992, -0.543323, 0.335899, -2.08377, -2.16583, -0.129935, 0.468985, -0.542642, 0.333481, -2.08157, -2.1626, -0.128876, -0.00130866, 0.00528549, 0.000450875, 0.0127734, 0.0115606, -0.0111079
0.0501814, 1.69149, -1.22841, -1.54001, -0.900316, -1.19198, 1.22772, -1.30263, 0.0282084, -0.00915964, -0.0113729, -0.00193593, -0.00431951, 0.0026334, 0.00153168, 1.60651, 61.6806, 29.238, 5.95032, 1.42383, 3.58218, -0.0292249, 0.000368585, -0.00189291, 0.00257463, 0.00310681, 0.00240393, 0.000631007, -0.00314584, -0.0155698, -0.0105035, -0.0156448, 0.00367556, 0.0251323, 0.47099, -0.543318, 0.3359, -2.08377, -2.16583, -0.129939, 0.468994, -0.542635, 0.333472, -2.08155, -2.1626, -0.128864, -0.00137217, 0.00554973, 0.000475247, 0.0136856, 0.0109102, -0.00987692
0.0511814, 1.69152, -1.22843, -1.54003, -0.900307, -1.19198, 1.22772, -1.30263, 0.0273285, -0.00902293, -0.0129127, 0.000654781, -0.00379194, 0.00166184, 0.000784308, 1.64619, 61.9742, 29.4642, 5.83527, 1.44214, 3.59683, -0.0228162, 0.000365791, -0.00188232, 0.00258727, 0.00312201, 0.00240387, 0.000624883, -0.00161286, -0.0141596, -0.0106294, -0.0161992, 0.00304158, 0.022361, 0.470989, -0.543313, 0.3359, -2.08376, -2.16583, -0.129943, 0.469002, -0.54263, 0.333459, -2.08153, -2.1626, -0.128852, -0.00143722, 0.00582086, 0.000500373, 0.0122625, 0.00962967, -0.0101717
0.0521814, 1.69155, -1.22844, -1.54004, -0.900303, -1.19199, 1.22772, -1.30264, 0.0302254, -0.00888023, -0.0120729, 0.00310196, -0.00385642, 0.0011732, 0.00364332, 1.64619, 62.2717, 29.611, 5.83527, 1.47327, 3.60415, 0.0165515, 0.000366713, -0.00186765, 0.00260039, 0.00313894, 0.00240392, 0.0006051, -0.00211751, -0.0153437, -0.0100843, -0.0151914, 0.00312944, 0.0207874, 0.470987, -0.543307, 0.335901, -2.08376, -2.16583, -0.129947, 0.469015, -0.542621, 0.333446, -2.0815, -2.16261, -0.128839, -0.00150377, 0.00609884, 0.000526256, 0.0133801, 0.0103705, -0.00956488
0.0531814, 1.69158, -1.22846, -1.54005, -0.9003, -1.192, 1.22772, -1.30264, 0.0291674, -0.0104196, -0.0124334, 0.000989148, -0.00358424, -1.65906e-05, 0.00304805, 1.64619, 62.6407, 29.7974, 5.87494, 1.49707, 3.63254, 0.0101428, 0.000368526, -0.00185237, 0.00261563, 0.00315836, 0.00240909, 0.00058758, -0.0019477, -0.0150552, -0.0114374, -0.017369, 0.00127052, 0.0223286, 0.470986, -0.543301, 0.335901, -2.08375, -2.16583, -0.129951, 0.469028, -0.54261, 0.333432, -2.08146, -2.16262, -0.128829, -0.00157182, 0.00638361, 0.000552899, 0.012981, 0.0106843, -0.010892
0.0541814, 1.69161, -1.22846, -1.54006, -0.900296, -1.19201, 1.22772, -1.30263, 0.0275454, -0.0102298, -0.0100695, 0.00209446, -0.00364114, -0.000635536, 0.00401382, 1.68189, 62.8232, 29.8728, 5.95032, 1.5282, 3.65451, -0.0356336, 0.000369801, -0.00183794, 0.00262239, 0.00316746, 0.00240278, 0.000576146, -0.0011675, -0.0142509, -0.0102829, -0.015061, 0.00122149, 0.0201054, 0.470984, -0.543294, 0.335902, -2.08374, -2.16583, -0.129956, 0.469041, -0.542601, 0.333425, -2.08144, -2.16263, -0.128818, -0.00164135, 0.0066751, 0.000580303, 0.0121779, 0.00999491, -0.00982147
0.0551814, 1.69163, -1.22847, -1.54006, -0.900292, -1.19202, 1.22772, -1.30263, 0.0293087, -0.00558547, -0.00848923, 0.00393032, -0.00341702, -0.00211275, 0.00336537, 1.72157, 62.9343, 29.9482, 5.98602, 1.55292, 3.70395, -0.0484509, 0.000370416, -0.00182433, 0.00262576, 0.00318019, 0.00238663, 0.00056353, -0.0020618, -0.0148403, -0.00694012, -0.01386, 0.00505448, 0.0218364, 0.470983, -0.543288, 0.335902, -2.08374, -2.16583, -0.12996, 0.469053, -0.542592, 0.333422, -2.08142, -2.16264, -0.128794, -0.00171231, 0.00697325, 0.000608468, 0.0127843, 0.0106854, -0.00637153
0.0561814, 1.69167, -1.22847, -1.54007, -0.900291, -1.19203, 1.22772, -1.30264, 0.0333299, -0.00235563, -0.00743246, 0.00126516, -0.0068006, -0.00211581, -2.84294e-06, 1.64619, 63.0453, 30.0236, 6.0614, 1.54651, 3.72592, 0.0165515, 0.000376802, -0.00180419, 0.00263109, 0.0031922, 0.00237765, 0.000531804, -0.00417838, -0.0174981, -0.00522807, -0.0161237, 0.011663, 0.0310294, 0.470981, -0.543281, 0.335903, -2.08373, -2.16582, -0.129965, 0.469071, -0.542577, 0.333418, -2.08138, -2.16268, -0.12878, -0.00178469, 0.00727797, 0.000637396, 0.0153523, 0.0129249, -0.00440355
0.0571814, 1.6917, -1.22847, -1.54007, -0.900294, -1.19203, 1.22771, -1.30263, 0.0338254, -0.00413211, -0.0057975, 0.00106516, -0.0078315, -0.00292436, 0.000593631, 1.68189, 63.1921, 30.0593, 6.20819, 1.49707, 3.76895, 0.00373412, 0.000381891, -0.00178716, 0.0026366, 0.00320602, 0.00237085, 0.000508235, -0.004198, -0.0179386, -0.00579541, -0.0161858, 0.0106072, 0.0317817, 0.470979, -0.543273, 0.335904, -2.08372, -2.16582, -0.129971, 0.469085, -0.542564, 0.333413, -2.08134, -2.1627, -0.128765, -0.00185846, 0.00758918, 0.000667086, 0.0156973, 0.013361, -0.00494428
0.0581814, 1.69172, -1.22848, -1.54007, -0.900293, -1.19204, 1.22772, -1.30263, 0.0321444, -0.00553442, 0.00165276, 0.00262731, -0.00481856, -0.00294083, 0.000249001, 1.79694, 63.3389, 30.095, 6.28357, 1.46686, 3.79733, 0.0101428, 0.000381764, -0.00177348, 0.00264294, 0.00321312, 0.00236539, 0.000491951, -0.0046816, -0.018387, -0.00365251, -0.00737818, 0.00641138, 0.0339286, 0.470977, -0.543266, 0.335904, -2.08371, -2.16582, -0.129976, 0.469097, -0.542555, 0.333407, -2.08131, -2.16272, -0.128759, -0.00193359, 0.00790677, 0.000697537, 0.0161301, 0.0138444, -0.00273632
0.0591814, 1.69176, -1.22849, -1.54008, -0.900289, -1.19205, 1.22771, -1.30263, 0.0315202, -0.00579758, -0.00189888, 0.00239738, -0.0127343, -0.00245816, 0.00216674, 1.75727, 63.45, 30.2457, 6.28357, 1.45404, 3.81198, -0.0420422, 0.000384148, -0.00175532, 0.00264923, 0.00323013, 0.00235008, 0.00047424, -0.00176788, -0.0167257, -0.00500241, -0.0137763, 0.0134577, 0.0274633, 0.470975, -0.543258, 0.335905, -2.0837, -2.16582, -0.129982, 0.469113, -0.542543, 0.333402, -2.08129, -2.16274, -0.128732, -0.00201003, 0.00823062, 0.000728745, 0.0144499, 0.0114317, -0.00444045
0.0601814, 1.69179, -1.2285, -1.54008, -0.900291, -1.19207, 1.22771, -1.30263, 0.0272719, -0.00952931, -0.00170681, 0.000319397, -0.0151085, -0.00214761, 0.000546021, 1.87232, 63.7079, 30.2814, 6.35895, 1.47327, 3.82663, -0.0164075, 0.000382783, -0.00174126, 0.00266083, 0.00324327, 0.00234772, 0.000456534, 0.00064294, -0.0147609, -0.00714245, -0.0150633, 0.0122301, 0.0262997, 0.470973, -0.54325, 0.335906, -2.08369, -2.16582, -0.129988, 0.469125, -0.542533, 0.33339, -2.08125, -2.16275, -0.128722, -0.00208776, 0.00856062, 0.000760709, 0.0124189, 0.00963098, -0.00683679
0.0611814, 1.69182, -1.22851, -1.54008, -0.900292, -1.19207, 1.22771, -1.30263, 0.0288462, -0.00951065, -0.000842136, -0.000259001, -0.0154649, -0.0019151, -0.000818465, 1.79694, 63.8547, 30.2814, 6.39465, 1.45404, 3.84036, 0.0165515, 0.000389742, -0.00171798, 0.00266832, 0.00325352, 0.00234222, 0.00041953, 2.57499e-05, -0.0159937, -0.00694545, -0.0147732, 0.0130654, 0.030246, 0.470971, -0.543241, 0.335906, -2.08369, -2.16582, -0.129994, 0.469145, -0.542516, 0.333384, -2.0812, -2.16279, -0.128715, -0.00216672, 0.00889664, 0.000793423, 0.0135561, 0.0105966, -0.00655088
0.0621814, 1.69185, -1.22852, -1.54009, -0.900292, -1.19208, 1.22771, -1.30263, 0.0293812, -0.00956718, -0.00210286, 9.97974e-05, -0.0119136, -0.000986509, 0.000195102, 1.87232, 64.0015, 30.3568, 6.39465, 1.46045, 3.83304, -0.00267457, 0.000388182, -0.00170297, 0.00267759, 0.00326681, 0.00233362, 0.00040581, -9.89889e-05, -0.0166293, -0.00730038, -0.0133156, 0.0110022, 0.0302579, 0.470969, -0.543232, 0.335907, -2.08368, -2.16582, -0.13, 0.469158, -0.542506, 0.333375, -2.08117, -2.1628, -0.1287, -0.0022469, 0.00923859, 0.000826888, 0.0140934, 0.0111425, -0.00686769
0.0631814, 1.69189, -1.22854, -1.5401, -0.900289, -1.1921, 1.22771, -1.30263, 0.0286689, -0.0114198, -0.00383401, 0.0011061, -0.0141444, -0.000643457, 0.00160963, 1.87232, 64.2236, 30.4679, 6.35895, 1.47327, 3.83304, -0.0420422, 0.000386842, -0.00168517, 0.00269298, 0.00328425, 0.00233144, 0.000391167, 0.00187507, -0.0156121, -0.00877361, -0.0151221, 0.0115365, 0.0259479, 0.470967, -0.543223, 0.335908, -2.08367, -2.16581, -0.130006, 0.469173, -0.542495, 0.33336, -2.08114, -2.16281, -0.128686, -0.00232828, 0.00958644, 0.000861108, 0.0130136, 0.00972699, -0.00856414
0.0641814, 1.69191, -1.22855, -1.54011, -0.900294, -1.19211, 1.22771, -1.30263, 0.0292884, -0.0109305, -0.00502969, 5.54418e-05, -0.0164765, -0.000960845, -0.000368849, 1.9477, 64.3704, 30.579, 6.39465, 1.50348, 3.84768, -0.00267457, 0.000385316, -0.00166988, 0.00270422, 0.00330417, 0.0023215, 0.000368135, 0.00227699, -0.0157219, -0.00909309, -0.0180653, 0.0143483, 0.0283299, 0.470965, -0.543213, 0.335909, -2.08366, -2.16581, -0.130013, 0.469185, -0.542485, 0.333349, -2.0811, -2.16283, -0.128663, -0.00241084, 0.00994017, 0.000896084, 0.0130436, 0.00973781, -0.00891041
0.0651814, 1.69195, -1.22856, -1.54011, -0.900287, -1.19213, 1.22771, -1.30263, 0.0283312, -0.00979816, -0.00325956, 0.00182234, -0.0169452, -0.000632567, 0.00364377, 1.9477, 64.4815, 30.579, 6.32324, 1.50348, 3.84768, 0.0101428, 0.000385438, -0.00165134, 0.00270808, 0.00331054, 0.00230701, 0.00034692, 0.00324362, -0.0151601, -0.00745319, -0.0153526, 0.016122, 0.0227373, 0.470962, -0.543204, 0.33591, -2.08365, -2.16581, -0.13002, 0.469201, -0.542473, 0.333346, -2.08107, -2.16286, -0.12865, -0.00249458, 0.0102997, 0.000931821, 0.0124926, 0.00886755, -0.00738872
0.0661814, 1.69197, -1.22856, -1.54011, -0.900294, -1.19214, 1.22771, -1.30263, 0.0320829, -0.00813707, -0.00386609, -0.000369331, -0.0175564, -0.000415714, 0.004259, 2.02308, 64.5529, 30.6544, 6.39465, 1.50989, 3.84768, -0.0292249, 0.000383829, -0.00163603, 0.00271411, 0.00332678, 0.00228802, 0.000332175, 0.00141319, -0.0176582, -0.00715115, -0.017449, 0.0191339, 0.0274604, 0.47096, -0.543193, 0.335911, -2.08363, -2.16581, -0.130028, 0.469214, -0.542463, 0.33334, -2.08105, -2.16287, -0.128622, -0.00257947, 0.0106651, 0.000968322, 0.014848, 0.011096, -0.00684499
0.0671814, 1.692, -1.22856, -1.54012, -0.900292, -1.19215, 1.22771, -1.30262, 0.0296808, -0.00454039, -0.004288, -0.000181564, -0.0166263, -0.000543912, 0.00383023, 2.05878, 64.5172, 30.7297, 6.39465, 1.47876, 3.85501, -0.0484509, 0.000381723, -0.00162013, 0.0027155, 0.00333697, 0.002264, 0.000322099, 0.0024662, -0.0162825, -0.00502209, -0.0167077, 0.0222297, 0.0256403, 0.470957, -0.543183, 0.335912, -2.08362, -2.16581, -0.130035, 0.469227, -0.542454, 0.333339, -2.08103, -2.16289, -0.128595, -0.00266552, 0.0110363, 0.00100559, 0.0135027, 0.0100432, -0.00482767
0.0681814, 1.69204, -1.22857, -1.54013, -0.900295, -1.19216, 1.22771, -1.30263, 0.0313244, -0.00475334, -0.00365441, -0.00100057, -0.0116059, -0.00113913, 0.000355108, 1.9477, 64.5926, 30.7654, 6.43433, 1.45404, 3.87607, 0.0165515, 0.00038507, -0.00159752, 0.00272216, 0.00335289, 0.00224811, 0.000285832, 0.000707161, -0.018032, -0.00515052, -0.0149698, 0.0180984, 0.0336929, 0.470954, -0.543172, 0.335913, -2.08361, -2.1658, -0.130043, 0.469247, -0.542437, 0.333333, -2.08098, -2.16293, -0.128573, -0.00275269, 0.0114132, 0.00104363, 0.0150951, 0.0122484, -0.00469592
0.0691814, 1.69207, -1.22856, -1.54013, -0.900292, -1.19218, 1.22771, -1.30263, 0.0247254, -0.00221325, -0.00157145, 0.0036797, -0.00837432, -0.000248263, 0.000393576, 2.02308, 64.5529, 30.7297, 6.39465, 1.44214, 3.86233, 0.0165515, 0.000382261, -0.00158182, 0.00271997, 0.00335545, 0.00222242, 0.000270996, 0.00419596, -0.0142091, -0.00182141, -0.00737708, 0.0180848, 0.0253287, 0.470952, -0.54316, 0.335914, -2.0836, -2.1658, -0.130051, 0.46926, -0.542428, 0.333335, -2.08096, -2.16296, -0.128553, -0.00284098, 0.0117958, 0.00108244, 0.0114342, 0.00851709, -0.00179686
0.0701814, 1.6921, -1.22856, -1.54014, -0.900287, -1.19219, 1.22771, -1.30262, 0.0265865, 0.00114367, -0.00538712, 0.00359749, -0.0111068, -0.000672237, 0.00207543, 1.9477, 64.4418, 30.9162, 6.35895, 1.44214, 3.87607, -0.0292249, 0.00037975, -0.00156517, 0.00272061, 0.00337451, 0.00219089, 0.000262063, 0.00471482, -0.0142262, -0.00132393, -0.0123834, 0.0241954, 0.023001, 0.470949, -0.543148, 0.335915, -2.08359, -2.1658, -0.130059, 0.469274, -0.542418, 0.333335, -2.08095, -2.16298, -0.128509, -0.00293038, 0.0121842, 0.00112203, 0.0113985, 0.00831733, -0.00134731
0.0711814, 1.69213, -1.22856, -1.54014, -0.900291, -1.1922, 1.22771, -1.30262, 0.0261049, 0.00698924, -0.00357476, 0.000866945, -0.0131027, -0.000718002, 0.0017092, 1.9477, 64.4418, 30.9162, 6.43433, 1.44214, 3.88339, -0.0356336, 0.000378888, -0.00154715, 0.00272201, 0.00338543, 0.00216665, 0.000240126, 0.00398841, -0.0146218, 0.00242103, -0.0124749, 0.0321641, 0.0256359, 0.470946, -0.543136, 0.335916, -2.08357, -2.1658, -0.130068, 0.469289, -0.542406, 0.333334, -2.08092, -2.16301, -0.128484, -0.00302087, 0.0125781, 0.0011624, 0.0118125, 0.00886748, 0.00249167
0.0721814, 1.69217, -1.22856, -1.54015, -0.900281, -1.19223, 1.22771, -1.30263, 0.0310017, 0.00426073, -0.00404112, 0.00335031, -0.0154465, -0.000748868, -0.000489788, 1.87232, 64.4815, 30.9876, 6.32324, 1.46686, 3.89071, 0.0101428, 0.000373609, -0.00153012, 0.00272588, 0.00339958, 0.00214064, 0.00022353, 0.00376623, -0.016588, 0.00075979, -0.0137917, 0.0317489, 0.0298003, 0.470943, -0.543124, 0.335917, -2.08356, -2.16579, -0.130077, 0.469303, -0.542397, 0.33333, -2.08089, -2.16303, -0.128452, -0.00311245, 0.0129778, 0.00120355, 0.0136165, 0.00982329, 0.00086764
0.0731814, 1.6922, -1.22856, -1.54015, -0.900279, -1.19224, 1.22771, -1.30263, 0.027875, 0.001567, -0.00361273, 0.00152874, -0.0175946, -0.000227178, -0.000751619, 1.79694, 64.5529, 31.0273, 6.35895, 1.50348, 3.88339, 0.0229602, 0.000369569, -0.0015115, 0.00273132, 0.00341406, 0.00211576, 0.000204629, 0.00566417, -0.0152949, -0.000688926, -0.0145418, 0.0315531, 0.0283748, 0.47094, -0.543111, 0.335918, -2.08355, -2.16579, -0.130086, 0.469318, -0.542387, 0.333325, -2.08087, -2.16306, -0.128422, -0.00320508, 0.013383, 0.00124549, 0.0122482, 0.00852528, -0.000776966
0.0741814, 1.69224, -1.22857, -1.54016, -0.900275, -1.19227, 1.22771, -1.30262, 0.0295635, 0.000414352, -0.00323668, 0.00195219, -0.0186813, -0.000422119, 0.00146892, 1.68189, 64.5926, 31.063, 6.32324, 1.5282, 3.89071, -0.0292249, 0.000365619, -0.00149232, 0.00273664, 0.00342986, 0.00209025, 0.000192635, 0.0056793, -0.0161544, -0.0012557, -0.0150254, 0.0316396, 0.0275585, 0.470937, -0.543097, 0.33592, -2.08353, -2.16579, -0.130095, 0.469334, -0.542376, 0.333319, -2.08084, -2.16308, -0.128389, -0.00329877, 0.0137938, 0.00128822, 0.0129929, 0.00904393, -0.00132227
0.0751814, 1.69228, -1.22857, -1.54016, -0.900268, -1.19229, 1.22771, -1.30262, 0.0331056, 0.000499515, -0.00308054, 0.00137482, -0.0189796, -0.00055223, 0.00148191, 1.60651, 64.5926, 31.1027, 6.32324, 1.5401, 3.89804, -0.0420422, 0.000361937, -0.00147257, 0.00273857, 0.00344232, 0.00206101, 0.000176467, 0.00436186, -0.0183172, -0.00140366, -0.0159356, 0.0325083, 0.0317938, 0.470933, -0.543083, 0.335921, -2.08352, -2.16579, -0.130105, 0.469351, -0.542364, 0.333318, -2.08082, -2.1631, -0.128357, -0.00339351, 0.0142102, 0.00133174, 0.0150056, 0.0108726, -0.00128541
0.0761814, 1.69231, -1.22858, -1.54017, -0.900258, -1.19231, 1.22771, -1.30262, 0.034451, -0.00376842, -0.00372017, 0.00273481, -0.0196965, -9.65479e-05, 0.000771517, 1.57081, 64.7751, 31.1741, 6.24786, 1.56482, 3.89071, -0.0356336, 0.000352727, -0.00145573, 0.00274956, 0.00345656, 0.00204376, 0.000166552, 0.00531302, -0.0188146, -0.00395657, -0.016329, 0.0294891, 0.0324501, 0.47093, -0.543069, 0.335922, -2.0835, -2.16578, -0.130115, 0.469364, -0.542357, 0.333306, -2.0808, -2.16312, -0.128335, -0.00348927, 0.0146321, 0.00137605, 0.0153483, 0.0107697, -0.00392481
0.0771814, 1.69236, -1.22859, -1.54017, -0.900242, -1.19233, 1.22771, -1.30263, 0.0344114, -0.00238669, -0.00247715, 0.0078467, -0.0201805, -0.000335379, -0.000690657, 1.45576, 64.7751, 31.1741, 6.13678, 1.58954, 3.89804, -0.00267457, 0.000347116, -0.00143568, 0.0027502, 0.00346532, 0.00201315, 0.000149703, 0.00696332, -0.017829, -0.00198934, -0.0130956, 0.0310743, 0.0300848, 0.470926, -0.543055, 0.335924, -2.08349, -2.16578, -0.130125, 0.469381, -0.542347, 0.333305, -2.08077, -2.16315, -0.128306, -0.00358604, 0.0150594, 0.00142116, 0.0143977, 0.0092243, -0.00216431
0.0781814, 1.6924, -1.22859, -1.54018, -0.900238, -1.19235, 1.22771, -1.30263, 0.0376273, -0.00233215, -0.007372, 0.00387363, -0.0204376, 0.000319138, -0.00116074, 1.34071, 64.8108, 31.2891, 6.20819, 1.60785, 3.88339, 0.0165515, 0.000341497, -0.00141421, 0.00275835, 0.00348812, 0.00198117, 0.000129512, 0.00592494, -0.0198255, -0.00433037, -0.0192829, 0.0328969, 0.0350506, 0.470923, -0.543039, 0.335925, -2.08347, -2.16578, -0.130135, 0.469398, -0.542335, 0.333297, -2.08074, -2.16317, -0.128261, -0.00368381, 0.0154923, 0.00146708, 0.0161718, 0.0111254, -0.00432881
0.0791814, 1.69244, -1.22861, -1.54019, -0.900226, -1.19238, 1.22771, -1.30262, 0.0388611, -0.00668103, -0.00423761, 0.00694339, -0.0205229, 0.000212901, 0.00116779, 1.26533, 65.033, 31.2494, 6.17248, 1.62616, 3.88339, -0.0356336, 0.000333701, -0.00139304, 0.00276994, 0.00350121, 0.00196366, 0.000120009, 0.00648987, -0.0205174, -0.00539913, -0.0157485, 0.0286263, 0.0330966, 0.470919, -0.543024, 0.335926, -2.08345, -2.16578, -0.130146, 0.469416, -0.542325, 0.333285, -2.08072, -2.16319, -0.12824, -0.00378258, 0.0159305, 0.0015138, 0.0167456, 0.0111995, -0.00544624
0.0801814, 1.69249, -1.22861, -1.5402, -0.90022, -1.19241, 1.22771, -1.30263, 0.0428181, -0.00616427, -0.00959762, 0.00994983, -0.0205629, 0.000413309, 0.00031043, 1.18995, 65.1083, 31.4002, 6.24786, 1.64447, 3.87607, -0.0228162, 0.000326367, -0.00137143, 0.00277917, 0.00352712, 0.00192893, 0.000102659, 0.00716677, -0.0212255, -0.00674481, -0.019397, 0.0299612, 0.0329158, 0.470915, -0.543008, 0.335928, -2.08344, -2.16577, -0.130157, 0.469433, -0.542313, 0.333276, -2.08068, -2.16321, -0.128189, -0.00388232, 0.0163742, 0.00156132, 0.0173287, 0.0112119, -0.00685423
0.0811814, 1.69253, -1.22863, -1.54021, -0.900208, -1.19244, 1.22772, -1.30263, 0.0483217, -0.0106702, -0.0121948, 0.0130816, -0.0254613, 0.000275619, -0.000534064, 1.15424, 65.2551, 31.3605, 6.28357, 1.66369, 3.87607, -0.00267457, 0.000317452, -0.00134948, 0.00278896, 0.00353928, 0.00190397, 8.59356e-05, 0.0080191, -0.022743, -0.0101568, -0.0237929, 0.0299692, 0.0339396, 0.470911, -0.542992, 0.335929, -2.08342, -2.16577, -0.130169, 0.469451, -0.542303, 0.333266, -2.08065, -2.16324, -0.128163, -0.00398302, 0.0168232, 0.00160966, 0.0186505, 0.0114086, -0.0103534
0.0821814, 1.69253, -1.22863, -1.54021, -0.900208, -1.19244, 1.22772, -1.30263, 0.0483217, -0.0106702, -0.0121948, 0.0130816, -0.0254613, 0.000275619, -0.000534064, 1.15424, 65.2551, 31.3605, 6.28357, 1.66369, 3.87607, -0.00267457, 0.000300416, -0.00134613, 0.00278782, 0.00353469, 0.00188816, 9.29409e-05, 0.00847927, -0.0228273, -0.0101314, -0.0237606, 0.0304576, 0.0342332, 0.470907, -0.542975, 0.335931, -2.0834, -2.16577, -0.13018, 0.469451, -0.542303, 0.333266, -2.08065, -2.16324, -0.128163, -0.00408468, 0.0172776, 0.00165881, 0.0186505, 0.0114086, -0.0103534
0.0831814, 1.69253, -1.22863, -1.54021, -0.900208, -1.19244, 1.22772, -1.30263, 0.0483217, -0.0106702, -0.0121948, 0.0130816, -0.0254613, 0.000275619, -0.000534064, 1.15424, 65.2551, 31.3605, 6.28357, 1.66369, 3.87607, -0.00267457, 0.000282919, -0.00134269, 0.00278666, 0.00352996, 0.00187193, 0.000100126, 0.00894485, -0.0229124, -0.0101058, -0.0237275, 0.0309514, 0.0345296, 0.470903, -0.542958, 0.335933, -2.08338, -2.16576, -0.130192, 0.469451, -0.542303, 0.333266, -2.08065, -2.16324, -0.128163, -0.00418727, 0.0177373, 0.00170878, 0.0186505, 0.0114086, -0.0103534
0.0841814, 1.69253, -1.22863, -1.54021, -0.900208, -1.19244, 1.22772, -1.30263, 0.0483217, -0.0106702, -0.0121948, 0.0130816, -0.0254613, 0.000275619, -0.000534064, 1.15424, 65.2551, 31.3605, 6.28357, 1.66369, 3.87607, -0.00267457, 0.000264956, -0.00133917, 0.00278546, 0.00352511, 0.00185527, 0.000107492, 0.00941583, -0.0229981, -0.0100802, -0.0236934, 0.0314504, 0.034829, 0.470899, -0.54294, 0.335934, -2.08336, -2.16576, -0.130204, 0.469451, -0.542303, 0.333266, -2.08065, -2.16324, -0.128163, -0.00429078, 0.0182023, 0.00175956, 0.0186505, 0.0114086, -0.0103534
0.0851814, 1.69272, -1.22869, -1.54027, -0.900171, -1.19256, 1.22771, -1.30263, 0.0436323, -0.0157603, -0.0167051, 0.0135136, -0.0287393, 6.4576e-05, -0.00101319, 1.03919, 65.7709, 31.5867, 6.58508, 1.63898, 3.88339, 0.0229602, 0.000275608, -0.00126387, 0.00284527, 0.00365486, 0.00178575, 3.5558e-05, 0.0141349, -0.0192444, -0.0143557, -0.0288049, 0.0295745, 0.0274355, 0.470895, -0.542922, 0.335936, -2.08334, -2.16576, -0.130217, 0.46952, -0.542262, 0.333208, -2.08053, -2.1633, -0.127969, -0.00439521, 0.0186725, 0.00181117, 0.0148119, 0.00772628, -0.0151445
0.0861814, 1.69277, -1.22869, -1.5403, -0.900161, -1.1926, 1.22771, -1.30263, 0.0469956, -0.0131443, -0.0187578, 0.012131, -0.0309428, -0.000499465, -0.000674284, 0.963814, 65.7312, 31.7335, 6.65649, 1.63898, 3.89804, 0.0229602, 0.000264448, -0.00124035, 0.00285775, 0.00369418, 0.00173881, 2.40066e-05, 0.0132729, -0.0207648, -0.0139378, -0.0330433, 0.0345811, 0.0301595, 0.47089, -0.542903, 0.335938, -2.08332, -2.16575, -0.13023, 0.469539, -0.542252, 0.333195, -2.0805, -2.16332, -0.127892, -0.00450054, 0.019148, 0.0018636, 0.0162092, 0.00905109, -0.0145915
0.0871814, 1.69282, -1.22871, -1.54032, -0.900147, -1.19264, 1.22771, -1.30262, 0.0460199, -0.0168971, -0.0207701, 0.0129475, -0.0332643, -0.000332962, 0.00124678, 1.03919, 65.9177, 31.7731, 6.65649, 1.65729, 3.89804, -0.0228162, 0.000247183, -0.00122107, 0.00287614, 0.00372953, 0.00170279, 2.654e-05, 0.0156776, -0.0196044, -0.0166516, -0.035482, 0.033375, 0.025196, 0.470886, -0.542884, 0.33594, -2.0833, -2.16575, -0.130243, 0.469553, -0.542246, 0.333176, -2.08048, -2.16332, -0.127829, -0.00460676, 0.0196287, 0.00191686, 0.0149322, 0.00752967, -0.0175573
0.0881814, 1.69288, -1.22872, -1.54035, -0.90014, -1.19268, 1.22771, -1.30262, 0.0485914, -0.0190271, -0.0223155, 0.011622, -0.0342955, -0.000221964, -0.000151493, 0.963814, 65.9534, 31.8088, 6.73187, 1.65729, 3.89804, 0.00373412, 0.000236718, -0.00119547, 0.00289282, 0.0037754, 0.00165925, 6.6524e-06, 0.0153683, -0.0211, -0.018735, -0.0383906, 0.0329714, 0.0295572, 0.470881, -0.542864, 0.335942, -2.08328, -2.16574, -0.130257, 0.469574, -0.542233, 0.333159, -2.08044, -2.16334, -0.12775, -0.00471385, 0.0201145, 0.00197095, 0.0162321, 0.00870464, -0.0195576
0.0891814, 1.69293, -1.22873, -1.54037, -0.90014, -1.19273, 1.22771, -1.30263, 0.047559, -0.0169146, -0.0227772, 0.00470671, -0.0344026, -0.000147968, -0.00104993, 1.03919, 65.9534, 31.8088, 6.91833, 1.63898, 3.89804, 0.0293689, 0.000223453, -0.00117339, 0.00291042, 0.00382202, 0.00161532, -9.89891e-06, 0.0142009, -0.0220335, -0.0185281, -0.0416833, 0.0363282, 0.0355084, 0.470877, -0.542844, 0.335944, -2.08326, -2.16574, -0.13027, 0.469591, -0.542222, 0.33314, -2.08039, -2.16336, -0.127669, -0.00482181, 0.0206055, 0.00202587, 0.0170219, 0.010355, -0.0191452
0.0901814, 1.69298, -1.22875, -1.5404, -0.900129, -1.19277, 1.22771, -1.30262, 0.0474744, -0.0164274, -0.0230944, 0.00834996, -0.0356074, -0.000641174, -0.000224865, 1.07887, 65.9891, 31.8088, 6.88263, 1.65088, 3.91269, 0.0165515, 0.000205932, -0.00115334, 0.0029299, 0.00386923, 0.00157281, -1.20562e-05, 0.0160287, -0.0209724, -0.0178615, -0.0411279, 0.0377898, 0.0311607, 0.470872, -0.542823, 0.335946, -2.08324, -2.16574, -0.130285, 0.469606, -0.542215, 0.33312, -2.08037, -2.16337, -0.127588, -0.00493062, 0.0211016, 0.00208162, 0.0159433, 0.00890082, -0.0186841
0.0911814, 1.69305, -1.22876, -1.54044, -0.900126, -1.19281, 1.22771, -1.30262, 0.0545831, -0.0129451, -0.0252406, 0.00907042, -0.0354093, -0.000427445, 0.00107107, 0.963814, 66.0287, 31.8842, 6.91833, 1.63257, 3.91269, -0.0164075, 0.000195866, -0.0011231, 0.00295173, 0.00392402, 0.00152449, -3.1149e-05, 0.0136977, -0.0245082, -0.016806, -0.0431629, 0.0420487, 0.0355388, 0.470867, -0.542802, 0.335948, -2.08322, -2.16573, -0.130299, 0.469631, -0.542199, 0.333098, -2.08032, -2.16339, -0.127495, -0.00504026, 0.0216028, 0.00213822, 0.0193192, 0.0116862, -0.0173296
0.0921814, 1.6931, -1.22876, -1.54048, -0.900124, -1.19286, 1.22771, -1.30262, 0.0554663, -0.00506752, -0.0313539, 0.0085693, -0.0404707, -0.000793586, -0.000506445, 1.00349, 65.8423, 31.8842, 6.99371, 1.62616, 3.92642, 0.0165515, 0.000180289, -0.00110258, 0.00296453, 0.00398315, 0.00146079, -4.16979e-05, 0.0151712, -0.023347, -0.0144616, -0.0508508, 0.0548727, 0.0339673, 0.470862, -0.542781, 0.33595, -2.08319, -2.16573, -0.130314, 0.469647, -0.54219, 0.333085, -2.08029, -2.16341, -0.127381, -0.00515073, 0.022109, 0.00219565, 0.0181872, 0.0103285, -0.0151522
0.0931814, 1.69316, -1.22878, -1.54052, -0.900124, -1.19291, 1.22771, -1.30263, 0.0545161, -0.0122085, -0.0319104, 0.00500335, -0.0488589, -0.000800322, -0.00132082, 1.00349, 66.0645, 31.8445, 7.06909, 1.61426, 3.93374, 0.0431018, 0.000163423, -0.0010777, 0.00299292, 0.00404275, 0.00141738, -5.80233e-05, 0.0174909, -0.0227849, -0.0192736, -0.057357, 0.0554921, 0.034355, 0.470857, -0.542759, 0.335952, -2.08317, -2.16572, -0.130329, 0.469666, -0.542179, 0.333055, -2.08024, -2.16343, -0.127287, -0.00526201, 0.0226203, 0.00225393, 0.0174234, 0.0092708, -0.0201897
0.0941814, 1.69322, -1.22877, -1.54056, -0.900118, -1.19296, 1.22771, -1.30263, 0.0561033, -0.00540766, -0.0347861, 0.00412586, -0.0463411, -0.000533546, -0.0003718, 1.00349, 65.9177, 31.7731, 7.06909, 1.62067, 3.93374, 0.0293689, 0.000147925, -0.00105415, 0.0030055, 0.0041014, 0.00134933, -6.56105e-05, 0.0165437, -0.0236642, -0.01645, -0.0585112, 0.0612076, 0.0353978, 0.470851, -0.542736, 0.335954, -2.08315, -2.16572, -0.130344, 0.469684, -0.542169, 0.333042, -2.08021, -2.16345, -0.12717, -0.0053741, 0.0231366, 0.00231306, 0.0182578, 0.0103228, -0.0172222
0.0951814, 1.69328, -1.22878, -1.5406, -0.900124, -1.193, 1.22771, -1.30262, 0.0574392, -0.00320383, -0.0387578, 0.00158005, -0.0429644, -0.000626963, 0.000701658, 0.888436, 65.878, 31.7731, 7.14447, 1.58954, 3.94107, 0.00373412, 0.000137136, -0.00102427, 0.0030275, 0.00416933, 0.00129209, -8.74356e-05, 0.0156648, -0.0246946, -0.016967, -0.0616784, 0.0616771, 0.0373801, 0.470846, -0.542713, 0.335957, -2.08312, -2.16571, -0.13036, 0.469708, -0.542152, 0.33302, -2.08015, -2.16347, -0.127054, -0.00548698, 0.0236579, 0.00237303, 0.0191236, 0.0118346, -0.0175674
0.0961814, 1.69334, -1.22878, -1.54064, -0.900126, -1.19305, 1.22771, -1.30263, 0.0576973, -0.00474636, -0.0406661, 0.000662688, -0.0506254, -0.000417975, -0.000718957, 0.928108, 65.8423, 31.7335, 7.18018, 1.58313, 3.94107, 0.0357776, 0.000118476, -0.00100115, 0.00304524, 0.0042318, 0.00122225, -9.97953e-05, 0.0178888, -0.024003, -0.0186439, -0.0672931, 0.067294, 0.0367414, 0.470841, -0.542689, 0.335959, -2.0831, -2.16571, -0.130376, 0.469726, -0.542143, 0.333001, -2.08012, -2.16349, -0.126932, -0.00560063, 0.0241841, 0.00243385, 0.0183385, 0.0103968, -0.0194882
0.0971814, 1.69341, -1.22878, -1.54069, -0.900124, -1.1931, 1.22771, -1.30263, 0.062587, -0.00287954, -0.0391884, 0.00161041, -0.046577, -0.000549916, -0.000987881, 0.777352, 65.8066, 31.6977, 7.14447, 1.55932, 3.94839, 0.0495105, 0.000105121, -0.000972485, 0.00306165, 0.00429759, 0.00115401, -0.000119363, 0.0152404, -0.0272861, -0.0171356, -0.064338, 0.066319, 0.0433687, 0.470835, -0.542665, 0.335962, -2.08307, -2.16571, -0.130393, 0.469749, -0.542128, 0.332985, -2.08007, -2.16352, -0.126808, -0.00571505, 0.0247152, 0.00249553, 0.0214622, 0.0134452, -0.0176244
0.0981814, 1.69346, -1.22878, -1.54072, -0.900128, -1.19315, 1.2277, -1.30263, 0.0573468, -0.000569341, -0.0393962, 0.000488444, -0.0485494, -0.000875237, 0.000324794, 0.85273, 65.7312, 31.5867, 7.18018, 1.5401, 3.96213, 0.0229602, 8.68369e-05, -0.000951333, 0.00307462, 0.00435861, 0.00108373, -0.000125078, 0.0179636, -0.0243314, -0.0157298, -0.0651888, 0.0705936, 0.0373976, 0.470829, -0.54264, 0.335964, -2.08305, -2.1657, -0.13041, 0.469764, -0.542118, 0.332971, -2.08004, -2.16354, -0.126687, -0.00583022, 0.0252512, 0.00255806, 0.0185454, 0.0109547, -0.0165095
0.0991814, 1.69352, -1.22877, -1.54077, -0.900131, -1.1932, 1.2277, -1.30262, 0.0576898, 0.00181643, -0.0413868, -0.00354586, -0.04975, -0.0097218, 0.000928634, 0.777352, 65.6241, 31.547, 7.21588, 1.5163, 3.96213, 0.00373412, 7.14499e-05, -0.000924548, 0.00308833, 0.00442438, 0.00100754, -0.00013867, 0.0166714, -0.0233659, -0.0163527, -0.0768937, 0.0706544, 0.0395942, 0.470823, -0.542615, 0.335967, -2.08302, -2.16569, -0.130427, 0.469785, -0.542105, 0.332957, -2.08001, -2.16357, -0.126555, -0.00594613, 0.0257921, 0.00262146, 0.0173961, 0.0128283, -0.0168308
0.100181, 1.69358, -1.22877, -1.54081, -0.900137, -1.19325, 1.22771, -1.30262, 0.0604702, 0.000978704, -0.0421176, -0.00341992, -0.0500011, 0.00187256, 0.00112774, 0.701973, 65.6241, 31.4716, 7.25555, 1.47327, 3.96945, -0.00999879, 5.43986e-05, -0.000898233, 0.00310421, 0.00448603, 0.000936145, -0.000152293, 0.0175127, -0.0269746, -0.0161971, -0.0679663, 0.0764683, 0.0419591, 0.470817, -0.542589, 0.335969, -2.08299, -2.16569, -0.130444, 0.469806, -0.542093, 0.33294, -2.07997, -2.16359, -0.126433, -0.00606278, 0.0263379, 0.00268571, 0.0209194, 0.0126691, -0.016854
0.101181, 1.69363, -1.22876, -1.54086, -0.900145, -1.1933, 1.2277, -1.30262, 0.0584894, 0.00224152, -0.0412425, -0.0049744, -0.051305, 0.00145944, 0.000243214, 0.6623, 65.5487, 31.4716, 7.36664, 1.46045, 3.96945, 0.00373412, 3.5165e-05, -0.000875385, 0.00312029, 0.00455835, 0.000859094, -0.000164237, 0.0184056, -0.026215, -0.0152638, -0.0684344, 0.0791908, 0.0425523, 0.470811, -0.542563, 0.335972, -2.08296, -2.16568, -0.130462, 0.469823, -0.542082, 0.332923, -2.07993, -2.16362, -0.126294, -0.00618014, 0.0268884, 0.00275083, 0.0201096, 0.0121633, -0.0159841
0.102181, 1.69368, -1.22875, -1.5409, -0.900148, -1.19335, 1.2277, -1.30263, 0.0563036, 0.00396216, -0.0421756, -0.00338826, -0.0518818, 0.00140253, -0.00200798, 0.6623, 65.4376, 31.4002, 7.36664, 1.43573, 3.96213, 0.0623279, 1.49705e-05, -0.000852616, 0.00313225, 0.00461882, 0.000782929, -0.000178399, 0.0205522, -0.0244603, -0.0142243, -0.0682727, 0.0817868, 0.0409272, 0.470805, -0.542536, 0.335975, -2.08294, -2.16568, -0.13048, 0.469839, -0.542072, 0.33291, -2.07989, -2.16365, -0.12617, -0.0062982, 0.0274437, 0.00281681, 0.0183545, 0.0103672, -0.0151741
0.103181, 1.69375, -1.22875, -1.54094, -0.900154, -1.19339, 1.2277, -1.30262, 0.055954, 0.00337868, -0.0396857, -0.00407608, -0.0482746, 0.00129111, 0.000831491, 0.475838, 65.4019, 31.3248, 7.44202, 1.43024, 3.95572, 0.00373412, 3.09596e-07, -0.000822108, 0.00314635, 0.00468102, 0.000707881, -0.000194675, 0.019882, -0.0253503, -0.0137467, -0.0647791, 0.0786845, 0.041106, 0.470799, -0.542509, 0.335978, -2.08291, -2.16567, -0.130499, 0.469863, -0.542055, 0.332896, -2.07985, -2.16368, -0.126045, -0.00641697, 0.0280038, 0.00288366, 0.0191177, 0.0115524, -0.0145587
0.104181, 1.69381, -1.22874, -1.54099, -0.900154, -1.19344, 1.2277, -1.30263, 0.0571277, 0.00561264, -0.0395903, -0.00275788, -0.045413, 0.00122105, 0.00106296, 0.360787, 65.2551, 31.3248, 7.44202, 1.41742, 3.94839, -0.00999879, -1.94663e-05, -0.000796628, 0.00315647, 0.00474182, 0.00062472, -0.00020635, 0.019523, -0.0260974, -0.0122588, -0.062735, 0.0790487, 0.0421872, 0.470793, -0.542481, 0.33598, -2.08288, -2.16567, -0.130518, 0.469883, -0.542044, 0.332885, -2.07982, -2.16371, -0.125914, -0.00653641, 0.0285686, 0.00295138, 0.0197857, 0.012273, -0.0129892
0.105181, 1.69386, -1.22874, -1.54103, -0.900161, -1.19349, 1.22771, -1.30263, 0.0576837, 0.00368665, -0.0375617, -0.0036322, -0.0486399, 0.000880817, -3.73399e-05, 0.245735, 65.2551, 31.2494, 7.51739, 1.42383, 3.94839, 0.0101428, -3.99965e-05, -0.000770521, 0.00317203, 0.00480039, 0.000550494, -0.000220502, 0.0199545, -0.0266693, -0.0128256, -0.0633678, 0.0801709, 0.0448871, 0.470786, -0.542452, 0.335983, -2.08285, -2.16566, -0.130537, 0.469903, -0.542032, 0.332869, -2.07978, -2.16374, -0.125794, -0.00665653, 0.0291381, 0.00301998, 0.0202317, 0.0125287, -0.0135655
0.106181, 1.69392, -1.22873, -1.54106, -0.900165, -1.19355, 1.22771, -1.30263, 0.0578169, 0.00734638, -0.0337973, -0.00420749, -0.0461886, 0.000637299, -0.00172031, 0.134651, 65.1797, 31.2137, 7.59277, 1.43024, 3.94839, 0.0559192, -6.15339e-05, -0.000746912, 0.00318197, 0.00485899, 0.000469731, -0.000234425, 0.0186739, -0.0278011, -0.00942305, -0.0590688, 0.0821015, 0.0501157, 0.470779, -0.542423, 0.335986, -2.08282, -2.16566, -0.130557, 0.46992, -0.542022, 0.332858, -2.07975, -2.16377, -0.125668, -0.0067773, 0.0297122, 0.00308945, 0.0213189, 0.0138877, -0.00997194
0.107181, 1.69397, -1.22872, -1.5411, -0.900165, -1.1936, 1.22771, -1.30263, 0.0588949, 0.00772894, -0.0349993, -0.00365729, -0.0490962, 0.000191164, 7.38323e-05, -0.0161054, 65.0687, 31.2137, 7.62848, 1.43573, 3.95572, 0.0229602, -8.51467e-05, -0.000723543, 0.00319137, 0.00491338, 0.000387728, -0.000236016, 0.0196884, -0.027753, -0.00961532, -0.0616769, 0.0853289, 0.0477022, 0.470773, -0.542393, 0.335989, -2.08278, -2.16565, -0.130577, 0.469937, -0.542013, 0.332847, -2.07973, -2.16379, -0.125545, -0.00689872, 0.030291, 0.0031598, 0.0211792, 0.0134936, -0.010249
0.108181, 1.69403, -1.22873, -1.54113, -0.900167, -1.19365, 1.22771, -1.30262, 0.0564932, 0.00272884, -0.0350269, -0.00245101, -0.0503882, 0.000426884, 0.00126993, -0.166862, 65.1797, 31.1741, 7.62848, 1.42383, 3.94839, -0.00999879, -0.000106794, -0.000696601, 0.0032076, 0.0049651, 0.000322798, -0.000246615, 0.0224547, -0.0262197, -0.0122234, -0.0615162, 0.0819623, 0.0430897, 0.470766, -0.542363, 0.335993, -2.08275, -2.16564, -0.130597, 0.469957, -0.542, 0.33283, -2.07969, -2.16381, -0.125444, -0.00702078, 0.0308744, 0.00323103, 0.0195309, 0.0116877, -0.0131388
0.109181, 1.69407, -1.22872, -1.54116, -0.900173, -1.1937, 1.2277, -1.30262, 0.0527892, 0.00454868, -0.0318162, -0.00424207, -0.0475832, 3.4453e-05, 0.000337993, -0.242241, 65.0687, 31.1384, 7.73956, 1.43024, 3.95572, 0.00373412, -0.000131275, -0.000675078, 0.00321374, 0.00501747, 0.000237463, -0.000254651, 0.022733, -0.0254201, -0.0100778, -0.0577968, 0.0817279, 0.044738, 0.470759, -0.542332, 0.335996, -2.08272, -2.16564, -0.130618, 0.469972, -0.541992, 0.332823, -2.07966, -2.16384, -0.125321, -0.00714347, 0.0314625, 0.00330314, 0.0186981, 0.0116364, -0.0109684
0.110181, 1.69413, -1.22872, -1.54119, -0.90018, -1.19375, 1.2277, -1.30263, 0.0551289, 0.00396592, -0.0302839, -0.00459849, -0.0499304, 0.000310084, -0.00194481, -0.392998, 65.033, 31.1384, 7.81494, 1.43024, 3.94839, 0.0623279, -0.000153357, -0.000648856, 0.0032234, 0.00506634, 0.000160116, -0.000275945, 0.0224175, -0.0269793, -0.0100004, -0.0578318, 0.0838354, 0.0499681, 0.470751, -0.542301, 0.335999, -2.08269, -2.16563, -0.130639, 0.469992, -0.541979, 0.332813, -2.07962, -2.16388, -0.125211, -0.00726676, 0.032055, 0.00337613, 0.0201234, 0.0125937, -0.0108178
0.111181, 1.69417, -1.22871, -1.54121, -0.900183, -1.1938, 1.2277, -1.30263, 0.052658, 0.00762901, -0.0260085, -0.00390629, -0.0521406, 0.000218609, 0.000398883, -0.508049, 64.9576, 31.1384, 7.85065, 1.44214, 3.94839, 0.0165515, -0.000178521, -0.000625984, 0.00322719, 0.0051111, 7.37168e-05, -0.000281078, 0.0235251, -0.0259644, -0.00608602, -0.0541092, 0.0894651, 0.0461862, 0.470744, -0.542268, 0.336003, -2.08265, -2.16562, -0.13066, 0.470008, -0.541971, 0.332808, -2.0796, -2.16391, -0.125096, -0.00739066, 0.0326521, 0.00345001, 0.0191689, 0.0114499, -0.0070225
0.112181, 1.69422, -1.22869, -1.54123, -0.900185, -1.19385, 1.22771, -1.30262, 0.0516117, 0.00883729, -0.0241858, -0.00353627, -0.0489213, 0.000968456, 0.000977999, -0.658806, 64.8108, 31.063, 7.89032, 1.45404, 3.92642, -0.00267457, -0.000202648, -0.000601315, 0.00322726, 0.00514641, -1.39017e-05, -0.000287259, 0.023659, -0.0261967, -0.00453393, -0.0498563, 0.0888511, 0.0465453, 0.470737, -0.542236, 0.336006, -2.08262, -2.16562, -0.130682, 0.470026, -0.541961, 0.332806, -2.07959, -2.16395, -0.124991, -0.00751515, 0.0332538, 0.00352478, 0.019338, 0.011689, -0.00544428
0.113181, 1.69426, -1.22869, -1.54125, -0.900198, -1.1939, 1.22771, -1.30262, 0.049952, 0.00612973, -0.0223148, -0.00914068, -0.0505697, -0.00896869, 0.000414641, -0.76989, 64.8108, 31.1027, 8.03711, 1.44855, 3.93374, 0.00373412, -0.000227549, -0.000577591, 0.00323534, 0.0051923, -9.26351e-05, -0.000300514, 0.0225048, -0.0249886, -0.00699297, -0.0601909, 0.0835442, 0.0511347, 0.470729, -0.542203, 0.33601, -2.08258, -2.16561, -0.130704, 0.470043, -0.54195, 0.332797, -2.07956, -2.16398, -0.124884, -0.00764022, 0.0338599, 0.00360044, 0.0178752, 0.0137661, -0.00758008
0.114181, 1.69431, -1.22868, -1.54127, -0.900202, -1.19396, 1.22771, -1.30263, 0.0485819, 0.00593558, -0.019947, -0.00813818, -0.0527649, -0.00675326, -0.00141899, -0.996025, 64.7394, 31.1027, 8.11249, 1.47327, 3.93374, 0.0495105, -0.000253541, -0.000553367, 0.00323754, 0.00523141, -0.00018026, -0.000314931, 0.0242207, -0.0246802, -0.00583722, -0.0564753, 0.0865947, 0.0515178, 0.470722, -0.542169, 0.336013, -2.08255, -2.1656, -0.130727, 0.47006, -0.54194, 0.332794, -2.07953, -2.16403, -0.124776, -0.00776586, 0.0344704, 0.00367699, 0.017546, 0.0124918, -0.00662228
0.115181, 1.69435, -1.22868, -1.54128, -0.900209, -1.19401, 1.22771, -1.30263, 0.050741, 0.00501907, -0.0150004, -0.00739955, -0.0486241, -0.00535404, 0.000274708, -1.11108, 64.6997, 31.1027, 8.18787, 1.46686, 3.94107, 0.0165515, -0.000279989, -0.000530101, 0.00323951, 0.00526623, -0.000263087, -0.000324778, 0.0224861, -0.0274426, -0.00449314, -0.0490017, 0.0833134, 0.055461, 0.470714, -0.542134, 0.336017, -2.08251, -2.16559, -0.13075, 0.470076, -0.54193, 0.332791, -2.07951, -2.16406, -0.124677, -0.00789206, 0.0350854, 0.00375444, 0.0201649, 0.0147257, -0.00503157
0.116181, 1.6944, -1.22867, -1.54128, -0.900212, -1.19406, 1.22771, -1.30262, 0.051107, 0.00897781, -0.0135145, -0.0060192, -0.0466016, -0.00319101, 0.000657857, -1.30151, 64.5926, 31.063, 8.22754, 1.48517, 3.9191, 0.00373412, -0.000306397, -0.000505096, 0.00323767, 0.00529238, -0.000349935, -0.000332306, 0.0225082, -0.0282583, -0.00125449, -0.0438736, 0.0871138, 0.0559187, 0.470706, -0.542099, 0.336021, -2.08248, -2.16559, -0.130773, 0.470095, -0.54192, 0.332792, -2.07949, -2.1641, -0.124584, -0.0080188, 0.0357048, 0.00383279, 0.020972, 0.0148555, -0.00178512
0.117181, 1.69443, -1.22865, -1.5413, -0.900217, -1.19412, 1.22771, -1.30263, 0.0493902, 0.0106744, -0.0111591, -0.00496663, -0.0495276, -0.0019453, 0.000947198, -1.41259, 64.4061, 31.1027, 8.26324, 1.49707, 3.90536, -0.00999879, -0.00033763, -0.000485869, 0.00323256, 0.00532255, -0.000447558, -0.000333775, 0.0242769, -0.0274493, 0.000950039, -0.0411079, 0.0921694, 0.0535097, 0.470698, -0.542063, 0.336024, -2.08244, -2.16558, -0.130797, 0.470107, -0.541915, 0.332795, -2.07949, -2.16414, -0.124476, -0.00814607, 0.0363285, 0.00391203, 0.0201817, 0.0133585, 0.000217427
0.118181, 1.69447, -1.22866, -1.5413, -0.900218, -1.19417, 1.22771, -1.30263, 0.0477079, 0.00559866, -0.00742745, -0.00340005, -0.0521212, -0.0023217, -0.00157258, -1.63873, 64.4815, 31.063, 8.26324, 1.52179, 3.92642, 0.0495105, -0.000367573, -0.000462828, 0.0032358, 0.005351, -0.000525577, -0.000344985, 0.0262961, -0.0266513, -0.000413856, -0.0387354, 0.0892665, 0.0543995, 0.47069, -0.542027, 0.336028, -2.0824, -2.16557, -0.130821, 0.470123, -0.541907, 0.33279, -2.07946, -2.16418, -0.12439, -0.00827387, 0.0369566, 0.00399218, 0.0192807, 0.0121727, -0.0013416
0.119181, 1.69451, -1.22865, -1.5413, -0.900225, -1.19423, 1.22771, -1.30263, 0.0428335, 0.00788574, -0.00795529, -0.0073387, -0.0488141, -0.00122288, -0.00104839, -1.7141, 64.4418, 31.0273, 8.33862, 1.53461, 3.91269, 0.0495105, -0.000397245, -0.000441823, 0.00323185, 0.00537353, -0.000610644, -0.000351803, 0.0272922, -0.0253386, 0.000574376, -0.0375409, 0.0902607, 0.0537004, 0.470682, -0.54199, 0.336032, -2.08236, -2.16556, -0.130845, 0.470137, -0.541899, 0.332793, -2.07945, -2.16422, -0.124304, -0.00840218, 0.0375891, 0.00407323, 0.017914, 0.0116147, -0.000402048
0.120181, 1.69455, -1.22865, -1.5413, -0.900226, -1.19428, 1.22771, -1.30262, 0.0420193, 0.00564874, -0.00691668, -0.00521267, -0.0498917, -0.000410496, 0.00123385, -1.90453, 64.4418, 31.063, 8.33862, 1.5163, 3.89804, -0.00267457, -0.000428559, -0.000418845, 0.00323199, 0.00539613, -0.00069249, -0.000351459, 0.02922, -0.0247644, 6.09556e-05, -0.0354076, 0.0897077, 0.0493177, 0.470673, -0.541953, 0.336036, -2.08232, -2.16556, -0.13087, 0.470152, -0.541891, 0.332791, -2.07944, -2.16425, -0.124221, -0.008531, 0.0382258, 0.00415518, 0.0172633, 0.010405, -0.00111241
0.121181, 1.69459, -1.22865, -1.5413, -0.900226, -1.19433, 1.2277, -1.30262, 0.0389426, 0.00405952, -0.00519457, -0.00371527, -0.0512972, -0.000648265, 0.00109384, -2.13067, 64.4418, 31.063, 8.33862, 1.50989, 3.90536, -0.00999879, -0.000460681, -0.00039611, 0.00323178, 0.00541864, -0.000775162, -0.000355812, 0.0317246, -0.0229416, 0.000112076, -0.0336313, 0.0894823, 0.0458801, 0.470665, -0.541914, 0.33604, -2.08228, -2.16555, -0.130895, 0.470168, -0.541884, 0.33279, -2.07942, -2.16428, -0.124138, -0.0086603, 0.0388668, 0.00423804, 0.0154068, 0.0084909, -0.001317
0.122181, 1.69462, -1.22864, -1.5413, -0.900224, -1.19439, 1.22771, -1.30262, 0.038063, 0.00543227, -0.00306541, -0.00172895, -0.0529288, 3.28573e-05, -0.000254119, -2.28143, 64.3347, 31.0273, 8.29895, 1.5163, 3.89071, 0.0165515, -0.000494048, -0.000373389, 0.00322413, 0.00543047, -0.000869025, -0.000360968, 0.0331818, -0.0224035, 0.0020807, -0.030662, 0.0928498, 0.0454559, 0.470656, -0.541875, 0.336045, -2.08224, -2.16554, -0.130921, 0.470183, -0.541878, 0.332796, -2.07942, -2.16433, -0.124056, -0.00879009, 0.039512, 0.00432181, 0.014865, 0.00737029, 0.000496985
0.123181, 1.69466, -1.22864, -1.5413, -0.900225, -1.19445, 1.22771, -1.30263, 0.0373158, 0.00378671, -0.00320702, -0.00221574, -0.0539294, -3.62206e-05, -0.00162747, -2.43218, 64.3347, 31.063, 8.33862, 1.5163, 3.89071, 0.0559192, -0.000529614, -0.000353471, 0.00322371, 0.00545322, -0.000952779, -0.000365235, 0.0344021, -0.0220776, 0.00105378, -0.0314893, 0.0926975, 0.0465338, 0.470647, -0.541836, 0.336049, -2.0822, -2.16553, -0.130947, 0.470196, -0.541873, 0.332794, -2.0794, -2.16436, -0.123973, -0.00892034, 0.0401615, 0.0044065, 0.0144165, 0.00696182, -0.00061475
0.124181, 1.69469, -1.22864, -1.5413, -0.900226, -1.1945, 1.22771, -1.30262, 0.0366673, 0.00181316, -0.00331217, -0.00157848, -0.05441, 0.000474794, 0.00159378, -2.58294, 64.3704, 31.1027, 8.33862, 1.50989, 3.87607, -0.0164075, -0.000566768, -0.000332034, 0.00322597, 0.00547436, -0.00103758, -0.000357026, 0.0358964, -0.0217342, 4.77706e-05, -0.0310446, 0.0919977, 0.042331, 0.470638, -0.541796, 0.336053, -2.08216, -2.16552, -0.130973, 0.470209, -0.541868, 0.33279, -2.0794, -2.16438, -0.123889, -0.00905105, 0.0408151, 0.00449209, 0.0139608, 0.00628323, -0.00174742
0.125181, 1.69473, -1.22863, -1.5413, -0.900226, -1.19455, 1.22771, -1.30262, 0.0383455, 0.00390015, -0.0014647, -0.0011283, -0.0488967, 0.000283834, 0.00106252, -2.80907, 64.2593, 31.063, 8.33862, 1.47327, 3.87607, -0.0164075, -0.000598187, -0.000307096, 0.00322067, 0.00549184, -0.00112436, -0.000366289, 0.0342611, -0.0235547, 0.00190482, -0.0268183, 0.090042, 0.0472033, 0.470629, -0.541755, 0.336058, -2.08212, -2.16551, -0.131, 0.470226, -0.541858, 0.332794, -2.07939, -2.16443, -0.123809, -0.00918221, 0.0414729, 0.0045786, 0.0156568, 0.00834283, 0.000371565
0.126181, 1.69477, -1.22863, -1.5413, -0.900229, -1.19461, 1.22771, -1.30262, 0.0359215, 0.00443303, -0.000279707, -0.00164441, -0.0510824, 0.00040206, -3.76377e-05, -2.88445, 64.184, 31.0273, 8.37433, 1.47876, 3.86966, 0.00373412, -0.000635671, -0.000287318, 0.00321767, 0.00550868, -0.00121111, -0.000368043, 0.0360057, -0.0223921, 0.0027306, -0.0264354, 0.0929952, 0.0465816, 0.47062, -0.541714, 0.336063, -2.08207, -2.1655, -0.131027, 0.470238, -0.541853, 0.332795, -2.07938, -2.16446, -0.12373, -0.00931381, 0.0421348, 0.00466602, 0.0144583, 0.00710663, 0.00103458
0.127181, 1.6948, -1.22862, -1.5413, -0.900224, -1.19466, 1.22771, -1.30263, 0.0359587, 0.00384284, -0.000290313, 0.000624221, -0.052391, 0.000520916, -0.00172051, -3.03521, 64.1483, 31.0273, 8.29895, 1.47327, 3.86233, 0.0495105, -0.000672715, -0.00026578, 0.00321455, 0.00552629, -0.00129632, -0.000372166, 0.0376663, -0.0218968, 0.00272807, -0.0258481, 0.0940284, 0.0462759, 0.470611, -0.541671, 0.336067, -2.08203, -2.16549, -0.131055, 0.470252, -0.541847, 0.332797, -2.07936, -2.1645, -0.123652, -0.00944583, 0.0428008, 0.00475437, 0.0138926, 0.0061141, 0.000873517
0.128181, 1.69484, -1.22862, -1.5413, -0.900232, -1.19471, 1.22771, -1.30262, 0.0350127, 0.0026011, -0.000271423, -0.00230717, -0.0531084, 0.000876019, 0.000785771, -3.15026, 64.1483, 31.0273, 8.414, 1.46045, 3.84768, -0.00267457, -0.000707889, -0.000240872, 0.00321333, 0.00554383, -0.00138451, -0.000375405, 0.0381884, -0.0221364, 0.00170207, -0.0271199, 0.0944833, 0.045592, 0.470601, -0.541629, 0.336072, -2.08198, -2.16548, -0.131083, 0.470269, -0.541838, 0.332796, -2.07935, -2.16454, -0.123572, -0.00957827, 0.043471, 0.00484363, 0.0139814, 0.00643897, -0.000140976
0.129181, 1.69487, -1.22862, -1.5413, -0.900234, -1.19476, 1.22771, -1.30262, 0.0334024, 0.00259869, -0.00107458, -0.00239737, -0.0538644, 0.000844935, 0.000523848, -3.22564, 64.1125, 31.063, 8.44971, 1.45404, 3.84036, -0.00267457, -0.000747403, -0.000220295, 0.00321099, 0.00556029, -0.00147278, -0.000374252, 0.0398756, -0.0211274, 0.00151099, -0.0279067, 0.0957912, 0.0441001, 0.470592, -0.541585, 0.336077, -2.08194, -2.16548, -0.131111, 0.470281, -0.541832, 0.332797, -2.07934, -2.16457, -0.123492, -0.00971111, 0.0441452, 0.00493382, 0.012896, 0.0054363, -0.000475072
0.130181, 1.69491, -1.22861, -1.54129, -0.900234, -1.19481, 1.22771, -1.30262, 0.037082, 0.00351775, 0.00100304, -0.00161628, -0.0586399, 0.000826798, -0.000125486, -3.3764, 64.0372, 30.9876, 8.44971, 1.43573, 3.83304, 0.0101428, -0.000782093, -0.000193593, 0.00320655, 0.00556943, -0.00155733, -0.000385515, 0.0395854, -0.0229334, 0.00272475, -0.0283657, 0.10123, 0.0474776, 0.470582, -0.541541, 0.336082, -2.08189, -2.16547, -0.13114, 0.4703, -0.541822, 0.3328, -2.07932, -2.16462, -0.123427, -0.00984435, 0.0448234, 0.00502493, 0.0146008, 0.00628795, 0.000802735
0.131181, 1.69494, -1.22861, -1.5413, -0.900232, -1.19486, 1.22771, -1.30263, 0.0324945, 0.00319692, -0.00029218, -0.000255826, -0.0582262, 0.000274112, -0.00154172, -3.33672, 64.0015, 31.0273, 8.414, 1.43573, 3.84036, 0.0495105, -0.000826539, -0.000178226, 0.003204, 0.00558865, -0.00164397, -0.000377752, 0.0428805, -0.0198868, 0.00248603, -0.0283647, 0.100813, 0.0430933, 0.470572, -0.541496, 0.336087, -2.08185, -2.16546, -0.131169, 0.470307, -0.541821, 0.3328, -2.07932, -2.16464, -0.123346, -0.00997797, 0.0455056, 0.00511696, 0.0115367, 0.00362882, 0.00023306
0.132181, 1.69498, -1.22861, -1.5413, -0.900239, -1.19491, 1.22771, -1.30262, 0.0359909, 0.000380447, -0.00105465, -0.00185113, -0.0575209, 0.000449645, 0.000430249, -3.45177, 64.0768, 31.063, 8.48541, 1.43573, 3.83304, 0.0101428, -0.000863896, -0.00015236, 0.00320829, 0.00561044, -0.00172353, -0.000383014, 0.0418506, -0.0223381, 0.000188475, -0.0300042, 0.0985395, 0.0462964, 0.470562, -0.541451, 0.336092, -2.0818, -2.16545, -0.131199, 0.470324, -0.54181, 0.332794, -2.07929, -2.16467, -0.123271, -0.010112, 0.0461918, 0.00520992, 0.0137296, 0.00579207, -0.00185716
0.133181, 1.69501, -1.22861, -1.54129, -0.900237, -1.19496, 1.22771, -1.30263, 0.0358971, 0.00119095, 0.00104166, 0.000428742, -0.0523852, 0.000533849, -0.000662603, -3.45177, 64.0372, 30.9876, 8.414, 1.43024, 3.82663, 0.0357776, -0.00090459, -0.000130013, 0.00320362, 0.00561814, -0.00180905, -0.000385747, 0.0417485, -0.0228341, 0.00175337, -0.0244525, 0.0955479, 0.0484105, 0.470552, -0.541404, 0.336097, -2.08175, -2.16543, -0.131229, 0.470338, -0.541804, 0.332797, -2.07928, -2.16471, -0.123207, -0.0102463, 0.0468819, 0.00530381, 0.0141449, 0.00636076, -0.000219688
0.134181, 1.69505, -1.22861, -1.54129, -0.90024, -1.195, 1.22771, -1.30262, 0.0361848, 0.00163616, 0.0015158, 0.000280123, -0.0484529, 0.00116725, 0.000745059, -3.45177, 64.0015, 30.9519, 8.414, 1.42383, 3.80466, 0.00373412, -0.000944051, -0.000105509, 0.00320078, 0.00562735, -0.00189345, -0.000387381, 0.0414282, -0.0237705, 0.00222023, -0.0216416, 0.0937942, 0.0493558, 0.470542, -0.541358, 0.336102, -2.0817, -2.16542, -0.131259, 0.470353, -0.541795, 0.332798, -2.07927, -2.16475, -0.123141, -0.010381, 0.047576, 0.00539863, 0.0149515, 0.00733812, 0.000355608
0.135181, 1.69508, -1.2286, -1.54129, -0.900246, -1.19504, 1.22771, -1.30263, 0.0363378, 0.00285925, 0.00428931, -0.000652749, -0.0511884, 0.000776323, -0.000215371, -3.45177, 63.9261, 30.9519, 8.44971, 1.44214, 3.80466, 0.0229602, -0.000982128, -7.97632e-05, 0.00319788, 0.00564122, -0.00197923, -0.000398295, 0.0416013, -0.0242607, 0.00377318, -0.0210973, 0.097684, 0.0520808, 0.470531, -0.54131, 0.336108, -2.08165, -2.16541, -0.13129, 0.47037, -0.541784, 0.332799, -2.07925, -2.16479, -0.123071, -0.0105161, 0.048274, 0.00549438, 0.0153701, 0.00764443, 0.00193998
0.136181, 1.69512, -1.22861, -1.54129, -0.900248, -1.19509, 1.22771, -1.30262, 0.0324042, -0.000688366, 0.00312584, 0.000396843, -0.0481635, 0.000787435, 0.00107712, -3.4121, 64.0372, 30.9519, 8.414, 1.45404, 3.79733, -0.00999879, -0.00102415, -5.53642e-05, 0.00320208, 0.00565406, -0.00205355, -0.000398629, 0.0443495, -0.0221302, 0.00165011, -0.0197945, 0.0922569, 0.0469158, 0.470521, -0.541262, 0.336113, -2.0816, -2.1654, -0.131321, 0.470385, -0.541776, 0.332793, -2.07923, -2.16482, -0.123013, -0.0106515, 0.0489759, 0.00559107, 0.0131301, 0.00587655, -0.000427936
0.137181, 1.69516, -1.22861, -1.5413, -0.900249, -1.19513, 1.22771, -1.30262, 0.0338829, -0.00770498, -0.000314833, -0.00123539, -0.0462797, 0.000795188, 0.000955441, -3.4121, 64.0768, 31.063, 8.33862, 1.47327, 3.79001, -0.0164075, -0.00106597, -2.96475e-05, 0.00320607, 0.00567209, -0.00213254, -0.000401808, 0.0449258, -0.0231641, -0.00398028, -0.0234332, 0.0848741, 0.0494518, 0.47051, -0.541213, 0.336119, -2.08155, -2.16539, -0.131353, 0.470402, -0.541766, 0.332787, -2.0792, -2.16485, -0.122945, -0.0107872, 0.0496816, 0.00568869, 0.0138417, 0.00693533, -0.00601252
0.138181, 1.69519, -1.22861, -1.5413, -0.900253, -1.19517, 1.22771, -1.30263, 0.0354079, -0.0056612, -0.000988114, -0.000169111, -0.0444807, 0.00103798, -0.000821102, -3.30102, 64.0768, 31.1027, 8.29895, 1.48517, 3.77627, 0.0229602, -0.00110926, -7.44076e-06, 0.00320673, 0.00568497, -0.00220925, -0.000407121, 0.0449031, -0.0239805, -0.00290888, -0.0224357, 0.086282, 0.0524463, 0.470499, -0.541163, 0.336125, -2.0815, -2.16538, -0.131385, 0.470415, -0.541758, 0.332785, -2.07918, -2.16488, -0.122886, -0.0109232, 0.0503911, 0.00578725, 0.0145602, 0.00753534, -0.00488014
0.139181, 1.69523, -1.22862, -1.5413, -0.900264, -1.19521, 1.22771, -1.30263, 0.0393567, -0.00583797, 0.000381623, -0.00543468, -0.0395135, 0.00123394, -0.00102212, -3.30102, 64.1483, 31.063, 8.37433, 1.5282, 3.76163, 0.0357776, -0.00114745, 2.29228e-05, 0.00321109, 0.00569927, -0.00228555, -0.000429937, 0.0410802, -0.0283171, -0.0034397, -0.0217904, 0.0833716, 0.063891, 0.470489, -0.541113, 0.33613, -2.08145, -2.16537, -0.131418, 0.470435, -0.541743, 0.33278, -2.07913, -2.16493, -0.122827, -0.0110595, 0.0511045, 0.00588674, 0.0185959, 0.012287, -0.00483833
0.140181, 1.69527, -1.22862, -1.5413, -0.900265, -1.19524, 1.22771, -1.30263, 0.0373996, -0.00418704, 0.00117389, -0.00556021, -0.039297, 0.00109345, -0.00095268, -3.22564, 64.1483, 31.0273, 8.29895, 1.5401, 3.7543, 0.0431018, -0.00118821, 5.05004e-05, 0.00321013, 0.00570343, -0.00236032, -0.00043775, 0.0422643, -0.0274647, -0.0020934, -0.0206315, 0.0853999, 0.0628303, 0.470477, -0.541062, 0.336136, -2.0814, -2.16536, -0.13145, 0.470453, -0.541731, 0.332779, -2.07911, -2.16497, -0.122781, -0.0111962, 0.0518216, 0.00598718, 0.0177017, 0.0115908, -0.00357149
0.141181, 1.69531, -1.22862, -1.5413, -0.900274, -1.19527, 1.22771, -1.30263, 0.0381456, -0.00301265, -0.000917448, -0.00764625, -0.0395343, 0.000186107, 0.000348224, -3.11059, 64.1483, 31.1027, 8.29895, 1.55932, 3.76895, 0.0165515, -0.00122951, 7.70706e-05, 0.00321273, 0.00571875, -0.0024354, -0.000444101, 0.0423258, -0.0278722, -0.00253088, -0.0242627, 0.0874067, 0.0633946, 0.470466, -0.54101, 0.336142, -2.08134, -2.16535, -0.131484, 0.47047, -0.541718, 0.332775, -2.07908, -2.165, -0.122722, -0.0113331, 0.0525425, 0.00608855, 0.0179585, 0.0123374, -0.00392643
0.142181, 1.69534, -1.22862, -1.5413, -0.900281, -1.19531, 1.22771, -1.30262, 0.0347757, -0.00709318, -0.00139945, -0.00832811, -0.0399989, 0.00066636, 0.00145285, -2.95983, 64.2236, 31.1384, 8.26324, 1.58954, 3.7543, -0.0164075, -0.00127463, 0.000101202, 0.00321436, 0.00572515, -0.00250954, -0.000444307, 0.0449821, -0.0262684, -0.00495415, -0.024527, 0.084686, 0.0596705, 0.470455, -0.540957, 0.336148, -2.08129, -2.16533, -0.131518, 0.470484, -0.541709, 0.332772, -2.07906, -2.16503, -0.122673, -0.0114702, 0.0532671, 0.00619087, 0.0162284, 0.0107528, -0.00658745
0.143181, 1.69534, -1.22862, -1.5413, -0.900281, -1.19531, 1.22771, -1.30262, 0.0347757, -0.00709318, -0.00139945, -0.00832811, -0.0399989, 0.00066636, 0.00145285, -2.95983, 64.2236, 31.1384, 8.26324, 1.58954, 3.7543, -0.0164075, -0.00132875, 0.000110635, 0.00321166, 0.00570931, -0.00255855, -0.000423859, 0.0457229, -0.0263774, -0.00493464, -0.0244242, 0.0854313, 0.0600855, 0.470443, -0.540904, 0.336154, -2.08123, -2.16532, -0.131552, 0.470484, -0.541709, 0.332772, -2.07906, -2.16503, -0.122673, -0.0116077, 0.0539954, 0.00629413, 0.0162284, 0.0107528, -0.00658745
0.144181, 1.69534, -1.22862, -1.5413, -0.900281, -1.19531, 1.22771, -1.30262, 0.0347757, -0.00709318, -0.00139945, -0.00832811, -0.0399989, 0.00066636, 0.00145285, -2.95983, 64.2236, 31.1384, 8.26324, 1.58954, 3.7543, -0.0164075, -0.00138362, 0.000120177, 0.00320894, 0.00569323, -0.0026082, -0.000403161, 0.0464675, -0.0264865, -0.00491537, -0.02432, 0.0861796, 0.0605018, 0.470432, -0.54085, 0.336161, -2.08118, -2.16531, -0.131586, 0.470484, -0.541709, 0.332772, -2.07906, -2.16503, -0.122673, -0.0117453, 0.0547273, 0.00639834, 0.0162284, 0.0107528, -0.00658745
0.145181, 1.69544, -1.22862, -1.54131, -0.900307, -1.19539, 1.22771, -1.30263, 0.031185, 0.0033338, -0.00186654, -0.0112919, -0.0314599, 0.00132744, 8.38554e-05, -2.65832, 64.1125, 31.1741, 8.22754, 1.63898, 3.71127, 0.0293689, -0.0014033, 0.00018298, 0.00321261, 0.00574785, -0.00274327, -0.000480745, 0.04543, -0.0260511, 0.000900144, -0.0200264, 0.0908179, 0.0637623, 0.47042, -0.540795, 0.336167, -2.08112, -2.1653, -0.131621, 0.470536, -0.54167, 0.332769, -2.07896, -2.16516, -0.122519, -0.0118833, 0.0554629, 0.00650349, 0.0158331, 0.0115863, -0.000568013
0.146181, 1.69548, -1.22862, -1.54131, -0.900318, -1.19542, 1.22771, -1.30262, 0.0366316, 0.000690906, -0.00122936, -0.0141718, -0.0292369, 0.000613617, 0.00151397, -2.65832, 64.184, 31.1741, 8.18787, 1.66919, 3.7186, -0.00999879, -0.00144381, 0.000214373, 0.00321757, 0.00576154, -0.00281218, -0.000495866, 0.0425077, -0.030136, -0.00116804, -0.0213922, 0.0871658, 0.0717503, 0.470408, -0.54074, 0.336174, -2.08106, -2.16528, -0.131657, 0.470556, -0.541653, 0.332764, -2.07891, -2.16519, -0.122471, -0.0120214, 0.0562022, 0.00660959, 0.0195914, 0.0157055, -0.00217062
0.147181, 1.6955, -1.22862, -1.54131, -0.900326, -1.19545, 1.22771, -1.30262, 0.0330086, 0.00307036, -0.00257157, -0.0167162, -0.0319117, 0.000137752, 2.59663e-05, -2.47185, 64.0768, 31.2494, 8.15216, 1.6875, 3.72592, 0.0165515, -0.00149348, 0.000235806, 0.0032148, 0.00576816, -0.00289527, -0.000496977, 0.0446563, -0.0281118, -0.000422757, -0.0245532, 0.0924392, 0.0707195, 0.470396, -0.540684, 0.33618, -2.08101, -2.16527, -0.131692, 0.470568, -0.541645, 0.332764, -2.07889, -2.16523, -0.122416, -0.0121598, 0.056945, 0.00671664, 0.0175388, 0.0141275, -0.00160723
0.148181, 1.69554, -1.22862, -1.54131, -0.900343, -1.19547, 1.22771, -1.30262, 0.0307243, -0.000380665, -0.00263396, -0.0135128, -0.0290363, -0.000450744, 1.73109e-05, -2.43218, 64.184, 31.2891, 8.18787, 1.70032, 3.74057, 0.0165515, -0.00153538, 0.000265944, 0.00321994, 0.00577965, -0.0029612, -0.000516994, 0.0470859, -0.0264933, -0.00194323, -0.0220922, 0.0867607, 0.0670884, 0.470384, -0.540627, 0.336187, -2.08095, -2.16526, -0.131729, 0.470587, -0.541627, 0.332759, -2.07884, -2.16527, -0.122375, -0.0122984, 0.0576914, 0.00682465, 0.0158179, 0.0126472, -0.0033362
0.149181, 1.69556, -1.22862, -1.54131, -0.900356, -1.1955, 1.2277, -1.30263, 0.0264983, 0.00147522, 1.35897e-05, -0.0126501, -0.0267117, -0.000537888, -0.000700536, -2.28143, 64.1125, 31.2137, 8.15216, 1.71222, 3.74698, 0.0357776, -0.00158328, 0.000289648, 0.00321687, 0.00578116, -0.0030384, -0.000525265, 0.0487869, -0.0247202, 0.000438546, -0.0174319, 0.0870312, 0.0653131, 0.470372, -0.540569, 0.336194, -2.08089, -2.16524, -0.131765, 0.4706, -0.541616, 0.33276, -2.07881, -2.16531, -0.122332, -0.0124372, 0.0584414, 0.0069336, 0.0140599, 0.0112724, -0.00109322
0.150181, 1.6956, -1.22862, -1.54132, -0.900364, -1.19552, 1.2277, -1.30262, 0.0277414, 0.000192181, -0.00174943, -0.0110574, -0.0299867, -0.000121257, 0.000957129, -2.3211, 64.1483, 31.2891, 8.07678, 1.73694, 3.74057, -0.00267457, -0.00163088, 0.000317113, 0.00322111, 0.00579315, -0.00311155, -0.000529516, 0.0506522, -0.024591, -0.000725975, -0.0195671, 0.0894329, 0.0619932, 0.470359, -0.54051, 0.336201, -2.08083, -2.16523, -0.131802, 0.470617, -0.541602, 0.332754, -2.07878, -2.16533, -0.122283, -0.0125762, 0.0591949, 0.00704351, 0.0138184, 0.0103631, -0.00242614
0.151181, 1.69562, -1.22862, -1.54131, -0.900379, -1.19554, 1.2277, -1.30262, 0.0216403, -0.00160218, -0.00116273, -0.0141297, -0.027698, 0.000190411, 0.000638086, -2.20605, 64.2236, 31.2891, 8.03711, 1.75525, 3.73324, -0.00267457, -0.00168067, 0.000341132, 0.00322261, 0.00579357, -0.00318034, -0.000535999, 0.0528486, -0.0224153, -0.00163298, -0.0182642, 0.0867212, 0.0604887, 0.470347, -0.540451, 0.336208, -2.08077, -2.16522, -0.13184, 0.47063, -0.541591, 0.332751, -2.07875, -2.16537, -0.122251, -0.0127154, 0.0599519, 0.00715437, 0.0115547, 0.00900413, -0.00349347
0.152181, 1.69565, -1.22863, -1.54132, -0.900398, -1.19556, 1.2277, -1.30262, 0.0229632, -0.00271385, 0.00156401, -0.0184918, -0.0292856, 0.000940729, -4.9327e-05, -2.20605, 64.295, 31.3248, 8.07678, 1.73694, 3.71127, 0.0101428, -0.00172903, 0.000367495, 0.0032283, 0.00579938, -0.00324449, -0.000549787, 0.0516693, -0.0247, -0.00191681, -0.0182249, 0.0883083, 0.0675298, 0.470334, -0.540391, 0.336215, -2.0807, -2.1652, -0.131878, 0.470645, -0.541576, 0.332744, -2.0787, -2.1654, -0.122219, -0.0128547, 0.0607124, 0.00726618, 0.013644, 0.0110704, -0.00354904
0.153181, 1.69567, -1.22863, -1.54132, -0.900411, -1.19558, 1.2277, -1.30263, 0.0221202, -0.0017907, -0.000454256, -0.017712, -0.0272798, 0.00140704, -0.00149095, -2.13067, 64.295, 31.4002, 7.9657, 1.75525, 3.69021, 0.0495105, -0.00178282, 0.000389378, 0.0032281, 0.00580139, -0.00332163, -0.000553563, 0.0530377, -0.0241002, -0.00187825, -0.0179557, 0.0886213, 0.0675656, 0.470321, -0.540331, 0.336222, -2.08064, -2.16519, -0.131916, 0.470656, -0.541568, 0.332742, -2.07867, -2.16543, -0.122177, -0.0129943, 0.0614763, 0.00737895, 0.0129583, 0.0104539, -0.0035992
0.154181, 1.69569, -1.22863, -1.54131, -0.900427, -1.19559, 1.2277, -1.30262, 0.0240461, -0.00117991, 0.00166013, -0.0152548, -0.0243824, 0.00148055, 0.000938815, -2.16637, 64.295, 31.3248, 7.89032, 1.73694, 3.67557, -0.00267457, -0.00183188, 0.000416347, 0.00322687, 0.00579622, -0.0033925, -0.000559645, 0.0526256, -0.0254434, -0.000513407, -0.0136558, 0.0873855, 0.0672857, 0.470308, -0.540269, 0.33623, -2.08058, -2.16517, -0.131955, 0.470672, -0.541553, 0.332742, -2.07864, -2.16547, -0.122151, -0.0131339, 0.0622436, 0.00749268, 0.0141965, 0.0114719, -0.00211804
0.155181, 1.6957, -1.22863, -1.54131, -0.90045, -1.19561, 1.2277, -1.30263, 0.0227389, 5.90361e-05, 0.00209177, -0.0159325, -0.0227518, 0.0012583, -0.000323559, -2.091, 64.2593, 31.2891, 7.92602, 1.73053, 3.66824, 0.0229602, -0.00188459, 0.000437763, 0.00322615, 0.00579512, -0.00346252, -0.000568289, 0.0532375, -0.0251668, 0.000338485, -0.012607, 0.0879387, 0.0690059, 0.470295, -0.540207, 0.336237, -2.08051, -2.16516, -0.131994, 0.470682, -0.541542, 0.332742, -2.0786, -2.1655, -0.122121, -0.0132738, 0.0630144, 0.00760737, 0.0138358, 0.0114948, -0.00125421
0.156181, 1.69571, -1.22863, -1.54131, -0.900476, -1.19562, 1.2277, -1.30262, 0.0196482, 4.71742e-05, 0.00150687, -0.019542, -0.0210918, 0.00189002, 0.00073373, -2.05529, 64.2593, 31.2891, 7.9657, 1.71222, 3.63986, -0.00267457, -0.0019373, 0.000460595, 0.0032262, 0.0057924, -0.00353312, -0.00057381, 0.0541893, -0.024547, -0.000143226, -0.0129059, 0.0879194, 0.068763, 0.470282, -0.540144, 0.336245, -2.08045, -2.16514, -0.132034, 0.470693, -0.54153, 0.33274, -2.07857, -2.16554, -0.122093, -0.0134137, 0.0637885, 0.00772302, 0.0130951, 0.0113803, -0.00174888
0.157181, 1.69572, -1.22862, -1.54131, -0.900498, -1.19563, 1.2277, -1.30263, 0.0182618, 0.00087253, 0.00201686, -0.0205002, -0.0210128, 0.00126001, -0.00168099, -2.05529, 64.2236, 31.2494, 7.92602, 1.72504, 3.63986, 0.0559192, -0.0019924, 0.000481505, 0.00322483, 0.00579011, -0.00360614, -0.00058328, 0.0550477, -0.0240606, 0.000424098, -0.0130201, 0.0891499, 0.0713299, 0.470268, -0.54008, 0.336252, -2.08038, -2.16513, -0.132074, 0.470703, -0.54152, 0.33274, -2.07853, -2.16557, -0.122063, -0.0135538, 0.064566, 0.00783963, 0.0125232, 0.0112024, -0.00119676
0.158181, 1.69573, -1.22862, -1.54131, -0.900527, -1.19563, 1.2277, -1.30262, 0.0129286, 0.000586084, 0.00047975, -0.0228901, -0.0150522, 0.00138254, 0.00104948, -2.01562, 64.2236, 31.2891, 7.9657, 1.70581, 3.62521, -0.00267457, -0.00204828, 0.000501641, 0.00322549, 0.00578473, -0.00367242, -0.000581129, 0.0566846, -0.0221385, -0.000316187, -0.0116829, 0.0849694, 0.0671206, 0.470255, -0.540016, 0.33626, -2.08032, -2.16511, -0.132115, 0.470712, -0.541509, 0.332737, -2.07851, -2.1656, -0.122042, -0.013694, 0.0653468, 0.00795721, 0.0104978, 0.010404, -0.00201322
0.159181, 1.69573, -1.22862, -1.54129, -0.900554, -1.19564, 1.2277, -1.30262, 0.00904546, 0.00039402, 0.00472892, -0.0261111, -0.0111481, 0.00115905, -1.24223e-05, -1.97991, 64.2236, 31.1027, 7.92602, 1.70032, 3.6188, 0.0165515, -0.00210355, 0.000522182, 0.00321996, 0.00576702, -0.00374008, -0.00058989, 0.056589, -0.0219409, 0.000822721, -0.00716251, 0.0821318, 0.0709544, 0.470241, -0.53995, 0.336268, -2.08025, -2.1651, -0.132156, 0.470721, -0.541498, 0.332741, -2.07847, -2.16563, -0.122035, -0.0138343, 0.0661309, 0.00807574, 0.0102001, 0.0110965, -0.000753179
0.160181, 1.69574, -1.22862, -1.5413, -0.900582, -1.19564, 1.2277, -1.30262, 0.0078117, 0.000265153, 0.000589709, -0.0256128, -0.00818231, 0.00104397, 0.000229077, -2.01562, 64.2236, 31.2137, 7.89032, 1.69391, 3.61148, 0.0101428, -0.0021618, 0.000541235, 0.00322248, 0.0057655, -0.00380556, -0.000590683, 0.0583634, -0.0208301, -0.000579647, -0.0089575, 0.0804966, 0.0684952, 0.470227, -0.539884, 0.336276, -2.08018, -2.16508, -0.132197, 0.470728, -0.541488, 0.332737, -2.07844, -2.16566, -0.122012, -0.0139747, 0.0669183, 0.00819524, 0.00896517, 0.0103075, -0.00226824
0.161181, 1.69573, -1.22862, -1.54129, -0.900624, -1.19564, 1.2277, -1.30263, 0.0041542, 0.000178624, 0.00218304, -0.0284106, -0.00528004, 0.00123851, -0.00130534, -1.94024, 64.2236, 31.1384, 8.0014, 1.66919, 3.59683, 0.0495105, -0.00221794, 0.00056028, 0.003222, 0.00575875, -0.00387008, -0.000605402, 0.0590856, -0.020157, -0.000233312, -0.0066853, 0.0789402, 0.0710418, 0.470213, -0.539817, 0.336284, -2.08012, -2.16506, -0.132239, 0.470735, -0.541475, 0.332736, -2.07839, -2.1657, -0.121998, -0.0141153, 0.067709, 0.00831571, 0.00819346, 0.0103038, -0.00190355
0.162181, 1.69573, -1.22861, -1.54128, -0.900651, -1.19563, 1.22771, -1.30263, 0.00422971, 0.00355415, 0.00500183, -0.0287861, -0.00339737, 0.00109694, -0.00110759, -1.97991, 64.0768, 30.9876, 7.89032, 1.65088, 3.58951, 0.0559192, -0.00227343, 0.000582237, 0.0032111, 0.00573574, -0.00394432, -0.000614005, 0.0584546, -0.0210135, 0.00269082, -0.00323979, 0.0813405, 0.0735975, 0.470199, -0.539749, 0.336293, -2.08005, -2.16505, -0.132281, 0.470745, -0.541463, 0.332745, -2.07836, -2.16574, -0.121992, -0.0142558, 0.0685029, 0.00843714, 0.00899508, 0.0112981, 0.00117315
0.163181, 1.69573, -1.22861, -1.54128, -0.900689, -1.19563, 1.22771, -1.30262, 0.00229096, 0.00153526, 0.000658293, -0.0306286, -0.00291891, 0.00151119, 0.00119439, -1.94024, 64.1125, 31.1027, 7.85065, 1.65729, 3.56845, 0.00373412, -0.00233543, 0.000597895, 0.00321401, 0.00573525, -0.00401069, -0.000607929, 0.0606273, -0.0198451, -0.000134961, -0.00706399, 0.0803328, 0.0695422, 0.470185, -0.539681, 0.336301, -2.07998, -2.16503, -0.132324, 0.470749, -0.541454, 0.33274, -2.07833, -2.16576, -0.121967, -0.0143965, 0.0692999, 0.00855954, 0.00766411, 0.0103473, -0.00180559
0.164181, 1.69572, -1.2286, -1.54127, -0.900728, -1.19563, 1.22771, -1.30262, -0.00241312, 0.00418727, 0.0071533, -0.0354686, -0.00225842, 0.00182126, 0.000321541, -1.90453, 64.1125, 30.9519, 7.81494, 1.65729, 3.54648, 0.0165515, -0.0023947, 0.000616402, 0.00320763, 0.00571688, -0.00408199, -0.000616374, 0.0603933, -0.0196249, 0.00333811, -0.00201317, 0.083233, 0.0737357, 0.47017, -0.539612, 0.33631, -2.0799, -2.16502, -0.132367, 0.470755, -0.541443, 0.332745, -2.0783, -2.1658, -0.121959, -0.0145372, 0.0701002, 0.0086829, 0.00742583, 0.010824, 0.00178494
0.165181, 1.69571, -1.22859, -1.54127, -0.900767, -1.19563, 1.22771, -1.30263, -0.00259595, 0.00795601, 0.0073873, -0.0352339, -0.000587087, 0.0017228, -0.0012437, -1.86486, 64.0372, 30.9876, 7.73956, 1.62616, 3.53274, 0.0559192, -0.00245476, 0.000634283, 0.00320169, 0.00570479, -0.00415525, -0.000621917, 0.0606161, -0.0197201, 0.00568162, -0.000524252, 0.0863287, 0.0759451, 0.470156, -0.539541, 0.336318, -2.07983, -2.165, -0.132411, 0.470761, -0.541432, 0.33275, -2.07827, -2.16583, -0.121943, -0.014678, 0.0709037, 0.00880724, 0.00747734, 0.0110438, 0.00417935
0.166181, 1.6957, -1.22858, -1.54126, -0.900805, -1.19562, 1.22771, -1.30263, -0.00261024, 0.009763, 0.00668458, -0.0361244, 0.000111008, 0.00169107, -0.00106649, -1.82915, 64.0015, 31.063, 7.59277, 1.60785, 3.5181, 0.0623279, -0.00251755, 0.00065023, 0.00319934, 0.00569878, -0.00422629, -0.000625231, 0.0610143, -0.0199339, 0.00638125, -0.000972737, 0.0884751, 0.0768276, 0.470141, -0.539471, 0.336327, -2.07976, -2.16498, -0.132455, 0.470765, -0.541423, 0.33275, -2.07823, -2.16586, -0.121922, -0.0148189, 0.0717102, 0.00893254, 0.00759246, 0.0113574, 0.00492086
0.167181, 1.69569, -1.22858, -1.54125, -0.900853, -1.19562, 1.22771, -1.30262, -0.00672347, 0.00840561, 0.0100107, -0.0402832, -0.00053254, 0.00139865, 0.000984425, -1.75378, 64.0768, 30.9876, 7.5531, 1.62067, 3.51077, 0.0165515, -0.00257965, 0.000668058, 0.00319623, 0.00568331, -0.0042969, -0.000628821, 0.0619645, -0.0191493, 0.00638787, 7.51083e-05, 0.0883357, 0.0762052, 0.470126, -0.539399, 0.336336, -2.07969, -2.16496, -0.132499, 0.47077, -0.541412, 0.332752, -2.0782, -2.16589, -0.121913, -0.0149597, 0.0725199, 0.00905882, 0.00670526, 0.011196, 0.00492263
0.168181, 1.69568, -1.22857, -1.54125, -0.900902, -1.19562, 1.22771, -1.30262, -0.00653608, 0.0120758, 0.0064663, -0.0453231, -0.000216538, 0.00147496, 0.000656284, -1.6784, 63.9658, 31.0273, 7.47772, 1.61426, 3.49612, 0.0165515, -0.0026411, 0.000685169, 0.0031887, 0.00567635, -0.00437927, -0.000633582, 0.061555, -0.019841, 0.00659777, -0.0047834, 0.0932676, 0.0798925, 0.470112, -0.539326, 0.336345, -2.07961, -2.16495, -0.132544, 0.470775, -0.5414, 0.332758, -2.07817, -2.16593, -0.121883, -0.0151006, 0.0733327, 0.00918606, 0.00724932, 0.0124101, 0.0052961
0.169181, 1.69566, -1.22856, -1.54124, -0.900959, -1.19562, 1.22771, -1.30263, -0.00726655, 0.0110612, 0.00485124, -0.0498146, 1.88476e-05, 0.00230574, -0.0012579, -1.56335, 64.0015, 31.0273, 7.44202, 1.60785, 3.46042, 0.0623279, -0.00270368, 0.000702709, 0.00318477, 0.00566634, -0.00445636, -0.000648046, 0.0618524, -0.0204524, 0.00492658, -0.00733629, 0.093764, 0.08478, 0.470096, -0.539253, 0.336354, -2.07954, -2.16493, -0.132589, 0.47078, -0.541388, 0.33276, -2.07812, -2.16598, -0.121863, -0.0152415, 0.0741485, 0.00931428, 0.00766912, 0.013223, 0.00370437
0.170181, 1.69565, -1.22855, -1.54124, -0.901008, -1.19562, 1.22771, -1.30263, -0.00993899, 0.0113615, 0.00409642, -0.0477718, -0.000721218, 0.00153716, -0.000838599, -1.48797, 64.0015, 31.1384, 7.29126, 1.62616, 3.46042, 0.0623279, -0.0027694, 0.000717134, 0.00318048, 0.00566627, -0.00453879, -0.000649238, 0.0646748, -0.0182429, 0.00521074, -0.00745128, 0.094888, 0.0797515, 0.470081, -0.539179, 0.336364, -2.07946, -2.16491, -0.132635, 0.470781, -0.541379, 0.332762, -2.07809, -2.16601, -0.121825, -0.0153825, 0.0749674, 0.00944347, 0.00543908, 0.0111193, 0.00372904
0.171181, 1.69563, -1.22853, -1.54123, -0.901063, -1.19562, 1.22771, -1.30262, -0.0159749, 0.0124068, 0.00328953, -0.0499708, -0.00120069, 0.00102477, 0.000898996, -1.37688, 63.9658, 31.1384, 7.18018, 1.64447, 3.46042, 0.0229602, -0.00283285, 0.000733823, 0.00317107, 0.00565539, -0.00462378, -0.000657022, 0.0676535, -0.0151459, 0.00552559, -0.00868805, 0.096938, 0.0738467, 0.470066, -0.539104, 0.336373, -2.07939, -2.16489, -0.132681, 0.470785, -0.541367, 0.33277, -2.07805, -2.16605, -0.121798, -0.0155234, 0.0757893, 0.00957364, 0.00233005, 0.00882139, 0.00378731
0.172181, 1.69561, -1.22852, -1.54122, -0.901127, -1.19562, 1.22771, -1.30262, -0.0149967, 0.0124844, 0.00495345, -0.0548925, -0.00130646, 0.000954449, 0.000599331, -1.22613, 63.9658, 31.1741, 7.18018, 1.65729, 3.45309, 0.0229602, -0.00289812, 0.000749187, 0.00316393, 0.00565036, -0.00471234, -0.000663932, 0.0662596, -0.0171664, 0.00542354, -0.00968742, 0.0982505, 0.0806216, 0.47005, -0.539028, 0.336383, -2.07931, -2.16487, -0.132728, 0.470788, -0.541356, 0.332776, -2.07801, -2.16609, -0.121762, -0.0156643, 0.0766142, 0.00970477, 0.00415274, 0.011125, 0.00397181
0.173181, 1.69559, -1.2285, -1.54121, -0.901182, -1.19561, 1.22771, -1.30263, -0.0195082, 0.0154709, 0.0101726, -0.0550247, -0.00157261, 0.00168746, -0.00129587, -1.11108, 63.9658, 31.1741, 7.02942, 1.6756, 3.42471, 0.0687366, -0.00296529, 0.000764845, 0.00315436, 0.00563647, -0.00480133, -0.000673302, 0.0678218, -0.0157443, 0.00932369, -0.00357146, 0.102146, 0.0809818, 0.470035, -0.538951, 0.336392, -2.07923, -2.16485, -0.132775, 0.470791, -0.541346, 0.332784, -2.07798, -2.16614, -0.121735, -0.0158053, 0.0774421, 0.00983689, 0.00279829, 0.00973589, 0.00774276
0.174181, 1.69557, -1.22848, -1.5412, -0.901251, -1.19561, 1.22771, -1.30263, -0.0179958, 0.0196451, 0.00907538, -0.0579742, -0.000828641, 0.00112497, -0.00110127, -1.07537, 63.8904, 31.2494, 7.02942, 1.66919, 3.42471, 0.0751453, -0.00302861, 0.000783003, 0.00314483, 0.0056338, -0.00489633, -0.000692941, 0.0667505, -0.0170656, 0.0108549, -0.00581175, 0.106628, 0.0849335, 0.470019, -0.538874, 0.336402, -2.07915, -2.16483, -0.132822, 0.470796, -0.541331, 0.332792, -2.07793, -2.16619, -0.121692, -0.0159461, 0.0782729, 0.00996998, 0.00399624, 0.0114389, 0.00951112
0.175181, 1.69554, -1.22847, -1.54119, -0.901317, -1.19561, 1.22771, -1.30262, -0.0228929, 0.0137218, 0.0140836, -0.058273, -0.00148115, 0.000749982, 0.000961241, -0.920646, 63.9261, 31.2137, 6.91833, 1.69391, 3.42471, 0.0293689, -0.00309564, 0.000798325, 0.00313532, 0.0056203, -0.0049841, -0.000696532, 0.0692899, -0.0153451, 0.0093437, -0.00178921, 0.101449, 0.0810515, 0.470003, -0.538796, 0.336412, -2.07907, -2.16481, -0.13287, 0.470798, -0.54132, 0.3328, -2.0779, -2.16623, -0.121667, -0.016087, 0.0791067, 0.010104, 0.00217737, 0.00993322, 0.00779759
0.176181, 1.69552, -1.22845, -1.54118, -0.90138, -1.19561, 1.22771, -1.30262, -0.0214639, 0.0173869, 0.0120227, -0.060258, 0.00279525, 0.00127988, 0.00111555, -0.845268, 63.8904, 31.2891, 6.77154, 1.71863, 3.40365, 0.0165515, -0.00316492, 0.000813595, 0.00312561, 0.00561222, -0.00508115, -0.00070394, 0.0682105, -0.0168411, 0.0104632, -0.00185008, 0.103048, 0.0848527, 0.469987, -0.538717, 0.336422, -2.07899, -2.16479, -0.132919, 0.4708, -0.54131, 0.332808, -2.07786, -2.16628, -0.121627, -0.0162278, 0.0799433, 0.0102391, 0.00353419, 0.0117226, 0.00915737
0.177181, 1.69549, -1.22843, -1.54117, -0.901443, -1.19561, 1.22771, -1.30263, -0.0235709, 0.0152624, 0.00967387, -0.0620043, 0.00180761, 0.000853255, -0.000714365, -0.76989, 63.9261, 31.4002, 6.62079, 1.73053, 3.40365, 0.0559192, -0.00323502, 0.000827462, 0.00311898, 0.00560937, -0.00517037, -0.000710978, 0.0703282, -0.01559, 0.00822696, -0.00526807, 0.102595, 0.0851518, 0.469971, -0.538637, 0.336433, -2.07891, -2.16477, -0.132968, 0.4708, -0.541299, 0.332813, -2.07782, -2.16632, -0.121589, -0.0163686, 0.0807828, 0.0103751, 0.00214119, 0.0107738, 0.00678257
0.178181, 1.69546, -1.22842, -1.54116, -0.901519, -1.19561, 1.22771, -1.30262, -0.030129, 0.0178489, 0.0108923, -0.0649485, 0.000578233, 0.00111137, -0.000476244, -0.619133, 63.9261, 31.4002, 6.65649, 1.75525, 3.38901, 0.0559192, -0.00330384, 0.000842399, 0.00310929, 0.00559949, -0.00526396, -0.000723381, 0.0729965, -0.0127506, 0.0101538, -0.00454779, 0.107103, 0.0815796, 0.469954, -0.538556, 0.336443, -2.07883, -2.16475, -0.133017, 0.470802, -0.541287, 0.332821, -2.07778, -2.16637, -0.121556, -0.0165093, 0.0816252, 0.0105121, -0.000660264, 0.00855788, 0.00847783
0.179181, 1.69544, -1.2284, -1.54114, -0.901592, -1.19561, 1.22771, -1.30263, -0.0280427, 0.0198284, 0.00932987, -0.0699895, -0.000550881, 0.00128345, -0.0015382, -0.619133, 63.9261, 31.3605, 6.58508, 1.78638, 3.37436, 0.0888782, -0.00337123, 0.000860915, 0.0030968, 0.00558867, -0.00536534, -0.000743791, 0.071818, -0.0147413, 0.00997173, -0.00869557, 0.11154, 0.0883818, 0.469938, -0.538474, 0.336454, -2.07875, -2.16473, -0.133067, 0.470807, -0.541273, 0.332833, -2.07773, -2.16643, -0.121518, -0.01665, 0.0824704, 0.0106501, 0.00113806, 0.0106807, 0.00855641
0.180181, 1.69541, -1.22838, -1.54114, -0.901666, -1.19561, 1.22771, -1.30262, -0.0246124, 0.0171008, 0.00978201, -0.0680435, -0.000883035, 0.000584365, 0.00141594, -0.583427, 63.9658, 31.5113, 6.5097, 1.80469, 3.38168, 0.0229602, -0.0034413, 0.000876418, 0.00309118, 0.0055914, -0.00545896, -0.000748347, 0.0718919, -0.0163012, 0.00856161, -0.00874528, 0.109514, 0.0877107, 0.469921, -0.538392, 0.336464, -2.07866, -2.16471, -0.133117, 0.470809, -0.541259, 0.332837, -2.07769, -2.16647, -0.121471, -0.0167906, 0.0833185, 0.010789, 0.00250695, 0.0117471, 0.00723765
0.181181, 1.69538, -1.22837, -1.54112, -0.901742, -1.19561, 1.22771, -1.30262, -0.0253565, 0.0157858, 0.00987736, -0.0717354, -0.00182324, 0.000932111, 0.000706601, -0.543754, 64.1125, 31.547, 6.39465, 1.84131, 3.36703, 0.0293689, -0.00351318, 0.00089251, 0.00308674, 0.00558392, -0.00554842, -0.000762246, 0.0723228, -0.0168112, 0.00738562, -0.0103933, 0.110282, 0.0911168, 0.469904, -0.538309, 0.336475, -2.07858, -2.16469, -0.133167, 0.470811, -0.541246, 0.33284, -2.07764, -2.16652, -0.121441, -0.0169311, 0.0841693, 0.010929, 0.00284959, 0.012382, 0.00612655
0.182181, 1.69534, -1.22834, -1.54111, -0.901821, -1.19561, 1.22771, -1.30262, -0.0295669, 0.0178253, 0.013121, -0.0764236, -0.00180232, 0.0014013, -0.000512277, -0.357292, 64.0015, 31.5867, 6.35895, 1.85962, 3.34598, 0.0559192, -0.00358895, 0.000901721, 0.00307236, 0.00557793, -0.00565644, -0.000767514, 0.0728451, -0.0162233, 0.00935006, -0.00838261, 0.113433, 0.0942523, 0.469887, -0.538224, 0.336486, -2.07849, -2.16467, -0.133218, 0.470806, -0.541239, 0.332852, -2.07761, -2.16657, -0.12139, -0.0170715, 0.0850228, 0.0110699, 0.00221812, 0.0123846, 0.00813452
0.183181, 1.69531, -1.22833, -1.5411, -0.901898, -1.19561, 1.22771, -1.30263, -0.0301235, 0.0178961, 0.0115007, -0.0788699, -0.00228592, 0.00120547, -0.00156222, -0.392998, 64.0768, 31.6581, 6.24786, 1.89075, 3.33865, 0.0888782, -0.00366095, 0.000919475, 0.00306565, 0.00557341, -0.00575479, -0.000786638, 0.0736481, -0.0161828, 0.00849668, -0.0111087, 0.11495, 0.0963899, 0.46987, -0.538139, 0.336497, -2.07841, -2.16465, -0.13327, 0.47081, -0.541225, 0.332858, -2.07756, -2.16662, -0.121349, -0.0172118, 0.0858791, 0.0112118, 0.00203758, 0.0125833, 0.00730115
0.184181, 1.69528, -1.22831, -1.54109, -0.90198, -1.19561, 1.22771, -1.30263, -0.0336263, 0.0208239, 0.0143676, -0.0772607, -0.0023881, 0.00134618, -0.000532854, -0.317619, 64.0372, 31.6977, 6.17248, 1.91546, 3.324, 0.0751453, -0.00373644, 0.000932114, 0.00305451, 0.00556642, -0.00585995, -0.000793865, 0.0757099, -0.01443, 0.0116635, -0.00680103, 0.118425, 0.0922225, 0.469853, -0.538053, 0.336508, -2.07832, -2.16463, -0.133322, 0.470809, -0.541214, 0.332867, -2.07752, -2.16667, -0.121303, -0.017352, 0.0867382, 0.0113547, 0.000346776, 0.0108312, 0.0102871
0.185181, 1.69528, -1.22831, -1.54109, -0.90198, -1.19561, 1.22771, -1.30263, -0.0336263, 0.0208239, 0.0143676, -0.0772607, -0.0023881, 0.00134618, -0.000532854, -0.317619, 64.0372, 31.6977, 6.17248, 1.91546, 3.324, 0.0751453, -0.00382474, 0.000946019, 0.00305096, 0.00553914, -0.00593857, -0.000762616, 0.0765878, -0.0145346, 0.0116701, -0.00663639, 0.119274, 0.0926657, 0.469836, -0.537967, 0.33652, -2.07823, -2.1646, -0.133374, 0.470809, -0.541214, 0.332867, -2.07752, -2.16667, -0.121303, -0.0174921, 0.0875999, 0.0114985, 0.000346776, 0.0108312, 0.0102871
