alisrour97/Franka_experiments/Real_Robot_scripts/servo-franka/Data2/log_dyn_PI2_3.csv
Time,q1,q2,q3,q4,q5,q6,q7,dq1,dq2,dq3,dq4,dq5,dq6,dq7,t1,t2,t3,t4,t5,t6,t7,ex1,ex2,ex3,ex4,ex5,ex6,ev1,ev2,ev3,ev4,ev5,ev6,xd,yd,zd,uxd,uyd,uzd,x,y,z,ux,uy,uz,vxd,vyd,vzd,vx,vy,vz
9.76563e-07, 1.69141, -1.2255, -1.53834, -0.899939, -1.19204, 1.22839, -1.30255, -0.00101636, 0.00519797, 0.00817241, 0.000507099, 0.0119958, 0.00130973, 0.00133665, -0.508049, 56.0471, 27.4528, 6.35895, 2.03174, 3.20956, -0.245289, 0.000830084, -0.0016812, 0.000161674, 0.00067403, -0.000673477, 0.000367693, -0.0039355, -0.00226575, 0.00623638, 0.0147316, -0.00460235, 0.00499985, 0.471008, -0.543389, 0.335894, -2.08385, -2.16584, -0.129887, 0.469292, -0.542615, 0.335894, -2.08422, -2.16554, -0.12838, -1.41255e-05, -9.11997e-05, -6.59526e-05, 0.00233308, 0.00292688, 0.0066345
0.013137, 1.69136, -1.22546, -1.53827, -0.899946, -1.19197, 1.22839, -1.30255, -0.0025378, 0.00367319, 0.0117563, -0.000739626, 0.0060626, 0.000375802, 8.70008e-05, -0.392998, 56.5628, 27.6749, 6.39465, 2.00061, 3.20224, -0.291066, 0.000845812, -0.00168368, 0.00011258, 0.000574139, -0.000650377, 0.000348216, -0.00320506, -0.00151688, 0.00646629, 0.0138285, -0.00188508, 0.00554481, 0.471008, -0.543389, 0.335894, -2.08385, -2.16584, -0.129887, 0.469292, -0.542606, 0.335965, -2.08425, -2.16561, -0.128554, -2.13283e-05, -0.000136675, -0.000102379, 0.00161239, 0.00209427, 0.00673429
0.014137, 1.69136, -1.22546, -1.53827, -0.899946, -1.19197, 1.22839, -1.30255, -0.0025378, 0.00367319, 0.0117563, -0.000739626, 0.0060626, 0.000375802, 8.70008e-05, -0.392998, 56.5628, 27.6749, 6.39465, 2.00061, 3.20224, -0.291066, 0.000845824, -0.00168368, 0.000112573, 0.00057413, -0.000650375, 0.000348215, -0.00325995, -0.00152556, 0.00649824, 0.0138568, -0.00187537, 0.00548398, 0.471008, -0.543389, 0.335894, -2.08385, -2.16584, -0.129887, 0.469292, -0.542606, 0.335965, -2.08425, -2.16561, -0.128554, -2.91898e-05, -0.000186294, -0.000142179, 0.00161239, 0.00209427, 0.00673429
0.015137, 1.69136, -1.22546, -1.53827, -0.899946, -1.19197, 1.22839, -1.30255, -0.0025378, 0.00367319, 0.0117563, -0.000739626, 0.0060626, 0.000375802, 8.70008e-05, -0.392998, 56.5628, 27.6749, 6.39465, 2.00061, 3.20224, -0.291066, 0.000845855, -0.00168367, 0.000112555, 0.000574104, -0.000650368, 0.00034821, -0.00331957, -0.00153499, 0.00653299, 0.0138877, -0.00186467, 0.00541771, 0.471008, -0.543389, 0.335894, -2.08385, -2.16584, -0.129887, 0.469292, -0.542606, 0.335965, -2.08425, -2.16561, -0.128554, -3.77325e-05, -0.000240197, -0.00018547, 0.00161239, 0.00209427, 0.00673429
0.016137, 1.69136, -1.22546, -1.53827, -0.899946, -1.19197, 1.22839, -1.30255, -0.0025378, 0.00367319, 0.0117563, -0.000739626, 0.0060626, 0.000375802, 8.70008e-05, -0.392998, 56.5628, 27.6749, 6.39465, 2.00061, 3.20224, -0.291066, 0.000845915, -0.00168366, 0.000112521, 0.000574053, -0.000650355, 0.000348202, -0.0033841, -0.0015452, 0.00657066, 0.0139212, -0.00185292, 0.00534584, 0.471008, -0.543389, 0.335894, -2.08385, -2.16584, -0.129887, 0.469292, -0.542606, 0.335965, -2.08425, -2.16561, -0.128554, -4.69786e-05, -0.000298522, -0.00023237, 0.00161239, 0.00209427, 0.00673429
0.017137, 1.69136, -1.22546, -1.53827, -0.899946, -1.19197, 1.22839, -1.30255, -0.0025378, 0.00367319, 0.0117563, -0.000739626, 0.0060626, 0.000375802, 8.70008e-05, -0.392998, 56.5628, 27.6749, 6.39465, 2.00061, 3.20224, -0.291066, 0.000846013, -0.00168365, 0.000112464, 0.000573971, -0.000650334, 0.000348189, -0.00345368, -0.0015562, 0.00661133, 0.0139576, -0.00184008, 0.00526816, 0.471008, -0.54339, 0.335894, -2.08385, -2.16584, -0.129887, 0.469292, -0.542606, 0.335965, -2.08425, -2.16561, -0.128554, -5.69498e-05, -0.000361405, -0.000282992, 0.00161239, 0.00209427, 0.00673429
0.018137, 1.69136, -1.22546, -1.53827, -0.899946, -1.19197, 1.22839, -1.30255, -0.0025378, 0.00367319, 0.0117563, -0.000739626, 0.0060626, 0.000375802, 8.70008e-05, -0.392998, 56.5628, 27.6749, 6.39465, 2.00061, 3.20224, -0.291066, 0.000846159, -0.00168362, 0.000112379, 0.000573848, -0.000650303, 0.00034817, -0.00352846, -0.00156803, 0.00665509, 0.0139968, -0.0018261, 0.0051845, 0.471008, -0.54339, 0.335894, -2.08385, -2.16584, -0.129886, 0.469292, -0.542606, 0.335965, -2.08425, -2.16561, -0.128554, -6.7667e-05, -0.000428975, -0.000337449, 0.00161239, 0.00209427, 0.00673429
0.019137, 1.69136, -1.22546, -1.53827, -0.899946, -1.19197, 1.22839, -1.30255, -0.0025378, 0.00367319, 0.0117563, -0.000739626, 0.0060626, 0.000375802, 8.70008e-05, -0.392998, 56.5628, 27.6749, 6.39465, 2.00061, 3.20224, -0.291066, 0.000846361, -0.00168359, 0.000112261, 0.000573677, -0.000650259, 0.000348143, -0.00360857, -0.0015807, 0.00670202, 0.014039, -0.00181094, 0.00509468, 0.471008, -0.54339, 0.335893, -2.08385, -2.16584, -0.129886, 0.469292, -0.542606, 0.335965, -2.08425, -2.16561, -0.128554, -7.91509e-05, -0.000501362, -0.000395848, 0.00161239, 0.00209427, 0.00673429
0.020137, 1.69136, -1.22546, -1.53827, -0.899946, -1.19197, 1.22839, -1.30255, -0.0025378, 0.00367319, 0.0117563, -0.000739626, 0.0060626, 0.000375802, 8.70008e-05, -0.392998, 56.5628, 27.6749, 6.39465, 2.00061, 3.20224, -0.291066, 0.00084663, -0.00168355, 0.000112105, 0.000573449, -0.000650202, 0.000348107, -0.00369416, -0.00159423, 0.00675223, 0.0140843, -0.00179457, 0.00499853, 0.471008, -0.54339, 0.335893, -2.08385, -2.16584, -0.129886, 0.469292, -0.542606, 0.335965, -2.08425, -2.16561, -0.128554, -9.14213e-05, -0.000578688, -0.000458296, 0.00161239, 0.00209427, 0.00673429
0.021137, 1.69136, -1.22546, -1.53827, -0.899946, -1.19197, 1.22839, -1.30255, -0.0025378, 0.00367319, 0.0117563, -0.000739626, 0.0060626, 0.000375802, 8.70008e-05, -0.392998, 56.5628, 27.6749, 6.39465, 2.00061, 3.20224, -0.291066, 0.000846973, -0.00168349, 0.000111905, 0.000573158, -0.000650128, 0.000348061, -0.00378537, -0.00160865, 0.00680578, 0.0141327, -0.00177692, 0.00489588, 0.471008, -0.54339, 0.335893, -2.08385, -2.16584, -0.129885, 0.469292, -0.542606, 0.335965, -2.08425, -2.16561, -0.128554, -0.000104498, -0.000661074, -0.000524897, 0.00161239, 0.00209427, 0.00673429
0.022137, 1.69136, -1.22546, -1.53827, -0.899946, -1.19197, 1.22839, -1.30255, -0.0025378, 0.00367319, 0.0117563, -0.000739626, 0.0060626, 0.000375802, 8.70008e-05, -0.392998, 56.5628, 27.6749, 6.39465, 2.00061, 3.20224, -0.291066, 0.0008474, -0.00168343, 0.000111657, 0.000572795, -0.000650037, 0.000348004, -0.00388231, -0.00162398, 0.00686277, 0.0141844, -0.00175796, 0.00478656, 0.471008, -0.543391, 0.335893, -2.08385, -2.16584, -0.129885, 0.469292, -0.542606, 0.335965, -2.08425, -2.16561, -0.128554, -0.000118398, -0.000748633, -0.000595748, 0.00161239, 0.00209427, 0.00673429
0.023137, 1.69135, -1.22544, -1.5382, -0.899944, -1.19192, 1.2284, -1.30256, -0.000714602, 0.000269063, 0.00786138, -0.000214922, 0.00810869, 0.000850828, 0.000216039, -0.392998, 57.1896, 27.6749, 6.35895, 1.85962, 3.16653, -0.265431, 0.00086725, -0.00167301, 7.12571e-05, 0.000475676, -0.000628307, 0.000305356, -0.00385805, -0.00224021, 0.00356283, 0.0118848, -0.00630843, 0.00475328, 0.471008, -0.543391, 0.335892, -2.08385, -2.16584, -0.129884, 0.469303, -0.542593, 0.336007, -2.08424, -2.16568, -0.128688, -0.000133141, -0.000841478, -0.000670947, 0.00209484, 0.00251059, 0.00337832
0.024137, 1.69135, -1.22543, -1.53819, -0.899946, -1.19192, 1.2284, -1.30256, -0.0045125, 0.00705199, 0.00487524, -0.000977999, 0.0059331, 2.53457e-05, -0.00529894, -0.357292, 57.0389, 27.7146, 6.39465, 1.85962, 3.18118, -0.245289, 0.000869303, -0.00167452, 6.27063e-05, 0.000471483, -0.000636588, 0.0002997, -0.00218613, 0.000747286, 0.00657286, 0.00839167, 0.00198808, 0.0047737, 0.471008, -0.543392, 0.335892, -2.08385, -2.16584, -0.129884, 0.469302, -0.542593, 0.336015, -2.08425, -2.16569, -0.128684, -0.000148743, -0.000939713, -0.000750586, -0.000735963, 0.00017628, 0.00610141
0.025137, 1.69134, -1.22543, -1.53818, -0.899946, -1.19191, 1.2284, -1.30256, -0.00420574, -0.000208028, 0.00719838, 0.000183594, 0.00618193, 0.0057748, -0.00344932, -0.317619, 57.0032, 27.5638, 6.35895, 1.81018, 3.1528, -0.258107, 0.000870841, -0.00167314, 6.24458e-05, 0.00045578, -0.000624252, 0.000299503, -0.00133657, -0.000803307, 0.00385235, 0.0154975, -0.00282526, 0.00341327, 0.471008, -0.543393, 0.335891, -2.08385, -2.16584, -0.129883, 0.469303, -0.542592, 0.336015, -2.08425, -2.16569, -0.128713, -0.00016522, -0.00104344, -0.000834754, 0.000728323, -0.000283997, 0.00315237
0.026137, 1.69135, -1.22543, -1.53819, -0.899943, -1.19191, 1.2284, -1.30256, -0.00207785, -0.00131408, 0.00464858, -0.000441849, 0.00713057, 0.00424243, -0.00547532, -0.357292, 56.781, 27.4528, 6.24786, 1.73694, 3.1528, -0.180287, 0.00087273, -0.00167123, 6.31452e-05, 0.000456046, -0.000621906, 0.000293154, -0.00229754, -0.00155465, 0.00203691, 0.0117245, -0.00515322, 0.00705887, 0.471007, -0.543393, 0.335891, -2.08385, -2.16584, -0.129882, 0.469305, -0.54259, 0.336014, -2.08424, -2.1657, -0.128714, -0.000182589, -0.00115275, -0.000923534, 0.00136144, 0.000865556, 0.00139748
0.027137, 1.69135, -1.22544, -1.53818, -0.899947, -1.19192, 1.2284, -1.30257, -0.00153676, -0.00436149, 0.0049821, -0.00365991, 0.00335106, 0.00288535, -0.0075325, -0.357292, 56.6342, 27.2306, 6.24786, 1.65088, 3.15921, -0.0814099, 0.000874412, -0.00166936, 6.25405e-05, 0.000454533, -0.000625921, 0.000285813, -0.00279094, -0.00203731, -0.000153162, 0.00727488, -0.00546231, 0.0112663, 0.471007, -0.543394, 0.33589, -2.08385, -2.16584, -0.129881, 0.469307, -0.54259, 0.336014, -2.08423, -2.16571, -0.128712, -0.000200863, -0.00126774, -0.00101701, 0.00172849, 0.0015945, -0.000796505
0.028137, 1.69135, -1.22544, -1.53819, -0.89995, -1.19192, 1.22841, -1.30257, -0.000302936, -0.00483569, 0.00396113, -0.00507113, -0.0013187, 0.00640867, -0.0064075, -0.392998, 56.6739, 27.1909, 6.20819, 1.61426, 3.17386, -0.0484509, 0.000875417, -0.00166663, 6.94716e-05, 0.000460762, -0.000622144, 0.000281233, -0.00234179, -0.00301352, -0.000664493, 0.00644089, -0.000113273, 0.0103921, 0.471007, -0.543395, 0.335889, -2.08384, -2.16584, -0.129879, 0.469309, -0.542588, 0.336007, -2.08422, -2.16571, -0.128708, -0.000220057, -0.00138849, -0.00111525, 0.00268185, 0.00114897, -0.00149878
0.029137, 1.69135, -1.22545, -1.53819, -0.899941, -1.19192, 1.22841, -1.30256, -0.00205043, -0.000133541, 0.00409498, -0.000547699, -0.00566292, 0.00510989, -0.00293745, -0.317619, 56.781, 27.1195, 6.0614, 1.60144, 3.16653, -0.0878186, 0.00087156, -0.00166917, 6.74943e-05, 0.000452633, -0.000626407, 0.000300716, -0.000117236, -0.000255805, 0.00283369, 0.00629921, 0.0070568, -0.000398746, 0.471007, -0.543396, 0.335888, -2.08384, -2.16584, -0.129878, 0.469306, -0.542594, 0.336007, -2.08425, -2.16569, -0.128709, -0.000240182, -0.00151507, -0.00121833, 0.000113403, -0.00182501, 0.00159021
0.030137, 1.69135, -1.22544, -1.53819, -0.899942, -1.19193, 1.22842, -1.30255, -0.0022661, 0.000441817, 0.000897391, -0.000815597, -0.00506502, 0.00433986, -0.00083048, -0.281914, 56.8921, 27.1909, 6.0614, 1.61426, 3.1528, -0.120778, 0.000870256, -0.00166971, 6.72807e-05, 0.000451429, -0.000633047, 0.000309853, 0.000165877, 0.000428114, 0.00203163, 0.00314899, 0.00701483, -0.00400263, 0.471007, -0.543398, 0.335887, -2.08384, -2.16584, -0.129876, 0.469306, -0.542596, 0.336006, -2.08426, -2.16569, -0.128701, -0.000261251, -0.00164757, -0.00132632, -0.000609533, -0.00214154, 0.000666922
0.031137, 1.69135, -1.22545, -1.53819, -0.89994, -1.19193, 1.22843, -1.30255, -0.00155868, 0.000147423, -0.000451379, -0.000881579, -0.00466612, 0.00976996, -0.000385958, -0.281914, 57.0389, 27.2306, 6.0614, 1.63257, 3.10245, -0.127186, 0.000869475, -0.00166728, 6.85853e-05, 0.000444227, -0.000637452, 0.000309023, 0.000474099, -0.000814152, 0.00190312, 0.00679456, 0.00922759, -0.00437533, 0.471007, -0.543399, 0.335886, -2.08384, -2.16584, -0.129874, 0.469308, -0.542598, 0.336004, -2.08427, -2.16569, -0.128703, -0.000283275, -0.00178604, -0.00143928, 0.000615488, -0.0025137, 0.000341794
0.032137, 1.69135, -1.22545, -1.53819, -0.899945, -1.19194, 1.22844, -1.30256, -0.00283831, -0.000396979, -0.00122735, -0.00260434, -0.00424736, 0.00741454, -0.000309553, -0.206535, 57.0786, 27.2663, 6.13678, 1.65088, 3.09512, -0.127186, 0.000869312, -0.0016663, 6.78267e-05, 0.000439691, -0.000646029, 0.000308083, 0.000257297, 3.77613e-06, 0.0010243, 0.00368523, 0.00737474, -0.00461623, 0.471006, -0.543401, 0.335885, -2.08384, -2.16584, -0.129872, 0.469309, -0.5426, 0.336003, -2.08427, -2.1657, -0.128697, -0.000306264, -0.00193055, -0.00155726, -0.000263852, -0.00234237, -0.000585656
0.033137, 1.69135, -1.22544, -1.5382, -0.899944, -1.19194, 1.22845, -1.30256, 0.00113145, 0.00265837, -0.00181467, -0.00192627, -0.00341277, 0.00946972, -0.00194098, -0.206535, 56.9675, 27.306, 6.13678, 1.65729, 3.11618, -0.0814099, 0.000870538, -0.00166441, 6.16061e-05, 0.000431437, -0.000660782, 0.00030341, -0.00159107, -0.00240967, 0.00277524, 0.00540131, 0.0108868, 9.43508e-05, 0.471006, -0.543402, 0.335883, -2.08384, -2.16584, -0.12987, 0.46931, -0.542601, 0.336008, -2.08428, -2.16572, -0.12869, -0.000330225, -0.00208114, -0.00168032, 0.00211965, -0.000838947, 0.00123431
0.034137, 1.69135, -1.22545, -1.53819, -0.899947, -1.19195, 1.22845, -1.30256, 0.00320226, -0.00058278, -0.000333065, -0.00309714, -0.00205834, 0.00547665, -0.00156073, -0.166862, 57.0786, 27.2663, 6.20819, 1.64447, 3.15921, -0.0750012, 0.000872283, -0.00166132, 6.50494e-05, 0.000426976, -0.0006579, 0.000298256, -0.00371455, -0.00360225, 0.000877358, 0.00280442, 0.00468192, 0.00380754, 0.471006, -0.543404, 0.335882, -2.08384, -2.16584, -0.129868, 0.469313, -0.542601, 0.336003, -2.08428, -2.16572, -0.128695, -0.000355167, -0.00223786, -0.0018085, 0.0031413, 0.00144161, -0.000474301
0.035137, 1.69135, -1.22545, -1.53819, -0.899947, -1.19195, 1.22845, -1.30256, 0.00320226, -0.00058278, -0.000333065, -0.00309714, -0.00205834, 0.00547665, -0.00156073, -0.166862, 57.0786, 27.2663, 6.20819, 1.64447, 3.15921, -0.0750012, 0.000874547, -0.00166096, 6.37205e-05, 0.000424998, -0.000657434, 0.000297954, -0.00389513, -0.00363079, 0.000984898, 0.00290481, 0.00472175, 0.00359932, 0.471005, -0.543406, 0.33588, -2.08384, -2.16584, -0.129865, 0.469313, -0.542601, 0.336003, -2.08428, -2.16572, -0.128695, -0.000381096, -0.00240075, -0.00194184, 0.0031413, 0.00144161, -0.000474301
0.036137, 1.69136, -1.22544, -1.53819, -0.899946, -1.19195, 1.22846, -1.30256, 0.00350019, 0.00239251, -0.000260525, -0.00133644, -0.0042411, 0.00761203, -0.000316545, -0.206535, 56.9675, 27.2663, 6.17248, 1.58954, 3.19583, -0.0951428, 0.000877928, -0.00165818, 5.70759e-05, 0.000420186, -0.000671398, 0.000301774, -0.0033377, -0.00353753, 0.00328652, 0.00495259, 0.0104209, 0.000142938, 0.471005, -0.543408, 0.335878, -2.08384, -2.16584, -0.129862, 0.469316, -0.542601, 0.336008, -2.08429, -2.16573, -0.128683, -0.000408018, -0.00256985, -0.00208038, 0.00312429, 0.000364137, 0.00157613
0.037137, 1.69136, -1.22544, -1.53819, -0.899946, -1.19195, 1.22846, -1.30256, 0.00350019, 0.00239251, -0.000260525, -0.00133644, -0.0042411, 0.00761203, -0.000316545, -0.206535, 56.9675, 27.2663, 6.17248, 1.58954, 3.19583, -0.0951428, 0.000880589, -0.00165776, 5.55118e-05, 0.000417852, -0.000670854, 0.000301419, -0.00353209, -0.00356824, 0.00340251, 0.00506135, 0.0104645, -8.1968e-05, 0.471005, -0.543411, 0.335877, -2.08384, -2.16583, -0.129859, 0.469316, -0.542601, 0.336008, -2.08429, -2.16573, -0.128683, -0.000435936, -0.00274516, -0.00222414, 0.00312429, 0.000364137, 0.00157613
0.038137, 1.69136, -1.22544, -1.5382, -0.899937, -1.19196, 1.22849, -1.30256, 0.00276173, 5.93929e-05, 0.000250524, 0.00215384, -0.003502, 0.0102401, -0.000299548, 0.0196001, 56.9675, 27.2306, 6.02173, 1.47876, 3.22421, -0.0878186, 0.000875847, -0.00165562, 5.13466e-05, 0.000397165, -0.000692262, 0.000313674, -0.0021284, -0.00310206, 0.00308893, 0.00983042, 0.00851746, -0.00357916, 0.471004, -0.543413, 0.335874, -2.08384, -2.16583, -0.129855, 0.469318, -0.542609, 0.33601, -2.08432, -2.16573, -0.12868, -0.000464854, -0.00292672, -0.00237315, 0.00266867, -0.001174, 0.000913687
0.039137, 1.69136, -1.22544, -1.5382, -0.899939, -1.19197, 1.2285, -1.30256, 0.00706454, 0.00093258, -0.0016084, 0.000474048, -0.00663309, 0.0128721, -0.00190209, 0.0949785, 56.9318, 27.306, 6.0614, 1.45404, 3.21689, -0.0420422, 0.00087764, -0.00165262, 5.02081e-05, 0.000393453, -0.000703337, 0.000307637, -0.00354671, -0.00571063, 0.00283975, 0.00775903, 0.0136988, 0.0015395, 0.471004, -0.543416, 0.335872, -2.08384, -2.16583, -0.129852, 0.46932, -0.54261, 0.336009, -2.08432, -2.16574, -0.12867, -0.000494774, -0.00311453, -0.00252743, 0.00518425, 0.000183472, 0.000654799
0.040137, 1.69136, -1.22545, -1.5382, -0.899939, -1.19197, 1.22851, -1.30256, 0.0092063, -0.00100539, -0.0010814, 0.000290665, -0.005063, 0.0136192, -0.00127329, 0.21003, 57.0032, 27.306, 6.0614, 1.44855, 3.23886, -0.0420422, 0.000878674, -0.00165017, 5.05656e-05, 0.000384403, -0.000706776, 0.000307996, -0.00492533, -0.00742874, 0.0019447, 0.00914136, 0.0109485, 0.00375115, 0.471003, -0.543419, 0.33587, -2.08384, -2.16583, -0.129848, 0.469322, -0.542611, 0.336006, -2.08433, -2.16575, -0.128672, -0.000525695, -0.00330858, -0.00268698, 0.0067876, 0.00155849, -0.000226446
0.041137, 1.69136, -1.22545, -1.5382, -0.899944, -1.19198, 1.22851, -1.30256, 0.00878183, -0.000637767, -0.00072778, -0.000660467, -0.00421207, 0.00953701, -0.000852785, 0.285408, 57.0032, 27.306, 6.09711, 1.45404, 3.25992, -0.0420422, 0.000882255, -0.00164615, 4.94337e-05, 0.00038285, -0.000718121, 0.000306718, -0.0059428, -0.00684292, 0.00194981, 0.00606846, 0.0086988, 0.00393295, 0.471003, -0.543422, 0.335867, -2.08384, -2.16583, -0.129843, 0.469325, -0.542611, 0.336005, -2.08433, -2.16576, -0.128658, -0.000557617, -0.00350887, -0.00285182, 0.00613444, 0.00233794, -0.000210695
0.042137, 1.69137, -1.22546, -1.5382, -0.899942, -1.19199, 1.22853, -1.30255, 0.0061152, -0.00299926, 0.000437697, 0.000380638, -0.00352037, 0.0115582, 0.00112396, 0.325081, 57.1143, 27.2663, 6.0614, 1.46045, 3.27456, -0.0878186, 0.000885662, -0.00164031, 5.01717e-05, 0.000371658, -0.000720623, 0.000308363, -0.00462425, -0.0058456, 0.00157638, 0.0100082, 0.00658511, -0.00101933, 0.471002, -0.543426, 0.335864, -2.08384, -2.16583, -0.129839, 0.469331, -0.542611, 0.336002, -2.08434, -2.16576, -0.128664, -0.000590537, -0.00371538, -0.00302192, 0.00513914, 0.000846381, -0.000924097
0.043137, 1.69138, -1.22546, -1.53821, -0.899947, -1.192, 1.22854, -1.30255, 0.00496831, -0.00457969, -0.00231051, -0.00152018, -0.00737252, 0.00829411, 0.000272379, 0.325081, 57.2253, 27.3774, 6.13678, 1.46045, 3.2883, -0.0750012, 0.000890078, -0.00163392, 5.39938e-05, 0.000370992, -0.00072584, 0.000300124, -0.00376782, -0.00417886, -0.000674146, 0.0022509, 0.00691604, -0.00250332, 0.471002, -0.543429, 0.335861, -2.08384, -2.16583, -0.129834, 0.469336, -0.542609, 0.335996, -2.08434, -2.16577, -0.128655, -0.000624453, -0.00392809, -0.0031973, 0.00338994, 6.63541e-05, -0.00340433
0.044137, 1.69138, -1.22546, -1.53821, -0.899945, -1.19201, 1.22855, -1.30255, 0.00444144, -0.00303942, -0.00247125, -9.34605e-05, -0.00580866, 0.0110399, -0.000294787, 0.436165, 57.2253, 27.417, 6.09711, 1.46686, 3.29562, -0.0621838, 0.000889175, -0.00163359, 5.2136e-05, 0.000366866, -0.000741028, 0.000306065, -0.00349115, -0.0042249, 0.000786551, 0.00625308, 0.00845476, -0.00356769, 0.471001, -0.543433, 0.335858, -2.08384, -2.16582, -0.129829, 0.469336, -0.542614, 0.335994, -2.08435, -2.16577, -0.128638, -0.000659358, -0.00414696, -0.00337792, 0.00346369, -0.000648578, -0.00218697
0.045137, 1.69139, -1.22546, -1.53821, -0.899939, -1.19202, 1.22856, -1.30256, 0.00898597, -0.002016, -0.00389586, 0.00169491, -0.00930269, 0.0125282, 0.00256828, 0.475838, 57.2253, 27.3774, 6.02173, 1.47327, 3.31027, -0.00999879, 0.000893285, -0.00162845, 4.7757e-05, 0.000357507, -0.000753277, 0.000298363, -0.00418251, -0.00602434, 0.00117378, 0.00505177, 0.0132048, -0.00567737, 0.471, -0.543437, 0.335855, -2.08383, -2.16582, -0.129823, 0.46934, -0.542615, 0.335996, -2.08435, -2.16579, -0.128632, -0.000695248, -0.00437195, -0.00356376, 0.0052142, -0.000177009, -0.0019375
0.046137, 1.6914, -1.22547, -1.53822, -0.899943, -1.19204, 1.22857, -1.30256, 0.0101811, -0.00393474, -0.00462662, -0.000637812, -0.0120692, 0.0149727, 0.00305226, 0.475838, 57.3364, 27.4528, 6.09711, 1.48517, 3.29562, -0.0356336, 0.000897436, -0.00161961, 5.17658e-05, 0.000355166, -0.000766305, 0.00029395, -0.00452395, -0.00729855, -0.000228683, 0.00394197, 0.0151183, -0.00448679, 0.471, -0.543442, 0.335851, -2.08383, -2.16582, -0.129818, 0.469348, -0.542614, 0.335988, -2.08436, -2.1658, -0.128616, -0.000732114, -0.004603, -0.00375481, 0.00638701, 0.000196986, -0.00349887
0.047137, 1.69141, -1.22548, -1.53822, -0.899942, -1.19205, 1.22859, -1.30255, 0.010172, -0.0034526, -0.00328402, -0.000428594, -0.0132711, 0.015801, 0.00402324, 0.511544, 57.3721, 27.4528, 6.09711, 1.47327, 3.30295, -0.0814099, 0.000900848, -0.0016137, 5.16102e-05, 0.000347999, -0.000778316, 0.000296532, -0.00472303, -0.00753155, 0.000791612, 0.00556927, 0.0169514, -0.00572414, 0.470999, -0.543446, 0.335848, -2.08383, -2.16582, -0.129812, 0.469353, -0.542615, 0.335985, -2.08437, -2.1658, -0.128605, -0.000769946, -0.00484006, -0.003951, 0.00661164, 8.9751e-06, -0.00266378
0.048137, 1.69142, -1.22548, -1.53822, -0.899936, -1.19206, 1.2286, -1.30255, 0.00934986, -0.00313261, -0.00150383, 0.00147497, -0.0139552, 0.0111162, 0.00266454, 0.586922, 57.4078, 27.417, 6.02173, 1.45404, 3.324, -0.0750012, 0.000903415, -0.00160948, 4.90684e-05, 0.000337399, -0.000789791, 0.000300763, -0.00481729, -0.00606071, 0.00166873, 0.0039503, 0.0152723, -0.00654075, 0.470998, -0.543451, 0.335844, -2.08383, -2.16582, -0.129805, 0.469357, -0.542617, 0.335984, -2.08438, -2.16581, -0.128598, -0.000808735, -0.00508306, -0.00415231, 0.00513226, -0.000336122, -0.00194001
0.049137, 1.69143, -1.22549, -1.53823, -0.899936, -1.19207, 1.22861, -1.30255, 0.0103592, -0.00384839, -0.00371329, 0.000981408, -0.0141151, 0.011773, 0.00146644, 0.586922, 57.4832, 27.5281, 6.02173, 1.42383, 3.36062, -0.0621838, 0.000908475, -0.00160277, 5.26213e-05, 0.00034045, -0.000798389, 0.000296247, -0.0050591, -0.00650778, 0.000568514, 0.00222531, 0.0153005, -0.00534558, 0.470997, -0.543456, 0.33584, -2.08383, -2.16582, -0.129798, 0.469362, -0.542617, 0.335977, -2.08438, -2.16581, -0.12858, -0.000848468, -0.00533191, -0.00435868, 0.00549061, -0.000158627, -0.00320877
0.050137, 1.69143, -1.22548, -1.53823, -0.899939, -1.19209, 1.22862, -1.30255, 0.00836327, 0.00455604, -0.00467396, -0.000275177, -0.0156728, 0.013167, -0.000831553, 0.701973, 57.4475, 27.4885, 6.0614, 1.43024, 3.37436, -0.00999879, 0.000911951, -0.00159884, 4.81034e-05, 0.000336521, -0.000821557, 0.000290476, -0.00497534, -0.00547082, 0.00538778, 0.00244845, 0.0258219, -0.00538617, 0.470997, -0.543461, 0.335835, -2.08383, -2.16581, -0.129791, 0.469366, -0.542619, 0.335978, -2.08438, -2.16583, -0.128554, -0.000889131, -0.00558652, -0.00457004, 0.00459161, -0.00128003, 0.00135681
0.051137, 1.69144, -1.22549, -1.53823, -0.899936, -1.1921, 1.22864, -1.30255, 0.00720125, 0.00189242, -0.00176222, 0.000743498, -0.0144279, 0.0140458, -0.00022431, 0.813057, 57.5189, 27.417, 6.02173, 1.37439, 3.39633, -0.0164075, 0.000915854, -0.00159367, 4.5553e-05, 0.000320997, -0.000830258, 0.000290475, -0.00495502, -0.00549802, 0.00531047, 0.00694872, 0.0223432, -0.00650746, 0.470996, -0.543467, 0.335831, -2.08383, -2.16581, -0.129784, 0.46937, -0.542621, 0.335976, -2.0844, -2.16584, -0.128555, -0.00093071, -0.0058468, -0.00478633, 0.00457516, -0.00154735, 0.00106018
0.052137, 1.69145, -1.22549, -1.53825, -0.899941, -1.19212, 1.22866, -1.30255, 0.00807996, 0.00165573, -0.00610955, -0.00126838, -0.0148384, 0.0150722, 0.000394703, 0.85273, 57.5189, 27.4885, 6.09711, 1.34967, 3.41006, -0.0292249, 0.000921649, -0.00158542, 4.733e-05, 0.000322933, -0.00084937, 0.000288787, -0.00511953, -0.00586893, 0.0035746, 0.00291136, 0.0235119, -0.00707623, 0.470995, -0.543473, 0.335826, -2.08383, -2.16581, -0.129776, 0.469377, -0.54262, 0.33597, -2.0844, -2.16585, -0.128526, -0.000973186, -0.00611264, -0.00500747, 0.00483447, -0.00136845, -0.000860721
0.053137, 1.69146, -1.2255, -1.53825, -0.899936, -1.19213, 1.22867, -1.30254, 0.00785386, -0.000363827, -0.00684741, 0.000917051, -0.0161639, 0.0151508, 0.00177334, 0.928108, 57.5943, 27.4528, 6.02173, 1.34967, 3.43936, -0.0685925, 0.000925509, -0.00158029, 4.54361e-05, 0.000312388, -0.000860834, 0.000295019, -0.00405599, -0.00507349, 0.00263282, 0.00280248, 0.0225505, -0.0117141, 0.470994, -0.543479, 0.335821, -2.08382, -2.16581, -0.129768, 0.469381, -0.542623, 0.335968, -2.08442, -2.16585, -0.128517, -0.00101654, -0.00638391, -0.00523338, 0.00400067, -0.00257729, -0.0021576
0.054137, 1.69147, -1.2255, -1.53825, -0.899941, -1.19215, 1.22868, -1.30255, 0.00545489, -0.00391031, -0.0106534, 0.00505162, -0.0210783, 0.0160186, 0.000746618, 0.963814, 57.63, 27.417, 6.09711, 1.33136, 3.44668, -0.0557752, 0.000932957, -0.00157215, 4.2563e-05, 0.000309175, -0.000882415, 0.000285698, 0.000121805, -0.00185289, 0.000166124, 0.000166005, 0.0233598, -0.0204607, 0.470993, -0.543485, 0.335816, -2.08382, -2.1658, -0.129759, 0.469388, -0.542622, 0.335966, -2.08442, -2.16587, -0.128491, -0.00106076, -0.00666049, -0.00546395, 0.000800098, -0.00673051, -0.00537483
0.055137, 1.69149, -1.2255, -1.53825, -0.899939, -1.19216, 1.2287, -1.30255, 0.00619048, -0.00185991, -0.010171, 0.00471962, -0.0197888, 0.0166299, -0.000693627, 0.888436, 57.5943, 27.3774, 6.0614, 1.30755, 3.46042, -0.0228162, 0.000943363, -0.00155934, 3.92238e-05, 0.000299723, -0.000900031, 0.000269581, -0.00110389, -0.00269374, 0.00170046, 0.00180442, 0.0247516, -0.0177484, 0.470992, -0.543492, 0.33581, -2.08382, -2.1658, -0.12975, 0.469399, -0.542618, 0.335965, -2.08441, -2.1659, -0.128476, -0.00110581, -0.00694224, -0.0056991, 0.00160654, -0.00600391, -0.00393017
0.056137, 1.69149, -1.22551, -1.53827, -0.899939, -1.19218, 1.22872, -1.30254, 0.00202871, -0.00390458, -0.010358, 0.00269869, -0.0196554, 0.0171028, 0.00101764, 1.00349, 57.7054, 27.4885, 6.09711, 1.30755, 3.46774, -0.0621838, 0.000943906, -0.00155641, 4.4403e-05, 0.000301574, -0.000914724, 0.000280961, 8.2864e-05, -0.000966169, 0.000607426, 0.00181657, 0.0229874, -0.0221914, 0.470991, -0.543499, 0.335805, -2.08382, -2.1658, -0.12974, 0.469401, -0.542624, 0.335954, -2.08443, -2.16589, -0.128449, -0.00115168, -0.007229, -0.00593872, -0.000161812, -0.00736476, -0.005381
0.057137, 1.69152, -1.22551, -1.53827, -0.899939, -1.1922, 1.22873, -1.30255, 0.00684834, -0.00348791, -0.00680431, 0.00208974, -0.0182987, 0.0170969, -0.00123785, 0.928108, 57.7411, 27.4528, 6.09711, 1.27643, 3.48239, -0.00999879, 0.000955525, -0.00154332, 4.18846e-05, 0.000294202, -0.000930595, 0.000263926, -0.00361175, -0.00462655, 0.00197054, 0.00474179, 0.0223454, -0.0128732, 0.47099, -0.543506, 0.335799, -2.08382, -2.16579, -0.129731, 0.469413, -0.542619, 0.335952, -2.08442, -2.16592, -0.128433, -0.00119834, -0.00752062, -0.00618267, 0.00336448, -0.00406891, -0.00381643
0.058137, 1.69153, -1.22551, -1.53827, -0.899941, -1.19222, 1.22875, -1.30255, 0.00815908, -0.00403294, -0.00469423, 0.000683107, -0.0138988, 0.0176166, -0.000812861, 0.928108, 57.8125, 27.306, 6.13678, 1.27643, 3.48239, -0.00999879, 0.000965893, -0.00153103, 3.87083e-05, 0.000281808, -0.000948981, 0.000251435, -0.00614509, -0.00669979, 0.00238008, 0.00836774, 0.0185726, -0.0086667, 0.470988, -0.543514, 0.335793, -2.08381, -2.16579, -0.12972, 0.469423, -0.542617, 0.33595, -2.08442, -2.16595, -0.128419, -0.00124576, -0.00781692, -0.00643084, 0.00531193, -0.0018424, -0.00332988
0.059137, 1.69155, -1.22551, -1.53828, -0.899934, -1.19224, 1.22877, -1.30254, 0.0124798, -0.00188133, -0.00851936, 0.00238212, -0.0149892, 0.0185406, 0.00116279, 0.928108, 57.7768, 27.3774, 6.0614, 1.27002, 3.46774, -0.0557752, 0.000971379, -0.00152288, 3.43171e-05, 0.000273784, -0.000975596, 0.000258555, -0.00698988, -0.00813197, 0.00258307, 0.00584292, 0.0223877, -0.0105114, 0.470987, -0.543521, 0.335786, -2.08381, -2.16579, -0.12971, 0.46943, -0.542619, 0.335949, -2.08445, -2.16595, -0.128389, -0.00129392, -0.00811772, -0.00668309, 0.00667129, -0.00128183, -0.00329402
0.060137, 1.69156, -1.22551, -1.53829, -0.899938, -1.19225, 1.22879, -1.30254, 0.0118656, -0.00127516, -0.0105026, -5.2556e-05, -0.0160326, 0.0193871, 0.00101952, 0.963814, 57.7768, 27.417, 6.13678, 1.27002, 3.45309, -0.0621838, 0.000980002, -0.00151293, 3.25141e-05, 0.000269182, -0.000998767, 0.0002518, -0.00712773, -0.00806254, 0.00221301, 0.00355281, 0.0246825, -0.0105694, 0.470986, -0.54353, 0.335779, -2.08381, -2.16578, -0.129699, 0.469439, -0.542619, 0.335945, -2.08445, -2.16597, -0.128361, -0.00134278, -0.00842284, -0.00693927, 0.00653477, -0.00139674, -0.0038922
0.061137, 1.69157, -1.22552, -1.5383, -0.899941, -1.19227, 1.22881, -1.30254, 0.0112221, -0.00262905, -0.00690109, -0.000778302, -0.0160972, 0.0190412, 0.000922256, 1.00349, 57.8522, 27.3774, 6.17248, 1.25171, 3.46042, -0.0685925, 0.000988345, -0.00150248, 3.27118e-05, 0.000258752, -0.00101443, 0.000244802, -0.00804649, -0.00850503, 0.00280797, 0.00622053, 0.0231222, -0.00915244, 0.470984, -0.543538, 0.335772, -2.08381, -2.16578, -0.129687, 0.469447, -0.542619, 0.335939, -2.08446, -2.16599, -0.128345, -0.00139231, -0.00873205, -0.00719924, 0.00691592, -0.00087236, -0.00343562
0.062137, 1.69159, -1.22552, -1.5383, -0.899935, -1.19229, 1.22883, -1.30254, 0.0139188, -0.000836463, -0.00671631, 0.00131334, -0.0171126, 0.0145492, -0.000839309, 1.03919, 57.8125, 27.306, 6.09711, 1.25812, 3.45309, -0.0292249, 0.000997041, -0.0014922, 2.4724e-05, 0.000242213, -0.00104118, 0.000239393, -0.0094477, -0.00866953, 0.00389378, 0.00294508, 0.0235025, -0.00726705, 0.470983, -0.543547, 0.335765, -2.0838, -2.16578, -0.129675, 0.469456, -0.54262, 0.335941, -2.08447, -2.16601, -0.128325, -0.00144249, -0.00904515, -0.00746282, 0.00701935, 3.75328e-05, -0.00241471
0.063137, 1.69161, -1.22552, -1.53831, -0.899938, -1.19231, 1.22886, -1.30254, 0.0155562, -0.000566477, -0.00604195, -0.000835957, -0.0164161, 0.020478, -0.000793962, 0.963814, 57.8125, 27.3417, 6.17248, 1.22699, 3.44668, -0.0228162, 0.0010088, -0.00147774, 2.31621e-05, 0.000237965, -0.00106785, 0.000226733, -0.0108524, -0.0114005, 0.00464574, 0.00797601, 0.0264288, -0.00368676, 0.470982, -0.543556, 0.335758, -2.0838, -2.16577, -0.129663, 0.469469, -0.542617, 0.335936, -2.08447, -2.16604, -0.128292, -0.00149327, -0.00936199, -0.00772991, 0.00967308, 0.0011035, -0.00180419
0.064137, 1.69163, -1.22552, -1.53832, -0.89994, -1.19233, 1.22888, -1.30254, 0.0168959, 0.00045094, -0.0109183, -0.00135373, -0.0166424, 0.0200805, -0.000764465, 1.00349, 57.7768, 27.3417, 6.20819, 1.21509, 3.45309, -0.0164075, 0.00101889, -0.00146634, 1.86023e-05, 0.000227319, -0.00109408, 0.000214988, -0.0110339, -0.0113503, 0.00355761, 0.00311526, 0.0279365, -0.00481779, 0.47098, -0.543565, 0.33575, -2.0838, -2.16577, -0.12965, 0.469479, -0.542616, 0.335934, -2.08447, -2.16607, -0.128265, -0.00154466, -0.00968246, -0.00800043, 0.00952574, 0.00112765, -0.00311961
0.065137, 1.69165, -1.22552, -1.53833, -0.899943, -1.19234, 1.2289, -1.30254, 0.018908, -0.00464054, -0.00738243, -0.00180141, -0.0159496, 0.0250272, 0.00118743, 1.00349, 57.8522, 27.306, 6.24786, 1.17847, 3.44668, -0.0621838, 0.00103145, -0.00145179, 1.59058e-05, 0.000213243, -0.00111423, 0.000205023, -0.0122965, -0.0143334, 0.00231083, 0.0101032, 0.0247189, -0.0028046, 0.470979, -0.543575, 0.335742, -2.0838, -2.16576, -0.129636, 0.469491, -0.542613, 0.33593, -2.08448, -2.16609, -0.128248, -0.00159663, -0.0100065, -0.00827433, 0.0123626, 0.00236396, -0.0045193
0.066137, 1.69166, -1.22552, -1.53833, -0.899937, -1.19236, 1.22893, -1.30254, 0.0171377, -0.00243381, -0.00768022, 0.000584118, -0.0163915, 0.0281125, 0.00174229, 1.00349, 57.8125, 27.2663, 6.17248, 1.16565, 3.45309, -0.0878186, 0.00104113, -0.00144013, 7.48247e-06, 0.000193742, -0.00114362, 0.000203282, -0.0109076, -0.0132862, 0.00442315, 0.0141397, 0.028668, -0.00797142, 0.470977, -0.543585, 0.335734, -2.08379, -2.16576, -0.129623, 0.469501, -0.542615, 0.335932, -2.0845, -2.16611, -0.128226, -0.00164918, -0.0103339, -0.00855153, 0.0113906, 0.000297488, -0.00289465
0.067137, 1.69168, -1.22552, -1.53834, -0.899942, -1.19238, 1.22896, -1.30254, 0.0151356, -0.00275167, -0.00413353, -0.00135746, -0.0117844, 0.026072, -0.000532962, 1.03919, 57.8522, 27.1909, 6.24786, 1.14734, 3.44668, -0.0420422, 0.00105543, -0.00142457, 2.29848e-06, 0.000176037, -0.00116682, 0.0001841, -0.012796, -0.0134295, 0.00537637, 0.0172004, 0.0235585, -0.00316931, 0.470975, -0.543595, 0.335725, -2.08379, -2.16576, -0.129608, 0.469515, -0.542611, 0.33593, -2.0845, -2.16615, -0.12821, -0.00170228, -0.0106648, -0.00883197, 0.0114478, 0.00169022, -0.00194539
0.068137, 1.6917, -1.22551, -1.53835, -0.899943, -1.19239, 1.22899, -1.30254, 0.0154304, 0.0014484, -0.00742294, -0.00172792, -0.0130411, 0.0332989, -0.00059197, 1.00349, 57.7054, 27.2306, 6.28357, 1.12903, 3.46042, -0.0356336, 0.00106885, -0.0014098, -7.00535e-06, 0.000158707, -0.00120006, 0.000173148, -0.0121229, -0.0142615, 0.00747826, 0.0203857, 0.0327126, -0.00502927, 0.470974, -0.543606, 0.335716, -2.08379, -2.16575, -0.129594, 0.469528, -0.542609, 0.335932, -2.08451, -2.16618, -0.128182, -0.00175593, -0.0109989, -0.0091156, 0.0123255, 0.000402232, -0.000283413
0.069137, 1.69172, -1.22551, -1.53835, -0.89994, -1.19241, 1.22902, -1.30254, 0.0147247, 0.000852478, -0.00472052, 0.0028567, -0.0157614, 0.0346707, -0.00161483, 1.00349, 57.7054, 27.1909, 6.24786, 1.16015, 3.45309, -0.00267457, 0.00107982, -0.0013953, -1.60654e-05, 0.000133219, -0.00123406, 0.000162089, -0.0106521, -0.0133304, 0.00911523, 0.0251502, 0.0345387, -0.00878002, 0.470972, -0.543617, 0.335707, -2.08378, -2.16575, -0.129578, 0.46954, -0.54261, 0.335933, -2.08452, -2.16621, -0.128162, -0.0018101, -0.0113362, -0.00940234, 0.0114536, -0.00167704, 0.000846112
0.070137, 1.69174, -1.22552, -1.53835, -0.899934, -1.19243, 1.22904, -1.30253, 0.0159509, -0.00118696, -0.00422039, 0.00310308, -0.0163067, 0.0350981, 0.00564681, 0.928108, 57.7768, 27.0798, 6.20819, 1.15375, 3.46042, -0.0621838, 0.0010952, -0.00137779, -2.11252e-05, 0.000108379, -0.00125055, 0.000152972, -0.0112607, -0.014165, 0.00833835, 0.0257077, 0.0332645, -0.0154227, 0.47097, -0.543628, 0.335698, -2.08378, -2.16574, -0.129563, 0.469556, -0.542607, 0.33593, -2.08453, -2.16624, -0.128158, -0.00186479, -0.0116765, -0.00969213, 0.0121825, -0.00126281, -0.000141896
0.071137, 1.69176, -1.22551, -1.53836, -0.899932, -1.19244, 1.22908, -1.30253, 0.0149957, 0.000815499, -0.00346954, 0.00134364, -0.0169691, 0.0404533, 0.00485349, 0.928108, 57.7054, 27.0798, 6.24786, 1.15375, 3.46042, -0.0814099, 0.00110716, -0.00136434, -3.12321e-05, 8.46079e-05, -0.00128368, 0.000151333, -0.0114005, -0.0150824, 0.0102972, 0.0304328, 0.0386454, -0.014401, 0.470968, -0.54364, 0.335688, -2.08378, -2.16574, -0.129546, 0.469567, -0.542607, 0.335932, -2.08456, -2.16626, -0.128134, -0.00191999, -0.0120199, -0.00998491, 0.0131099, -0.00173202, 0.00149318
0.072137, 1.69178, -1.22551, -1.53837, -0.899926, -1.19247, 1.22911, -1.30253, 0.022427, 0.00142396, -0.00584962, 0.00513649, -0.0183767, 0.0401783, 0.00402694, 0.85273, 57.6657, 27.0798, 6.20819, 1.17847, 3.45309, -0.0951428, 0.00111957, -0.00134821, -3.91335e-05, 6.07931e-05, -0.00131675, 0.000145926, -0.0132745, -0.017827, 0.010165, 0.0284121, 0.0404365, -0.0116654, 0.470966, -0.543652, 0.335678, -2.08377, -2.16573, -0.12953, 0.469581, -0.542608, 0.335931, -2.08458, -2.16629, -0.128111, -0.00197567, -0.0123662, -0.0102806, 0.0157236, -9.55189e-05, 0.00127397
0.073137, 1.6918, -1.22552, -1.53838, -0.899925, -1.19249, 1.22915, -1.30253, 0.0215179, -0.00168494, -0.00545045, 0.00597094, -0.0186316, 0.0399416, 0.00191327, 0.777352, 57.7768, 27.1195, 6.24786, 1.18396, 3.45309, -0.0685925, 0.00113098, -0.00133249, -4.03961e-05, 3.91913e-05, -0.00134123, 0.00013457, -0.012774, -0.0172468, 0.00886686, 0.028963, 0.037427, -0.0115048, 0.470964, -0.543664, 0.335668, -2.08377, -2.16572, -0.129512, 0.469595, -0.542608, 0.335924, -2.08459, -2.16632, -0.128094, -0.00203183, -0.0127153, -0.0105792, 0.0150588, -0.000762761, -0.00036668
0.074137, 1.69182, -1.22552, -1.53839, -0.899917, -1.19251, 1.22918, -1.30254, 0.0206218, -0.00031492, -0.00727111, 0.00452186, -0.0190591, 0.0393709, -0.000735631, 0.701973, 57.7411, 27.1195, 6.24786, 1.19678, 3.46042, -0.00999879, 0.00114334, -0.00131679, -5.16271e-05, 7.16797e-06, -0.00137637, 0.000121767, -0.0129233, -0.0166319, 0.00906797, 0.0264929, 0.0392044, -0.0100085, 0.470962, -0.543677, 0.335657, -2.08377, -2.16572, -0.129495, 0.469608, -0.54261, 0.335926, -2.0846, -2.16636, -0.128078, -0.00208844, -0.0130671, -0.0108805, 0.0143902, -0.00102318, -0.000427853
0.075137, 1.69185, -1.22551, -1.53839, -0.899911, -1.19252, 1.22922, -1.30253, 0.019107, 0.00153316, -0.00369863, 0.00342051, -0.0178772, 0.0388913, 0.000815618, 0.6623, 57.6657, 27.0441, 6.24786, 1.16565, 3.46774, -0.0420422, 0.00115796, -0.00129994, -6.56021e-05, -2.9763e-05, -0.00141057, 0.000115657, -0.0141775, -0.0167292, 0.0115522, 0.0298727, 0.039787, -0.0105051, 0.47096, -0.54369, 0.335646, -2.08376, -2.16571, -0.129476, 0.469623, -0.54261, 0.33593, -2.08463, -2.16639, -0.128066, -0.00214551, -0.0134215, -0.0111846, 0.0144761, -0.000517621, 0.00191239
0.076137, 1.69186, -1.22551, -1.5384, -0.89991, -1.19254, 1.22926, -1.30253, 0.0203669, -0.00224881, -0.00608959, 0.00231534, -0.0228344, 0.0381058, 0.000633179, 0.6623, 57.6657, 27.0441, 6.39465, 1.16565, 3.48239, -0.0420422, 0.00116968, -0.00128661, -7.39522e-05, -5.71241e-05, -0.00144269, 0.000110559, -0.0137047, -0.0166933, 0.00844633, 0.0240153, 0.040112, -0.0113602, 0.470958, -0.543704, 0.335635, -2.08376, -2.16571, -0.129457, 0.469634, -0.542613, 0.335929, -2.08465, -2.16642, -0.128046, -0.00220301, -0.0137786, -0.0114914, 0.0142867, -0.000865042, -0.00153376
0.077137, 1.69188, -1.22551, -1.5384, -0.899903, -1.19256, 1.2293, -1.30253, 0.0209535, -0.000111412, -0.00700544, 0.00421197, -0.0213816, 0.0380313, -0.000222883, 0.551216, 57.5943, 27.0084, 6.43433, 1.15375, 3.49612, -0.0228162, 0.00118417, -0.00126867, -8.65072e-05, -9.27998e-05, -0.00148015, 0.000102218, -0.0141119, -0.0166113, 0.00985589, 0.0250803, 0.0410584, -0.0120833, 0.470956, -0.543717, 0.335624, -2.08375, -2.1657, -0.129438, 0.46965, -0.542613, 0.335931, -2.08468, -2.16646, -0.128029, -0.00226092, -0.014138, -0.0118008, 0.0141838, -0.00104262, -0.000385926
0.078137, 1.69191, -1.22551, -1.53841, -0.899894, -1.19259, 1.22934, -1.30253, 0.0220804, -0.000286257, -0.00747266, 0.0057339, -0.0207986, 0.0426209, 0.00159714, 0.400459, 57.5943, 26.9687, 6.47003, 1.15375, 3.51077, -0.0685925, 0.00119764, -0.00125088, -9.71147e-05, -0.000128074, -0.00151642, 9.80878e-05, -0.0140897, -0.0177929, 0.0103995, 0.0297362, 0.0427418, -0.0146579, 0.470954, -0.543731, 0.335612, -2.08375, -2.16569, -0.129418, 0.469665, -0.542615, 0.335932, -2.08471, -2.16649, -0.128012, -0.00231925, -0.0144999, -0.0121127, 0.0153264, -0.00146169, -0.000200851
0.079137, 1.69193, -1.2255, -1.53842, -0.899891, -1.19261, 1.22938, -1.30252, 0.0210997, 0.00224863, -0.00975331, 0.00813804, -0.0199647, 0.0414669, 0.00133985, 0.325081, 57.4832, 27.0084, 6.58508, 1.14093, 3.51077, -0.0750012, 0.00121148, -0.00123428, -0.000110101, -0.000158611, -0.00156196, 9.43435e-05, -0.0133982, -0.0162046, 0.011621, 0.0289051, 0.0440586, -0.0188536, 0.470951, -0.543746, 0.3356, -2.08374, -2.16569, -0.129398, 0.469679, -0.542617, 0.335934, -2.08474, -2.16653, -0.127979, -0.00237796, -0.014864, -0.0124272, 0.0137508, -0.00276134, 0.000631689
0.080137, 1.69195, -1.2255, -1.53843, -0.899882, -1.19264, 1.22942, -1.30252, 0.0180169, 0.00137985, -0.0104069, 0.00798229, -0.0199779, 0.0406516, 0.00068417, 0.21003, 57.4832, 27.0084, 6.65649, 1.14734, 3.52542, -0.0685925, 0.00122315, -0.00121877, -0.00012055, -0.000190526, -0.00160271, 9.26744e-05, -0.0123466, -0.0143242, 0.0112065, 0.0282203, 0.0429033, -0.0219318, 0.470949, -0.543761, 0.335587, -2.08374, -2.16568, -0.129377, 0.469692, -0.542622, 0.335933, -2.08477, -2.16656, -0.127952, -0.00243706, -0.0152304, -0.012744, 0.0118364, -0.004179, -0.000200439
0.081137, 1.69197, -1.2255, -1.53843, -0.899867, -1.19266, 1.22947, -1.30253, 0.0211, 0.00342892, -0.00651527, 0.0127268, -0.01947, 0.0391231, -0.000506008, 0.134651, 57.3721, 26.822, 6.65649, 1.14093, 3.5538, -0.0420422, 0.00123428, -0.00120512, -0.000139742, -0.000239703, -0.00164566, 9.2705e-05, -0.0139874, -0.0154816, 0.0144137, 0.0327569, 0.0433388, -0.0203699, 0.470946, -0.543776, 0.335575, -2.08373, -2.16567, -0.129355, 0.469704, -0.542628, 0.335941, -2.08481, -2.16659, -0.127942, -0.00249652, -0.0155988, -0.0130633, 0.0129915, -0.00337344, 0.00286603
0.082137, 1.69199, -1.2255, -1.53845, -0.899857, -1.19268, 1.22951, -1.30253, 0.0218536, 0.00221888, -0.0109171, 0.014317, -0.0181699, 0.0437836, -0.000796139, -0.0161054, 57.3721, 26.933, 6.73187, 1.11072, 3.5538, -0.0292249, 0.00124602, -0.00118799, -0.000147829, -0.000271886, -0.00168622, 9.36994e-05, -0.013004, -0.0158614, 0.012998, 0.0343825, 0.0436876, -0.0229168, 0.470944, -0.543792, 0.335562, -2.08373, -2.16567, -0.129333, 0.469718, -0.542633, 0.335937, -2.08485, -2.16662, -0.127914, -0.00255634, -0.0159693, -0.0133848, 0.0132947, -0.00448147, 0.000982225
0.083137, 1.69201, -1.2255, -1.53845, -0.899844, -1.19271, 1.22956, -1.30252, 0.0238227, 0.00142895, -0.00960037, 0.0155498, -0.018686, 0.0428061, 0.000939241, -0.0914839, 57.3721, 26.8577, 6.80725, 1.11713, 3.54648, -0.0685925, 0.0012574, -0.00117161, -0.000159912, -0.000316282, -0.00172603, 9.93961e-05, -0.0141284, -0.0167648, 0.0132481, 0.0349432, 0.0428527, -0.0238483, 0.470941, -0.543808, 0.335548, -2.08372, -2.16566, -0.129311, 0.469732, -0.542639, 0.335937, -2.08489, -2.16665, -0.1279, -0.0026165, -0.0163418, -0.0137086, 0.014106, -0.00374531, 0.00105179
0.084137, 1.69204, -1.2255, -1.53846, -0.899825, -1.19274, 1.22961, -1.30252, 0.0238085, 0.000914903, -0.00964777, 0.0182961, -0.0185396, 0.0468312, 0.000872473, -0.242241, 57.3721, 26.822, 6.80725, 1.11072, 3.53274, -0.0750012, 0.00126832, -0.00115565, -0.000173205, -0.000358616, -0.00176919, 0.000104384, -0.0132778, -0.0169619, 0.013934, 0.0400181, 0.0441217, -0.0267015, 0.470939, -0.543824, 0.335534, -2.08372, -2.16565, -0.129287, 0.469746, -0.542646, 0.335938, -2.08493, -2.16667, -0.127879, -0.00267698, -0.0167161, -0.0140346, 0.014298, -0.00505668, 0.00126484
0.085137, 1.69206, -1.2255, -1.53848, -0.899814, -1.19277, 1.22966, -1.30252, 0.0216349, 0.00234488, -0.0114189, 0.0144694, -0.0239341, 0.0447678, 0.000351005, -0.43267, 57.2968, 26.8577, 6.91833, 1.12262, 3.52542, -0.0685925, 0.0012815, -0.00113778, -0.000185513, -0.000392852, -0.00181846, 0.000102445, -0.0127804, -0.0153411, 0.0138177, 0.0330882, 0.0494832, -0.0282079, 0.470936, -0.543841, 0.33552, -2.08371, -2.16564, -0.129264, 0.469761, -0.542651, 0.335937, -2.08497, -2.16671, -0.127844, -0.00273778, -0.0170921, -0.0143627, 0.0126324, -0.00597217, 0.000793964
0.086137, 1.69208, -1.2255, -1.53849, -0.899798, -1.1928, 1.2297, -1.30252, 0.0193119, 0.00321247, -0.00945226, 0.0180548, -0.0271508, 0.0432317, -0.000744305, -0.468376, 57.2253, 26.8934, 7.02942, 1.11713, 3.5181, -0.0420422, 0.00129043, -0.00112462, -0.000198487, -0.000430517, -0.00186728, 0.000109042, -0.0111228, -0.0129881, 0.0157809, 0.0343994, 0.0518636, -0.0332418, 0.470933, -0.543858, 0.335506, -2.08371, -2.16563, -0.129239, 0.469771, -0.54266, 0.335937, -2.08502, -2.16674, -0.127811, -0.00279888, -0.0174699, -0.0146928, 0.0103526, -0.0083846, 0.002217
0.087137, 1.69212, -1.2255, -1.5385, -0.899778, -1.19283, 1.22975, -1.30252, 0.0296294, 0.00129051, -0.00939131, 0.0203383, -0.0293438, 0.0469914, -0.00167922, -0.734184, 57.261, 26.8577, 7.02942, 1.10431, 3.50345, -0.00999879, 0.00130528, -0.0011027, -0.000208905, -0.000472972, -0.00190882, 0.000104888, -0.0144602, -0.0188203, 0.0150553, 0.0363256, 0.0538705, -0.0253386, 0.470931, -0.543875, 0.335491, -2.0837, -2.16563, -0.129214, 0.46979, -0.542664, 0.335934, -2.08505, -2.16677, -0.127791, -0.00286026, -0.0178492, -0.015025, 0.0159704, -0.00511876, 0.00150687
0.088137, 1.69214, -1.2255, -1.53852, -0.899756, -1.19286, 1.2298, -1.30252, 0.0294834, 0.00251884, -0.00792539, 0.0209075, -0.030346, 0.0488862, -0.00064193, -0.809562, 57.1896, 26.8934, 7.06909, 1.07959, 3.5181, -0.0228162, 0.00131514, -0.0010897, -0.000220259, -0.000507085, -0.00195159, 0.000118577, -0.0146802, -0.0191458, 0.0168257, 0.0394813, 0.0568614, -0.0272259, 0.470928, -0.543893, 0.335476, -2.0837, -2.16562, -0.129189, 0.469801, -0.542673, 0.335931, -2.0851, -2.16679, -0.127759, -0.00292192, -0.0182301, -0.0153591, 0.0162912, -0.00554133, 0.00294463
0.089137, 1.69217, -1.2255, -1.53853, -0.899739, -1.1929, 1.22984, -1.30252, 0.0303051, 0.00519675, -0.00740434, 0.0225951, -0.036666, 0.0457388, 0.00103223, -0.920646, 57.0389, 26.822, 7.18018, 1.06769, 3.52542, -0.0621838, 0.0013289, -0.00107354, -0.000236407, -0.00054329, -0.0020029, 0.000123264, -0.0144125, -0.0180511, 0.018776, 0.0354604, 0.063154, -0.0320433, 0.470925, -0.543911, 0.335461, -2.08369, -2.16561, -0.129163, 0.469814, -0.54268, 0.335933, -2.08514, -2.16681, -0.12772, -0.00298385, -0.0186124, -0.0156951, 0.0152174, -0.00653255, 0.00452603
0.090137, 1.6922, -1.2255, -1.53854, -0.899719, -1.19294, 1.22988, -1.30251, 0.029541, 0.00345778, -0.0060178, 0.0218673, -0.0364134, 0.0437437, 0.00163919, -1.11108, 57.0389, 26.7069, 7.25555, 1.04938, 3.52542, -0.0878186, 0.00134421, -0.00105439, -0.000249364, -0.000580713, -0.00204807, 0.000127888, -0.0150991, -0.0177913, 0.0182863, 0.0349848, 0.0603426, -0.0325523, 0.470922, -0.54393, 0.335445, -2.08368, -2.1656, -0.129136, 0.46983, -0.542684, 0.335932, -2.08519, -2.16684, -0.127689, -0.00304602, -0.0189961, -0.016033, 0.0148537, -0.00617364, 0.0038187
0.091137, 1.69222, -1.2255, -1.53855, -0.899694, -1.19297, 1.22992, -1.30252, 0.0274718, 0.00480581, -0.00314288, 0.0221704, -0.0361488, 0.0471111, -0.000601436, -1.11108, 56.9318, 26.6355, 7.29126, 1.03107, 3.53274, -0.0420422, 0.00135341, -0.00104318, -0.00026666, -0.000621004, -0.00209942, 0.000139564, -0.0149512, -0.0177545, 0.0208251, 0.0414272, 0.0630238, -0.0317391, 0.470919, -0.543949, 0.335429, -2.08368, -2.16559, -0.129109, 0.469838, -0.542697, 0.335934, -2.08524, -2.16686, -0.127653, -0.00310843, -0.019381, -0.0163726, 0.0148533, -0.00709634, 0.00596367
0.092137, 1.69225, -1.2255, -1.53857, -0.899673, -1.19301, 1.22997, -1.30252, 0.0257736, 0.00320009, -0.00975751, 0.0214316, -0.0356709, 0.0497997, -0.0013495, -1.22613, 56.9318, 26.6712, 7.36664, 1.00635, 3.52542, -0.0164075, 0.00136449, -0.00102783, -0.000273857, -0.000647893, -0.00214486, 0.000146643, -0.0131298, -0.0164474, 0.0180414, 0.038286, 0.0629781, -0.035586, 0.470916, -0.543968, 0.335413, -2.08367, -2.16558, -0.129081, 0.46985, -0.542705, 0.335926, -2.08528, -2.16688, -0.127608, -0.00317106, -0.0197671, -0.0167139, 0.0134486, -0.00890595, 0.00263096
0.093137, 1.69229, -1.22551, -1.53859, -0.899648, -1.19305, 1.23001, -1.30252, 0.0275522, 0.00213056, -0.0136835, 0.0248927, -0.0405357, 0.0519235, -0.00164498, -1.33721, 56.9318, 26.6712, 7.40631, 0.993529, 3.5181, 0.00373412, 0.00137782, -0.0010109, -0.000282199, -0.000676918, -0.00218672, 0.000151741, -0.0112228, -0.0159097, 0.0168807, 0.0360251, 0.0671267, -0.0406387, 0.470912, -0.543988, 0.335396, -2.08366, -2.16557, -0.129052, 0.469864, -0.542713, 0.33592, -2.08531, -2.1669, -0.127569, -0.00323391, -0.0201544, -0.0170569, 0.0128745, -0.0110193, 0.000862208
0.094137, 1.69232, -1.22551, -1.53861, -0.899622, -1.1931, 1.23005, -1.30251, 0.0289087, 0.000985172, -0.0148028, 0.021325, -0.0393929, 0.0479322, 0.00547152, -1.45226, 56.8207, 26.5958, 7.44202, 0.975218, 3.53274, -0.0484509, 0.00139171, -0.000994438, -0.00029663, -0.000707783, -0.00223973, 0.000169143, -0.0136171, -0.0167603, 0.0151755, 0.0304303, 0.0636766, -0.0440108, 0.470909, -0.544008, 0.335379, -2.08366, -2.16556, -0.129023, 0.469877, -0.542721, 0.335918, -2.08537, -2.16692, -0.127518, -0.00329695, -0.0205426, -0.0174015, 0.0135134, -0.00874668, -0.000821442
0.095137, 1.69235, -1.22551, -1.53862, -0.899594, -1.19313, 1.23009, -1.30252, 0.0275202, 0.000660769, -0.0118931, 0.0248786, -0.0428524, 0.0509726, 0.00355958, -1.45226, 56.6739, 26.4847, 7.47772, 0.951415, 3.53274, -0.0356336, 0.00140558, -0.000980578, -0.000313592, -0.000741617, -0.00228846, 0.00017743, -0.0119576, -0.0159371, 0.0171378, 0.0361945, 0.0673228, -0.0469167, 0.470906, -0.544029, 0.335362, -2.08365, -2.16555, -0.128993, 0.469888, -0.54273, 0.335919, -2.08541, -2.16694, -0.127476, -0.00336018, -0.0209318, -0.0177477, 0.0127597, -0.0111096, 0.000537684
0.096137, 1.69238, -1.22551, -1.53864, -0.899572, -1.19318, 1.23013, -1.30251, 0.0284038, 0.00174846, -0.0147344, 0.025493, -0.0375799, 0.0433214, 0.00435844, -1.52764, 56.5985, 26.449, 7.59277, 0.963317, 3.52542, -0.0814099, 0.00142005, -0.000963444, -0.000325242, -0.000767257, -0.00234314, 0.000188542, -0.0139541, -0.0150393, 0.0164178, 0.0300825, 0.0606429, -0.047594, 0.470903, -0.54405, 0.335344, -2.08364, -2.16554, -0.128963, 0.469902, -0.542737, 0.335915, -2.08546, -2.16696, -0.127417, -0.00342359, -0.0213219, -0.0180953, 0.0117024, -0.00945451, -0.000184046
0.097137, 1.69242, -1.22551, -1.53867, -0.89954, -1.19323, 1.23016, -1.30252, 0.0324342, 0.00165939, -0.014408, 0.0298813, -0.0374357, 0.0420116, 0.0019024, -1.63873, 56.5628, 26.449, 7.5531, 0.956908, 3.52542, -0.0484509, 0.00143393, -0.000946697, -0.000333208, -0.000788143, -0.00238924, 0.000196129, -0.0151064, -0.0162234, 0.017052, 0.0310717, 0.0596872, -0.0453851, 0.470899, -0.544071, 0.335326, -2.08363, -2.16553, -0.128932, 0.469915, -0.542745, 0.335906, -2.08549, -2.16697, -0.127361, -0.00348715, -0.0217127, -0.0184443, 0.012804, -0.00875669, 0.000234858
0.098137, 1.69246, -1.22552, -1.53868, -0.899515, -1.19327, 1.2302, -1.30252, 0.0320668, 0.0026134, -0.0178083, 0.0270479, -0.0368936, 0.0408963, -0.00073877, -1.7141, 56.4874, 26.3379, 7.62848, 0.938597, 3.52542, 0.0101428, 0.0014513, -0.000928958, -0.000344382, -0.000813856, -0.00243331, 0.000197217, -0.015827, -0.0159615, 0.0162238, 0.0264937, 0.0602893, -0.0426923, 0.470896, -0.544093, 0.335307, -2.08363, -2.16552, -0.1289, 0.469929, -0.542751, 0.335901, -2.08552, -2.16699, -0.127313, -0.00355087, -0.0221042, -0.0187947, 0.0124231, -0.00832009, -0.00081398
0.099137, 1.6925, -1.22551, -1.53871, -0.899483, -1.19332, 1.23023, -1.30252, 0.0370156, 0.00193683, -0.0200341, 0.0299633, -0.0414325, 0.04485, 0.00132524, -1.75378, 56.3406, 26.3379, 7.62848, 0.926695, 3.53274, -0.0356336, 0.0014655, -0.00091362, -0.000357979, -0.000834982, -0.00249029, 0.000214574, -0.0157645, -0.0179883, 0.0158256, 0.0267661, 0.0655156, -0.0455946, 0.470892, -0.544115, 0.335289, -2.08362, -2.16551, -0.128868, 0.469941, -0.542761, 0.335897, -2.08557, -2.16701, -0.127245, -0.00361472, -0.0224964, -0.0191465, 0.0143713, -0.0086297, -0.00163175
0.100137, 1.69254, -1.22552, -1.53873, -0.899454, -1.19337, 1.23027, -1.30252, 0.0368666, -0.000512726, -0.0206747, 0.0271709, -0.0443584, 0.0427121, -0.000720184, -1.75378, 56.2653, 26.2983, 7.70386, 0.901976, 3.54648, 0.0101428, 0.00147914, -0.000899932, -0.000367665, -0.000852848, -0.00253956, 0.000223811, -0.0162432, -0.0178107, 0.0138828, 0.021801, 0.0648892, -0.0430992, 0.470888, -0.544138, 0.335269, -2.08361, -2.1655, -0.128835, 0.469951, -0.542771, 0.33589, -2.08561, -2.16702, -0.127181, -0.00367869, -0.0228891, -0.0194995, 0.0140416, -0.00825827, -0.00382397
0.101137, 1.69258, -1.22552, -1.53875, -0.899419, -1.19342, 1.2303, -1.30252, 0.0384568, 0.00160125, -0.0194412, 0.0309349, -0.0476141, 0.0414321, 0.00152147, -1.82915, 56.1581, 26.1872, 7.66418, 0.901976, 3.5538, -0.0420422, 0.00149576, -0.000883596, -0.000380485, -0.000874302, -0.00258845, 0.000241266, -0.0162222, -0.0175058, 0.0161836, 0.0223076, 0.0688569, -0.0482063, 0.470885, -0.54416, 0.33525, -2.0836, -2.16549, -0.128801, 0.469963, -0.542778, 0.335885, -2.08566, -2.16702, -0.12712, -0.00374278, -0.0232822, -0.0198537, 0.0137591, -0.00903818, -0.00190067
0.102137, 1.69262, -1.22552, -1.53878, -0.899385, -1.19347, 1.23033, -1.30251, 0.0387512, -0.0030944, -0.0204422, 0.0355722, -0.0545147, 0.0357074, 0.0018119, -1.86486, 56.0471, 26.1515, 7.66418, 0.895568, 3.56112, -0.0621838, 0.00151024, -0.000868474, -0.000387354, -0.000881793, -0.00263994, 0.000262596, -0.0139921, -0.01479, 0.0134873, 0.0153371, 0.0668624, -0.0555886, 0.470881, -0.544184, 0.33523, -2.08359, -2.16547, -0.128767, 0.469974, -0.542788, 0.335874, -2.0857, -2.16702, -0.127039, -0.00380697, -0.0236758, -0.020209, 0.0109631, -0.01133, -0.00518045
0.103137, 1.69267, -1.22553, -1.53881, -0.899355, -1.19353, 1.23036, -1.30251, 0.0360415, -0.00336337, -0.0201029, 0.0343881, -0.0541172, 0.0271142, 0.000500656, -1.90453, 55.936, 26.0761, 7.73956, 0.865355, 3.5538, -0.0420422, 0.00152813, -0.000851298, -0.000398088, -0.000893359, -0.00269463, 0.000270853, -0.014597, -0.0121412, 0.0129616, 0.00851585, 0.0622168, -0.0562344, 0.470877, -0.544207, 0.33521, -2.08358, -2.16546, -0.128732, 0.469987, -0.542795, 0.335866, -2.08573, -2.16704, -0.126961, -0.00387125, -0.0240696, -0.0205654, 0.00821295, -0.0111541, -0.00588054
0.104137, 1.69272, -1.22552, -1.53884, -0.899318, -1.19359, 1.23038, -1.30251, 0.0378763, 0.000303416, -0.0222786, 0.0353876, -0.0550326, 0.0251966, -0.000111918, -1.97991, 55.7892, 25.965, 7.73956, 0.870848, 3.5538, -0.0292249, 0.00154452, -0.000835994, -0.000410996, -0.000902381, -0.00275435, 0.000285769, -0.0154721, -0.0121115, 0.0145166, 0.00536211, 0.0659833, -0.0567183, 0.470873, -0.544231, 0.335189, -2.08357, -2.16545, -0.128697, 0.469999, -0.542804, 0.33586, -2.08578, -2.16705, -0.126873, -0.00393561, -0.0244637, -0.0209229, 0.00814562, -0.0109244, -0.00456634
0.105137, 1.69275, -1.22553, -1.53887, -0.899283, -1.19365, 1.2304, -1.30252, 0.0352247, 0.00129951, -0.0247919, 0.0320766, -0.0545893, 0.0228081, -0.00174826, -1.90453, 55.7138, 25.8896, 7.77924, 0.846129, 3.57577, 0.0165515, 0.0015578, -0.000826203, -0.000419575, -0.000910706, -0.00280045, 0.000303954, -0.0156242, -0.0105858, 0.013976, 0.000553553, 0.0660106, -0.0564983, 0.470869, -0.544256, 0.335168, -2.08357, -2.16544, -0.128661, 0.470004, -0.542816, 0.33585, -2.08581, -2.16704, -0.126798, -0.00400003, -0.0248579, -0.0212814, 0.00653257, -0.0111477, -0.00538805
0.106137, 1.6928, -1.22554, -1.5389, -0.899247, -1.19371, 1.23043, -1.30252, 0.0374871, -0.00113569, -0.0267446, 0.032709, -0.0596858, 0.026941, -0.000165834, -1.97991, 55.6424, 25.8143, 7.81494, 0.846129, 3.56845, -0.00999879, 0.00157472, -0.000810984, -0.000427135, -0.00091046, -0.00285495, 0.00031938, -0.014809, -0.0116668, 0.012488, 0.000157034, 0.0701503, -0.0596176, 0.470865, -0.544281, 0.335147, -2.08356, -2.16543, -0.128624, 0.470015, -0.542825, 0.335838, -2.08585, -2.16704, -0.126704, -0.0040645, -0.0252522, -0.0216408, 0.00752204, -0.0120738, -0.00737706
0.107137, 1.69284, -1.22554, -1.53893, -0.899209, -1.19378, 1.23045, -1.30252, 0.0395532, 0.0021303, -0.03226, 0.0332865, -0.0588516, 0.0299814, 0.00108849, -1.94024, 55.4916, 25.7786, 7.85065, 0.840636, 3.56112, -0.0420422, 0.00158596, -0.000802953, -0.000438916, -0.000913648, -0.00291687, 0.000352352, -0.0150091, -0.0123853, 0.0129946, -0.0010524, 0.074808, -0.0623861, 0.470861, -0.544306, 0.335125, -2.08355, -2.16541, -0.128586, 0.470019, -0.542841, 0.33583, -2.08591, -2.16703, -0.126603, -0.00412902, -0.0256465, -0.022001, 0.00818711, -0.0123189, -0.00722885
0.108137, 1.69289, -1.22553, -1.53896, -0.899173, -1.19384, 1.23047, -1.30251, 0.0416835, 0.0028658, -0.0314423, 0.0367501, -0.0629504, 0.0274246, 0.000972201, -2.05529, 55.2734, 25.6675, 7.89032, 0.840636, 3.56112, -0.0484509, 0.0016054, -0.000786881, -0.000452602, -0.000914201, -0.00298131, 0.000369922, -0.0150675, -0.0120748, 0.0141629, -0.00273964, 0.077551, -0.0648193, 0.470857, -0.544332, 0.335103, -2.08354, -2.1654, -0.128548, 0.470031, -0.542849, 0.335824, -2.08595, -2.16704, -0.126499, -0.00419356, -0.0260407, -0.0223621, 0.00785423, -0.0128476, -0.00641805
0.109137, 1.69289, -1.22553, -1.53896, -0.899173, -1.19384, 1.23047, -1.30251, 0.0416835, 0.0028658, -0.0314423, 0.0367501, -0.0629504, 0.0274246, 0.000972201, -2.05529, 55.2734, 25.6675, 7.89032, 0.840636, 3.56112, -0.0484509, 0.00163443, -0.000782344, -0.000470823, -0.00094493, -0.00297705, 0.000366115, -0.0155103, -0.0121436, 0.0144625, -0.00238718, 0.0777623, -0.0654488, 0.470853, -0.544358, 0.335081, -2.08353, -2.16539, -0.128509, 0.470031, -0.542849, 0.335824, -2.08595, -2.16704, -0.126499, -0.00425812, -0.0264347, -0.0227239, 0.00785423, -0.0128476, -0.00641805
0.110137, 1.69289, -1.22553, -1.53896, -0.899173, -1.19384, 1.23047, -1.30251, 0.0416835, 0.0028658, -0.0314423, 0.0367501, -0.0629504, 0.0274246, 0.000972201, -2.05529, 55.2734, 25.6675, 7.89032, 0.840636, 3.56112, -0.0484509, 0.0016639, -0.000777739, -0.000489344, -0.000976225, -0.00297275, 0.000362251, -0.0159529, -0.0122124, 0.0147628, -0.00203232, 0.0779762, -0.0660809, 0.470849, -0.544384, 0.335058, -2.08352, -2.16537, -0.12847, 0.470031, -0.542849, 0.335824, -2.08595, -2.16704, -0.126499, -0.00432269, -0.0268285, -0.0230865, 0.00785423, -0.0128476, -0.00641805
0.111137, 1.69302, -1.22554, -1.53906, -0.89905, -1.19405, 1.23052, -1.30252, 0.0470595, 0.00200849, -0.0308414, 0.0411682, -0.0630199, 0.0275962, -0.000805467, -2.13067, 54.9402, 25.5564, 7.9657, 0.809508, 3.5538, 0.00373412, 0.00164799, -0.000759311, -0.000483863, -0.000898137, -0.00316029, 0.000450596, -0.0174899, -0.0144526, 0.0151264, 0.000158662, 0.077223, -0.0632116, 0.470844, -0.544411, 0.335035, -2.08351, -2.16536, -0.12843, 0.470045, -0.542889, 0.335792, -2.08609, -2.16701, -0.126172, -0.00438725, -0.027222, -0.0234497, 0.00998624, -0.0116878, -0.00625454
0.112137, 1.69307, -1.22554, -1.53909, -0.899005, -1.19413, 1.23052, -1.30252, 0.0463954, -0.00240807, -0.0301129, 0.0428225, -0.0662554, 0.02509, -0.000771431, -2.20605, 54.9402, 25.4413, 8.0014, 0.809508, 3.56112, 0.0101428, 0.00166412, -0.000749184, -0.000492113, -0.000886793, -0.00321571, 0.000472885, -0.0164987, -0.0131659, 0.0131338, -0.00202126, 0.0742398, -0.0666434, 0.47084, -0.544438, 0.335012, -2.08349, -2.16534, -0.128389, 0.470051, -0.542902, 0.335779, -2.08612, -2.16699, -0.12606, -0.00445179, -0.0276151, -0.0238135, 0.00859829, -0.0128059, -0.00869978
0.113137, 1.69312, -1.22555, -1.53913, -0.89896, -1.19421, 1.23053, -1.30251, 0.0481347, -0.00466955, -0.0308311, 0.0417402, -0.0721121, 0.0238904, 0.00142067, -2.28143, 54.9045, 25.3699, 8.0014, 0.779296, 3.56112, -0.0420422, 0.00167913, -0.000740569, -0.000501911, -0.000876513, -0.0032744, 0.000511156, -0.0166366, -0.01349, 0.0115095, -0.00702901, 0.0766101, -0.0690751, 0.470836, -0.544466, 0.334988, -2.08348, -2.16533, -0.128348, 0.470055, -0.542916, 0.335767, -2.08618, -2.16697, -0.125944, -0.00451631, -0.0280078, -0.0241779, 0.00879249, -0.0127994, -0.0106574
0.114137, 1.69316, -1.22555, -1.53917, -0.898916, -1.19429, 1.23055, -1.30252, 0.0441922, -0.00308203, -0.0328533, 0.0429991, -0.0734875, 0.0181993, 0.00118611, -2.24175, 54.8688, 25.3699, 8.03711, 0.791197, 3.5538, -0.0484509, 0.0016896, -0.000736024, -0.000510264, -0.000864023, -0.00333763, 0.000549493, -0.0149997, -0.00948177, 0.0119084, -0.0126855, 0.0766302, -0.075945, 0.470831, -0.544494, 0.334964, -2.08347, -2.16531, -0.128305, 0.470055, -0.542934, 0.335752, -2.08623, -2.16694, -0.12582, -0.00458078, -0.0283999, -0.0245428, 0.00479868, -0.0150328, -0.0107568
0.115137, 1.69321, -1.22555, -1.5392, -0.898866, -1.19437, 1.23056, -1.30252, 0.0442856, -5.93973e-05, -0.0355339, 0.0449444, -0.0737287, 0.0141763, -0.00114081, -2.3211, 54.7577, 25.2945, 8.03711, 0.784789, 3.53915, 0.00373412, 0.0017038, -0.000728971, -0.000525654, -0.000854591, -0.00340831, 0.000582165, -0.0150041, -0.00787531, 0.0129517, -0.0171113, 0.0780869, -0.0773009, 0.470826, -0.544522, 0.334939, -2.08346, -2.1653, -0.128263, 0.470057, -0.542951, 0.335745, -2.08628, -2.16693, -0.125691, -0.00464521, -0.0287914, -0.0249081, 0.0031692, -0.015646, -0.0100412
0.116137, 1.69325, -1.22555, -1.53924, -0.89882, -1.19445, 1.23056, -1.30252, 0.0447562, -0.00132719, -0.0364683, 0.0454987, -0.0782586, 0.0108139, -0.000996983, -2.28143, 54.7934, 25.2945, 8.07678, 0.766478, 3.53274, 0.0101428, 0.00171548, -0.000725639, -0.000533503, -0.000838687, -0.00346631, 0.000622753, -0.0146274, -0.0068173, 0.0119381, -0.0225116, 0.0791293, -0.0800579, 0.470822, -0.544551, 0.334914, -2.08345, -2.16528, -0.128219, 0.470056, -0.542969, 0.33573, -2.08634, -2.1669, -0.125567, -0.00470957, -0.0291822, -0.0252738, 0.00202426, -0.0162962, -0.0114332
0.117137, 1.6933, -1.22555, -1.53927, -0.898772, -1.19453, 1.23057, -1.30252, 0.0466868, 0.000446363, -0.0352049, 0.0460214, -0.0819962, 0.00805347, -0.000663965, -2.3211, 54.722, 25.2192, 8.11249, 0.754576, 3.53274, 0.0101428, 0.00173045, -0.000719306, -0.00054849, -0.000830706, -0.00353288, 0.000658843, -0.0157508, -0.00711369, 0.013466, -0.0250732, 0.082755, -0.08027, 0.470817, -0.54458, 0.334889, -2.08344, -2.16527, -0.128175, 0.470058, -0.542986, 0.335721, -2.08639, -2.16688, -0.125443, -0.00477385, -0.0295723, -0.0256399, 0.00227362, -0.0157997, -0.0101263
0.118137, 1.69334, -1.22556, -1.53931, -0.898724, -1.19461, 1.23058, -1.30252, 0.0488088, 4.31156e-05, -0.0343165, 0.0462836, -0.0848936, 0.00681596, -0.000679485, -2.3568, 54.722, 25.1438, 8.15216, 0.748168, 3.51077, 0.0165515, 0.00174466, -0.000712969, -0.000560086, -0.000819356, -0.00359768, 0.000692022, -0.0167588, -0.0079242, 0.0136689, -0.0265858, 0.0843339, -0.0795757, 0.470812, -0.54461, 0.334863, -2.08342, -2.16525, -0.12813, 0.470059, -0.543003, 0.335709, -2.08644, -2.16686, -0.125316, -0.00483806, -0.0299616, -0.0260062, 0.00299111, -0.0151916, -0.0101619
0.119137, 1.69339, -1.22555, -1.53935, -0.898671, -1.19471, 1.23058, -1.30252, 0.0510026, 0.00243635, -0.035502, 0.049638, -0.0836946, 0.00501885, 0.00171754, -2.43218, 54.6109, 25.1438, 8.18787, 0.772887, 3.51077, -0.0420422, 0.00175679, -0.000709555, -0.000574804, -0.000799824, -0.00367491, 0.000742906, -0.0175827, -0.00802369, 0.0151569, -0.0267879, 0.0849347, -0.0836101, 0.470808, -0.54464, 0.334837, -2.08341, -2.16524, -0.128084, 0.470058, -0.543023, 0.335699, -2.08651, -2.16682, -0.125165, -0.00490216, -0.0303499, -0.0263728, 0.00305339, -0.014991, -0.00893502
0.120137, 1.69343, -1.22556, -1.53939, -0.898617, -1.19479, 1.23059, -1.30252, 0.0483325, 0.000645885, -0.0353693, 0.0527434, -0.0855135, 0.00424459, 0.00114532, -2.47185, 54.6466, 25.1081, 8.18787, 0.748168, 3.49612, -0.0420422, 0.00176842, -0.000707071, -0.000585601, -0.00078546, -0.00373717, 0.000788792, -0.0154903, -0.00560526, 0.0149596, -0.02609, 0.0841318, -0.0895632, 0.470803, -0.54467, 0.334811, -2.0834, -2.16522, -0.128038, 0.470056, -0.543043, 0.335686, -2.08657, -2.16679, -0.125035, -0.00496616, -0.0307373, -0.0267396, 0.000641859, -0.0175128, -0.00974483
0.121137, 1.69348, -1.22555, -1.53943, -0.898563, -1.19489, 1.23059, -1.30252, 0.044098, 0.00208648, -0.0411688, 0.0535973, -0.0835789, 0.00414801, 0.000289044, -2.54723, 54.5712, 25.1835, 8.26324, 0.760985, 3.46774, -0.0292249, 0.00177971, -0.000703782, -0.000597916, -0.000762493, -0.00381614, 0.000838398, -0.0131106, -0.00225582, 0.0143904, -0.028793, 0.0843562, -0.0964573, 0.470798, -0.544701, 0.334784, -2.08339, -2.1652, -0.127991, 0.470054, -0.543065, 0.335673, -2.08664, -2.16675, -0.124877, -0.00503004, -0.0311236, -0.0271065, -0.00270309, -0.0202981, -0.010937
0.122137, 1.69353, -1.22555, -1.53947, -0.898503, -1.19498, 1.2306, -1.30252, 0.0429258, 0.00298091, -0.0401871, 0.0560617, -0.0858612, 0.00269441, -0.00173992, -2.58294, 54.4998, 25.1835, 8.26324, 0.748168, 3.47507, 0.0229602, 0.00179024, -0.000703178, -0.00061365, -0.000749302, -0.00388805, 0.000886689, -0.0122838, -0.000742698, 0.0158484, -0.0284611, 0.0863232, -0.0987143, 0.470793, -0.544732, 0.334757, -2.08337, -2.16519, -0.127943, 0.47005, -0.543088, 0.335663, -2.08671, -2.16672, -0.124736, -0.0050938, -0.0315088, -0.0274735, -0.00419311, -0.0217854, -0.00994463
0.123137, 1.69358, -1.22555, -1.53951, -0.898443, -1.19508, 1.2306, -1.30252, 0.0440065, 0.00276211, -0.040957, 0.0569998, -0.0920966, 0.0022178, -0.00163454, -2.69799, 54.4641, 25.1081, 8.29895, 0.736266, 3.46774, 0.0357776, 0.00180206, -0.000701039, -0.000629334, -0.000735529, -0.00396145, 0.000935842, -0.0115559, -0.000283087, 0.0157922, -0.0318116, 0.0912264, -0.101689, 0.470788, -0.544764, 0.33473, -2.08336, -2.16517, -0.127895, 0.470047, -0.54311, 0.335652, -2.08678, -2.16669, -0.124593, -0.00515741, -0.0318928, -0.0278405, -0.00469128, -0.0228981, -0.0104656
0.124137, 1.69362, -1.22556, -1.53955, -0.898385, -1.19517, 1.2306, -1.30252, 0.0478514, -0.00233088, -0.0403429, 0.0568178, -0.0919753, 0.00186249, -0.000614885, -2.80907, 54.4998, 25.1081, 8.37433, 0.729857, 3.46042, 0.0229602, 0.00181415, -0.000697916, -0.00064009, -0.000719464, -0.00402829, 0.000983108, -0.0134588, -0.00270225, 0.0130647, -0.0322553, 0.0862241, -0.0989837, 0.470782, -0.544796, 0.334702, -2.08335, -2.16515, -0.127846, 0.470045, -0.543131, 0.335637, -2.08684, -2.16665, -0.124453, -0.00522087, -0.0322756, -0.0282076, -0.00250857, -0.0208841, -0.0133077
0.125137, 1.69367, -1.22556, -1.53959, -0.898319, -1.19527, 1.23061, -1.30252, 0.044921, -0.00102698, -0.0411565, 0.0617738, -0.097226, 0.00132618, 0.00199764, -2.80907, 54.4641, 25.0327, 8.37433, 0.729857, 3.46042, -0.0420422, 0.00182094, -0.000700775, -0.000655421, -0.000708997, -0.00410147, 0.00105266, -0.0100899, 0.000848905, 0.0146481, -0.0325793, 0.0913331, -0.111669, 0.470777, -0.544828, 0.334674, -2.08333, -2.16513, -0.127796, 0.470037, -0.543159, 0.335625, -2.08693, -2.1666, -0.12431, -0.00528417, -0.032657, -0.0285745, -0.00593818, -0.0249801, -0.0125205
0.126137, 1.69371, -1.22556, -1.53962, -0.898253, -1.19536, 1.23061, -1.30252, 0.0479966, -0.00232059, -0.0419934, 0.0643721, -0.0956854, 0.00145613, 0.00133181, -2.88445, 54.3887, 24.9573, 8.414, 0.705138, 3.44668, -0.0420422, 0.00183045, -0.000702749, -0.000672666, -0.000694819, -0.0041758, 0.00111271, -0.0111125, -0.000435027, 0.0141111, -0.031446, 0.0890248, -0.110769, 0.470772, -0.54486, 0.334645, -2.08332, -2.16511, -0.127746, 0.47003, -0.543185, 0.335615, -2.08701, -2.16655, -0.124162, -0.0053473, -0.0330371, -0.0289414, -0.00477509, -0.0242154, -0.0133
0.127137, 1.69376, -1.22556, -1.53967, -0.898189, -1.19547, 1.23061, -1.30252, 0.0479266, -0.00419988, -0.0412022, 0.0676855, -0.10129, 0.00156083, -0.00151958, -2.9995, 54.353, 24.9573, 8.52509, 0.729857, 3.43204, 0.0229602, 0.00183762, -0.000705946, -0.000684791, -0.000671566, -0.00425201, 0.00117284, -0.00939607, 0.00072217, 0.0140706, -0.0314737, 0.0917052, -0.113017, 0.470766, -0.544894, 0.334616, -2.0833, -2.1651, -0.127694, 0.470022, -0.543213, 0.335599, -2.08708, -2.1665, -0.124002, -0.00541024, -0.0334157, -0.0293081, -0.00593356, -0.0263297, -0.0139359
0.128137, 1.6938, -1.22557, -1.53972, -0.898116, -1.19556, 1.23061, -1.30252, 0.0474851, -0.00245417, -0.0420955, 0.069195, -0.103041, 0.00134748, -0.000775667, -3.11059, 54.3134, 24.8859, 8.56079, 0.699645, 3.42471, 0.0165515, 0.00184441, -0.000708928, -0.000699076, -0.000659764, -0.00432339, 0.0012423, -0.00883625, 0.00167301, 0.0153062, -0.0319317, 0.0949445, -0.117236, 0.470761, -0.544927, 0.334587, -2.08329, -2.16508, -0.127643, 0.470014, -0.543242, 0.335585, -2.08717, -2.16644, -0.123857, -0.00547299, -0.0337927, -0.0296745, -0.00687858, -0.027488, -0.0131387
0.129137, 1.69385, -1.22557, -1.53976, -0.898043, -1.19567, 1.23062, -1.30252, 0.0462356, -0.00524078, -0.0444959, 0.0701137, -0.100577, 0.00170495, -0.00122917, -3.18597, 54.3134, 24.8859, 8.60046, 0.686827, 3.40365, 0.0357776, 0.00184938, -0.000713266, -0.000710697, -0.000642489, -0.00439616, 0.00130915, -0.00812028, 0.00254345, 0.0133465, -0.0317987, 0.0906303, -0.119764, 0.470756, -0.544961, 0.334557, -2.08327, -2.16506, -0.12759, 0.470005, -0.543273, 0.335568, -2.08726, -2.16639, -0.123704, -0.00553554, -0.0341681, -0.0300408, -0.0078585, -0.0283049, -0.0155231
0.130137, 1.69389, -1.22558, -1.53981, -0.897967, -1.19576, 1.23062, -1.30252, 0.0493107, -0.00408538, -0.0474725, 0.0709328, -0.0984465, 0.00169923, 0.000367367, -3.30102, 54.3134, 24.8105, 8.63617, 0.668517, 3.38901, 0.00373412, 0.00185624, -0.000716643, -0.000723313, -0.000629812, -0.00446304, 0.00138496, -0.00958152, 0.00124341, 0.0132354, -0.0329998, 0.0905229, -0.120448, 0.47075, -0.544995, 0.334527, -2.08326, -2.16504, -0.127537, 0.469996, -0.543303, 0.335552, -2.08735, -2.16632, -0.123561, -0.00559787, -0.0345419, -0.0304067, -0.00667805, -0.0271656, -0.0158138
0.131137, 1.69394, -1.22558, -1.53986, -0.897882, -1.19586, 1.23062, -1.30252, 0.0491663, -0.00195861, -0.0514876, 0.0804149, -0.101463, 0.00114786, 0.00170299, -3.30102, 54.1309, 24.8105, 8.56079, 0.650206, 3.38901, -0.0356336, 0.00185884, -0.000725754, -0.000740859, -0.000616983, -0.00453802, 0.00147144, -0.00595608, 0.00457923, 0.0146513, -0.033299, 0.0945295, -0.133883, 0.470744, -0.545029, 0.334497, -2.08324, -2.16502, -0.127483, 0.469982, -0.543338, 0.335539, -2.08746, -2.16625, -0.123408, -0.00565998, -0.0349139, -0.0307722, -0.00988829, -0.0314709, -0.0152361
0.132137, 1.69399, -1.22559, -1.53991, -0.897806, -1.19596, 1.23063, -1.30252, 0.0522665, -0.0018935, -0.0508722, 0.0794784, -0.0996465, 0.00131906, 0.00161005, -3.45177, 54.1309, 24.6598, 8.67188, 0.643798, 3.37436, -0.0484509, 0.00186717, -0.000725124, -0.000752959, -0.000608523, -0.00460957, 0.00153768, -0.00851029, 0.00222276, 0.0149409, -0.0322817, 0.0936037, -0.129677, 0.470739, -0.545064, 0.334466, -2.08323, -2.165, -0.127428, 0.469977, -0.543366, 0.335522, -2.08754, -2.16619, -0.123264, -0.00572185, -0.0352841, -0.0311374, -0.00767591, -0.0292672, -0.0149951
0.133137, 1.69403, -1.22559, -1.53996, -0.897728, -1.19607, 1.23063, -1.30252, 0.0510094, -0.0040334, -0.0539673, 0.0768721, -0.097993, 0.00558296, -0.00109676, -3.45177, 54.0952, 24.6598, 8.74725, 0.631896, 3.37436, 0.0101428, 0.00187049, -0.000733293, -0.000763444, -0.000586416, -0.00468013, 0.00161496, -0.00817952, 0.00182036, 0.0129748, -0.0313521, 0.0929026, -0.127485, 0.470733, -0.5451, 0.334435, -2.08321, -2.16498, -0.127372, 0.469963, -0.5434, 0.335502, -2.08763, -2.16612, -0.123104, -0.00578347, -0.0356524, -0.0315021, -0.00739804, -0.0296437, -0.0173652
0.134137, 1.69409, -1.2256, -1.54002, -0.897637, -1.19617, 1.23063, -1.30252, 0.0541295, -0.0015201, -0.052357, 0.0818207, -0.101194, 0.00439085, -0.00120589, -3.60253, 54.0198, 24.6241, 8.67188, 0.613585, 3.36703, 0.0229602, 0.00187644, -0.000735757, -0.000777594, -0.000573952, -0.00475477, 0.00168954, -0.00858414, 0.00146307, 0.0157564, -0.0299848, 0.0972658, -0.129653, 0.470727, -0.545135, 0.334403, -2.08319, -2.16496, -0.127316, 0.469956, -0.543432, 0.335485, -2.08772, -2.16606, -0.122951, -0.00584484, -0.0360188, -0.0318663, -0.00701034, -0.0300229, -0.0149316
0.135137, 1.69414, -1.22561, -1.54008, -0.897552, -1.19627, 1.23063, -1.30252, 0.0504367, -0.00691041, -0.0560349, 0.07933, -0.103466, 0.00853522, 0.000145514, -3.6422, 53.9841, 24.6598, 8.71155, 0.588866, 3.3533, -0.00267457, 0.00187992, -0.000741887, -0.000786689, -0.000554472, -0.00482421, 0.00177437, -0.00593823, 0.00296062, 0.0118028, -0.0313423, 0.0964393, -0.135561, 0.470721, -0.545171, 0.334371, -2.08318, -2.16494, -0.127259, 0.469944, -0.543467, 0.335463, -2.08782, -2.16598, -0.122793, -0.00590595, -0.0363832, -0.0322299, -0.00862309, -0.0324538, -0.0195606
0.136137, 1.69419, -1.22561, -1.54013, -0.897465, -1.19639, 1.23064, -1.30252, 0.0506863, -0.00513709, -0.0539817, 0.0815588, -0.105885, 0.00658517, 0.000368279, -3.6422, 53.8373, 24.6241, 8.71155, 0.588866, 3.34598, -0.00999879, 0.00188346, -0.0007467, -0.000802547, -0.000541109, -0.00491035, 0.00185813, -0.00612387, 0.00356501, 0.0140083, -0.030793, 0.0991744, -0.138029, 0.470716, -0.545208, 0.334339, -2.08316, -2.16492, -0.127202, 0.469934, -0.543502, 0.335447, -2.08793, -2.16591, -0.122624, -0.00596678, -0.0367455, -0.032593, -0.00920923, -0.0329961, -0.0176976
0.137137, 1.69425, -1.22562, -1.54018, -0.897376, -1.19649, 1.23064, -1.30252, 0.0533864, -0.00432719, -0.0536474, 0.0860992, -0.106895, 0.00458666, 0.00072024, -3.6422, 53.8373, 24.513, 8.71155, 0.564147, 3.3533, -0.0228162, 0.00188905, -0.000750602, -0.000814033, -0.000529115, -0.00497943, 0.00193875, -0.0065459, 0.00344494, 0.0152254, -0.0304937, 0.0997633, -0.140567, 0.47071, -0.545245, 0.334306, -2.08314, -2.16489, -0.127143, 0.469924, -0.543535, 0.335427, -2.08803, -2.16584, -0.122474, -0.00602732, -0.0371056, -0.0329554, -0.00911759, -0.0331214, -0.0167966
0.138137, 1.6943, -1.22564, -1.54024, -0.897282, -1.19661, 1.23065, -1.30252, 0.0530617, -0.00756483, -0.0532043, 0.0909649, -0.113744, 0.00340863, -0.000740542, -3.67791, 53.873, 24.513, 8.63617, 0.576048, 3.3533, 0.0101428, 0.00189121, -0.000755632, -0.000822331, -0.000511869, -0.00505287, 0.00202546, -0.0039237, 0.00551082, 0.0143737, -0.03185, 0.101378, -0.146391, 0.470704, -0.545282, 0.334273, -2.08313, -2.16487, -0.127084, 0.469913, -0.543572, 0.335403, -2.08813, -2.16576, -0.122312, -0.00608756, -0.0374636, -0.0333171, -0.0111797, -0.0360221, -0.0183384
0.139137, 1.69436, -1.22564, -1.5403, -0.897188, -1.19672, 1.23065, -1.30253, 0.0513126, -0.00238118, -0.0526426, 0.0908676, -0.112925, 0.00280683, -0.00195176, -3.6422, 53.7262, 24.513, 8.60046, 0.557738, 3.34598, 0.0495105, 0.00189406, -0.000761339, -0.000837869, -0.000495336, -0.00514066, 0.00210797, -0.00441615, 0.00643508, 0.0179585, -0.0304232, 0.105775, -0.147058, 0.470697, -0.545319, 0.33424, -2.08311, -2.16485, -0.127025, 0.469902, -0.543609, 0.335385, -2.08823, -2.16569, -0.122136, -0.0061475, -0.0378192, -0.0336781, -0.0120419, -0.0364796, -0.0150533
0.140137, 1.69441, -1.22565, -1.54036, -0.897093, -1.19684, 1.23066, -1.30253, 0.0523012, -0.00448279, -0.0534731, 0.0907715, -0.113106, 0.00288238, -0.000555184, -3.56683, 53.6905, 24.4376, 8.56079, 0.552245, 3.324, 0.0293689, 0.00189649, -0.000767103, -0.000852839, -0.000483732, -0.00522513, 0.0021993, -0.00487366, 0.00591278, 0.0166766, -0.031137, 0.104256, -0.148492, 0.470691, -0.545357, 0.334206, -2.08309, -2.16483, -0.126964, 0.469891, -0.543647, 0.335367, -2.08835, -2.16561, -0.121968, -0.00620712, -0.0381726, -0.0340383, -0.0116445, -0.036163, -0.0166251
0.141137, 1.69447, -1.22566, -1.54042, -0.896998, -1.19696, 1.23066, -1.30253, 0.0540206, -0.00535566, -0.0560713, 0.0899389, -0.112053, 0.00206961, -0.000607481, -3.52715, 53.7619, 24.4376, 8.56079, 0.533019, 3.324, 0.0357776, 0.00189974, -0.000770875, -0.000858804, -0.000464494, -0.00529741, 0.00228477, -0.00595652, 0.00517172, 0.0152737, -0.0339489, 0.102722, -0.147569, 0.470685, -0.545395, 0.334172, -2.08307, -2.1648, -0.126903, 0.469881, -0.543683, 0.33534, -2.08845, -2.16553, -0.121803, -0.00626642, -0.0385235, -0.0343977, -0.0110552, -0.035199, -0.0182258
0.142137, 1.69453, -1.22567, -1.54048, -0.896896, -1.19707, 1.23067, -1.30252, 0.0539586, -0.00454514, -0.058634, 0.0931929, -0.11304, 0.0063608, 0.000781808, -3.4121, 53.6508, 24.4733, 8.52509, 0.545836, 3.324, 0.00373412, 0.0018997, -0.000778516, -0.000873347, -0.00044799, -0.00538728, 0.00238721, -0.0042674, 0.00567748, 0.0159876, -0.0308878, 0.106643, -0.154118, 0.470679, -0.545434, 0.334138, -2.08305, -2.16478, -0.126841, 0.469868, -0.543724, 0.33532, -2.08857, -2.16544, -0.12162, -0.00632538, -0.038872, -0.0347562, -0.011531, -0.0373453, -0.0181243
0.143137, 1.69459, -1.22568, -1.54055, -0.896793, -1.1972, 1.23068, -1.30252, 0.0597267, -0.0108882, -0.0607422, 0.0935693, -0.117917, 0.00445836, 0.00150455, -3.4121, 53.6905, 24.513, 8.44971, 0.545836, 3.33133, -0.0228162, 0.00190124, -0.000782332, -0.000881082, -0.000428721, -0.00546915, 0.00248325, -0.00531202, 0.00360872, 0.0114016, -0.0375015, 0.103975, -0.15268, 0.470673, -0.545473, 0.334103, -2.08303, -2.16476, -0.126778, 0.469858, -0.543763, 0.335293, -2.08869, -2.16536, -0.121443, -0.006384, -0.0392179, -0.0351138, -0.00973666, -0.0358712, -0.0229156
0.144137, 1.69465, -1.22569, -1.54062, -0.896695, -1.19732, 1.23069, -1.30252, 0.0613394, -0.0105132, -0.0620735, 0.0950404, -0.116728, 0.0030678, 0.000765675, -3.30102, 53.6508, 24.5487, 8.44971, 0.545836, 3.33865, -0.0164075, 0.00190143, -0.000789127, -0.00089136, -0.000407677, -0.00555801, 0.00257953, -0.00612679, 0.00333932, 0.0114548, -0.038425, 0.103002, -0.152568, 0.470666, -0.545512, 0.334068, -2.08301, -2.16473, -0.126715, 0.469845, -0.543804, 0.335268, -2.0888, -2.16527, -0.121256, -0.00644226, -0.0395612, -0.0354704, -0.00955209, -0.0354071, -0.0231021
0.145137, 1.69472, -1.22571, -1.54069, -0.896589, -1.19744, 1.23069, -1.30252, 0.0624161, -0.0103635, -0.0611283, 0.0968068, -0.12094, 0.00744143, 1.82364e-06, -3.18597, 53.6151, 24.513, 8.414, 0.552245, 3.33133, -0.00267457, 0.00190244, -0.000794558, -0.000902711, -0.000391767, -0.00564411, 0.00267515, -0.00539942, 0.00259184, 0.012764, -0.0346651, 0.108886, -0.153921, 0.47066, -0.545551, 0.334033, -2.08299, -2.16471, -0.126651, 0.469834, -0.543844, 0.335245, -2.08892, -2.16519, -0.121077, -0.00650015, -0.0399019, -0.035826, -0.00878649, -0.0366362, -0.022302
0.146137, 1.69478, -1.22572, -1.54075, -0.896474, -1.19757, 1.2307, -1.30253, 0.0616534, -0.0127465, -0.063838, 0.101199, -0.119606, 0.00584272, -0.00193156, -3.03521, 53.6905, 24.4733, 8.26324, 0.570555, 3.324, 0.0495105, 0.00190114, -0.000800642, -0.000914049, -0.00038367, -0.00572718, 0.00277288, -0.00378955, 0.00452664, 0.0112078, -0.0354101, 0.104706, -0.158082, 0.470653, -0.545591, 0.333997, -2.08297, -2.16469, -0.126586, 0.469822, -0.543887, 0.33522, -2.08904, -2.1651, -0.120908, -0.00655767, -0.0402399, -0.0361806, -0.0107786, -0.0384039, -0.0243789
0.147137, 1.69485, -1.22573, -1.54082, -0.896372, -1.19769, 1.23071, -1.30252, 0.0618793, -0.0085956, -0.0718032, 0.0989102, -0.123145, 0.00381048, -0.000304365, -2.9995, 53.6508, 24.5487, 8.33862, 0.582457, 3.33865, 0.0229602, 0.0019055, -0.000802979, -0.000923518, -0.000359952, -0.00581558, 0.00286731, -0.00320144, 0.00608586, 0.0106427, -0.0461232, 0.111796, -0.16325, 0.470647, -0.545631, 0.333961, -2.08295, -2.16466, -0.12652, 0.469813, -0.543925, 0.335194, -2.08915, -2.16502, -0.120717, -0.00661481, -0.0405751, -0.036534, -0.0123932, -0.0392969, -0.02533
0.148137, 1.69492, -1.22574, -1.54089, -0.896254, -1.19782, 1.23072, -1.30252, 0.0639714, -0.00566464, -0.0687552, 0.100848, -0.125696, 0.00315499, 0.000746526, -2.92413, 53.6151, 24.513, 8.26324, 0.588866, 3.33133, -0.00267457, 0.00190591, -0.00080738, -0.000937606, -0.000350025, -0.00590683, 0.00297328, -0.0044192, 0.00522413, 0.0138592, -0.0439354, 0.116482, -0.164068, 0.47064, -0.545672, 0.333924, -2.08293, -2.16464, -0.126454, 0.469803, -0.543967, 0.335172, -2.08928, -2.16493, -0.120535, -0.00667155, -0.0409074, -0.0368864, -0.0115071, -0.0388851, -0.0223459
0.149137, 1.69499, -1.22576, -1.54096, -0.896135, -1.19795, 1.23073, -1.30252, 0.0678594, -0.00940983, -0.0730761, 0.107684, -0.127814, 0.00181834, -0.00716031, -2.80907, 53.6905, 24.6241, 8.22754, 0.613585, 3.34598, -0.0484509, 0.00190111, -0.000815756, -0.000943491, -0.000332407, -0.00599193, 0.0030882, -0.00297199, 0.0056951, 0.0110559, -0.0471586, 0.113956, -0.161704, 0.470633, -0.545713, 0.333887, -2.08291, -2.16461, -0.126387, 0.469788, -0.544014, 0.33514, -2.08942, -2.16482, -0.12035, -0.00672789, -0.0412368, -0.0372375, -0.0120907, -0.0402325, -0.0256732
0.150137, 1.69506, -1.22577, -1.54104, -0.896013, -1.19808, 1.23075, -1.30252, 0.0706629, -0.0114481, -0.0741798, 0.108485, -0.124424, 0.00594677, -0.00626507, -2.69799, 53.6151, 24.6598, 8.22754, 0.619078, 3.3533, -0.0292249, 0.00190074, -0.00082069, -0.000957221, -0.00032579, -0.00608103, 0.00319541, -0.00417743, 0.00326448, 0.0100961, -0.042762, 0.111615, -0.160556, 0.470627, -0.545754, 0.33385, -2.08289, -2.16458, -0.126319, 0.469777, -0.544058, 0.335116, -2.08955, -2.16473, -0.120174, -0.00678382, -0.0415633, -0.0375874, -0.00979874, -0.0391218, -0.0268641
0.151137, 1.69513, -1.22579, -1.5411, -0.895894, -1.1982, 1.23076, -1.30252, 0.0738242, -0.0126862, -0.0699894, 0.108622, -0.122121, 0.00964982, -0.00645672, -2.62261, 53.6508, 24.6241, 8.26324, 0.631896, 3.34598, 0.0165515, 0.0019031, -0.000822719, -0.000968958, -0.000323206, -0.0061629, 0.00329041, -0.00674294, -0.000231845, 0.0113304, -0.034909, 0.110461, -0.155231, 0.47062, -0.545796, 0.333812, -2.08287, -2.16456, -0.126251, 0.469769, -0.544099, 0.335091, -2.08967, -2.16464, -0.120009, -0.00683932, -0.0418868, -0.0379361, -0.00640491, -0.0369583, -0.0257122
0.152137, 1.69521, -1.22581, -1.54117, -0.895766, -1.19833, 1.23077, -1.30252, 0.0707027, -0.0137195, -0.0720143, 0.113606, -0.119987, 0.00697707, -0.00498028, -2.58294, 53.6905, 24.6598, 8.22754, 0.637389, 3.3533, 0.0229602, 0.00190434, -0.000824381, -0.000978941, -0.000318257, -0.00624434, 0.00339459, -0.00443316, 0.00317957, 0.0109126, -0.034842, 0.106277, -0.165082, 0.470613, -0.545838, 0.333774, -2.08285, -2.16453, -0.126182, 0.469761, -0.544142, 0.335063, -2.0898, -2.16455, -0.119841, -0.0068944, -0.0422071, -0.0382834, -0.0098005, -0.0396348, -0.0267168
0.153137, 1.69529, -1.22583, -1.54124, -0.895632, -1.19845, 1.23078, -1.30252, 0.0713058, -0.0180465, -0.0709374, 0.118283, -0.123082, 0.00499145, -0.00364902, -2.54723, 53.7619, 24.5884, 8.15216, 0.637389, 3.36062, 0.0229602, 0.00190579, -0.000826113, -0.00098806, -0.000317902, -0.0063167, 0.00350093, -0.00309699, 0.00428238, 0.00947936, -0.0349058, 0.103373, -0.17104, 0.470606, -0.54588, 0.333736, -2.08282, -2.1645, -0.126112, 0.469752, -0.544184, 0.335034, -2.08992, -2.16445, -0.119686, -0.00694903, -0.0425243, -0.0386293, -0.0109645, -0.0410965, -0.0286481
0.154137, 1.69535, -1.22585, -1.54132, -0.895506, -1.19857, 1.23079, -1.30252, 0.069402, -0.0147767, -0.0754857, 0.119223, -0.125042, 0.00815145, -0.000983882, -2.39648, 53.6905, 24.7352, 8.18787, 0.637389, 3.37436, -0.0228162, 0.00190196, -0.000835151, -0.000997953, -0.000304512, -0.00640477, 0.00362427, -0.000985031, 0.00602976, 0.0106124, -0.0355987, 0.110298, -0.179984, 0.470599, -0.545922, 0.333697, -2.0828, -2.16448, -0.126041, 0.469737, -0.544232, 0.335005, -2.09007, -2.16434, -0.119498, -0.00700322, -0.0428383, -0.0389739, -0.0126439, -0.0437411, -0.0281425
0.155137, 1.69543, -1.22587, -1.54139, -0.895369, -1.1987, 1.2308, -1.30252, 0.0700813, -0.0189892, -0.0701192, 0.123571, -0.12749, 0.0106109, -0.000128812, -2.3211, 53.7619, 24.6598, 8.18787, 0.656615, 3.38901, -0.0420422, 0.00190142, -0.000838436, -0.00100859, -0.000305415, -0.00648426, 0.00373813, -0.000342679, 0.00538084, 0.0111029, -0.0279049, 0.108925, -0.182821, 0.470592, -0.545965, 0.333659, -2.08278, -2.16445, -0.12597, 0.469727, -0.544277, 0.334977, -2.09021, -2.16423, -0.119334, -0.00705695, -0.0431491, -0.039317, -0.012007, -0.0447346, -0.028122
0.156137, 1.69552, -1.22589, -1.54146, -0.89523, -1.19883, 1.23081, -1.30252, 0.0750289, -0.0220719, -0.0706131, 0.129556, -0.123888, 0.0128381, 0.000284026, -2.3211, 53.8373, 24.6241, 8.18787, 0.656615, 3.38901, -0.0557752, 0.00190254, -0.000839723, -0.00101668, -0.00030573, -0.00655726, 0.00384879, -0.00121626, 0.00310983, 0.0101708, -0.0224929, 0.104012, -0.183235, 0.470585, -0.546008, 0.333619, -2.08275, -2.16442, -0.125898, 0.469719, -0.54432, 0.334946, -2.09034, -2.16413, -0.119177, -0.00711021, -0.0434565, -0.0396587, -0.00985925, -0.0439434, -0.0293242
0.157137, 1.6956, -1.22591, -1.54154, -0.895093, -1.19895, 1.23083, -1.30252, 0.078098, -0.0240669, -0.0704793, 0.132991, -0.121741, 0.00969013, -0.00211874, -2.28143, 53.7619, 24.6995, 8.26324, 0.674925, 3.38901, 0.00373412, 0.00190282, -0.000842621, -0.00102835, -0.000299455, -0.00664517, 0.00395552, -0.00251129, 0.00237925, 0.00937121, -0.0227088, 0.0988333, -0.180679, 0.470578, -0.546052, 0.33358, -2.08273, -2.16439, -0.125825, 0.46971, -0.544366, 0.334918, -2.09047, -2.16403, -0.118996, -0.007163, -0.0437605, -0.0399988, -0.00925911, -0.0428161, -0.0302776
0.158137, 1.69568, -1.22593, -1.54161, -0.894943, -1.19908, 1.23084, -1.30253, 0.0802671, -0.0242418, -0.0688813, 0.138118, -0.125134, 0.0119924, -0.00243996, -2.16637, 53.7619, 24.5884, 8.22754, 0.693236, 3.39633, 0.0293689, 0.00189927, -0.000848639, -0.0010413, -0.000310841, -0.00672167, 0.00407581, -0.00171791, 0.00195045, 0.0109304, -0.0183907, 0.102423, -0.183753, 0.470571, -0.546096, 0.33354, -2.08271, -2.16437, -0.125751, 0.469697, -0.544415, 0.33489, -2.09061, -2.16392, -0.118845, -0.0072153, -0.0440611, -0.0403373, -0.00879312, -0.0441215, -0.0292137
0.159137, 1.69576, -1.22595, -1.5417, -0.894786, -1.19921, 1.23086, -1.30253, 0.083537, -0.0252409, -0.0755779, 0.143119, -0.126232, 0.00931551, -0.00168517, -2.20605, 53.7976, 24.6598, 8.15216, 0.686827, 3.38901, 0.0293689, 0.00189469, -0.000853517, -0.00105014, -0.000312921, -0.00680069, 0.00420335, -0.000615952, 0.00296621, 0.00855715, -0.0248808, 0.101471, -0.189903, 0.470564, -0.54614, 0.333499, -2.08268, -2.16434, -0.125677, 0.469686, -0.544465, 0.334858, -2.09077, -2.1638, -0.118679, -0.0072671, -0.0443582, -0.0406742, -0.00991324, -0.0451842, -0.0320303
0.160137, 1.69584, -1.22598, -1.54178, -0.894634, -1.19933, 1.23087, -1.30252, 0.0831054, -0.0237954, -0.0787077, 0.143765, -0.122914, 0.00699735, 0.00124016, -2.13067, 53.873, 24.6598, 8.18787, 0.699645, 3.38901, -0.0356336, 0.00189069, -0.000859743, -0.00105764, -0.000314141, -0.00687385, 0.00433653, -0.000961453, 0.00393919, 0.00849882, -0.0271442, 0.0995376, -0.194922, 0.470556, -0.546184, 0.333458, -2.08266, -2.16431, -0.125602, 0.469673, -0.544515, 0.334824, -2.09092, -2.16367, -0.118517, -0.00731841, -0.0446518, -0.0410095, -0.0109501, -0.0451676, -0.0323368
0.161137, 1.69593, -1.226, -1.54186, -0.894466, -1.19946, 1.23088, -1.30252, 0.0829604, -0.0229972, -0.0810693, 0.150391, -0.120263, 0.0104671, 0.00103121, -2.05529, 53.8373, 24.6598, 8.11249, 0.693236, 3.37436, -0.0420422, 0.00188494, -0.000865772, -0.0010707, -0.000325928, -0.00695339, 0.00447149, 0.00097428, 0.00497395, 0.00965255, -0.021309, 0.0998019, -0.201594, 0.470549, -0.546229, 0.333417, -2.08263, -2.16428, -0.125526, 0.46966, -0.544567, 0.334796, -2.09108, -2.16355, -0.118359, -0.0073692, -0.0449417, -0.0413431, -0.0119196, -0.047588, -0.0317957
0.162137, 1.69602, -1.22603, -1.54193, -0.894305, -1.19959, 1.23089, -1.30252, 0.086483, -0.0282473, -0.0819234, 0.151115, -0.123018, 0.00831848, 0.00117141, -2.05529, 53.9087, 24.6241, 8.07678, 0.693236, 3.36062, -0.0557752, 0.00188204, -0.000869061, -0.00107794, -0.000331417, -0.00702525, 0.00459553, 0.000277147, 0.0038611, 0.00627107, -0.0254426, 0.0962313, -0.200799, 0.470542, -0.546274, 0.333376, -2.08261, -2.16425, -0.12545, 0.46965, -0.544617, 0.334761, -2.09123, -2.16343, -0.118203, -0.00741948, -0.0452279, -0.0416749, -0.0110167, -0.0466217, -0.0353957
0.163137, 1.69611, -1.22606, -1.54202, -0.894137, -1.19971, 1.23091, -1.30252, 0.0892661, -0.0305319, -0.0832777, 0.156781, -0.124254, 0.0153213, -0.00045828, -2.01562, 53.9087, 24.6241, 8.07678, 0.662108, 3.37436, -0.0228162, 0.00187695, -0.000875548, -0.00108646, -0.000337226, -0.00709613, 0.00472877, 0.00185173, 0.00258889, 0.00599387, -0.0186535, 0.098484, -0.203061, 0.470534, -0.546319, 0.333334, -2.08258, -2.16422, -0.125373, 0.469637, -0.544668, 0.334727, -2.09138, -2.1633, -0.118046, -0.00746922, -0.0455105, -0.042005, -0.00975094, -0.0483641, -0.0362859
0.164137, 1.69621, -1.22608, -1.54211, -0.893963, -1.19984, 1.23092, -1.30252, 0.0925024, -0.0282671, -0.0836453, 0.162326, -0.125236, 0.0210048, -0.000319408, -2.01562, 53.873, 24.5884, 8.03711, 0.637389, 3.37436, -0.0228162, 0.00187157, -0.000880388, -0.00109894, -0.00035232, -0.00717403, 0.00486584, 0.00237067, 0.00116642, 0.0085964, -0.011734, 0.104364, -0.206076, 0.470527, -0.546364, 0.333292, -2.08255, -2.16419, -0.125295, 0.469625, -0.544721, 0.334697, -2.09155, -2.16317, -0.117891, -0.00751843, -0.0457892, -0.0423333, -0.00825742, -0.0494959, -0.0341728
0.165137, 1.6963, -1.22612, -1.54219, -0.893794, -1.19997, 1.23094, -1.30252, 0.0922733, -0.0309771, -0.0839854, 0.164677, -0.126837, 0.0207945, -0.00191878, -1.90453, 54.0198, 24.5487, 8.07678, 0.631896, 3.36703, 0.0229602, 0.00186441, -0.000886192, -0.00110336, -0.000358011, -0.00724643, 0.00499821, 0.00346045, 0.00201392, 0.00747723, -0.0116388, 0.103041, -0.208085, 0.470519, -0.54641, 0.33325, -2.08253, -2.16416, -0.125216, 0.469612, -0.544775, 0.334658, -2.0917, -2.16304, -0.117731, -0.00756709, -0.0460641, -0.0426597, -0.00915793, -0.0507099, -0.0357441
0.166137, 1.69639, -1.22614, -1.54229, -0.89361, -1.20009, 1.23095, -1.30252, 0.0959805, -0.0283934, -0.0881697, 0.168339, -0.127858, 0.015029, -0.000574919, -1.82915, 53.9841, 24.5487, 8.03711, 0.619078, 3.38168, 0.00373412, 0.00185729, -0.00089346, -0.00111408, -0.000367607, -0.00732065, 0.00514583, 0.002798, 0.00267407, 0.00762167, -0.0189404, 0.104045, -0.212068, 0.470512, -0.546456, 0.333207, -2.0825, -2.16412, -0.125137, 0.469598, -0.54483, 0.334625, -2.09187, -2.1629, -0.117571, -0.0076152, -0.0463352, -0.0429842, -0.00988238, -0.0503761, -0.0358009
0.167137, 1.69649, -1.22616, -1.54239, -0.89343, -1.20022, 1.23097, -1.30252, 0.097963, -0.0275152, -0.0923953, 0.171018, -0.123618, 0.0203642, 0.000594206, -1.7141, 53.9841, 24.5884, 8.0014, 0.607176, 3.39633, -0.0228162, 0.00184811, -0.000901907, -0.00112303, -0.000372319, -0.00740174, 0.00529709, 0.00290431, 0.00143543, 0.00767251, -0.0145449, 0.104595, -0.214903, 0.470504, -0.546503, 0.333164, -2.08247, -2.16409, -0.125057, 0.469583, -0.544887, 0.33459, -2.09205, -2.16275, -0.117398, -0.00766275, -0.0466022, -0.0433068, -0.00868677, -0.050705, -0.0361317
0.168137, 1.69659, -1.2262, -1.54249, -0.893248, -1.20035, 1.23099, -1.30251, 0.103488, -0.0335961, -0.0950102, 0.177082, -0.125793, 0.0205162, 0.00232452, -1.63873, 54.1309, 24.6241, 8.03711, 0.607176, 3.38901, -0.0750012, 0.00184074, -0.000906522, -0.00112441, -0.00037628, -0.00746905, 0.00544589, 0.00348748, 0.000214267, 0.00400789, -0.0158066, 0.100601, -0.219019, 0.470496, -0.546549, 0.333121, -2.08245, -2.16406, -0.124976, 0.469571, -0.544942, 0.334547, -2.09221, -2.1626, -0.117238, -0.00770973, -0.0468653, -0.0436274, -0.00764002, -0.0509319, -0.0402025
0.169137, 1.69669, -1.22622, -1.54258, -0.893056, -1.20048, 1.231, -1.30251, 0.104155, -0.0297887, -0.09801, 0.180798, -0.12709, 0.0202835, 0.00130903, -1.56335, 54.2062, 24.5884, 8.0014, 0.595275, 3.38901, -0.0685925, 0.0018327, -0.000911634, -0.00113289, -0.000390654, -0.00754327, 0.00559347, 0.0044737, 0.00144257, 0.00594314, -0.0168088, 0.105617, -0.223225, 0.470489, -0.546596, 0.333077, -2.08242, -2.16403, -0.124894, 0.469559, -0.544998, 0.334511, -2.09238, -2.16246, -0.117081, -0.00775613, -0.0471243, -0.043946, -0.00880024, -0.0525117, -0.0387208
0.170137, 1.69678, -1.22625, -1.54268, -0.892859, -1.2006, 1.23102, -1.30252, 0.0985333, -0.0282048, -0.0987207, 0.185792, -0.12325, 0.0194962, -0.00106257, -1.33721, 54.2062, 24.5884, 8.0014, 0.582457, 3.40365, -0.0164075, 0.00182002, -0.000922825, -0.00114462, -0.000408202, -0.0076205, 0.0057491, 0.00729811, 0.00557395, 0.00780239, -0.0125439, 0.103449, -0.230547, 0.470481, -0.546643, 0.333034, -2.08239, -2.164, -0.124812, 0.469541, -0.54506, 0.334477, -2.09257, -2.16231, -0.116923, -0.00780194, -0.0473792, -0.0442625, -0.0127967, -0.0560099, -0.037497
0.171137, 1.6969, -1.22628, -1.54278, -0.892659, -1.20073, 1.23104, -1.30252, 0.102974, -0.0257173, -0.0998387, 0.189624, -0.125885, 0.0246672, -0.00121886, -1.33721, 54.2776, 24.6241, 8.0014, 0.588866, 3.39633, -0.00267457, 0.00181347, -0.000925248, -0.00115354, -0.000423996, -0.00769536, 0.00589625, 0.00721102, 0.00351336, 0.0099273, -0.00846374, 0.110924, -0.231488, 0.470473, -0.546691, 0.332989, -2.08236, -2.16396, -0.124729, 0.469532, -0.545115, 0.334441, -2.09274, -2.16216, -0.116766, -0.00784715, -0.04763, -0.044577, -0.0107013, -0.0564158, -0.0357703
0.172137, 1.697, -1.22631, -1.54289, -0.892455, -1.20085, 1.23106, -1.30252, 0.108699, -0.0285073, -0.101699, 0.194221, -0.126121, 0.0177341, -0.00128868, -1.22613, 54.4244, 24.6995, 7.92602, 0.557738, 3.41739, 0.0101428, 0.00180294, -0.000932362, -0.00115899, -0.000438292, -0.00776242, 0.00605318, 0.0056974, 0.0028577, 0.00762618, -0.0147344, 0.105198, -0.231395, 0.470465, -0.546738, 0.332945, -2.08233, -2.16393, -0.124645, 0.469517, -0.545174, 0.3344, -2.09292, -2.16201, -0.116613, -0.00789177, -0.0478765, -0.0448893, -0.0102367, -0.0547882, -0.0381427
0.173137, 1.69711, -1.22634, -1.54299, -0.892244, -1.20097, 1.23107, -1.30252, 0.109853, -0.0297099, -0.10501, 0.197879, -0.127869, 0.017787, -0.00856981, -1.07537, 54.5355, 24.7352, 7.81494, 0.557738, 3.43204, -0.0356336, 0.00179268, -0.000939191, -0.00116839, -0.000458545, -0.0078324, 0.006219, 0.00712154, 0.00375482, 0.00647544, -0.0165541, 0.105797, -0.228995, 0.470457, -0.546786, 0.3329, -2.0823, -2.16389, -0.124561, 0.469503, -0.545234, 0.334363, -2.09311, -2.16184, -0.116463, -0.00793577, -0.0481188, -0.0451995, -0.0111723, -0.0562969, -0.0397783
0.174137, 1.69722, -1.22637, -1.54309, -0.892025, -1.2011, 1.23109, -1.30251, 0.111347, -0.0273668, -0.103878, 0.206805, -0.129073, 0.0171437, -0.00527704, -0.920646, 54.6466, 24.7352, 7.66418, 0.557738, 3.46042, -0.0685925, 0.00178226, -0.000946564, -0.00117837, -0.000479604, -0.00789909, 0.00638678, 0.00851787, 0.0050117, 0.00963122, -0.0120324, 0.108355, -0.239225, 0.470449, -0.546834, 0.332855, -2.08227, -2.16386, -0.124476, 0.469489, -0.545294, 0.334327, -2.0933, -2.16167, -0.116315, -0.00797915, -0.0483568, -0.0455074, -0.0122933, -0.0584489, -0.0371427
0.175137, 1.69733, -1.22639, -1.5432, -0.891818, -1.20123, 1.23111, -1.30251, 0.106928, -0.02701, -0.100613, 0.204945, -0.126012, 0.0179081, -0.00363172, -0.809562, 54.6823, 24.7748, 7.66418, 0.576048, 3.46042, -0.0814099, 0.00177327, -0.000952141, -0.00118988, -0.00049424, -0.00798148, 0.00654718, 0.00840933, 0.00599936, 0.011293, -0.0068102, 0.106762, -0.241688, 0.470441, -0.546883, 0.332809, -2.08224, -2.16383, -0.12439, 0.469476, -0.545353, 0.334291, -2.09349, -2.16152, -0.116145, -0.00802191, -0.0485903, -0.0458132, -0.0132581, -0.0588705, -0.0357563
0.176137, 1.69745, -1.22641, -1.54331, -0.891595, -1.20135, 1.23112, -1.30252, 0.10958, -0.0247234, -0.102749, 0.213514, -0.128196, 0.0175557, -0.00455787, -0.694511, 54.7577, 24.8859, 7.62848, 0.588866, 3.48239, -0.0356336, 0.0017621, -0.000958819, -0.00119872, -0.000511633, -0.00805325, 0.00671, 0.0101021, 0.00715968, 0.0131836, -0.00571733, 0.110522, -0.248128, 0.470433, -0.546931, 0.332763, -2.08221, -2.16379, -0.124304, 0.469463, -0.545415, 0.334253, -2.09367, -2.16136, -0.115987, -0.00806403, -0.0488195, -0.0461166, -0.0143215, -0.0611084, -0.0344142
0.177137, 1.69757, -1.22644, -1.54341, -0.891372, -1.20148, 1.23114, -1.30252, 0.111946, -0.0278716, -0.103495, 0.216303, -0.125154, 0.0173266, -0.00459026, -0.583427, 54.9045, 24.8105, 7.62848, 0.613585, 3.50345, -0.00267457, 0.00175243, -0.000963687, -0.00121029, -0.000537994, -0.00812588, 0.00686971, 0.00942401, 0.00619437, 0.0115632, -0.00404232, 0.105073, -0.248139, 0.470425, -0.54698, 0.332717, -2.08218, -2.16375, -0.124217, 0.469451, -0.545475, 0.334217, -2.09386, -2.1612, -0.115838, -0.00810551, -0.0490442, -0.0464177, -0.013488, -0.0603756, -0.0362434
0.178137, 1.69767, -1.22647, -1.54353, -0.89113, -1.20161, 1.23116, -1.30252, 0.108304, -0.0291564, -0.107917, 0.223163, -0.122917, 0.0179846, -0.00279978, -0.357292, 55.0156, 25.0327, 7.5531, 0.631896, 3.51077, -0.0164075, 0.00173016, -0.000981133, -0.00122059, -0.000563257, -0.00819736, 0.00706856, 0.01346, 0.0101618, 0.0106911, -0.00218659, 0.102268, -0.261542, 0.470417, -0.547029, 0.332671, -2.08215, -2.16372, -0.124129, 0.469426, -0.545548, 0.334178, -2.09409, -2.161, -0.115685, -0.00814634, -0.0492643, -0.0467165, -0.017383, -0.06461, -0.0378889
0.179137, 1.6978, -1.2265, -1.54364, -0.890897, -1.20173, 1.23117, -1.30252, 0.113991, -0.0260758, -0.108005, 0.225028, -0.126034, 0.0177411, -0.00181533, -0.242241, 55.087, 24.997, 7.62848, 0.656615, 3.52542, -0.0228162, 0.00172036, -0.000986742, -0.00123499, -0.000589667, -0.00827209, 0.00723884, 0.0115331, 0.00783625, 0.0127081, -0.00317516, 0.108208, -0.26036, 0.470409, -0.547078, 0.332624, -2.08211, -2.16368, -0.12404, 0.469414, -0.54561, 0.334144, -2.09429, -2.16084, -0.115531, -0.00818651, -0.0494799, -0.0470129, -0.0150857, -0.0631366, -0.0359761
0.180137, 1.69792, -1.22652, -1.54375, -0.890653, -1.20186, 1.23119, -1.30252, 0.115328, -0.0216111, -0.108569, 0.230276, -0.128309, 0.0178644, -0.0011125, -0.131157, 55.1981, 25.1081, 7.5531, 0.686827, 3.53274, -0.0292249, 0.00170462, -0.000996615, -0.00124638, -0.000616823, -0.00834364, 0.00742444, 0.012382, 0.00868476, 0.0160899, -0.00148938, 0.1146, -0.266132, 0.470401, -0.547128, 0.332577, -2.08208, -2.16365, -0.123951, 0.469397, -0.545677, 0.334106, -2.0945, -2.16065, -0.115379, -0.00822601, -0.0496909, -0.0473069, -0.0158032, -0.0647387, -0.0330321
0.181137, 1.69805, -1.22655, -1.54387, -0.890405, -1.20198, 1.2312, -1.30252, 0.121575, -0.0237232, -0.112102, 0.234811, -0.124996, 0.0175494, 0.00108639, -0.131157, 55.2734, 25.1081, 7.5531, 0.705138, 3.5538, -0.0814099, 0.0016936, -0.00100231, -0.00125766, -0.000643301, -0.00840937, 0.0076044, 0.0109314, 0.00642873, 0.014137, -0.00185304, 0.110114, -0.267329, 0.470393, -0.547178, 0.33253, -2.08205, -2.16361, -0.123861, 0.469384, -0.545739, 0.334069, -2.09471, -2.16047, -0.115233, -0.00826484, -0.0498971, -0.0475984, -0.0137193, -0.0631207, -0.0351059
0.182137, 1.69818, -1.22657, -1.54399, -0.890152, -1.20209, 1.23122, -1.30252, 0.127783, -0.0244278, -0.115161, 0.241308, -0.125563, 0.0176251, 0.000171002, -0.0557783, 55.3091, 25.1081, 7.44202, 0.674925, 3.56845, -0.0685925, 0.00168109, -0.00100961, -0.00127245, -0.000677106, -0.00847758, 0.00778789, 0.0106574, 0.00495999, 0.0134964, -0.00222772, 0.11019, -0.268275, 0.470384, -0.547228, 0.332482, -2.08201, -2.16357, -0.12377, 0.469369, -0.545804, 0.334034, -2.09492, -2.16029, -0.11509, -0.00830299, -0.0500987, -0.0478874, -0.0123258, -0.0628932, -0.0360362
0.183137, 1.69831, -1.2266, -1.54412, -0.889888, -1.20221, 1.23123, -1.30252, 0.128459, -0.0258899, -0.116285, 0.246126, -0.123635, 0.0120332, -0.000419623, 0.059273, 55.3845, 25.1835, 7.33093, 0.705138, 3.60415, -0.0557752, 0.00166353, -0.00102068, -0.00128411, -0.000704767, -0.00854604, 0.00798391, 0.0109333, 0.00662319, 0.0126205, -0.00468565, 0.104468, -0.271779, 0.470376, -0.547278, 0.332434, -2.08198, -2.16353, -0.123678, 0.469351, -0.545874, 0.333995, -2.09514, -2.16009, -0.114939, -0.00834046, -0.0502955, -0.0481739, -0.0140494, -0.0632966, -0.0371712
0.184137, 1.69845, -1.22663, -1.54425, -0.889619, -1.20233, 1.23125, -1.30252, 0.135425, -0.0224208, -0.120075, 0.254146, -0.116136, 0.00922635, -0.00229062, 0.0196001, 55.5313, 25.2588, 7.29126, 0.699645, 3.60415, -0.00267457, 0.0016488, -0.00102783, -0.00129107, -0.00072878, -0.00860504, 0.00817034, 0.00864808, 0.00489689, 0.0140987, -0.0034316, 0.100621, -0.270096, 0.470368, -0.547328, 0.332386, -2.08195, -2.1635, -0.123586, 0.469337, -0.54594, 0.333952, -2.09535, -2.15989, -0.114793, -0.00837722, -0.0504874, -0.0484579, -0.0123809, -0.0613877, -0.0357026
0.185137, 1.69859, -1.22665, -1.54438, -0.889351, -1.20244, 1.23126, -1.30252, 0.138712, -0.0240045, -0.124562, 0.257255, -0.115257, 0.0113772, -0.00128895, 0.059273, 55.6027, 25.2588, 7.25555, 0.705138, 3.6188, -0.00999879, 0.00163601, -0.00103442, -0.00130403, -0.000759662, -0.00866951, 0.00836041, 0.00899601, 0.00400044, 0.0122932, -0.0038101, 0.0999924, -0.273036, 0.470359, -0.547378, 0.332338, -2.08191, -2.16346, -0.123493, 0.469323, -0.546006, 0.333915, -2.09556, -2.1597, -0.114649, -0.00841329, -0.0506745, -0.0487392, -0.0115831, -0.0616048, -0.0378517
