alisrour97/Franka_experiments/Real_Robot_scripts/servo-franka/Data2/log_dyn_PI2_14.csv
Time,q1,q2,q3,q4,q5,q6,q7,dq1,dq2,dq3,dq4,dq5,dq6,dq7,t1,t2,t3,t4,t5,t6,t7,ex1,ex2,ex3,ex4,ex5,ex6,ev1,ev2,ev3,ev4,ev5,ev6,xd,yd,zd,uxd,uyd,uzd,x,y,z,ux,uy,uz,vxd,vyd,vzd,vx,vy,vz
7.32422e-07, 1.69091, -1.23056, -1.5412, -0.900541, -1.19251, 1.22731, -1.30256, -0.00996688, 0.0042828, -0.00844197, 0.00690257, 0.000655104, -0.00996728, -0.000389485, 1.79694, 70.0436, 36.1649, 7.47772, 3.0141, 5.12393, -0.258107, -0.00025293, -0.0024889, 0.00430039, 0.00496422, 0.00430748, 0.00175296, 0.00654041, 0.0104468, 0.000188074, -0.0105104, -0.00159518, -0.0194939, 0.471008, -0.543389, 0.335894, -2.08385, -2.16584, -0.129887, 0.468395, -0.543065, 0.331692, -2.08083, -2.15967, -0.12857, -1.41255e-05, -9.11997e-05, -6.59526e-05, -0.0102068, -0.00700444, -0.000580498
0.0142512, 1.69084, -1.23058, -1.54128, -0.900475, -1.19248, 1.22726, -1.30257, -0.00327974, -0.00150171, -0.00474899, 0.00860495, 0.0010604, -0.000524133, 0.00143834, 1.57081, 70.1508, 36.2006, 7.5531, 2.97107, 5.12393, -0.284657, -0.000312554, -0.0025639, 0.00432946, 0.00502434, 0.00436849, 0.00190459, 0.00470576, 0.00453108, -0.00117163, 0.000407605, -0.00316581, -0.0142542, 0.471008, -0.543389, 0.335894, -2.08385, -2.16584, -0.129887, 0.468302, -0.543136, 0.331648, -2.08094, -2.1594, -0.128547, -2.13283e-05, -0.000136675, -0.000102379, -0.00442058, -0.0047874, -0.00185306
0.0152515, 1.69084, -1.23058, -1.54128, -0.900475, -1.19248, 1.22726, -1.30257, -0.00327974, -0.00150171, -0.00474899, 0.00860495, 0.0010604, -0.000524133, 0.00143834, 1.57081, 70.1508, 36.2006, 7.5531, 2.97107, 5.12393, -0.284657, -0.000312542, -0.0025639, 0.00432946, 0.00502433, 0.00436849, 0.00190459, 0.00465088, 0.00452239, -0.00113969, 0.000436043, -0.00315627, -0.014315, 0.471008, -0.543389, 0.335894, -2.08385, -2.16584, -0.129887, 0.468302, -0.543136, 0.331648, -2.08094, -2.1594, -0.128547, -2.91898e-05, -0.000186294, -0.000142179, -0.00442058, -0.0047874, -0.00185306
0.0162515, 1.69084, -1.23058, -1.54128, -0.900475, -1.19248, 1.22726, -1.30257, -0.00327974, -0.00150171, -0.00474899, 0.00860495, 0.0010604, -0.000524133, 0.00143834, 1.57081, 70.1508, 36.2006, 7.5531, 2.97107, 5.12393, -0.284657, -0.000312511, -0.00256389, 0.00432944, 0.0050243, 0.0043685, 0.00190459, 0.00459125, 0.00451296, -0.00110493, 0.000467093, -0.00314574, -0.0143812, 0.471008, -0.543389, 0.335894, -2.08385, -2.16584, -0.129887, 0.468302, -0.543136, 0.331648, -2.08094, -2.1594, -0.128547, -3.77325e-05, -0.000240197, -0.00018547, -0.00442058, -0.0047874, -0.00185306
0.0172515, 1.69084, -1.23058, -1.54128, -0.900475, -1.19248, 1.22726, -1.30257, -0.00327974, -0.00150171, -0.00474899, 0.00860495, 0.0010604, -0.000524133, 0.00143834, 1.57081, 70.1508, 36.2006, 7.5531, 2.97107, 5.12393, -0.284657, -0.000312452, -0.00256388, 0.00432941, 0.00502425, 0.00436851, 0.00190458, 0.00452672, 0.00450276, -0.00106726, 0.00050085, -0.00313417, -0.014453, 0.471008, -0.543389, 0.335894, -2.08385, -2.16584, -0.129887, 0.468302, -0.543136, 0.331648, -2.08094, -2.1594, -0.128547, -4.69786e-05, -0.000298522, -0.00023237, -0.00442058, -0.0047874, -0.00185306
0.0182515, 1.69084, -1.23058, -1.54128, -0.900475, -1.19248, 1.22726, -1.30257, -0.00327974, -0.00150171, -0.00474899, 0.00860495, 0.0010604, -0.000524133, 0.00143834, 1.57081, 70.1508, 36.2006, 7.5531, 2.97107, 5.12393, -0.284657, -0.000312353, -0.00256387, 0.00432935, 0.00502417, 0.00436853, 0.00190456, 0.00445714, 0.00449175, -0.0010266, 0.000537409, -0.00312153, -0.0145307, 0.471008, -0.54339, 0.335894, -2.08385, -2.16584, -0.129887, 0.468302, -0.543136, 0.331648, -2.08094, -2.1594, -0.128547, -5.69498e-05, -0.000361405, -0.000282992, -0.00442058, -0.0047874, -0.00185306
0.0192515, 1.69084, -1.23058, -1.54128, -0.900475, -1.19248, 1.22726, -1.30257, -0.00327974, -0.00150171, -0.00474899, 0.00860495, 0.0010604, -0.000524133, 0.00143834, 1.57081, 70.1508, 36.2006, 7.5531, 2.97107, 5.12393, -0.284657, -0.000312207, -0.00256384, 0.00432926, 0.00502405, 0.00436857, 0.00190454, 0.00438237, 0.00447992, -0.000982838, 0.000576863, -0.00310778, -0.0146143, 0.471008, -0.54339, 0.335894, -2.08385, -2.16584, -0.129886, 0.468302, -0.543136, 0.331648, -2.08094, -2.1594, -0.128547, -6.7667e-05, -0.000428975, -0.000337449, -0.00442058, -0.0047874, -0.00185306
0.0202515, 1.69084, -1.23058, -1.54128, -0.900475, -1.19248, 1.22726, -1.30257, -0.00327974, -0.00150171, -0.00474899, 0.00860495, 0.0010604, -0.000524133, 0.00143834, 1.57081, 70.1508, 36.2006, 7.5531, 2.97107, 5.12393, -0.284657, -0.000312004, -0.00256381, 0.00432915, 0.00502388, 0.00436861, 0.00190452, 0.00430225, 0.00446725, -0.000935901, 0.000619303, -0.00309285, -0.014704, 0.471008, -0.54339, 0.335893, -2.08385, -2.16584, -0.129886, 0.468302, -0.543136, 0.331648, -2.08094, -2.1594, -0.128547, -7.91509e-05, -0.000501362, -0.000395848, -0.00442058, -0.0047874, -0.00185306
0.0212515, 1.69084, -1.23058, -1.54128, -0.900475, -1.19248, 1.22726, -1.30257, -0.00327974, -0.00150171, -0.00474899, 0.00860495, 0.0010604, -0.000524133, 0.00143834, 1.57081, 70.1508, 36.2006, 7.5531, 2.97107, 5.12393, -0.284657, -0.000311736, -0.00256377, 0.00432899, 0.00502365, 0.00436867, 0.00190448, 0.00421666, 0.00445372, -0.000885698, 0.000664819, -0.00307673, -0.0148001, 0.471008, -0.54339, 0.335893, -2.08385, -2.16584, -0.129886, 0.468302, -0.543136, 0.331648, -2.08094, -2.1594, -0.128547, -9.14213e-05, -0.000578688, -0.000458296, -0.00442058, -0.0047874, -0.00185306
0.0222515, 1.69084, -1.23058, -1.54128, -0.900475, -1.19248, 1.22726, -1.30257, -0.00327974, -0.00150171, -0.00474899, 0.00860495, 0.0010604, -0.000524133, 0.00143834, 1.57081, 70.1508, 36.2006, 7.5531, 2.97107, 5.12393, -0.284657, -0.000311392, -0.00256371, 0.00432879, 0.00502336, 0.00436874, 0.00190443, 0.00412546, 0.00443929, -0.000832145, 0.0007135, -0.00305935, -0.0149026, 0.471008, -0.54339, 0.335893, -2.08385, -2.16584, -0.129885, 0.468302, -0.543136, 0.331648, -2.08094, -2.1594, -0.128547, -0.000104498, -0.000661074, -0.000524897, -0.00442058, -0.0047874, -0.00185306
0.0232515, 1.69084, -1.23058, -1.54128, -0.900475, -1.19248, 1.22726, -1.30257, -0.00327974, -0.00150171, -0.00474899, 0.00860495, 0.0010604, -0.000524133, 0.00143834, 1.57081, 70.1508, 36.2006, 7.5531, 2.97107, 5.12393, -0.284657, -0.000310964, -0.00256364, 0.00432854, 0.005023, 0.00436883, 0.00190438, 0.00402852, 0.00442396, -0.000775161, 0.000765432, -0.00304067, -0.0150119, 0.471008, -0.543391, 0.335893, -2.08385, -2.16584, -0.129885, 0.468302, -0.543136, 0.331648, -2.08094, -2.1594, -0.128547, -0.000118398, -0.000748633, -0.000595748, -0.00442058, -0.0047874, -0.00185306
0.0242515, 1.69077, -1.2306, -1.54132, -0.900463, -1.19244, 1.22726, -1.30257, -0.00550907, -0.00144981, -0.00481012, -0.00183059, 0.00104868, 0.000694587, 0.000646564, 1.26533, 70.4483, 36.276, 7.47772, 2.87952, 5.10928, -0.265431, -0.000346761, -0.00260707, 0.00435347, 0.00502689, 0.00443109, 0.00197983, 0.00195712, 0.00311951, -0.00192435, -0.00276868, -0.00152132, -0.00742741, 0.471008, -0.543391, 0.335892, -2.08385, -2.16584, -0.129884, 0.468259, -0.54317, 0.331618, -2.08099, -2.15928, -0.128598, -0.000133141, -0.000841478, -0.000670947, -0.00324811, -0.00260504, -0.00278083
0.0252515, 1.69077, -1.2306, -1.54133, -0.900466, -1.19243, 1.22726, -1.30257, -0.00355465, -3.76978e-05, -0.00852839, -0.00231927, 0.00117387, 0.000187553, 0.000615963, 1.22962, 70.4086, 36.3514, 7.51739, 2.8667, 5.11661, -0.27184, -0.00034851, -0.00260976, 0.00435431, 0.00503019, 0.00442935, 0.00198561, 0.00139889, 0.00265882, -0.00256282, -0.00676675, -0.000102382, -0.00693203, 0.471008, -0.543392, 0.335892, -2.08385, -2.16584, -0.129884, 0.468257, -0.543172, 0.331617, -2.08099, -2.15927, -0.128591, -0.000148743, -0.000939713, -0.000750586, -0.00284663, -0.00203506, -0.00341816
0.0262515, 1.69076, -1.23062, -1.54134, -0.900468, -1.19243, 1.22726, -1.30258, -0.00290763, -0.0132352, -0.0122896, -0.000746297, -0.00546702, -0.00685797, -0.00230745, 1.22962, 70.3015, 36.0895, 7.47772, 2.78064, 5.05252, -0.199513, -0.000353153, -0.00261389, 0.00436747, 0.00503095, 0.00445431, 0.00198831, 0.00401591, 0.00510088, -0.0120191, -0.0196726, -0.0111621, -0.00863342, 0.471008, -0.543393, 0.335891, -2.08385, -2.16584, -0.129883, 0.468252, -0.543176, 0.331603, -2.08098, -2.15926, -0.128614, -0.00016522, -0.00104344, -0.000834754, -0.00554979, -0.00336683, -0.0131723
0.0272515, 1.69075, -1.23063, -1.54136, -0.900471, -1.19242, 1.22726, -1.30258, -0.00536312, -0.0129234, -0.020689, -0.00208867, -0.00273117, -0.00283278, 0.00739819, 1.11457, 69.4882, 35.6412, 7.40631, 2.60852, 4.85843, -0.186696, -0.000357088, -0.00261796, 0.00437919, 0.00504727, 0.00446465, 0.00200024, 0.00616989, 0.00661015, -0.0144511, -0.022428, -0.0104759, -0.0228486, 0.471007, -0.543393, 0.335891, -2.08385, -2.16584, -0.129882, 0.468248, -0.543179, 0.33159, -2.08098, -2.15923, -0.128604, -0.000182589, -0.00115275, -0.000923534, -0.00708527, -0.00529007, -0.0159512
0.0282515, 1.69076, -1.23062, -1.5414, -0.900481, -1.19242, 1.22726, -1.30258, -0.00139455, -0.00781693, -0.029795, -0.0039145, -0.00471518, -0.00155774, 0.00423867, 0.85273, 68.1274, 35.0104, 7.36664, 2.40619, 4.69363, -0.147328, -0.00035558, -0.00261921, 0.00439051, 0.00509239, 0.00445885, 0.00200149, 0.00568421, 0.00565055, -0.0149536, -0.0312018, -0.00224337, -0.019449, 0.471007, -0.543394, 0.33589, -2.08385, -2.16584, -0.129881, 0.468246, -0.543177, 0.331578, -2.08096, -2.15922, -0.128547, -0.000200863, -0.00126774, -0.00101701, -0.0061807, -0.00480898, -0.0164944
0.0292515, 1.69077, -1.23062, -1.54145, -0.90049, -1.19241, 1.22724, -1.30258, 0.00151638, -0.00105075, -0.0357431, -0.00675085, -0.00117786, -0.006068, 0.00564004, 0.586922, 66.6913, 34.1892, 7.25555, 2.18555, 4.54349, -0.0814099, -0.000356759, -0.00262344, 0.00441479, 0.00515462, 0.00447084, 0.00200242, 0.00286027, 0.00496373, -0.0139393, -0.0398391, 0.000120134, -0.0174479, 0.471007, -0.543395, 0.335889, -2.08384, -2.16584, -0.129879, 0.46824, -0.543175, 0.331554, -2.08092, -2.15918, -0.128489, -0.000220057, -0.00138849, -0.00111525, -0.00557833, -0.00226985, -0.0151735
0.0302515, 1.69078, -1.23065, -1.54153, -0.900498, -1.19242, 1.22722, -1.30258, 0.00228154, -0.00691468, -0.0467467, -0.00421316, -0.00174677, -0.0107888, 0.00363087, 0.360787, 65.513, 33.483, 7.06909, 2.04364, 4.42813, -0.0557752, -0.000367349, -0.0026363, 0.00446459, 0.00525826, 0.00450412, 0.00202871, 0.00555433, 0.00785637, -0.0213058, -0.0531624, -0.00706171, -0.0224156, 0.471007, -0.543396, 0.335888, -2.08384, -2.16584, -0.129878, 0.468226, -0.54318, 0.331502, -2.08088, -2.1591, -0.128404, -0.000240182, -0.00151507, -0.00121833, -0.00865699, -0.00404064, -0.0228814
0.0312515, 1.69078, -1.23065, -1.54153, -0.900498, -1.19242, 1.22722, -1.30258, 0.00228154, -0.00691468, -0.0467467, -0.00421316, -0.00174677, -0.0107888, 0.00363087, 0.360787, 65.513, 33.483, 7.06909, 2.04364, 4.42813, -0.0557752, -0.000365948, -0.00263607, 0.00446377, 0.00525705, 0.00450441, 0.00202852, 0.00540752, 0.00783313, -0.0212188, -0.0530816, -0.00703119, -0.0225833, 0.471007, -0.543398, 0.335887, -2.08384, -2.16584, -0.129876, 0.468226, -0.54318, 0.331502, -2.08088, -2.1591, -0.128404, -0.000261251, -0.00164757, -0.00132632, -0.00865699, -0.00404064, -0.0228814
0.0322515, 1.6908, -1.23073, -1.54171, -0.900521, -1.19244, 1.22717, -1.30257, 0.00738057, -0.0178568, -0.0667484, -0.00931652, -0.00871693, -0.01522, 0.00432762, -0.0557783, 63.3389, 31.8088, 6.80725, 1.95209, 4.04086, -0.120778, -0.000390938, -0.00265836, 0.00458215, 0.00548078, 0.00457722, 0.00208492, 0.00751481, 0.00876375, -0.0360141, -0.0817471, -0.0124963, -0.0256469, 0.471007, -0.543399, 0.335886, -2.08384, -2.16584, -0.129874, 0.4682, -0.543188, 0.331381, -2.08078, -2.15891, -0.128222, -0.000283275, -0.00178604, -0.00143928, -0.0100673, -0.00402039, -0.0379026
0.0332515, 1.69081, -1.23078, -1.54181, -0.900535, -1.19245, 1.22715, -1.30258, 0.00440219, -0.027975, -0.0750446, -0.0122548, -0.011373, -0.0141113, 0.00129835, -0.0557783, 62.4899, 30.9876, 6.73187, 1.93378, 3.8193, -0.0685925, -0.000409794, -0.00267457, 0.00465052, 0.00560133, 0.00461672, 0.00211205, 0.0110706, 0.0111481, -0.0449663, -0.0909622, -0.0191416, -0.0278265, 0.471006, -0.543401, 0.335885, -2.08384, -2.16584, -0.129872, 0.468182, -0.543199, 0.33131, -2.08072, -2.15881, -0.128124, -0.000306264, -0.00193055, -0.00155726, -0.0126677, -0.00639496, -0.0473402
0.0342515, 1.69083, -1.23084, -1.54192, -0.900554, -1.19246, 1.22714, -1.30258, 0.0118783, -0.037944, -0.088599, -0.0152293, -0.00797528, -0.00885024, 0.00305789, -0.206535, 61.9028, 30.2457, 6.69617, 1.90265, 3.59683, -0.120778, -0.000421709, -0.002682, 0.00472883, 0.0057302, 0.00467132, 0.00213509, 0.0102869, 0.00714415, -0.0558847, -0.100002, -0.0278371, -0.024959, 0.471006, -0.543402, 0.335883, -2.08384, -2.16584, -0.12987, 0.468172, -0.5432, 0.33123, -2.08065, -2.1587, -0.128032, -0.000330225, -0.00208114, -0.00168032, -0.00911521, -0.00392762, -0.0582433
0.0352515, 1.69084, -1.2309, -1.54203, -0.900558, -1.19247, 1.22712, -1.30257, 0.0130436, -0.042544, -0.0929654, -0.00971268, -0.00623911, -0.0115729, 0.00247061, -0.281914, 61.3513, 29.4999, 6.47003, 1.89624, 3.42471, -0.127186, -0.000440424, -0.00269444, 0.00480155, 0.00585325, 0.00471272, 0.00217538, 0.0119159, 0.00869425, -0.0595692, -0.103237, -0.0353129, -0.0296716, 0.471006, -0.543404, 0.335882, -2.08384, -2.16584, -0.129868, 0.468157, -0.54321, 0.331154, -2.08061, -2.15859, -0.127931, -0.000355167, -0.00223786, -0.0018085, -0.0107632, -0.00518898, -0.0622157
0.0362515, 1.69086, -1.23093, -1.54214, -0.900572, -1.19248, 1.2271, -1.30257, 0.0158911, -0.0379549, -0.0964835, -0.0117794, -0.00675029, -0.0108723, 0.000606266, -0.317619, 60.6134, 28.8691, 6.35895, 1.81659, 3.31027, -0.0951428, -0.000451264, -0.00270493, 0.00486308, 0.00598039, 0.00474223, 0.00219778, 0.0103428, 0.00724551, -0.0583839, -0.106886, -0.0294432, -0.0253409, 0.471005, -0.543406, 0.33588, -2.08384, -2.16584, -0.129865, 0.468145, -0.543214, 0.33109, -2.08055, -2.1585, -0.127815, -0.000381096, -0.00240075, -0.00194184, -0.00935579, -0.00392199, -0.0609782
0.0372515, 1.69088, -1.23098, -1.54225, -0.900582, -1.19249, 1.22709, -1.30258, 0.0198661, -0.0390836, -0.101227, -0.0123373, -0.00750394, -0.015236, -0.00121566, -0.43267, 60.2087, 28.3454, 6.20819, 1.74335, 3.20956, -0.0484509, -0.000461644, -0.00270991, 0.00493202, 0.00610141, 0.00478146, 0.00221652, 0.00899728, 0.00657056, -0.0612805, -0.116057, -0.0315918, -0.0218194, 0.471005, -0.543408, 0.335878, -2.08384, -2.16584, -0.129862, 0.468137, -0.543216, 0.331019, -2.08048, -2.15841, -0.127716, -0.000408018, -0.00256985, -0.00208038, -0.00886147, -0.00228935, -0.0637884
0.0382515, 1.69091, -1.23101, -1.54237, -0.900594, -1.19249, 1.22709, -1.30257, 0.0183418, -0.0392512, -0.106431, -0.0114743, -0.0080226, -0.00956161, 0.00123837, -0.468376, 59.8041, 28.0478, 6.13678, 1.66369, 3.1235, -0.101552, -0.000472986, -0.00271458, 0.00499491, 0.0062223, 0.004799, 0.00224723, 0.0115156, 0.00753489, -0.0624188, -0.115189, -0.0282634, -0.0294231, 0.471005, -0.543411, 0.335877, -2.08384, -2.16583, -0.129859, 0.46813, -0.54322, 0.330953, -2.08044, -2.15832, -0.127594, -0.000435936, -0.00274516, -0.00222414, -0.00980368, -0.00481512, -0.0654178
0.0392515, 1.69094, -1.23103, -1.54249, -0.900612, -1.1925, 1.22709, -1.30257, 0.0257448, -0.0342734, -0.111137, -0.0145554, -0.00364245, -0.00645318, -0.000333534, -0.508049, 59.4708, 27.7146, 6.09711, 1.58313, 3.07315, -0.0685925, -0.000478533, -0.00271496, 0.00504967, 0.0063357, 0.00480801, 0.00225875, 0.00710117, 0.0025226, -0.0615832, -0.116653, -0.0244957, -0.0189742, 0.471004, -0.543413, 0.335874, -2.08384, -2.16583, -0.129855, 0.468128, -0.54322, 0.330896, -2.08039, -2.15826, -0.127473, -0.000464854, -0.00292672, -0.00237315, -0.0049546, -0.000562216, -0.0642078
0.0402515, 1.69095, -1.23105, -1.5426, -0.900627, -1.1925, 1.22709, -1.30257, 0.0240024, -0.0274187, -0.113182, -0.0175696, -0.0051153, -0.00552256, 0.00104454, -0.317619, 59.2883, 27.5638, 6.09711, 1.50348, 3.06674, -0.101552, -0.000488962, -0.00272081, 0.00509871, 0.00643824, 0.00481039, 0.00228431, 0.00696026, 0.00328195, -0.0583962, -0.118788, -0.0156152, -0.0212811, 0.471004, -0.543416, 0.335872, -2.08384, -2.16583, -0.129852, 0.46812, -0.543225, 0.330844, -2.08036, -2.15819, -0.127355, -0.000494774, -0.00311453, -0.00252743, -0.00563298, -0.00113252, -0.0611705
0.0412515, 1.69097, -1.23105, -1.54271, -0.900652, -1.1925, 1.22709, -1.30257, 0.0222401, -0.0227961, -0.110183, -0.0202165, -0.00180628, -0.00218779, -0.00147304, -0.0914839, 59.2883, 27.6392, 6.24786, 1.43024, 3.1235, -0.0420422, -0.000493357, -0.0027228, 0.00514654, 0.0065507, 0.00480826, 0.00228906, 0.00539946, 0.00221592, -0.0544691, -0.112181, -0.0120505, -0.0159872, 0.471003, -0.543419, 0.33587, -2.08384, -2.16583, -0.129848, 0.468116, -0.543226, 0.330793, -2.0803, -2.15814, -0.127224, -0.000525695, -0.00330858, -0.00268698, -0.00451336, -0.000346537, -0.0572422
0.0422515, 1.69098, -1.23106, -1.54281, -0.900674, -1.1925, 1.2271, -1.30257, 0.0189062, -0.0174127, -0.105077, -0.0207778, -0.00088286, -0.000429405, 0.000264658, 0.325081, 59.5065, 27.7503, 6.35895, 1.39911, 3.20956, -0.0750012, -0.000500693, -0.00272969, 0.00518501, 0.0066465, 0.00480005, 0.00231188, 0.00494933, 0.00269296, -0.0491085, -0.104919, -0.00690705, -0.0181353, 0.471003, -0.543422, 0.335867, -2.08384, -2.16583, -0.129843, 0.468107, -0.54323, 0.330752, -2.08028, -2.15808, -0.127103, -0.000557617, -0.00350887, -0.00285182, -0.00484431, -0.000947036, -0.0520296
0.0432515, 1.69099, -1.23105, -1.54291, -0.900709, -1.1925, 1.2271, -1.30257, 0.0151947, -0.0084034, -0.0976929, -0.0277302, -0.00497894, 0.000467357, 0.000433285, 0.737679, 59.8041, 28.0121, 6.62079, 1.37439, 3.31759, -0.0814099, -0.000504216, -0.00273438, 0.00521834, 0.00674265, 0.00478043, 0.00232615, 0.00287186, 0.00233878, -0.0417429, -0.101414, 0.00592032, -0.0141498, 0.471002, -0.543426, 0.335864, -2.08384, -2.16583, -0.129839, 0.468101, -0.543232, 0.330716, -2.08025, -2.15804, -0.126971, -0.000590537, -0.00371538, -0.00302192, -0.00433181, -0.00022176, -0.044615
0.0442515, 1.691, -1.23104, -1.543, -0.900739, -1.19251, 1.2271, -1.30257, 0.0146705, -0.002206, -0.0950856, -0.0267434, -0.00600828, -0.00294472, -0.00115459, 1.15424, 60.173, 28.3097, 6.77154, 1.42383, 3.41739, -0.0420422, -0.000505912, -0.00273767, 0.00524423, 0.00682885, 0.00475393, 0.00233079, 0.00191021, 0.00320726, -0.0371609, -0.101367, 0.0110252, -0.0134384, 0.471002, -0.543429, 0.335861, -2.08384, -2.16583, -0.129834, 0.468096, -0.543234, 0.330687, -2.08022, -2.15802, -0.126844, -0.000624453, -0.00392809, -0.0031973, -0.00510205, -0.000225852, -0.0400906
0.0452515, 1.691, -1.23103, -1.54308, -0.900774, -1.19251, 1.2271, -1.30257, 0.0108926, 0.000539209, -0.0894094, -0.030848, -0.00508979, -0.000704848, -0.00221683, 1.64619, 60.6491, 28.7183, 6.99371, 1.43573, 3.5181, -0.00267457, -0.000505916, -0.00274259, 0.00526868, 0.00691036, 0.00473673, 0.00233221, 0.000759398, 0.00290201, -0.0335638, -0.0950012, 0.0140308, -0.00982175, 0.471001, -0.543433, 0.335858, -2.08384, -2.16582, -0.129829, 0.46809, -0.543234, 0.33066, -2.08019, -2.15799, -0.126731, -0.000659358, -0.00414696, -0.00337792, -0.00474339, 0.00015024, -0.0365499
0.0462515, 1.691, -1.23102, -1.54316, -0.900798, -1.19251, 1.22711, -1.30257, 0.00825772, 0.00064364, -0.0860826, -0.0284729, -0.00526603, 0.00248534, 0.000225758, 2.09846, 61.2402, 29.3134, 6.99371, 1.47327, 3.58218, -0.0484509, -0.000510104, -0.00274906, 0.00528967, 0.00698123, 0.00471311, 0.00235345, 0.00205454, 0.00372023, -0.0314306, -0.0877132, 0.0154195, -0.0157057, 0.471, -0.543437, 0.335855, -2.08383, -2.16582, -0.129823, 0.468082, -0.543239, 0.330636, -2.08018, -2.15795, -0.126621, -0.000695248, -0.00437195, -0.00356376, -0.00547318, -0.00171518, -0.0348056
0.0472515, 1.691, -1.231, -1.54322, -0.90082, -1.19252, 1.22712, -1.30257, 0.00546777, 0.00588552, -0.082721, -0.0283372, -0.00590713, 0.00505598, -0.00126748, 2.47535, 61.9028, 29.9085, 6.91833, 1.5282, 3.63986, -0.00999879, -0.000512693, -0.00275482, 0.0053058, 0.00704534, 0.004687, 0.00236305, 0.00230499, 0.00437544, -0.0266135, -0.0817412, 0.0221734, -0.0160972, 0.471, -0.543442, 0.335851, -2.08383, -2.16582, -0.129818, 0.468075, -0.543244, 0.330616, -2.08017, -2.15793, -0.126517, -0.000732114, -0.004603, -0.00375481, -0.00598146, -0.00296169, -0.0302593
0.0482515, 1.69101, -1.231, -1.54328, -0.900851, -1.19253, 1.22712, -1.30257, 0.00345081, 0.00455192, -0.0825724, -0.0313734, -0.00715958, 0.00149432, -0.00111163, 2.73719, 62.8232, 30.5036, 6.95801, 1.60785, 3.7186, -0.00267457, -0.00051099, -0.00275574, 0.00532652, 0.00710798, 0.00466967, 0.00236209, 0.00199875, 0.00553539, -0.0278087, -0.0863711, 0.0203508, -0.0162091, 0.470999, -0.543446, 0.335848, -2.08383, -2.16582, -0.129812, 0.468073, -0.543244, 0.330592, -2.08015, -2.15792, -0.126424, -0.000769946, -0.00484006, -0.003951, -0.00723203, -0.00275996, -0.0315531
0.0492515, 1.69101, -1.231, -1.54335, -0.900869, -1.19254, 1.22712, -1.30257, 0.00388376, -0.000693909, -0.0765639, -0.0291892, -0.00748587, 0.00139857, 0.000720443, 2.89191, 63.819, 31.2494, 6.80725, 1.6756, 3.85501, -0.0420422, -0.000512656, -0.00276066, 0.00534629, 0.00717295, 0.00465332, 0.00238179, 0.00147258, 0.00462999, -0.0283304, -0.0806696, 0.0148583, -0.016964, 0.470998, -0.543451, 0.335844, -2.08383, -2.16582, -0.129805, 0.468066, -0.543247, 0.330569, -2.08014, -2.15788, -0.126327, -0.000808735, -0.00508306, -0.00415231, -0.00640439, -0.0023662, -0.0322152
0.0502515, 1.69102, -1.23098, -1.54339, -0.900882, -1.19255, 1.22711, -1.30257, 0.002814, 0.00104811, -0.0689426, -0.026271, -0.00809331, -0.00314552, 0.000720255, 2.96729, 64.7394, 31.8842, 6.58508, 1.75525, 3.99142, -0.0484509, -0.000510027, -0.00276303, 0.0053536, 0.00722579, 0.00462602, 0.00239048, 0.000450442, 0.00541467, -0.0243679, -0.0763706, 0.0141328, -0.0174866, 0.470997, -0.543456, 0.33584, -2.08383, -2.16582, -0.129798, 0.468063, -0.543249, 0.330558, -2.08013, -2.15786, -0.126233, -0.000848468, -0.00533191, -0.00435868, -0.00712118, -0.00224792, -0.0283265
0.0512515, 1.69102, -1.23098, -1.54344, -0.900888, -1.19256, 1.22711, -1.30257, 0.000768591, -0.000586648, -0.063006, -0.0173279, -0.0127052, -0.000911445, -0.00192538, 3.07838, 65.8066, 32.515, 6.32324, 1.823, 4.10586, 0.0165515, -0.000513209, -0.00277099, 0.0053643, 0.007269, 0.00461285, 0.00240336, 0.00379243, 0.00754121, -0.0215161, -0.0667947, 0.0162307, -0.0236868, 0.470997, -0.543461, 0.335835, -2.08383, -2.16581, -0.129791, 0.468054, -0.543256, 0.330543, -2.08013, -2.15784, -0.126164, -0.000889131, -0.00558652, -0.00457004, -0.00906316, -0.00632778, -0.0261763
0.0522515, 1.69102, -1.23096, -1.54348, -0.9009, -1.19258, 1.22711, -1.30257, -0.000132558, 0.000212001, -0.0585689, -0.0134654, -0.0118965, -0.00312705, -0.00175684, 3.15376, 66.8024, 33.1498, 6.17248, 1.90265, 4.19925, 0.0293689, -0.000515136, -0.00277924, 0.00537051, 0.00731587, 0.00458716, 0.00241933, 0.00366806, 0.00840305, -0.0189066, -0.0622486, 0.014692, -0.0260919, 0.470996, -0.543467, 0.335831, -2.08383, -2.16581, -0.129784, 0.468044, -0.543263, 0.330532, -2.08013, -2.15781, -0.126077, -0.00093071, -0.0058468, -0.00478633, -0.00987564, -0.00690217, -0.0237705
0.0532515, 1.69102, -1.23095, -1.54352, -0.900914, -1.19259, 1.22711, -1.30257, 0.00158556, 0.00529203, -0.0533256, -0.0132949, -0.0154964, -0.00402513, 0.00123737, 3.11805, 67.7585, 33.7052, 6.13678, 1.9704, 4.27066, -0.0356336, -0.000513762, -0.00278244, 0.00537637, 0.00735858, 0.00455962, 0.00243555, 0.00174232, 0.00715811, -0.0140235, -0.0597161, 0.0220499, -0.0266808, 0.470995, -0.543473, 0.335826, -2.08383, -2.16581, -0.129776, 0.46804, -0.543266, 0.330522, -2.08014, -2.15779, -0.125992, -0.000973186, -0.00611264, -0.00500747, -0.00856709, -0.00596742, -0.0189087
0.0542515, 1.69102, -1.23094, -1.54357, -0.900936, -1.19261, 1.22711, -1.30257, 0.00344931, 0.00445727, -0.049601, -0.0163864, -0.0180391, -0.00269763, 0.000825736, 3.04267, 68.6432, 34.2646, 6.24786, 2.03174, 4.28531, -0.0356336, -0.000510568, -0.00278364, 0.00538308, 0.00740445, 0.00452768, 0.00243894, -0.000350754, 0.00474039, -0.0134226, -0.0581401, 0.0241236, -0.0211222, 0.470994, -0.543479, 0.335821, -2.08382, -2.16581, -0.129768, 0.468037, -0.543268, 0.330511, -2.08013, -2.15779, -0.1259, -0.00101654, -0.00638391, -0.00523338, -0.00624901, -0.00416591, -0.0182895
0.0552515, 1.69102, -1.23093, -1.5436, -0.900943, -1.19263, 1.22711, -1.30257, 0.00163383, 0.00463479, -0.0433501, -0.0125033, -0.019568, -0.00299588, -0.00114431, 2.96729, 69.4882, 34.6732, 6.24786, 2.08118, 4.32834, 0.0101428, -0.000510514, -0.00278873, 0.00538385, 0.00743666, 0.00449864, 0.00244846, 0.000262513, 0.00569557, -0.010308, -0.0513144, 0.0246813, -0.0222289, 0.470993, -0.543485, 0.335816, -2.08382, -2.1658, -0.129759, 0.468031, -0.543275, 0.330505, -2.08014, -2.15778, -0.125826, -0.00106076, -0.00666049, -0.00546395, -0.00711261, -0.00556634, -0.0155109
0.0562515, 1.69102, -1.23091, -1.54364, -0.900957, -1.19265, 1.22711, -1.30257, 0.00212934, 0.00662701, -0.0411264, -0.0160603, -0.0194768, -0.00329377, -0.000525054, 2.92762, 70.1151, 35.0461, 6.39465, 2.09949, 4.37137, 0.00373412, -0.000508689, -0.00279359, 0.00538337, 0.00747531, 0.00446268, 0.00246009, -0.00201057, 0.00425812, -0.0087009, -0.0509943, 0.0267062, -0.0185613, 0.470992, -0.543492, 0.33581, -2.08382, -2.1658, -0.12975, 0.468025, -0.54328, 0.3305, -2.08015, -2.15777, -0.125736, -0.00110581, -0.00694224, -0.0056991, -0.00574522, -0.00379254, -0.0138499
0.0572515, 1.69103, -1.2309, -1.54368, -0.900974, -1.19267, 1.22711, -1.30257, 0.0041021, 0.00355596, -0.0436757, -0.0163085, -0.0200812, 0.000599593, 0.00110837, 2.81654, 70.7776, 35.4548, 6.58508, 2.1297, 4.42813, -0.0356336, -0.000507002, -0.00279785, 0.00539036, 0.00752455, 0.00443238, 0.00247433, -0.00194608, 0.00279956, -0.0110193, -0.0506248, 0.0264109, -0.0197713, 0.470991, -0.543499, 0.335805, -2.08382, -2.1658, -0.12974, 0.468019, -0.543284, 0.330488, -2.08015, -2.15775, -0.12564, -0.00115168, -0.007229, -0.00593872, -0.00441611, -0.00372654, -0.0164328
0.0582515, 1.69102, -1.23088, -1.54371, -0.900989, -1.19269, 1.22711, -1.30257, 0.00196257, 0.0101465, -0.0417079, -0.0169296, -0.0197255, 0.0033276, -0.00166832, 2.85224, 71.1823, 35.6809, 6.80725, 2.13611, 4.49313, 0.0293689, -0.000506479, -0.00280526, 0.00538698, 0.00755902, 0.00439389, 0.00248246, -0.00228959, 0.00303866, -0.00598471, -0.0455682, 0.0339653, -0.0180283, 0.47099, -0.543506, 0.335799, -2.08382, -2.16579, -0.129731, 0.468011, -0.543292, 0.330486, -2.08016, -2.15774, -0.125553, -0.00119834, -0.00752062, -0.00618267, -0.00453161, -0.00446359, -0.0116449
0.0592515, 1.69103, -1.23087, -1.54374, -0.901004, -1.19271, 1.22711, -1.30257, 0.00311891, 0.00730933, -0.041913, -0.0171285, -0.0232038, 0.00116921, 0.000346043, 2.77686, 71.6266, 35.8277, 7.02942, 2.1178, 4.54349, -0.00999879, -0.000500232, -0.00280561, 0.00538862, 0.00759736, 0.0043637, 0.00248819, -0.00243075, 0.00306825, -0.00779939, -0.0495678, 0.0330828, -0.0203195, 0.470988, -0.543514, 0.335793, -2.08381, -2.16579, -0.12972, 0.468009, -0.543293, 0.330479, -2.08016, -2.15774, -0.125469, -0.00124576, -0.00781692, -0.00643084, -0.00467939, -0.0043425, -0.0136622
0.0602515, 1.69104, -1.23086, -1.54377, -0.901015, -1.19273, 1.22711, -1.30257, 0.00564122, 0.00649151, -0.0424758, -0.0154294, -0.0196952, 0.00445786, 0.00070556, 2.62611, 71.9955, 35.9784, 7.18018, 2.05646, 4.58652, -0.0228162, -0.000493061, -0.00280464, 0.00539355, 0.00763667, 0.0043422, 0.00249081, -0.00353709, 0.00106452, -0.00788844, -0.045022, 0.0310911, -0.0191669, 0.470987, -0.543521, 0.335786, -2.08381, -2.16579, -0.12971, 0.468008, -0.543293, 0.330469, -2.08015, -2.15773, -0.125393, -0.00129392, -0.00811772, -0.00668309, -0.00276923, -0.00345542, -0.0138913
0.0612515, 1.69104, -1.23085, -1.54381, -0.901027, -1.19275, 1.2271, -1.30257, 0.00471544, 0.00478124, -0.0361638, -0.0141757, -0.0229073, 0.0024967, -0.00075022, 2.58643, 72.2534, 36.0895, 7.33093, 2.01984, 4.62222, 0.0101428, -0.000489069, -0.00280803, 0.00539611, 0.00767655, 0.00431353, 0.0024956, -0.00381343, 0.00137828, -0.00639603, -0.0418961, 0.0305903, -0.01814, 0.470986, -0.54353, 0.335779, -2.08381, -2.16578, -0.129699, 0.468003, -0.543297, 0.33046, -2.08014, -2.15772, -0.125308, -0.00134278, -0.00842284, -0.00693927, -0.00308731, -0.00373022, -0.0126214
0.0622515, 1.69105, -1.23084, -1.54384, -0.90103, -1.19278, 1.2271, -1.30257, 0.0131644, 0.00412199, -0.0336448, -0.0128882, -0.0256371, 0.00124873, -0.000974782, 2.39997, 72.4716, 36.1649, 7.33093, 1.98871, 4.6506, 0.0229602, -0.000483902, -0.00280736, 0.00540029, 0.00771726, 0.00428404, 0.00250152, -0.00756675, -0.0030577, -0.00605073, -0.0426133, 0.0316628, -0.0108082, 0.470984, -0.543538, 0.335772, -2.08381, -2.16578, -0.129687, 0.468002, -0.5433, 0.33045, -2.08014, -2.15771, -0.125221, -0.00139231, -0.00873205, -0.00719924, 0.00117173, -0.000205671, -0.0120924
0.0632515, 1.69107, -1.23085, -1.54388, -0.901041, -1.1928, 1.22709, -1.30257, 0.0119524, 0.0021752, -0.0312065, -0.0116585, -0.0223029, -0.000284647, -0.000412434, 2.28492, 72.7295, 36.2006, 7.44202, 1.93927, 4.69363, 0.0165515, -0.000475395, -0.00280392, 0.00541292, 0.00775972, 0.00427382, 0.00249931, -0.00816194, -0.00272248, -0.00601613, -0.0394305, 0.0260285, -0.0117471, 0.470983, -0.543547, 0.335765, -2.0838, -2.16578, -0.129675, 0.468004, -0.543298, 0.330432, -2.08012, -2.1577, -0.125152, -0.00144249, -0.00904515, -0.00746282, 0.000766704, 4.97803e-05, -0.0122194
0.0642515, 1.69108, -1.23085, -1.5439, -0.901052, -1.19283, 1.22709, -1.30257, 0.0118584, 0.000919603, -0.0311565, -0.0129897, -0.0260997, -0.00984893, -0.008656, 2.13416, 72.8406, 36.1649, 7.51739, 1.92737, 4.70828, -0.00999879, -0.000466676, -0.0028005, 0.00542224, 0.00780036, 0.00425687, 0.00249957, -0.00901697, -0.000870677, -0.00752322, -0.0499543, 0.0233228, -0.00407225, 0.470982, -0.543556, 0.335758, -2.0838, -2.16577, -0.129663, 0.468005, -0.543297, 0.330416, -2.0801, -2.15769, -0.125078, -0.00149327, -0.00936199, -0.00772991, -0.00121873, 0.000733197, -0.0137859
0.0652515, 1.6911, -1.23086, -1.54393, -0.901058, -1.19286, 1.22709, -1.30257, 0.0136703, -0.000434442, -0.0301785, -0.013217, -0.0286435, -0.00708739, -0.00631365, 2.02308, 72.9517, 36.0895, 7.5531, 1.90906, 4.70828, -0.0164075, -0.000459684, -0.00279712, 0.00543181, 0.00783663, 0.00423857, 0.00250125, -0.00953046, -0.0024121, -0.00764153, -0.0481782, 0.0255552, -0.00521066, 0.47098, -0.543565, 0.33575, -2.0838, -2.16577, -0.12965, 0.468006, -0.543298, 0.3304, -2.08009, -2.15768, -0.125006, -0.00154466, -0.00968246, -0.00800043, 0.000246611, 0.00100092, -0.0141403
0.0662515, 1.69112, -1.23087, -1.54396, -0.901064, -1.19288, 1.22709, -1.30258, 0.0154222, -0.00172487, -0.0321849, -0.0094694, -0.0252384, -0.005116, -0.0069984, 1.90803, 73.0627, 35.9784, 7.5531, 1.87793, 4.70828, 0.0431018, -0.000451437, -0.00279175, 0.0054451, 0.00787312, 0.00422773, 0.00249287, -0.009493, -0.00302813, -0.00829181, -0.0450127, 0.0224246, -0.00632324, 0.470979, -0.543575, 0.335742, -2.0838, -2.16576, -0.129636, 0.468009, -0.543297, 0.33038, -2.08007, -2.15768, -0.124942, -0.00159663, -0.0100065, -0.00827433, 0.000787544, 0.000765169, -0.0150808
0.0672515, 1.69113, -1.23088, -1.54401, -0.90107, -1.19291, 1.22709, -1.30257, 0.0136464, -0.00332574, -0.0340757, -0.00997693, -0.0264206, -0.00397524, -0.00459591, 1.90803, 73.0627, 36.0142, 7.5531, 1.823, 4.7156, 0.0293689, -0.000447875, -0.0027933, 0.00545641, 0.00791641, 0.00420867, 0.00250905, -0.00833492, -0.00196757, -0.00955742, -0.046102, 0.0225811, -0.011746, 0.470977, -0.543585, 0.335734, -2.08379, -2.16576, -0.129623, 0.468005, -0.543302, 0.330361, -2.08007, -2.15765, -0.124859, -0.00164918, -0.0103339, -0.00855153, -0.000328805, -0.000554283, -0.0167553
0.0682515, 1.69114, -1.23089, -1.54404, -0.901089, -1.19294, 1.22709, -1.30257, 0.0134456, -0.00608577, -0.0321688, -0.0139214, -0.0185502, -0.0031075, -0.000985646, 1.87232, 73.2452, 35.9031, 7.70386, 1.77997, 4.72201, -0.0356336, -0.000438355, -0.00278841, 0.00547355, 0.00796255, 0.00419741, 0.0025076, -0.0113934, -0.00423112, -0.0107395, -0.0418476, 0.0141462, -0.00895745, 0.470975, -0.543595, 0.335725, -2.08379, -2.16576, -0.129608, 0.468007, -0.5433, 0.330337, -2.08004, -2.15763, -0.124783, -0.00170228, -0.0106648, -0.00883197, 0.00172642, 0.00240886, -0.0177971
0.0692515, 1.69116, -1.23088, -1.54407, -0.901093, -1.19296, 1.22709, -1.30257, 0.014242, -0.00032329, -0.0300703, -0.00825258, -0.021357, -0.00223665, -0.00236206, 1.79694, 73.0984, 35.7523, 7.62848, 1.71863, 4.72201, 0.00373412, -0.000427379, -0.00278324, 0.00547327, 0.00799534, 0.00416494, 0.00250197, -0.0107421, -0.00358542, -0.00555433, -0.0372805, 0.0221292, -0.0122731, 0.470974, -0.543606, 0.335716, -2.08379, -2.16575, -0.129594, 0.468011, -0.5433, 0.33033, -2.08003, -2.15764, -0.1247, -0.00175593, -0.0109989, -0.0091156, 0.00123937, 0.000607504, -0.0130423
0.0702515, 1.69117, -1.23087, -1.54411, -0.901105, -1.19299, 1.22709, -1.30257, 0.0114233, 0.00168007, -0.0334445, -0.00688809, -0.0189766, -0.00137748, -0.0022346, 1.87232, 73.027, 35.6809, 7.66418, 1.65729, 4.7156, 0.0165515, -0.000420115, -0.00278358, 0.00547762, 0.00803453, 0.00413683, 0.00250672, -0.00933016, -0.00154531, -0.00492728, -0.0368782, 0.022714, -0.0177114, 0.470972, -0.543617, 0.335707, -2.08378, -2.16575, -0.129578, 0.468008, -0.543303, 0.330318, -2.08003, -2.15763, -0.124612, -0.0018101, -0.0113362, -0.00940234, -0.000779092, -0.00130367, -0.0128671
0.0712515, 1.69119, -1.23087, -1.54415, -0.901122, -1.19301, 1.22709, -1.30257, 0.0166689, 0.00388737, -0.0360198, -0.0107354, -0.0171313, -0.000468592, -0.000916541, 1.79694, 72.916, 35.6055, 7.77924, 1.59595, 4.70096, -0.00267457, -0.000405849, -0.00277626, 0.00548269, 0.00807483, 0.00410904, 0.00250207, -0.0131074, -0.00528617, -0.00503413, -0.0397017, 0.0246469, -0.011618, 0.47097, -0.543628, 0.335698, -2.08378, -2.16574, -0.129563, 0.468013, -0.543299, 0.330305, -2.08001, -2.15763, -0.124524, -0.00186479, -0.0116765, -0.00969213, 0.00276336, 0.00225449, -0.01279
0.0722515, 1.69121, -1.23084, -1.54419, -0.901126, -1.19304, 1.22709, -1.30256, 0.0150899, 0.0105136, -0.0348996, -0.00595695, -0.0170917, 0.000669163, 3.07955e-05, 1.79694, 72.5827, 35.5301, 7.70386, 1.57123, 4.67257, -0.0228162, -0.000395436, -0.00277326, 0.00547627, 0.00810852, 0.00406214, 0.00251064, -0.0120891, -0.00368716, 0.000344353, -0.0343989, 0.0313639, -0.0183797, 0.470968, -0.54364, 0.335688, -2.08378, -2.16574, -0.129546, 0.468014, -0.543301, 0.330304, -2.08003, -2.15763, -0.124422, -0.00191999, -0.0120199, -0.00998491, 0.00134305, 1.29224e-05, -0.00788142
0.0732515, 1.69123, -1.23084, -1.54423, -0.901135, -1.19306, 1.22709, -1.30257, 0.0203775, 0.00877449, -0.034021, -0.00668854, -0.0165624, 0.000393906, -0.00175301, 1.64619, 72.5113, 35.4548, 7.66418, 1.53461, 4.67257, 0.0229602, -0.000379412, -0.00276348, 0.0054819, 0.00814823, 0.0040379, 0.00249256, -0.0151906, -0.00707808, -0.000527943, -0.0346929, 0.0293627, -0.0105828, 0.470966, -0.543652, 0.335678, -2.08377, -2.16573, -0.12953, 0.468021, -0.543296, 0.33029, -2.07999, -2.15764, -0.124339, -0.00197567, -0.0123662, -0.0102806, 0.00453141, 0.00300148, -0.00866046
0.0742515, 1.69126, -1.23081, -1.54426, -0.901143, -1.19308, 1.22709, -1.30257, 0.0222831, 0.0137163, -0.0333853, -0.00420921, -0.0175048, 0.00049472, -6.56297e-06, 1.60651, 72.178, 35.3834, 7.62848, 1.53461, 4.66525, -0.00999879, -0.000364424, -0.00275745, 0.00547405, 0.00818352, 0.00399077, 0.00249567, -0.0160659, -0.00759295, 0.00310264, -0.032947, 0.035049, -0.0132237, 0.470964, -0.543664, 0.335668, -2.08377, -2.16572, -0.129512, 0.468024, -0.543295, 0.33029, -2.08, -2.15765, -0.124235, -0.00203183, -0.0127153, -0.0105792, 0.00509027, 0.00297906, -0.0052541
0.0752515, 1.69127, -1.2308, -1.5443, -0.901142, -1.1931, 1.22709, -1.30256, 0.022949, 0.0126313, -0.0358085, 0.00028129, -0.0223642, 0.000300449, 0.00113848, 1.57081, 72.0312, 35.308, 7.47772, 1.52179, 4.66525, -0.0420422, -0.000353517, -0.0027542, 0.00547567, 0.00821686, 0.00396514, 0.00250291, -0.0138848, -0.0060281, 0.00242346, -0.0353219, 0.0377739, -0.0208945, 0.470962, -0.543677, 0.335657, -2.08377, -2.16572, -0.129495, 0.468025, -0.543296, 0.330279, -2.08, -2.15764, -0.124154, -0.00208844, -0.0130671, -0.0108805, 0.00352409, 0.000514404, -0.00651699
0.0762515, 1.6913, -1.23079, -1.54435, -0.901143, -1.19312, 1.2271, -1.30257, 0.0242475, 0.0136578, -0.0403869, 0.00152868, -0.0221329, 0.00126335, -0.000969395, 1.53114, 71.8091, 35.3437, 7.40631, 1.53461, 4.63595, 0.00373412, -0.000341593, -0.00274927, 0.00547588, 0.00825427, 0.00392985, 0.002502, -0.0135775, -0.00590807, 0.00184209, -0.0376475, 0.0394321, -0.0212356, 0.47096, -0.54369, 0.335646, -2.08376, -2.16571, -0.129476, 0.468027, -0.543297, 0.33027, -2.07999, -2.15764, -0.124058, -0.00214551, -0.0134215, -0.0111846, 0.00333702, -5.88807e-05, -0.0074393
0.0772515, 1.69133, -1.23079, -1.54439, -0.901141, -1.19315, 1.2271, -1.30257, 0.0326204, 0.0099705, -0.0410788, 0.00253539, -0.022614, 0.00265677, -0.00090834, 1.305, 71.7734, 35.2683, 7.33093, 1.56482, 4.58652, 0.0101428, -0.000324722, -0.00273528, 0.00548041, 0.00828231, 0.00390356, 0.00249174, -0.016669, -0.0105926, -0.000499953, -0.0381544, 0.0372213, -0.0148287, 0.470958, -0.543704, 0.335635, -2.08376, -2.16571, -0.129457, 0.468038, -0.543293, 0.330257, -2.07998, -2.15764, -0.123983, -0.00220301, -0.0137786, -0.0114914, 0.00776229, 0.00318814, -0.00972189
0.0782515, 1.69136, -1.23078, -1.54443, -0.901137, -1.19317, 1.22711, -1.30257, 0.0334014, 0.00309558, -0.0452924, 0.00326827, -0.0224125, 0.00416629, 0.00130868, 1.26533, 71.6623, 35.2326, 7.25555, 1.58313, 4.52151, -0.0420422, -0.000312, -0.00272742, 0.0054817, 0.00830894, 0.00387369, 0.00250032, -0.0155943, -0.0106011, -0.00559537, -0.0405323, 0.0313297, -0.019228, 0.470956, -0.543717, 0.335624, -2.08375, -2.1657, -0.129438, 0.468043, -0.543294, 0.330246, -2.07998, -2.15764, -0.123903, -0.00226092, -0.014138, -0.0118008, 0.0075657, 0.00255191, -0.0152298
0.0792515, 1.69139, -1.23078, -1.54448, -0.90113, -1.19319, 1.22712, -1.30256, 0.0333919, 0.00240147, -0.0494309, 0.00380317, -0.0222247, 0.00568436, 0.000383832, 1.15424, 71.6266, 35.2326, 7.18018, 1.60144, 4.44278, -0.0292249, -0.000297536, -0.002716, 0.00548739, 0.00833873, 0.00384844, 0.00250128, -0.0147975, -0.0101128, -0.00700956, -0.0422816, 0.0315852, -0.0211989, 0.470954, -0.543731, 0.335612, -2.08375, -2.16569, -0.129418, 0.468052, -0.543292, 0.33023, -2.07997, -2.15763, -0.123825, -0.00231925, -0.0144999, -0.0121127, 0.0069965, 0.00160099, -0.0170471
0.0802515, 1.69143, -1.23078, -1.54453, -0.901123, -1.19321, 1.22714, -1.30257, 0.0329497, 0.0021559, -0.0539258, 0.00326648, -0.0221352, 0.00751253, -0.00144996, 1.03919, 71.5869, 35.308, 7.14447, 1.62616, 4.34207, 0.0165515, -0.000284189, -0.00270387, 0.00549557, 0.00836914, 0.00382147, 0.00249825, -0.0140441, -0.00959474, -0.00838314, -0.0445166, 0.03262, -0.0219664, 0.470951, -0.543746, 0.3356, -2.08374, -2.16569, -0.129398, 0.468061, -0.543292, 0.330212, -2.07996, -2.15763, -0.123744, -0.00237796, -0.014864, -0.0124272, 0.00639716, 0.000683102, -0.0188191
0.0812515, 1.69147, -1.23077, -1.54458, -0.901107, -1.19323, 1.22715, -1.30256, 0.0329463, 0.00199267, -0.0557633, 0.00796248, -0.0219517, 0.0128435, 0.000483601, 0.928108, 71.5512, 35.308, 7.02942, 1.65088, 4.25601, -0.0228162, -0.000272578, -0.00269264, 0.0055004, 0.00839021, 0.00379312, 0.00251021, -0.0121441, -0.00928181, -0.00776023, -0.0389261, 0.0348111, -0.0293544, 0.470949, -0.543761, 0.335587, -2.08374, -2.16568, -0.129377, 0.468069, -0.543294, 0.330196, -2.07998, -2.15762, -0.12367, -0.00243706, -0.0152304, -0.012744, 0.00611599, -0.00166767, -0.0188062
0.0822515, 1.69151, -1.23078, -1.54463, -0.901091, -1.19326, 1.22717, -1.30256, 0.0385086, -0.00147988, -0.0541732, 0.0102925, -0.0212241, 0.0159983, 0.000791253, 0.85273, 71.6623, 35.308, 6.95801, 1.65729, 4.19192, -0.0356336, -0.000260925, -0.00268061, 0.0055112, 0.00841404, 0.00377406, 0.00251773, -0.0141577, -0.0129574, -0.00867489, -0.0342403, 0.0323547, -0.0256588, 0.470946, -0.543776, 0.335575, -2.08373, -2.16567, -0.129355, 0.468077, -0.543296, 0.330174, -2.07998, -2.15761, -0.123602, -0.00249652, -0.0155988, -0.0130633, 0.00962192, 0.000242872, -0.0198287
0.0832515, 1.69154, -1.23078, -1.54469, -0.901079, -1.19328, 1.22718, -1.30257, 0.0358769, 0.00145447, -0.0544532, 0.013491, -0.0204737, 0.0169526, -0.000697601, 0.777352, 71.5512, 35.3834, 6.95801, 1.65729, 4.16995, -0.00267457, -0.000245972, -0.00266847, 0.00551672, 0.0084455, 0.00374521, 0.00251711, -0.0127122, -0.0109867, -0.00611987, -0.0308453, 0.0349258, -0.0300496, 0.470944, -0.543792, 0.335562, -2.08373, -2.16567, -0.129333, 0.468086, -0.543295, 0.330158, -2.07997, -2.1576, -0.123516, -0.00255634, -0.0159693, -0.0133848, 0.00773876, -0.00202838, -0.0177916
0.0842515, 1.69159, -1.23079, -1.54475, -0.901064, -1.1933, 1.2272, -1.30257, 0.0375311, -0.00174686, -0.0536769, 0.0120973, -0.020081, 0.017943, -0.000943085, 0.701973, 71.6623, 35.4191, 6.99371, 1.65729, 4.14157, 0.0101428, -0.00023354, -0.0026546, 0.00553195, 0.00847533, 0.00372664, 0.00252017, -0.0141208, -0.0127135, -0.00765817, -0.0300293, 0.0321791, -0.0269115, 0.470941, -0.543808, 0.335548, -2.08372, -2.16566, -0.129311, 0.468096, -0.543296, 0.330131, -2.07996, -2.15759, -0.123441, -0.0026165, -0.0163418, -0.0137086, 0.00929665, -0.00070289, -0.0194689
0.0852515, 1.69163, -1.23079, -1.54481, -0.901056, -1.19332, 1.22722, -1.30256, 0.0407814, -0.00208833, -0.05334, 0.0095796, -0.019427, 0.0182727, 0.000826864, 0.626595, 71.698, 35.3437, 7.1048, 1.65088, 4.12692, -0.0292249, -0.000215989, -0.00263764, 0.00554269, 0.00850665, 0.00370185, 0.00251936, -0.0168578, -0.0153667, -0.00796276, -0.0305904, 0.0319308, -0.0234192, 0.470939, -0.543824, 0.335534, -2.08372, -2.16565, -0.129287, 0.46811, -0.543293, 0.330109, -2.07995, -2.15759, -0.123358, -0.00267698, -0.0167161, -0.0140346, 0.011777, 0.00178036, -0.0197525
0.0862515, 1.69168, -1.2308, -1.54487, -0.901038, -1.19335, 1.22724, -1.30256, 0.0387572, -0.00238664, -0.0533439, 0.013515, -0.023415, 0.0233001, 0.000549387, 0.511544, 71.7377, 35.3834, 7.1048, 1.63898, 4.11319, -0.0292249, -0.000202393, -0.00262206, 0.00555745, 0.00854102, 0.00367731, 0.00252427, -0.0138734, -0.0138922, -0.00678518, -0.0256436, 0.0371352, -0.0304512, 0.470936, -0.543841, 0.33552, -2.08371, -2.16564, -0.129264, 0.468121, -0.543293, 0.330082, -2.07994, -2.15757, -0.123271, -0.00273778, -0.0170921, -0.0143627, 0.010393, -0.00178355, -0.0193359
0.0872515, 1.69173, -1.23081, -1.54495, -0.901022, -1.19337, 1.22726, -1.30257, 0.0388705, -0.00414655, -0.0608357, 0.0116347, -0.0272618, 0.0228771, -0.00180527, 0.475838, 71.8448, 35.4944, 7.18018, 1.64447, 4.08389, 0.0293689, -0.000191966, -0.00260825, 0.00557728, 0.0085794, 0.00365309, 0.00252811, -0.0124844, -0.0126218, -0.0105062, -0.0351274, 0.0391139, -0.031715, 0.470933, -0.543858, 0.335506, -2.08371, -2.16563, -0.129239, 0.468131, -0.543296, 0.330049, -2.07993, -2.15756, -0.12318, -0.00279888, -0.0174699, -0.0146928, 0.00897649, -0.00301231, -0.0235172
0.0882515, 1.69178, -1.23083, -1.54502, -0.901011, -1.1934, 1.22729, -1.30257, 0.0437902, -0.00883385, -0.0655476, 0.0108003, -0.0206822, 0.0226286, -0.00144192, 0.325081, 72.1027, 35.4548, 7.36664, 1.65088, 4.05551, 0.0357776, -0.000176602, -0.00258625, 0.00560371, 0.00861355, 0.00363874, 0.00252191, -0.0152704, -0.0155786, -0.0150577, -0.0376651, 0.0296361, -0.0270103, 0.470931, -0.543875, 0.335491, -2.0837, -2.16563, -0.129214, 0.468149, -0.543294, 0.33001, -2.07991, -2.15755, -0.123103, -0.00286026, -0.0178492, -0.015025, 0.0116019, 0.000179817, -0.0280024
0.0892515, 1.69183, -1.23084, -1.54509, -0.900999, -1.19343, 1.22733, -1.30256, 0.0435271, -0.00684527, -0.0696346, 0.0112159, -0.0217871, 0.0279443, 0.00144544, 0.245735, 72.1423, 35.4191, 7.51739, 1.69391, 4.00516, -0.0292249, -0.000163374, -0.00256668, 0.0056179, 0.00863971, 0.00359909, 0.00253138, -0.0140167, -0.0154879, -0.0145308, -0.0364415, 0.0355463, -0.033443, 0.470928, -0.543893, 0.335476, -2.0837, -2.16562, -0.129189, 0.468164, -0.543295, 0.329982, -2.07992, -2.15755, -0.123007, -0.00292192, -0.0182301, -0.0153591, 0.0115134, -0.00152363, -0.0280082
0.0902515, 1.69189, -1.23086, -1.54517, -0.90099, -1.19346, 1.22736, -1.30257, 0.0481551, -0.0118992, -0.0742864, 0.0123522, -0.0295907, 0.031815, -0.000257666, 0.0949785, 72.3248, 35.5698, 7.77924, 1.6756, 3.95572, 0.00373412, -0.000149112, -0.00254439, 0.0056483, 0.00868838, 0.00357424, 0.00252597, -0.0127985, -0.016987, -0.0186266, -0.0411115, 0.0393437, -0.0334356, 0.470925, -0.543911, 0.335461, -2.08369, -2.16561, -0.129163, 0.468182, -0.543294, 0.329939, -2.0799, -2.15754, -0.122903, -0.00298385, -0.0186124, -0.0156951, 0.0128418, -0.00241743, -0.0326238
0.0912515, 1.69194, -1.23088, -1.54525, -0.900977, -1.1935, 1.2274, -1.30257, 0.046995, -0.0161236, -0.0749913, 0.0121522, -0.0319791, 0.0338752, -0.00163028, 0.0949785, 72.4002, 35.4944, 7.9657, 1.6875, 3.92642, 0.0431018, -0.000138515, -0.00252551, 0.0056691, 0.00871916, 0.00353737, 0.002529, -0.0115632, -0.0165039, -0.0208752, -0.0410222, 0.0382946, -0.0346317, 0.470922, -0.54393, 0.335445, -2.08368, -2.1656, -0.129136, 0.468197, -0.543298, 0.329903, -2.07989, -2.15754, -0.122805, -0.00304602, -0.0189961, -0.016033, 0.0122584, -0.00369461, -0.0353592
0.0922515, 1.692, -1.2309, -1.54534, -0.900967, -1.19354, 1.22745, -1.30256, 0.051716, -0.0148981, -0.0766631, 0.0112457, -0.0338912, 0.0341712, 0.00111686, -0.0914839, 72.547, 35.4548, 8.18787, 1.70032, 3.93374, -0.0164075, -0.000123991, -0.00250116, 0.00569606, 0.00876101, 0.00350236, 0.00253332, -0.0137104, -0.0189414, -0.0208117, -0.043886, 0.0417609, -0.0339527, 0.470919, -0.543949, 0.335429, -2.08368, -2.16559, -0.129109, 0.468216, -0.543298, 0.329862, -2.07989, -2.15753, -0.122695, -0.00310843, -0.019381, -0.0163726, 0.0145556, -0.00186983, -0.0353784
0.0932515, 1.69206, -1.23091, -1.54543, -0.900955, -1.19358, 1.2275, -1.30257, 0.0496523, -0.0151897, -0.0793531, 0.00831628, -0.0391959, 0.0397482, 0.000235702, -0.0914839, 72.6184, 35.4944, 8.37433, 1.69391, 3.92642, -0.00267457, -0.00011673, -0.00248289, 0.00572126, 0.00880039, 0.00345584, 0.00254607, -0.011884, -0.0184492, -0.0214725, -0.0446536, 0.0490987, -0.0361495, 0.470916, -0.543968, 0.335413, -2.08367, -2.16558, -0.129081, 0.46823, -0.543305, 0.329822, -2.0799, -2.15751, -0.122575, -0.00317106, -0.0197671, -0.0167139, 0.0140419, -0.00397767, -0.0366407
0.0942515, 1.69212, -1.23093, -1.54553, -0.900942, -1.19362, 1.22754, -1.30257, 0.0521759, -0.0148853, -0.0809687, 0.0101481, -0.0424288, 0.0418961, -0.000792487, -0.206535, 72.6581, 35.4944, 8.52509, 1.66369, 3.97677, 0.0229602, -0.000105565, -0.0024612, 0.00574829, 0.00884376, 0.00341422, 0.00255037, -0.0117236, -0.0192584, -0.0212738, -0.0449021, 0.0533215, -0.0366611, 0.470912, -0.543988, 0.335396, -2.08366, -2.16557, -0.129052, 0.468247, -0.543309, 0.329779, -2.07989, -2.15751, -0.122456, -0.00323391, -0.0201544, -0.0170569, 0.0147997, -0.00452074, -0.0368378
0.0952515, 1.69217, -1.23094, -1.54562, -0.900932, -1.19366, 1.22759, -1.30257, 0.0520861, -0.013846, -0.083434, 0.00737601, -0.0446032, 0.0443578, 0.000183613, -0.242241, 72.6581, 35.4191, 8.71155, 1.62616, 4.01248, 0.00373412, -9.45867e-05, -0.00243901, 0.0057728, 0.00888406, 0.00336364, 0.00255944, -0.0118379, -0.0196389, -0.0214178, -0.0468351, 0.0579317, -0.0377949, 0.470909, -0.544008, 0.335379, -2.08366, -2.16556, -0.129023, 0.468265, -0.543314, 0.329739, -2.0799, -2.1575, -0.122331, -0.00329695, -0.0205426, -0.0174015, 0.0151068, -0.00475858, -0.0373191
0.0962515, 1.69224, -1.23096, -1.54572, -0.900925, -1.1937, 1.22765, -1.30256, 0.0566399, -0.0156815, -0.0881233, 0.0053035, -0.0468853, 0.0503043, 0.000868289, -0.392998, 72.7692, 35.3437, 8.89801, 1.60144, 4.06283, -0.0164075, -8.0802e-05, -0.00241124, 0.00580279, 0.00892901, 0.00331391, 0.0025598, -0.0127018, -0.0227533, -0.0238865, -0.0483775, 0.0617433, -0.0357041, 0.470906, -0.544029, 0.335362, -2.08365, -2.16555, -0.128993, 0.468287, -0.543315, 0.329694, -2.07989, -2.1575, -0.122201, -0.00336018, -0.0209318, -0.0177477, 0.0180319, -0.00378793, -0.0400653
0.0972515, 1.6923, -1.23097, -1.54583, -0.90092, -1.19375, 1.22771, -1.30257, 0.0555106, -0.0126685, -0.0962005, 0.00462685, -0.043835, 0.0497917, -0.001354, -0.43267, 72.6938, 35.4548, 9.04877, 1.57764, 4.12692, 0.0357776, -7.30397e-05, -0.00239165, 0.00582772, 0.00898132, 0.00324541, 0.00256863, -0.0120996, -0.0210883, -0.0247647, -0.0540315, 0.0627019, -0.0375072, 0.470903, -0.54405, 0.335344, -2.08364, -2.16554, -0.128963, 0.468302, -0.543324, 0.329652, -2.0799, -2.1575, -0.122042, -0.00342359, -0.0213219, -0.0180953, 0.0162942, -0.00470568, -0.0413227
0.0982515, 1.69236, -1.23097, -1.54593, -0.900915, -1.1938, 1.22776, -1.30257, 0.0571005, -0.0107654, -0.100276, 0.00735736, -0.0462325, 0.0549686, 0.00028407, -0.508049, 72.6184, 35.3834, 9.19556, 1.55292, 4.16995, 0.00373412, -6.02839e-05, -0.00236629, 0.00585049, 0.00902633, 0.00317795, 0.00257605, -0.0107466, -0.0213535, -0.024055, -0.0526967, 0.0694068, -0.0433397, 0.470899, -0.544071, 0.335326, -2.08363, -2.16553, -0.128932, 0.468323, -0.543328, 0.329613, -2.07991, -2.1575, -0.121893, -0.00348715, -0.0217127, -0.0184443, 0.0165693, -0.00653061, -0.0411895
0.0992515, 1.69242, -1.23098, -1.54604, -0.900916, -1.19386, 1.22782, -1.30256, 0.0582199, -0.00645679, -0.101534, 0.00527703, -0.0488303, 0.0537419, 0.000935321, -0.508049, 72.547, 35.4548, 9.38202, 1.54651, 4.2203, -0.0164075, -5.05982e-05, -0.00234447, 0.00587597, 0.00908226, 0.00310282, 0.0025879, -0.0120383, -0.0216905, -0.0221228, -0.056544, 0.0757087, -0.0432106, 0.470896, -0.544093, 0.335307, -2.08363, -2.16552, -0.1289, 0.46834, -0.543335, 0.32957, -2.07993, -2.1575, -0.121722, -0.00355087, -0.0221042, -0.0187947, 0.0168668, -0.00593033, -0.0394427
0.100251, 1.69247, -1.23098, -1.54615, -0.900914, -1.19392, 1.22788, -1.30257, 0.0560458, -0.00158356, -0.106063, 0.00553091, -0.046171, 0.0524744, -0.00035983, -0.508049, 72.4002, 35.4191, 9.4931, 1.54651, 4.28531, 0.0101428, -4.19716e-05, -0.00232501, 0.00589543, 0.00913517, 0.00301916, 0.00260038, -0.0115983, -0.0196482, -0.0205246, -0.0591594, 0.078133, -0.0462711, 0.470892, -0.544115, 0.335289, -2.08362, -2.16551, -0.128868, 0.468354, -0.543345, 0.329533, -2.07995, -2.1575, -0.121545, -0.00361472, -0.0224964, -0.0191465, 0.0148373, -0.00708626, -0.038222
0.101251, 1.69254, -1.23098, -1.54627, -0.900914, -1.19398, 1.22794, -1.30257, 0.0579466, -0.00215849, -0.10929, 0.00233922, -0.0491569, 0.0562194, -0.000951988, -0.583427, 72.2891, 35.5301, 9.60815, 1.55292, 4.34939, 0.0293689, -3.17005e-05, -0.00230247, 0.0059207, 0.00920285, 0.00293214, 0.00260964, -0.0121281, -0.0212761, -0.0219304, -0.061652, 0.082602, -0.0441164, 0.470888, -0.544138, 0.335269, -2.08361, -2.1655, -0.128835, 0.468372, -0.543353, 0.329489, -2.07996, -2.1575, -0.121349, -0.00367869, -0.0228891, -0.0194995, 0.0163279, -0.0066732, -0.039932
0.102251, 1.6926, -1.23097, -1.54638, -0.90092, -1.19404, 1.228, -1.30256, 0.0597431, 0.00049467, -0.110474, -0.00179481, -0.0513919, 0.054229, 0.00106074, -0.619133, 72.178, 35.4548, 9.79462, 1.55932, 4.4208, -0.0164075, -2.04662e-05, -0.00228157, 0.00594179, 0.0092638, 0.0028449, 0.00262438, -0.0143493, -0.0223957, -0.0213289, -0.0671403, 0.086787, -0.0426974, 0.470885, -0.54416, 0.33525, -2.0836, -2.16549, -0.128801, 0.468388, -0.543361, 0.32945, -2.07998, -2.1575, -0.121158, -0.00374278, -0.0232822, -0.0198537, 0.0173244, -0.00492018, -0.0393832
0.103251, 1.69266, -1.23096, -1.5465, -0.900918, -1.1941, 1.22806, -1.30256, 0.0587084, 0.00326486, -0.115832, -0.00127621, -0.0560095, 0.0579506, 0.00046979, -0.734184, 72.0312, 35.4548, 9.83032, 1.5282, 4.47848, -0.00999879, -8.87895e-06, -0.00225917, 0.00595976, 0.00932636, 0.0027482, 0.00263648, -0.0120175, -0.0209152, -0.0208482, -0.069773, 0.0956366, -0.0483367, 0.470881, -0.544184, 0.33523, -2.08359, -2.16547, -0.128767, 0.468405, -0.543369, 0.329414, -2.08, -2.15751, -0.120955, -0.00380697, -0.0236758, -0.020209, 0.015882, -0.00775034, -0.0395801
0.104251, 1.69271, -1.23095, -1.54663, -0.90092, -1.19416, 1.22812, -1.30257, 0.0562077, 0.00440109, -0.118353, -0.00204738, -0.0649582, 0.0598057, -0.00114488, -0.76989, 71.9202, 35.4944, 9.9057, 1.52179, 4.55722, 0.0293689, -1.66617e-06, -0.00224325, 0.00597846, 0.00939379, 0.00264959, 0.00265467, -0.00919808, -0.0186036, -0.0205857, -0.074085, 0.105354, -0.0533133, 0.470877, -0.544207, 0.33521, -2.08358, -2.16546, -0.128732, 0.468416, -0.543382, 0.329376, -2.08002, -2.1575, -0.120744, -0.00387125, -0.0240696, -0.0205654, 0.0136189, -0.0110628, -0.0400434
0.105251, 1.69277, -1.23093, -1.54674, -0.900919, -1.19423, 1.22817, -1.30256, 0.0561255, 0.00952095, -0.116064, -0.000939922, -0.0622886, 0.0566405, 0.00116952, -0.845268, 71.6266, 35.4944, 9.9057, 1.50348, 4.63595, -0.0228162, 7.79888e-06, -0.00222855, 0.00598669, 0.00946192, 0.00253709, 0.0026842, -0.0110615, -0.0184135, -0.0165728, -0.0722658, 0.106665, -0.055425, 0.470873, -0.544231, 0.335189, -2.08357, -2.16545, -0.128697, 0.468426, -0.543395, 0.329348, -2.08006, -2.1575, -0.120517, -0.00393561, -0.0244637, -0.0209229, 0.0134461, -0.0102419, -0.0361441
0.106251, 1.69282, -1.23091, -1.54686, -0.900924, -1.1943, 1.22823, -1.30257, 0.0558418, 0.0104986, -0.115207, -0.0020711, -0.0638626, 0.0546159, -0.000203671, -0.960319, 71.4401, 35.4191, 9.98108, 1.45404, 4.70828, 0.00373412, 2.08511e-05, -0.00220946, 0.00599994, 0.00952627, 0.0024362, 0.00269387, -0.0118781, -0.0181584, -0.015708, -0.0740691, 0.108155, -0.054085, 0.470869, -0.544256, 0.335168, -2.08357, -2.16544, -0.128661, 0.46844, -0.543404, 0.329316, -2.08008, -2.15751, -0.120306, -0.00400003, -0.0248579, -0.0212814, 0.0131294, -0.00997331, -0.0355147
0.107251, 1.69282, -1.23091, -1.54686, -0.900924, -1.1943, 1.22823, -1.30257, 0.0558418, 0.0104986, -0.115207, -0.0020711, -0.0638626, 0.0546159, -0.000203671, -0.960319, 71.4401, 35.4191, 9.98108, 1.45404, 4.70828, 0.00373412, 4.85748e-05, -0.00220493, 0.00598266, 0.00949723, 0.00244036, 0.00269014, -0.012321, -0.0182282, -0.0154107, -0.073722, 0.108355, -0.0547068, 0.470865, -0.544281, 0.335147, -2.08356, -2.16543, -0.128624, 0.46844, -0.543404, 0.329316, -2.08008, -2.15751, -0.120306, -0.0040645, -0.0252522, -0.0216408, 0.0131294, -0.00997331, -0.0355147
0.108251, 1.69282, -1.23091, -1.54686, -0.900924, -1.1943, 1.22823, -1.30257, 0.0558418, 0.0104986, -0.115207, -0.0020711, -0.0638626, 0.0546159, -0.000203671, -0.960319, 71.4401, 35.4191, 9.98108, 1.45404, 4.70828, 0.00373412, 7.67411e-05, -0.00220033, 0.00596509, 0.00946764, 0.00244457, 0.00268635, -0.0127639, -0.0182979, -0.0151126, -0.0733723, 0.108558, -0.0553313, 0.470861, -0.544306, 0.335125, -2.08355, -2.16541, -0.128586, 0.46844, -0.543404, 0.329316, -2.08008, -2.15751, -0.120306, -0.00412902, -0.0256465, -0.022001, 0.0131294, -0.00997331, -0.0355147
0.109251, 1.69299, -1.23087, -1.54719, -0.900921, -1.1945, 1.22836, -1.30256, 0.0558271, 0.0111736, -0.113769, 0.0029669, -0.0669093, 0.0455171, 0.00070447, -1.48797, 70.9998, 35.0858, 9.98108, 1.31946, 4.90878, -0.0228162, 5.7133e-05, -0.00216399, 0.00604096, 0.00973656, 0.00214985, 0.00275475, -0.0124139, -0.0154539, -0.0139717, -0.0786446, 0.106927, -0.0616219, 0.470857, -0.544332, 0.335103, -2.08354, -2.1654, -0.128548, 0.46847, -0.543435, 0.329215, -2.08015, -2.15748, -0.119666, -0.00419356, -0.0260407, -0.0223621, 0.010279, -0.0110049, -0.0347154
0.110251, 1.69304, -1.23087, -1.5473, -0.900926, -1.19457, 1.2284, -1.30257, 0.0540519, 0.00914575, -0.110428, -0.000257322, -0.0678225, 0.047316, 0.000469645, -1.63873, 70.9244, 34.9708, 10.0922, 1.27643, 4.94449, -0.0228162, 7.10728e-05, -0.00214947, 0.00605718, 0.00980582, 0.0020654, 0.00276715, -0.0131663, -0.0161042, -0.0138819, -0.0756524, 0.106753, -0.0595878, 0.470853, -0.544358, 0.335081, -2.08353, -2.16539, -0.128509, 0.468479, -0.543445, 0.329178, -2.08016, -2.15748, -0.119464, -0.00425812, -0.0264347, -0.0227239, 0.01084, -0.0106434, -0.0348928
0.111251, 1.69308, -1.23085, -1.5474, -0.900926, -1.19464, 1.22843, -1.30257, 0.0508694, 0.0103161, -0.108273, 0.00143472, -0.0677125, 0.0443132, -0.000670249, -1.75378, 70.7419, 34.7486, 10.1675, 1.21509, 4.97287, 0.00373412, 8.46354e-05, -0.00213934, 0.00606434, 0.00987618, 0.00197093, 0.00278867, -0.0125814, -0.0138304, -0.0119819, -0.0745665, 0.106151, -0.0626626, 0.470849, -0.544384, 0.335058, -2.08352, -2.16537, -0.12847, 0.468484, -0.543456, 0.32915, -2.08018, -2.15747, -0.119249, -0.00432269, -0.0268285, -0.0230865, 0.00859577, -0.0119997, -0.0333995
0.112251, 1.69314, -1.23084, -1.5475, -0.900926, -1.19471, 1.22846, -1.30257, 0.0530106, 0.00767521, -0.106175, -0.000344369, -0.0682901, 0.0391004, -0.00115891, -2.01562, 70.7062, 34.6018, 10.2429, 1.16565, 4.95181, 0.0229602, 0.000101794, -0.00212342, 0.00607693, 0.0099423, 0.00188851, 0.00279991, -0.0151307, -0.0148995, -0.0132974, -0.078571, 0.10172, -0.0582626, 0.470844, -0.544411, 0.335035, -2.08351, -2.16536, -0.12843, 0.468494, -0.543464, 0.329117, -2.08019, -2.15746, -0.119051, -0.00438725, -0.027222, -0.0234497, 0.00945886, -0.00963046, -0.0347004
0.113251, 1.69319, -1.23084, -1.54761, -0.900927, -1.19478, 1.22849, -1.30256, 0.0547974, 0.00508873, -0.105349, 0.00160604, -0.0691042, 0.0352796, 0.00116017, -2.16637, 70.7062, 34.4867, 10.3143, 1.12903, 4.92343, -0.0292249, 0.000116618, -0.00211115, 0.00609451, 0.0100167, 0.00181227, 0.00282424, -0.0159674, -0.0149364, -0.0143734, -0.0807676, 0.0979961, -0.0609794, 0.47084, -0.544438, 0.335012, -2.08349, -2.16534, -0.128389, 0.468501, -0.543473, 0.329078, -2.08021, -2.15744, -0.118848, -0.00445179, -0.0276151, -0.0238135, 0.00936091, -0.00903071, -0.0359987
0.114251, 1.69325, -1.23083, -1.54771, -0.900924, -1.19485, 1.22852, -1.30257, 0.0541873, 0.0068051, -0.106459, 0.000666037, -0.0699524, 0.0333293, -0.000921974, -2.39648, 70.5594, 34.34, 10.354, 1.0979, 4.86575, 0.0165515, 0.000135177, -0.00209671, 0.00610161, 0.0100848, 0.00172333, 0.00283416, -0.0163769, -0.014185, -0.0137133, -0.0836653, 0.0997772, -0.0601637, 0.470836, -0.544466, 0.334988, -2.08348, -2.16533, -0.128348, 0.468509, -0.543481, 0.32905, -2.08021, -2.15743, -0.11864, -0.00451631, -0.0280078, -0.0241779, 0.00855551, -0.0091513, -0.0356248
0.115251, 1.69329, -1.23082, -1.54781, -0.900925, -1.19492, 1.22854, -1.30257, 0.0526938, 0.00628418, -0.105348, 0.00224127, -0.0661591, 0.0259116, -0.00159799, -2.54723, 70.484, 34.2289, 10.4294, 1.0741, 4.83737, 0.0431018, 0.000151832, -0.00208651, 0.00611232, 0.0101577, 0.00164227, 0.00285018, -0.017399, -0.0123369, -0.0136642, -0.0860641, 0.0924334, -0.0611933, 0.470831, -0.544494, 0.334964, -2.08347, -2.16531, -0.128305, 0.468514, -0.54349, 0.329017, -2.08022, -2.15742, -0.118434, -0.00458078, -0.0283999, -0.0245428, 0.00661045, -0.00861766, -0.0357253
0.116251, 1.69334, -1.23081, -1.5479, -0.900925, -1.19498, 1.22856, -1.30256, 0.0505526, 0.00898788, -0.103157, -0.000545882, -0.0682321, 0.0208487, 0.00113872, -2.69799, 70.4086, 34.0781, 10.5405, 1.06128, 4.79434, -0.0164075, 0.000169608, -0.0020764, 0.00612151, 0.0102267, 0.00156456, 0.00287497, -0.0185287, -0.0110013, -0.0116971, -0.0898946, 0.0945732, -0.0639485, 0.470826, -0.544522, 0.334939, -2.08346, -2.1653, -0.128263, 0.468518, -0.543499, 0.328986, -2.08024, -2.1574, -0.118234, -0.00464521, -0.0287914, -0.0249081, 0.00524506, -0.00825077, -0.0339318
0.117251, 1.69338, -1.2308, -1.548, -0.900919, -1.19505, 1.22858, -1.30256, 0.050702, 0.00790739, -0.0999627, 0.00238637, -0.0699156, 0.0208297, 0.000759145, -2.88445, 70.3372, 33.967, 10.5762, 1.04938, 4.77237, -0.0164075, 0.000186328, -0.00206828, 0.00613018, 0.010295, 0.00149046, 0.00289869, -0.0183989, -0.0108951, -0.0104953, -0.0862604, 0.0946452, -0.0656393, 0.470822, -0.544551, 0.334914, -2.08345, -2.16528, -0.128219, 0.468521, -0.54351, 0.328955, -2.08025, -2.15737, -0.118037, -0.00470957, -0.0291822, -0.0252738, 0.00512387, -0.00895874, -0.0331281
0.118251, 1.69343, -1.23079, -1.54809, -0.900915, -1.19511, 1.22859, -1.30257, 0.0460524, 0.00629059, -0.09548, 0.000405663, -0.065936, 0.0164377, -0.000951966, -2.9995, 70.3015, 33.8917, 10.6516, 1.02466, 4.74399, 0.0229602, 0.000204894, -0.00206029, 0.00613712, 0.0103629, 0.00141763, 0.00291555, -0.0193929, -0.00926853, -0.00997074, -0.0842696, 0.087523, -0.0639344, 0.470817, -0.54458, 0.334889, -2.08344, -2.16527, -0.128175, 0.468523, -0.543519, 0.328926, -2.08026, -2.15735, -0.117843, -0.00477385, -0.0295723, -0.0256399, 0.0034191, -0.00851474, -0.0327714
0.119251, 1.69348, -1.23078, -1.54817, -0.900907, -1.19518, 1.22861, -1.30257, 0.0474741, 0.0102089, -0.0904745, 0.00615514, -0.0640949, 0.0128973, 7.7433e-05, -3.22564, 70.1904, 33.7806, 10.6873, 1.03107, 4.72201, 0.00373412, 0.000227589, -0.00204826, 0.00613941, 0.0104254, 0.00134103, 0.00293173, -0.0208718, -0.0092343, -0.00515817, -0.0788888, 0.0876403, -0.0663461, 0.470812, -0.54461, 0.334863, -2.08342, -2.16525, -0.12813, 0.468529, -0.543526, 0.328901, -2.08027, -2.15734, -0.11765, -0.00483806, -0.0299616, -0.0260062, 0.00344803, -0.00818469, -0.0281559
0.120251, 1.69352, -1.23077, -1.54826, -0.900896, -1.19524, 1.22861, -1.30256, 0.0466761, 0.0111636, -0.0908151, 0.00806785, -0.0663914, 0.014631, 0.00103497, -3.33672, 70.1508, 33.8202, 10.6873, 1.01276, 4.70828, -0.0228162, 0.000245893, -0.00204369, 0.00614313, 0.0104872, 0.00127642, 0.00296222, -0.0197679, -0.00840362, -0.00394732, -0.0772664, 0.091406, -0.0713613, 0.470808, -0.54464, 0.334837, -2.08341, -2.16524, -0.128084, 0.468528, -0.543537, 0.328874, -2.08029, -2.1573, -0.117467, -0.00490216, -0.0303499, -0.0263728, 0.00263891, -0.00988295, -0.0274722
0.121251, 1.69357, -1.23077, -1.54834, -0.900887, -1.1953, 1.22862, -1.30257, 0.0457962, 0.00705124, -0.0888487, 0.00985846, -0.0641162, 0.016009, -0.00100544, -3.56683, 70.1904, 33.7806, 10.8023, 1.01825, 4.69363, 0.0229602, 0.00026872, -0.00203266, 0.00614958, 0.0105448, 0.0012164, 0.00297187, -0.019632, -0.00851425, -0.00495742, -0.0722794, 0.0860443, -0.0706183, 0.470803, -0.54467, 0.334811, -2.0834, -2.16522, -0.128038, 0.468532, -0.543543, 0.328845, -2.08029, -2.15728, -0.117296, -0.00496616, -0.0307373, -0.0267396, 0.00265225, -0.0102448, -0.0288613
0.122251, 1.69361, -1.23076, -1.54842, -0.900874, -1.19537, 1.22864, -1.30257, 0.0408953, 0.00510348, -0.0835842, 0.0132046, -0.0677088, 0.0128818, -0.000670296, -3.6422, 70.1904, 33.7052, 10.838, 1.03656, 4.66525, 0.0229602, 0.000285873, -0.0020287, 0.00614927, 0.0105895, 0.00115148, 0.00300127, -0.0174361, -0.00507892, -0.00348134, -0.0695091, 0.0849344, -0.0780115, 0.470798, -0.544701, 0.334784, -2.08339, -2.1652, -0.127991, 0.468531, -0.543557, 0.328821, -2.08031, -2.15726, -0.117131, -0.00503004, -0.0311236, -0.0271065, -0.000708906, -0.0131665, -0.0280028
0.123251, 1.69365, -1.23076, -1.5485, -0.900856, -1.19543, 1.22865, -1.30256, 0.0398178, 0.00203388, -0.0799973, 0.0155813, -0.0647467, 0.015144, 0.00148592, -3.79296, 70.2618, 33.7806, 10.8777, 1.03107, 4.63595, -0.0292249, 0.000304632, -0.00202215, 0.00615356, 0.0106362, 0.00109534, 0.0030343, -0.017507, -0.0054591, -0.00313609, -0.0616145, 0.0803505, -0.0811981, 0.470793, -0.544732, 0.334757, -2.08337, -2.16519, -0.127943, 0.468531, -0.543569, 0.328792, -2.08034, -2.15722, -0.116971, -0.0050938, -0.0315088, -0.0274735, -0.000382594, -0.0135192, -0.0280302
0.124251, 1.69365, -1.23076, -1.5485, -0.900856, -1.19543, 1.22865, -1.30256, 0.0398178, 0.00203388, -0.0799973, 0.0155813, -0.0647467, 0.015144, 0.00148592, -3.79296, 70.2618, 33.7806, 10.8777, 1.03107, 4.63595, -0.0292249, 0.000339844, -0.00201641, 0.00613115, 0.0105972, 0.00109998, 0.00302959, -0.0179408, -0.00552676, -0.00282997, -0.061229, 0.0805937, -0.0818581, 0.470788, -0.544764, 0.33473, -2.08336, -2.16517, -0.127895, 0.468531, -0.543569, 0.328792, -2.08034, -2.15722, -0.116971, -0.00515741, -0.0318928, -0.0278405, -0.000382594, -0.0135192, -0.0280302
0.125251, 1.69373, -1.23076, -1.54864, -0.90081, -1.19554, 1.22867, -1.30257, 0.0404763, 0.00100984, -0.0742807, 0.0196266, -0.0616349, 0.0106721, -0.00158885, -4.13018, 70.3729, 33.8917, 10.9134, 1.04297, 4.55722, 0.0357776, 0.00034209, -0.00201197, 0.00615308, 0.0107095, 0.00098737, 0.00308728, -0.0196396, -0.0056334, -0.000957298, -0.056546, 0.0743493, -0.0785603, 0.470782, -0.544796, 0.334702, -2.08335, -2.16515, -0.127846, 0.468529, -0.543595, 0.328743, -2.08038, -2.15716, -0.116678, -0.00522087, -0.0322756, -0.0282076, -0.000329443, -0.012508, -0.0262886
0.126251, 1.69376, -1.23076, -1.5487, -0.900786, -1.1956, 1.22868, -1.30256, 0.0383787, 0.000999253, -0.0691997, 0.0194067, -0.0603189, 0.0090193, 0.000873546, -4.24523, 70.3729, 33.8202, 10.9888, 1.04297, 4.52151, -0.0164075, 0.000362074, -0.00200647, 0.00614705, 0.0107305, 0.000934437, 0.00312191, -0.0206873, -0.005327, 0.00107686, -0.0523083, 0.0723131, -0.0806999, 0.470777, -0.544828, 0.334674, -2.08333, -2.16513, -0.127796, 0.468529, -0.543608, 0.328724, -2.08042, -2.15712, -0.116548, -0.00528417, -0.032657, -0.0285745, -0.000659208, -0.01218, -0.0244753
0.127251, 1.69381, -1.23075, -1.54877, -0.900757, -1.19566, 1.2287, -1.30256, 0.0398476, 0.00258112, -0.0665747, 0.0233587, -0.0600782, 0.0124212, 0.000819723, -4.50707, 70.3015, 33.9313, 11.0245, 1.06128, 4.48581, -0.0228162, 0.000384385, -0.00199731, 0.0061402, 0.0107581, 0.000872512, 0.00314905, -0.0209703, -0.00642823, 0.00401553, -0.0447741, 0.0751801, -0.082021, 0.470772, -0.54486, 0.334645, -2.08332, -2.16511, -0.127746, 0.468532, -0.54362, 0.328705, -2.08045, -2.1571, -0.116402, -0.0053473, -0.0330371, -0.0289414, 0.000478439, -0.0126869, -0.021932
0.128251, 1.69385, -1.23074, -1.54884, -0.900726, -1.19572, 1.22871, -1.30257, 0.0355357, 0.00283216, -0.0644799, 0.0231848, -0.0597134, 0.0150188, -0.0013863, -4.65783, 70.2618, 34.0424, 11.0641, 1.0741, 4.4501, 0.0293689, 0.000402364, -0.00199214, 0.00613467, 0.0107805, 0.000813783, 0.00317904, -0.019794, -0.00499729, 0.00563463, -0.0395111, 0.0763797, -0.083461, 0.470766, -0.544894, 0.334616, -2.0833, -2.1651, -0.127694, 0.468531, -0.543636, 0.328684, -2.08049, -2.15708, -0.116264, -0.00541024, -0.0334157, -0.0293081, -0.000910254, -0.0145341, -0.0208369
0.129251, 1.69389, -1.23075, -1.5489, -0.900684, -1.19578, 1.22873, -1.30256, 0.0397695, 0.000262411, -0.0639634, 0.0310874, -0.0588645, 0.0173184, 0.000771222, -4.88793, 70.3372, 34.0781, 11.0245, 1.07959, 4.40707, -0.0164075, 0.000421155, -0.00198472, 0.00613036, 0.0107933, 0.000766036, 0.00321964, -0.0195635, -0.00633504, 0.00568955, -0.0334202, 0.073991, -0.088442, 0.470761, -0.544927, 0.334587, -2.08329, -2.16508, -0.127643, 0.468532, -0.543651, 0.328662, -2.08053, -2.15703, -0.116145, -0.00547299, -0.0337927, -0.0296745, 0.000373533, -0.0150923, -0.0212279
0.130251, 1.69393, -1.23074, -1.54895, -0.900649, -1.19584, 1.22874, -1.30256, 0.0384653, 0.00204134, -0.059056, 0.0302905, -0.064674, 0.0186211, 0.000276789, -5.03869, 70.2618, 34.0424, 11.1356, 1.12262, 4.37137, -0.00999879, 0.000442089, -0.00197709, 0.00611695, 0.0108026, 0.000701428, 0.0032509, -0.0195326, -0.00627335, 0.00885885, -0.0303273, 0.0811279, -0.0888186, 0.470756, -0.544961, 0.334557, -2.08327, -2.16506, -0.12759, 0.468534, -0.543666, 0.328649, -2.08058, -2.15702, -0.116014, -0.00553554, -0.0341681, -0.0300408, 0.000370867, -0.0159874, -0.0184679
0.131251, 1.69398, -1.23074, -1.54901, -0.900608, -1.1959, 1.22876, -1.30257, 0.0426274, 0.00227348, -0.0572168, 0.0346313, -0.0627287, 0.0196334, -0.000561459, -5.26482, 70.2261, 34.0781, 11.1752, 1.12903, 4.33566, 0.0101428, 0.000465427, -0.0019656, 0.00610542, 0.0108077, 0.000644266, 0.00327686, -0.0211938, -0.00843902, 0.0104314, -0.025105, 0.0801941, -0.0868286, 0.47075, -0.544995, 0.334527, -2.08326, -2.16504, -0.127537, 0.468539, -0.543678, 0.328633, -2.08062, -2.157, -0.115894, -0.00559787, -0.0345419, -0.0304067, 0.00247237, -0.0148738, -0.0170934
0.132251, 1.69403, -1.23075, -1.54907, -0.90056, -1.19596, 1.22878, -1.30257, 0.0420163, -0.00186, -0.0563404, 0.0365316, -0.0621372, 0.0152002, -0.00108638, -5.37591, 70.3729, 34.1535, 11.1356, 1.16015, 4.31369, 0.0293689, 0.000481634, -0.0019584, 0.0061035, 0.0108177, 0.000594384, 0.00331625, -0.0211798, -0.00722273, 0.00852464, -0.0268822, 0.0734176, -0.0885392, 0.470744, -0.545029, 0.334497, -2.08324, -2.16502, -0.127483, 0.46854, -0.543697, 0.328607, -2.08066, -2.15696, -0.115775, -0.00565998, -0.0349139, -0.0307722, 0.00112427, -0.0150165, -0.0193054
0.133251, 1.69408, -1.23075, -1.54912, -0.900512, -1.19603, 1.22881, -1.30257, 0.044507, -0.000361261, -0.0571873, 0.039184, -0.0608184, 0.0173936, 0.000462539, -5.56634, 70.3372, 34.1535, 11.1752, 1.16565, 4.27066, -0.00267457, 0.000503568, -0.00194559, 0.00609063, 0.0108175, 0.000529398, 0.00335189, -0.021907, -0.00846496, 0.00984787, -0.0237042, 0.0751196, -0.0906264, 0.470739, -0.545064, 0.334466, -2.08323, -2.165, -0.127428, 0.468546, -0.543712, 0.328592, -2.08072, -2.15694, -0.115651, -0.00572185, -0.0352841, -0.0311374, 0.00232789, -0.014821, -0.0182916
0.134251, 1.69413, -1.23075, -1.54919, -0.900457, -1.1961, 1.22883, -1.30256, 0.046747, -0.00104342, -0.0615012, 0.042113, -0.0637424, 0.0180698, 0.00152906, -5.64172, 70.3729, 34.1892, 11.1752, 1.15375, 4.25601, -0.0356336, 0.000520668, -0.00193691, 0.00608247, 0.010818, 0.000472202, 0.00339947, -0.0208523, -0.00816319, 0.00858342, -0.0268834, 0.0775715, -0.0957338, 0.470733, -0.5451, 0.334435, -2.08321, -2.16498, -0.127372, 0.468549, -0.543731, 0.328572, -2.08078, -2.1569, -0.115532, -0.00578347, -0.0356524, -0.0315021, 0.00195477, -0.0160487, -0.020059
0.135251, 1.69418, -1.23077, -1.54924, -0.900397, -1.19617, 1.22886, -1.30256, 0.0508229, -0.00503283, -0.0603922, 0.045176, -0.070787, 0.0189796, 6.99394e-05, -5.67742, 70.5594, 34.1535, 11.1356, 1.15375, 4.22763, -0.00999879, 0.000535338, -0.00192904, 0.00607588, 0.0108129, 0.000417317, 0.00344502, -0.0205591, -0.00947565, 0.00723261, -0.027546, 0.0799151, -0.0953114, 0.470727, -0.545135, 0.334403, -2.08319, -2.16496, -0.127316, 0.46855, -0.543753, 0.328549, -2.08084, -2.15686, -0.115421, -0.00584484, -0.0360188, -0.0318663, 0.0031635, -0.0164433, -0.0218451
0.136251, 1.69424, -1.23077, -1.54931, -0.900338, -1.19624, 1.22889, -1.30257, 0.0550875, -0.00333686, -0.0613143, 0.0496083, -0.0669937, 0.0292026, -0.00141144, -5.7528, 70.5594, 34.1892, 11.1356, 1.14734, 4.19925, 0.0293689, 0.000552916, -0.00191631, 0.00606642, 0.0108107, 0.000347748, 0.00348098, -0.0211898, -0.0130519, 0.0094906, -0.015717, 0.0836814, -0.093383, 0.470721, -0.545171, 0.334371, -2.08318, -2.16494, -0.127259, 0.468557, -0.543773, 0.328529, -2.0809, -2.15684, -0.115293, -0.00590595, -0.0363832, -0.0322299, 0.00673794, -0.0163851, -0.0199973
0.137251, 1.6943, -1.23078, -1.54938, -0.900276, -1.19631, 1.22892, -1.30256, 0.0543115, -0.00647969, -0.0636875, 0.0518037, -0.0726324, 0.0319338, 0.000754464, -5.82818, 70.7419, 34.1892, 11.1752, 1.11713, 4.17727, -0.0164075, 0.000570226, -0.00190268, 0.00606433, 0.0108092, 0.000291984, 0.00353089, -0.0184421, -0.0116815, 0.00769096, -0.0167726, 0.0867647, -0.10183, 0.470716, -0.545208, 0.334339, -2.08316, -2.16492, -0.127202, 0.468564, -0.543792, 0.328501, -2.08097, -2.1568, -0.115175, -0.00596678, -0.0367455, -0.032593, 0.00533789, -0.0192399, -0.0225194
0.138251, 1.69437, -1.2308, -1.54945, -0.900209, -1.19639, 1.22896, -1.30256, 0.0528849, -0.00950638, -0.0630466, 0.0583559, -0.0736943, 0.0330493, 0.000502976, -5.82818, 70.9641, 34.1892, 11.1356, 1.12262, 4.17727, -0.0164075, 0.000583856, -0.00189019, 0.00606218, 0.0108036, 0.000229914, 0.00358215, -0.0158189, -0.00973182, 0.00752041, -0.0122834, 0.0848071, -0.109377, 0.47071, -0.545245, 0.334306, -2.08314, -2.16489, -0.127143, 0.468569, -0.543815, 0.328472, -2.08104, -2.15676, -0.115055, -0.00602732, -0.0371056, -0.0329554, 0.0034174, -0.0222436, -0.0233941
0.139251, 1.69443, -1.23081, -1.54951, -0.900138, -1.19646, 1.229, -1.30257, 0.0581551, -0.0088355, -0.0639521, 0.0626049, -0.0778152, 0.0346372, -0.00112274, -5.82818, 71.0712, 34.1178, 11.1356, 1.0979, 4.16354, 0.0229602, 0.000599696, -0.00187633, 0.00605504, 0.0107956, 0.000162285, 0.00362703, -0.0161974, -0.0114543, 0.00836814, -0.0119657, 0.0898207, -0.108759, 0.470704, -0.545282, 0.334273, -2.08313, -2.16487, -0.127084, 0.468577, -0.543837, 0.328448, -2.0811, -2.15673, -0.114932, -0.00608756, -0.0374636, -0.0333171, 0.00509674, -0.0222873, -0.0229165
0.140251, 1.6945, -1.23082, -1.54959, -0.900064, -1.19654, 1.22904, -1.30257, 0.0627402, -0.00848298, -0.070195, 0.0688385, -0.0760747, 0.0353864, -0.000748497, -5.79247, 71.1823, 34.1535, 11.1356, 1.06128, 4.15622, 0.0229602, 0.000613039, -0.00186207, 0.00605072, 0.0107881, 9.12703e-05, 0.00368167, -0.0157986, -0.0119043, 0.00737369, -0.0132963, 0.0894687, -0.113165, 0.470697, -0.545319, 0.33424, -2.08311, -2.16485, -0.127025, 0.468584, -0.543861, 0.328421, -2.08118, -2.1567, -0.114803, -0.0061475, -0.0378192, -0.0336781, 0.00546267, -0.0228655, -0.0243364
0.141251, 1.69457, -1.23084, -1.54967, -0.899989, -1.19663, 1.22908, -1.30256, 0.0682144, -0.0131756, -0.0730769, 0.0695937, -0.080841, 0.0352178, 0.0019085, -5.7528, 71.3687, 34.1178, 11.1752, 1.06128, 4.16995, -0.0420422, 0.000625998, -0.00184714, 0.00605026, 0.0107866, 2.02355e-05, 0.00374309, -0.0164751, -0.0138729, 0.00370757, -0.0186901, 0.0892648, -0.114593, 0.470691, -0.545357, 0.334206, -2.08309, -2.16483, -0.126964, 0.468592, -0.543886, 0.328389, -2.08127, -2.15665, -0.114666, -0.00620712, -0.0381726, -0.0340383, 0.00720469, -0.0219074, -0.0282763
0.142251, 1.69464, -1.23084, -1.54975, -0.899907, -1.19671, 1.22913, -1.30257, 0.0656646, -0.0122033, -0.0758949, 0.0741171, -0.0826133, 0.0393464, -0.000423088, -5.64172, 71.3687, 34.1178, 11.1752, 1.01825, 4.19925, 0.00373412, 0.000637414, -0.00183314, 0.00604094, 0.0107791, -6.9065e-05, 0.00380006, -0.0131286, -0.011517, 0.0047115, -0.0153737, 0.0937266, -0.121368, 0.470685, -0.545395, 0.334172, -2.08307, -2.1648, -0.126903, 0.4686, -0.543914, 0.328366, -2.08136, -2.15662, -0.114517, -0.00626642, -0.0385235, -0.0343977, 0.00495023, -0.0258129, -0.0280869
0.143251, 1.69472, -1.23085, -1.54983, -0.899829, -1.1968, 1.22918, -1.30257, 0.0682288, -0.0111925, -0.0743474, 0.0762903, -0.0796932, 0.0382383, -0.00146885, -5.49096, 71.4798, 34.0781, 11.2109, 0.981627, 4.2203, 0.0357776, 0.000649729, -0.00181775, 0.00603701, 0.0107692, -0.000146743, 0.00385412, -0.0151222, -0.012917, 0.00623561, -0.0124831, 0.0918967, -0.118697, 0.470679, -0.545434, 0.334138, -2.08305, -2.16478, -0.126841, 0.468608, -0.54394, 0.328337, -2.08144, -2.15658, -0.114382, -0.00632538, -0.038872, -0.0347562, 0.0062776, -0.0243696, -0.026678
0.144251, 1.69479, -1.23086, -1.54991, -0.899742, -1.19689, 1.22923, -1.30257, 0.0682131, -0.011695, -0.0734393, 0.0769625, -0.0777083, 0.0364141, 0.000207559, -5.37591, 71.5155, 34.0424, 11.1752, 0.951415, 4.27066, 0.00373412, 0.000661607, -0.00180129, 0.00603142, 0.0107603, -0.000231412, 0.00391891, -0.0160394, -0.012878, 0.00650153, -0.011653, 0.0890601, -0.120558, 0.470673, -0.545473, 0.334103, -2.08303, -2.16476, -0.126778, 0.468618, -0.543967, 0.328309, -2.08154, -2.15654, -0.114236, -0.006384, -0.0392179, -0.0351138, 0.00615814, -0.0238523, -0.0266304
0.145251, 1.69487, -1.23086, -1.55, -0.899662, -1.19697, 1.22929, -1.30256, 0.0712051, -0.00571065, -0.0798722, 0.0738487, -0.0804149, 0.0452295, 0.00112172, -5.22515, 71.4044, 34.0781, 11.2863, 0.901976, 4.29904, -0.0228162, 0.000676159, -0.00178308, 0.00602238, 0.0107554, -0.000327326, 0.00397864, -0.0164239, -0.0153536, 0.00824932, -0.0118814, 0.102731, -0.120552, 0.470666, -0.545512, 0.334068, -2.08301, -2.16473, -0.126715, 0.468629, -0.543993, 0.328285, -2.08163, -2.15651, -0.114075, -0.00644226, -0.0395612, -0.0354704, 0.00862629, -0.0239826, -0.0252834
0.146251, 1.69495, -1.23088, -1.55009, -0.899581, -1.19706, 1.22934, -1.30257, 0.0739547, -0.0098907, -0.0794697, 0.0750872, -0.082947, 0.0417124, -0.00118497, -4.99902, 71.5155, 34.0027, 11.3974, 0.865355, 4.34939, 0.0293689, 0.00068786, -0.00176653, 0.00602058, 0.0107472, -0.000409085, 0.00403329, -0.0172517, -0.0158992, 0.00596027, -0.0155609, 0.0991723, -0.117845, 0.47066, -0.545551, 0.334033, -2.08299, -2.16471, -0.126651, 0.468639, -0.544021, 0.328252, -2.08172, -2.15648, -0.113932, -0.00650015, -0.0399019, -0.035826, 0.00899593, -0.0231323, -0.0277898
0.147251, 1.69503, -1.23088, -1.55019, -0.89949, -1.19715, 1.22939, -1.30257, 0.0764088, -0.00687973, -0.0828174, 0.0795099, -0.0847797, 0.0436155, -0.000789979, -4.88793, 71.3687, 33.967, 11.3617, 0.834227, 4.40707, 0.0293689, 0.000699211, -0.0017512, 0.00601037, 0.0107428, -0.000508256, 0.00409844, -0.0164315, -0.0158265, 0.00752138, -0.0153015, 0.104876, -0.122649, 0.470653, -0.545591, 0.333997, -2.08297, -2.16469, -0.126586, 0.468647, -0.54405, 0.328228, -2.08182, -2.15644, -0.113764, -0.00655767, -0.0402399, -0.0361806, 0.00895569, -0.0245225, -0.0267285
0.148251, 1.69511, -1.23087, -1.55028, -0.899403, -1.19724, 1.22945, -1.30256, 0.0733288, -0.00266243, -0.0867853, 0.0778281, -0.0858458, 0.0498174, 0.00140613, -4.6975, 71.2576, 33.967, 11.3974, 0.791197, 4.45743, -0.0228162, 0.000710554, -0.00173475, 0.00600112, 0.0107355, -0.000609884, 0.00417272, -0.0146416, -0.0147468, 0.00937779, -0.0134094, 0.113646, -0.12942, 0.470647, -0.545631, 0.333961, -2.08295, -2.16466, -0.12652, 0.468656, -0.54408, 0.328202, -2.08193, -2.1564, -0.113596, -0.00661481, -0.0405751, -0.036534, 0.00795626, -0.0269539, -0.0254916
0.149251, 1.6952, -1.23089, -1.55038, -0.899308, -1.19733, 1.22951, -1.30257, 0.0733849, -0.00933456, -0.0926218, 0.0791714, -0.0918979, 0.0503638, -4.5926e-05, -4.50707, 71.2933, 33.967, 11.322, 0.760985, 4.50046, 0.00373412, 0.000718304, -0.00172012, 0.00599901, 0.0107298, -0.000700499, 0.00424155, -0.0116094, -0.013024, 0.00391647, -0.0204279, 0.112827, -0.134386, 0.47064, -0.545672, 0.333924, -2.08293, -2.16464, -0.126454, 0.468664, -0.544113, 0.328168, -2.08203, -2.15635, -0.113438, -0.00667155, -0.0409074, -0.0368864, 0.00607511, -0.0295124, -0.0316501
0.150251, 1.69528, -1.23088, -1.55048, -0.899219, -1.19743, 1.22956, -1.30257, 0.0719076, -0.00600478, -0.0947332, 0.0794423, -0.0917879, 0.0544849, -0.000980053, -4.32061, 71.1108, 33.8917, 11.3974, 0.736266, 4.57187, 0.0293689, 0.000730699, -0.00170437, 0.00598722, 0.0107268, -0.000807219, 0.00430882, -0.0107008, -0.0125095, 0.00591331, -0.01757, 0.118478, -0.136866, 0.470633, -0.545713, 0.333887, -2.08291, -2.16461, -0.126387, 0.468673, -0.544143, 0.328145, -2.08214, -2.15631, -0.113259, -0.00672789, -0.0412368, -0.0372375, 0.00561503, -0.0310663, -0.0301541
0.151251, 1.69536, -1.23088, -1.55059, -0.899124, -1.19751, 1.22962, -1.30257, 0.073383, -0.0040111, -0.0963816, 0.0857051, -0.0910607, 0.0584918, 0.000533426, -4.16985, 71.0712, 33.9313, 11.3617, 0.693236, 4.6149, -0.00267457, 0.000739944, -0.00169075, 0.00598308, 0.0107267, -0.000900217, 0.00438898, -0.0094361, -0.0124709, 0.00795609, -0.0118642, 0.121828, -0.14368, 0.470627, -0.545754, 0.33385, -2.08289, -2.16458, -0.126319, 0.468679, -0.544175, 0.328113, -2.08225, -2.15626, -0.113089, -0.00678382, -0.0415633, -0.0375874, 0.00564525, -0.0329564, -0.0286823
0.152251, 1.69544, -1.23088, -1.55069, -0.899034, -1.1976, 1.22967, -1.30256, 0.07348, -0.00403832, -0.0966849, 0.0854866, -0.0912458, 0.0571883, 0.00157632, -3.97942, 70.9641, 33.8202, 11.3974, 0.674925, 4.6506, -0.0356336, 0.00075151, -0.00167682, 0.00597219, 0.0107211, -0.00100132, 0.00446447, -0.00995239, -0.0123117, 0.00799045, -0.0130397, 0.121684, -0.145321, 0.47062, -0.545796, 0.333812, -2.08287, -2.16456, -0.126251, 0.468686, -0.544206, 0.328087, -2.08236, -2.15621, -0.112916, -0.00683932, -0.0418868, -0.0379361, 0.00541432, -0.0327818, -0.0289125
0.153251, 1.69553, -1.23088, -1.5508, -0.898936, -1.19769, 1.22972, -1.30257, 0.0774197, -0.00402989, -0.0992531, 0.0902387, -0.0911151, 0.0557741, -0.00159398, -3.94372, 70.853, 33.7806, 11.3617, 0.662108, 4.69363, 0.0357776, 0.000762762, -0.00166296, 0.00596536, 0.0107236, -0.00109746, 0.00453168, -0.0103077, -0.0128078, 0.00773239, -0.0143953, 0.121122, -0.144296, 0.470613, -0.545838, 0.333774, -2.08285, -2.16453, -0.126182, 0.468692, -0.544238, 0.328057, -2.08245, -2.15616, -0.11274, -0.0068944, -0.0422071, -0.0382834, 0.0058325, -0.0326913, -0.0294769
0.154251, 1.69561, -1.23087, -1.5509, -0.898845, -1.19778, 1.22977, -1.30257, 0.0741911, 0.00165534, -0.10342, 0.0920059, -0.0918837, 0.0505737, 0.000124144, -3.79296, 70.6308, 33.7052, 11.3974, 0.656615, 4.72201, 0.00373412, 0.000773522, -0.00165221, 0.00595254, 0.0107269, -0.00120565, 0.00461299, -0.00875213, -0.00874414, 0.0098915, -0.0206445, 0.125181, -0.153831, 0.470606, -0.54588, 0.333736, -2.08282, -2.1645, -0.126112, 0.468696, -0.544271, 0.328033, -2.08257, -2.15611, -0.112548, -0.00694903, -0.0425243, -0.0386293, 0.00185983, -0.0350422, -0.0277978
0.155251, 1.69569, -1.23088, -1.55102, -0.898736, -1.19787, 1.22982, -1.30257, 0.0746895, -0.000372895, -0.10681, 0.0975075, -0.09293, 0.0519021, 0.000828748, -3.71758, 70.6665, 33.6695, 11.2506, 0.668517, 4.73666, -0.0164075, 0.000778751, -0.00164377, 0.00595143, 0.0107316, -0.00129185, 0.00470352, -0.00648537, -0.00739402, 0.00865378, -0.0201855, 0.124804, -0.161458, 0.470599, -0.545922, 0.333697, -2.0828, -2.16448, -0.126041, 0.468697, -0.544308, 0.327996, -2.08268, -2.15603, -0.112376, -0.00700322, -0.0428383, -0.0389739, 0.000489791, -0.0374596, -0.029671
0.156251, 1.69577, -1.23087, -1.55113, -0.898642, -1.19796, 1.22986, -1.30257, 0.0761203, -0.000344081, -0.103457, 0.0957715, -0.0924671, 0.0479035, 0.00031514, -3.60253, 70.5197, 33.483, 11.322, 0.643798, 4.75772, -0.00999879, 0.000791136, -0.00163445, 0.00594297, 0.0107399, -0.00138286, 0.00478295, -0.00919869, -0.00855849, 0.00949741, -0.0211043, 0.122783, -0.156946, 0.470592, -0.545965, 0.333659, -2.08278, -2.16445, -0.12597, 0.468699, -0.54434, 0.327967, -2.08279, -2.15597, -0.112195, -0.00705695, -0.0431491, -0.039317, 0.0015365, -0.035173, -0.0288004
0.157251, 1.69586, -1.23087, -1.55126, -0.898538, -1.19804, 1.2299, -1.30257, 0.0815169, -0.000587146, -0.112685, 0.101011, -0.0887594, 0.0448512, -0.00124797, -3.67791, 70.3729, 33.5187, 11.2863, 0.656615, 4.77969, 0.0293689, 0.000800759, -0.00162605, 0.00593879, 0.0107606, -0.00147741, 0.00486374, -0.00952518, -0.00867398, 0.00658676, -0.0280544, 0.118712, -0.158512, 0.470585, -0.546008, 0.333619, -2.08275, -2.16442, -0.125898, 0.4687, -0.544374, 0.327933, -2.08288, -2.1559, -0.111996, -0.00711021, -0.0434565, -0.0396587, 0.00147331, -0.0347067, -0.0319699
0.158251, 1.69593, -1.23086, -1.55138, -0.898424, -1.19812, 1.22994, -1.30257, 0.0769803, 0.000133154, -0.114917, 0.106597, -0.0854446, 0.0430205, -0.000119903, -3.60253, 70.1904, 33.4076, 11.1752, 0.656615, 4.78702, 0.0101428, 0.000804858, -0.00162602, 0.00592948, 0.0107703, -0.00156701, 0.0049726, -0.00666184, -0.00453833, 0.00737043, -0.0262138, 0.115657, -0.169696, 0.470578, -0.546052, 0.33358, -2.08273, -2.16439, -0.125825, 0.468692, -0.544414, 0.327904, -2.08302, -2.1558, -0.11181, -0.007163, -0.0437605, -0.0399988, -0.00257676, -0.0381276, -0.0318418
0.159251, 1.69602, -1.23085, -1.5515, -0.898314, -1.1982, 1.22998, -1.30257, 0.080953, -0.000438895, -0.114259, 0.108051, -0.0784855, 0.0464573, 0.000394783, -3.6422, 70.0436, 33.2966, 11.1752, 0.662108, 4.77969, -0.00267457, 0.000814385, -0.00161929, 0.00592242, 0.0107819, -0.00165554, 0.00506333, -0.00944223, -0.00804359, 0.00785196, -0.0189373, 0.111431, -0.165604, 0.470571, -0.546096, 0.33354, -2.08271, -2.16437, -0.125751, 0.468692, -0.54445, 0.327872, -2.08313, -2.15572, -0.111625, -0.0072153, -0.0440611, -0.0403373, 0.000792398, -0.035613, -0.0313922
0.160251, 1.6961, -1.23084, -1.55163, -0.898213, -1.19828, 1.23001, -1.30257, 0.0803715, 0.00580686, -0.121625, 0.105511, -0.0771615, 0.0438729, 0.000534456, -3.6422, 69.7461, 33.1498, 11.322, 0.650206, 4.79434, -0.00999879, 0.000828233, -0.00161331, 0.00591055, 0.010802, -0.00174919, 0.00514896, -0.00984252, -0.00655902, 0.00870171, -0.0271147, 0.116326, -0.168009, 0.470564, -0.54614, 0.333499, -2.08268, -2.16434, -0.125677, 0.46869, -0.544482, 0.327846, -2.08323, -2.15564, -0.111425, -0.0072671, -0.0443582, -0.0406742, -0.00072199, -0.0357061, -0.0307789
0.161251, 1.69618, -1.23083, -1.55176, -0.898097, -1.19836, 1.23004, -1.30257, 0.0791187, 0.00582418, -0.120715, 0.107541, -0.0729999, 0.0431317, -0.00161038, -3.60253, 69.635, 33.0744, 11.322, 0.674925, 4.77237, 0.0431018, 0.000833239, -0.00161525, 0.00590382, 0.010819, -0.00183073, 0.00525321, -0.0101167, -0.0059417, 0.00960723, -0.0234223, 0.112625, -0.167756, 0.470556, -0.546184, 0.333458, -2.08266, -2.16431, -0.125602, 0.468681, -0.544522, 0.327812, -2.08334, -2.15554, -0.111237, -0.00731841, -0.0446518, -0.0410095, -0.00136305, -0.035893, -0.0301574
0.162251, 1.69625, -1.23082, -1.55188, -0.897985, -1.19843, 1.23006, -1.30256, 0.0814486, 0.00943078, -0.120326, 0.108129, -0.0734061, 0.0364945, 0.000893099, -3.60253, 69.3771, 32.8879, 11.3617, 0.674925, 4.78702, -0.00999879, 0.000843584, -0.00161534, 0.00589044, 0.0108343, -0.00191509, 0.00535909, -0.0123266, -0.0059011, 0.0115715, -0.028336, 0.11364, -0.169216, 0.470549, -0.546229, 0.333417, -2.08263, -2.16428, -0.125526, 0.468673, -0.544559, 0.327786, -2.08346, -2.15544, -0.111048, -0.0073692, -0.0449417, -0.0413431, -0.00145408, -0.0343039, -0.0282086
0.163251, 1.69634, -1.23081, -1.55202, -0.897863, -1.1985, 1.23008, -1.30256, 0.0825752, 0.0067593, -0.125853, 0.112397, -0.0734738, 0.0326048, 0.00201955, -3.6422, 69.3414, 32.8522, 11.3617, 0.662108, 4.77237, -0.0484509, 0.000849118, -0.00161665, 0.00588845, 0.0108566, -0.00198845, 0.00546928, -0.0109188, -0.00395587, 0.00853912, -0.0345453, 0.109531, -0.176258, 0.470542, -0.546274, 0.333376, -2.08261, -2.16425, -0.12545, 0.468664, -0.544599, 0.327748, -2.08358, -2.15533, -0.110862, -0.00741948, -0.0452279, -0.0416749, -0.0035165, -0.0355948, -0.0316872
0.164251, 1.69641, -1.2308, -1.55215, -0.897748, -1.19857, 1.23011, -1.30257, 0.0790463, 0.00766755, -0.126704, 0.11184, -0.069105, 0.0252211, -7.77851e-05, -3.56683, 69.1946, 32.7768, 11.3974, 0.656615, 4.75131, -0.00999879, 0.000854312, -0.0016224, 0.00587958, 0.0108749, -0.00206738, 0.00557531, -0.0113905, -0.00110712, 0.00852936, -0.0388462, 0.103504, -0.176845, 0.470534, -0.546319, 0.333334, -2.08258, -2.16422, -0.125373, 0.46865, -0.54464, 0.327716, -2.0837, -2.15522, -0.110673, -0.00746922, -0.0455105, -0.042005, -0.00642741, -0.035527, -0.0318579
0.165251, 1.69648, -1.23078, -1.55227, -0.897626, -1.19864, 1.23012, -1.30258, 0.0756563, 0.0109396, -0.125036, 0.116309, -0.0703479, 0.0193851, -0.0022559, -3.52715, 68.9368, 32.6261, 11.3617, 0.650206, 4.73666, 0.0495105, 0.000863835, -0.00162687, 0.00586212, 0.0108886, -0.00214814, 0.00567694, -0.0098891, 0.00273992, 0.0116419, -0.0396567, 0.104607, -0.182336, 0.470527, -0.546364, 0.333292, -2.08255, -2.16419, -0.125295, 0.468638, -0.544679, 0.327693, -2.08381, -2.15512, -0.110488, -0.00751843, -0.0457892, -0.0423333, -0.0101407, -0.0379232, -0.0292152
0.166251, 1.69656, -1.23077, -1.55241, -0.897508, -1.19872, 1.23014, -1.30257, 0.0726531, 0.0123368, -0.130068, 0.1138, -0.0676526, 0.0147161, 0.00093747, -3.52715, 68.7146, 32.5904, 11.4371, 0.668517, 4.72934, -0.0164075, 0.000873519, -0.00163032, 0.00585093, 0.0109155, -0.00223017, 0.00579403, -0.00972913, 0.00531201, 0.0103845, -0.0469935, 0.102291, -0.188532, 0.470519, -0.54641, 0.33325, -2.08253, -2.16416, -0.125216, 0.468627, -0.544718, 0.327664, -2.08393, -2.155, -0.110284, -0.00756709, -0.0460641, -0.0426597, -0.0128014, -0.0382687, -0.0307205
0.167251, 1.69664, -1.23076, -1.55254, -0.897388, -1.19879, 1.23015, -1.30256, 0.0738496, 0.00894485, -0.132714, 0.113847, -0.0699374, 0.0114604, 0.0010997, -3.52715, 68.6789, 32.515, 11.4371, 0.680419, 4.7156, -0.0292249, 0.000882202, -0.00163551, 0.00584755, 0.0109448, -0.0022931, 0.00590519, -0.00961403, 0.00587592, 0.00740364, -0.0532274, 0.0997662, -0.19017, 0.470512, -0.546456, 0.333207, -2.0825, -2.16412, -0.125137, 0.468614, -0.544756, 0.327626, -2.08404, -2.15487, -0.110098, -0.0076152, -0.0463352, -0.0429842, -0.0135268, -0.0382194, -0.0339865
0.168251, 1.69671, -1.23075, -1.55269, -0.89726, -1.19885, 1.23015, -1.30257, 0.0729255, 0.010146, -0.13891, 0.115279, -0.0672995, 0.00903858, -0.000962289, -3.4121, 68.4964, 32.515, 11.3617, 0.699645, 4.70096, 0.0165515, 0.0008863, -0.00164715, 0.00584033, 0.0109771, -0.00236238, 0.00602197, -0.00869821, 0.00796547, 0.00625599, -0.0581455, 0.0982244, -0.193077, 0.470504, -0.546503, 0.333164, -2.08247, -2.16409, -0.125057, 0.468594, -0.5448, 0.327591, -2.08415, -2.15474, -0.109899, -0.00766275, -0.0466022, -0.0433068, -0.0156739, -0.0393005, -0.0355124
0.169251, 1.69679, -1.23074, -1.55283, -0.897133, -1.19892, 1.23016, -1.30257, 0.0737418, 0.0118963, -0.13903, 0.118736, -0.0699606, 0.00721009, -0.00111624, -3.4121, 68.2742, 32.4396, 11.322, 0.717955, 4.68631, 0.0293689, 0.000895427, -0.00165375, 0.00582983, 0.0110067, -0.00243566, 0.00613708, -0.00814446, 0.00894005, 0.00782927, -0.0589625, 0.101364, -0.196815, 0.470496, -0.546549, 0.333121, -2.08245, -2.16406, -0.124976, 0.46858, -0.544839, 0.32756, -2.08427, -2.15462, -0.1097, -0.00770973, -0.0468653, -0.0436274, -0.0166109, -0.0403915, -0.0343315
0.170251, 1.69687, -1.23073, -1.55297, -0.896999, -1.19899, 1.23017, -1.30257, 0.0724325, 0.0104808, -0.140439, 0.122943, -0.0665059, 0.00555937, 0.000951258, -3.33672, 68.1631, 32.4396, 11.2109, 0.723448, 4.67898, -0.0164075, 0.000900092, -0.00166444, 0.00582362, 0.0110355, -0.00249948, 0.00626495, -0.00706763, 0.0107229, 0.00728585, -0.0575004, 0.0963818, -0.204045, 0.470489, -0.546596, 0.333077, -2.08242, -2.16403, -0.124894, 0.468561, -0.544883, 0.327524, -2.08439, -2.15447, -0.109509, -0.00775613, -0.0471243, -0.043946, -0.0184208, -0.0417036, -0.0352917
0.171251, 1.69694, -1.23072, -1.5531, -0.896866, -1.19905, 1.23017, -1.30257, 0.0725584, 0.0103845, -0.134381, 0.124223, -0.0645506, 0.00538971, 0.000871531, -3.26134, 68.0164, 32.3682, 11.1752, 0.748168, 4.64328, -0.0228162, 0.000907713, -0.00167362, 0.00581311, 0.0110555, -0.00256211, 0.00638451, -0.00869216, 0.00961924, 0.00980458, -0.0503897, 0.0944605, -0.202102, 0.470481, -0.546643, 0.333034, -2.08239, -2.164, -0.124812, 0.468544, -0.544925, 0.327492, -2.08451, -2.15434, -0.109329, -0.00780194, -0.0473792, -0.0442625, -0.01732, -0.0406954, -0.0329071
0.172251, 1.69702, -1.23071, -1.55324, -0.896733, -1.19911, 1.23018, -1.30257, 0.0742485, 0.00949422, -0.1355, 0.12223, -0.0679199, 0.00464381, -0.00135176, -3.15026, 67.9053, 32.4039, 11.1356, 0.766478, 4.62222, 0.0293689, 0.000912192, -0.00168674, 0.00580675, 0.011084, -0.00262162, 0.0065094, -0.00943537, 0.00888959, 0.00874895, -0.0544188, 0.0966504, -0.198758, 0.470473, -0.546691, 0.332989, -2.08236, -2.16396, -0.124729, 0.468523, -0.544969, 0.327455, -2.08462, -2.1542, -0.109141, -0.00784715, -0.04763, -0.044577, -0.0167046, -0.0400205, -0.0341733
0.173251, 1.6971, -1.2307, -1.55338, -0.89659, -1.19918, 1.23018, -1.30257, 0.0761951, 0.00890749, -0.135799, 0.125198, -0.0694612, 0.00462138, 0.000794248, -3.15026, 67.7942, 32.3285, 11.0245, 0.760985, 4.58652, -0.0164075, 0.00091937, -0.0016955, 0.00579604, 0.0111033, -0.00268403, 0.00663676, -0.00930119, 0.00864849, 0.00889745, -0.0539131, 0.0975663, -0.202895, 0.470465, -0.546738, 0.332945, -2.08233, -2.16393, -0.124645, 0.468506, -0.545012, 0.327423, -2.08475, -2.15405, -0.10896, -0.00789177, -0.0478765, -0.0448893, -0.016497, -0.0404124, -0.0343675
0.174251, 1.69717, -1.23069, -1.55352, -0.896451, -1.19925, 1.23018, -1.30257, 0.0737447, 0.00852145, -0.13555, 0.134292, -0.0665384, 0.00377577, 0.00029214, -3.03521, 67.6831, 32.3285, 10.9888, 0.772887, 4.57187, -0.00999879, 0.000923593, -0.00170866, 0.00578815, 0.011128, -0.00274444, 0.00676566, -0.00649922, 0.0118117, 0.0103482, -0.0479769, 0.0938672, -0.212377, 0.470457, -0.546786, 0.3329, -2.0823, -2.16389, -0.124561, 0.468485, -0.545057, 0.327387, -2.08487, -2.15391, -0.108773, -0.00793577, -0.0481188, -0.0451995, -0.0195415, -0.0437734, -0.033569
0.175251, 1.69726, -1.23069, -1.55366, -0.896302, -1.19931, 1.23018, -1.30257, 0.0768883, 0.0073399, -0.133395, 0.139846, -0.063512, 0.00290268, -0.000313866, -2.9995, 67.6117, 32.2532, 10.9134, 0.760985, 4.56454, 0.00373412, 0.000931356, -0.00171741, 0.00577827, 0.0111453, -0.00279983, 0.00688992, -0.00756636, 0.0106608, 0.0112231, -0.0429422, 0.0896752, -0.21216, 0.470449, -0.546834, 0.332855, -2.08227, -2.16386, -0.124476, 0.468468, -0.5451, 0.327353, -2.08499, -2.15376, -0.1086, -0.00797915, -0.0483568, -0.0455074, -0.018437, -0.0430446, -0.032887
0.176251, 1.69733, -1.23069, -1.55379, -0.896141, -1.19937, 1.23018, -1.30257, 0.0754985, 0.00404942, -0.132305, 0.146484, -0.0619034, 0.00202079, -0.00139604, -2.88445, 67.6474, 32.2175, 10.7269, 0.766478, 4.56454, 0.0357776, 0.00093116, -0.00173352, 0.00577233, 0.0111567, -0.00284363, 0.00703421, -0.00561819, 0.0126223, 0.0108478, -0.0385039, 0.0843393, -0.217811, 0.470441, -0.546883, 0.332809, -2.08224, -2.16383, -0.12439, 0.468443, -0.54515, 0.327314, -2.08513, -2.15359, -0.108443, -0.00802191, -0.0485903, -0.0458132, -0.0203841, -0.0452246, -0.0337961
0.177251, 1.69742, -1.23069, -1.55393, -0.895989, -1.19943, 1.23018, -1.30256, 0.0791471, 0.00436358, -0.135148, 0.144865, -0.0607057, 0.00168272, 0.00123945, -2.88445, 67.576, 32.1818, 10.6873, 0.772887, 4.55722, -0.0228162, 0.000939482, -0.00174187, 0.00576226, 0.0111688, -0.00289473, 0.00716824, -0.0077044, 0.0106166, 0.00987327, -0.0415515, 0.0843986, -0.217058, 0.470433, -0.546931, 0.332763, -2.08221, -2.16379, -0.124304, 0.468427, -0.545192, 0.32728, -2.08526, -2.15344, -0.108277, -0.00806403, -0.0488195, -0.0461166, -0.0185357, -0.0431622, -0.0348077
0.178251, 1.69751, -1.23068, -1.55407, -0.89583, -1.19949, 1.23018, -1.30257, 0.0815418, 0.00466744, -0.13947, 0.147396, -0.0589007, 0.00167863, -0.000157047, -2.84875, 67.5006, 32.1421, 10.6158, 0.754576, 4.54349, 0.00373412, 0.000945604, -0.00175223, 0.00575054, 0.011179, -0.0029481, 0.00729656, -0.00778234, 0.0103891, 0.00903894, -0.0431795, 0.0837982, -0.217658, 0.470425, -0.54698, 0.332717, -2.08218, -2.16375, -0.124217, 0.468408, -0.545237, 0.327247, -2.08538, -2.15329, -0.108111, -0.00810551, -0.0490442, -0.0464177, -0.0183858, -0.0431727, -0.0359277
0.179251, 1.69759, -1.23068, -1.55421, -0.895669, -1.19955, 1.23019, -1.30257, 0.0836971, 0.00310799, -0.140429, 0.151985, -0.0535794, 0.00169777, -0.00105413, -2.84875, 67.5006, 32.1064, 10.5762, 0.754576, 4.52884, 0.0293689, 0.000950639, -0.00176267, 0.00574283, 0.0111911, -0.00299734, 0.00742842, -0.00836302, 0.00971041, 0.00857445, -0.0393599, 0.078063, -0.217984, 0.470417, -0.547029, 0.332671, -2.08215, -2.16372, -0.124129, 0.468389, -0.545283, 0.327209, -2.08551, -2.15314, -0.107946, -0.00814634, -0.0492643, -0.0467165, -0.0177876, -0.0427205, -0.0366181
0.180251, 1.69768, -1.23068, -1.55436, -0.895502, -1.19962, 1.23019, -1.30257, 0.0796106, 0.0038325, -0.142199, 0.159305, -0.0549504, 0.00115895, 0.00024668, -2.7337, 67.4252, 32.1064, 10.5008, 0.772887, 4.52884, 0.00373412, 0.000950841, -0.00177866, 0.00573488, 0.0112075, -0.00305023, 0.00758013, -0.00413771, 0.0142259, 0.00983212, -0.0374115, 0.0793923, -0.231727, 0.470409, -0.547078, 0.332624, -2.08211, -2.16368, -0.12404, 0.468365, -0.545334, 0.327171, -2.08565, -2.15297, -0.10777, -0.00818651, -0.0494799, -0.0470129, -0.0221357, -0.0474862, -0.036168
0.181251, 1.69777, -1.23067, -1.5545, -0.895331, -1.19968, 1.23019, -1.30256, 0.0811571, 0.00422339, -0.142632, 0.160445, -0.0554695, 0.00160677, 0.00138516, -2.77337, 67.3538, 32.1064, 10.4651, 0.779296, 4.50686, -0.0292249, 0.000955627, -0.00178826, 0.00572433, 0.0112193, -0.00310676, 0.00772765, -0.00454092, 0.013649, 0.0103064, -0.0368377, 0.0808463, -0.233387, 0.470401, -0.547128, 0.332577, -2.08208, -2.16365, -0.123951, 0.468347, -0.545381, 0.327136, -2.08579, -2.1528, -0.107595, -0.00822601, -0.0496909, -0.0473069, -0.0215931, -0.047348, -0.0359504
0.182251, 1.69785, -1.23068, -1.55464, -0.895149, -1.19974, 1.23019, -1.30257, 0.0835178, -0.000619617, -0.142753, 0.170615, -0.0557335, 0.00159505, -0.0012467, -2.65832, 67.5006, 32.0707, 10.3143, 0.779296, 4.49313, 0.0293689, 0.000954267, -0.00180381, 0.0057181, 0.0112164, -0.00314142, 0.00787323, -0.00234021, 0.0145398, 0.00895456, -0.0326424, 0.0758828, -0.238028, 0.470393, -0.547178, 0.33253, -2.08205, -2.16361, -0.123861, 0.468323, -0.545433, 0.327095, -2.08593, -2.15263, -0.107458, -0.00826484, -0.0498971, -0.0475984, -0.0224985, -0.0495566, -0.0378848
0.183251, 1.69795, -1.23067, -1.55479, -0.894968, -1.1998, 1.23019, -1.30257, 0.0886067, 0.00134901, -0.143692, 0.172328, -0.0517698, 0.000803538, -0.00106849, -2.65832, 67.4252, 32.1064, 10.2786, 0.797606, 4.50046, 0.0357776, 0.000959588, -0.00181306, 0.00570532, 0.0112223, -0.00319467, 0.00801507, -0.00518118, 0.0119355, 0.00997357, -0.0316092, 0.0747512, -0.234539, 0.470384, -0.547228, 0.332482, -2.08201, -2.16357, -0.12377, 0.468306, -0.54548, 0.327061, -2.08607, -2.15246, -0.107292, -0.00830299, -0.0500987, -0.0478874, -0.0199935, -0.0470022, -0.0368187
0.184251, 1.69805, -1.23067, -1.55492, -0.894773, -1.19986, 1.23019, -1.30257, 0.0924712, 0.00173369, -0.140448, 0.178711, -0.0571647, 0.000544269, -0.000712329, -2.65832, 67.3895, 32.0707, 10.1675, 0.784789, 4.50046, 0.0357776, 0.00096218, -0.00182298, 0.00569043, 0.0112102, -0.0032412, 0.00816591, -0.00491988, 0.0112577, 0.0122938, -0.0285988, 0.079242, -0.237587, 0.470376, -0.547278, 0.332434, -2.08198, -2.16353, -0.123678, 0.468288, -0.545531, 0.327029, -2.08623, -2.1523, -0.107151, -0.00834046, -0.0502955, -0.0481739, -0.0192486, -0.0477847, -0.0348778
0.185251, 1.69815, -1.23068, -1.55506, -0.894583, -1.19993, 1.23019, -1.30256, 0.0921561, 0.00031993, -0.138937, 0.180896, -0.0566173, 0.00013192, 0.00193261, -2.54723, 67.4252, 32.0707, 10.1675, 0.772887, 4.50686, -0.0292249, 0.000964997, -0.0018337, 0.00567965, 0.0112058, -0.00328372, 0.00832617, -0.00471441, 0.0116177, 0.0125324, -0.0259562, 0.0773167, -0.242178, 0.470368, -0.547328, 0.332386, -2.08195, -2.1635, -0.123586, 0.468268, -0.54558, 0.326992, -2.08638, -2.15211, -0.107004, -0.00837722, -0.0504874, -0.0484579, -0.0196266, -0.0482309, -0.0349443
0.186251, 1.69826, -1.23068, -1.55521, -0.894384, -1.19999, 1.23019, -1.30257, 0.0938704, -0.00238565, -0.142597, 0.18699, -0.0568084, -0.000178496, 0.000576331, -2.47185, 67.5363, 32.1818, 10.0922, 0.779296, 4.51419, -0.00999879, 0.00096706, -0.00184304, 0.00567375, 0.0112076, -0.00332311, 0.00847492, -0.00291593, 0.0126887, 0.0106378, -0.0267035, 0.0748609, -0.246868, 0.470359, -0.547378, 0.332338, -2.08191, -2.16346, -0.123493, 0.46825, -0.54563, 0.326951, -2.08652, -2.15194, -0.106854, -0.00841329, -0.0506745, -0.0487392, -0.0207461, -0.0499474, -0.0373357
0.187251, 1.69837, -1.23069, -1.55535, -0.894187, -1.20004, 1.23019, -1.30257, 0.0980853, -0.00251882, -0.143243, 0.193379, -0.0570005, -0.000115379, -0.000599123, -2.43218, 67.576, 32.1818, 10.0922, 0.784789, 4.51419, 0.0165515, 0.000975656, -0.00184684, 0.00566157, 0.0111978, -0.00336249, 0.00861127, -0.00293806, 0.0118565, 0.0112792, -0.0244825, 0.0750229, -0.24816, 0.470351, -0.547429, 0.332289, -2.08188, -2.16342, -0.1234, 0.468238, -0.545674, 0.326915, -2.08666, -2.15178, -0.106717, -0.00844864, -0.0508567, -0.0490179, -0.0199238, -0.0501718, -0.0370062
