alisrour97/Franka_experiments/Real_Robot_scripts/servo-franka/Data2/log_dyn_PI2_12.csv
Time,q1,q2,q3,q4,q5,q6,q7,dq1,dq2,dq3,dq4,dq5,dq6,dq7,t1,t2,t3,t4,t5,t6,t7,ex1,ex2,ex3,ex4,ex5,ex6,ev1,ev2,ev3,ev4,ev5,ev6,xd,yd,zd,uxd,uyd,uzd,x,y,z,ux,uy,uz,vxd,vyd,vzd,vx,vy,vz
4.88281e-07, 1.6911, -1.23047, -1.54165, -0.900726, -1.1929, 1.22684, -1.30249, -0.00608703, -0.000283943, -0.00991225, 0.00356142, 0.00106716, -0.000633462, -0.00103029, 1.07887, 70.6665, 37.5019, 7.92602, 3.92322, 5.7117, -0.363392, -0.000229596, -0.00255374, 0.00448474, 0.00605719, 0.00407608, 0.00182814, 0.00544609, 0.00594672, -0.00287318, -0.0060714, -0.00135537, -0.01258, 0.471008, -0.543389, 0.335894, -2.08385, -2.16584, -0.129887, 0.468319, -0.543016, 0.331521, -2.08045, -2.15929, -0.127111, -1.41255e-05, -9.11997e-05, -6.59526e-05, -0.00586215, -0.00526882, -0.00356902
0.0121299, 1.69103, -1.23048, -1.54173, -0.900711, -1.19289, 1.22683, -1.30249, -0.00508224, -0.00293526, -0.01116, 0.00051824, 0.000792532, -0.00835284, -0.00153289, 1.00349, 70.6308, 37.5773, 8.0014, 3.89209, 5.77579, -0.369801, -0.000279745, -0.00261239, 0.00451745, 0.00612528, 0.00410009, 0.00194224, 0.00379304, 0.00631535, -0.00598614, -0.0157937, -0.00721005, -0.00910916, 0.471008, -0.543389, 0.335894, -2.08385, -2.16584, -0.129887, 0.468246, -0.543077, 0.331468, -2.08053, -2.15909, -0.127053, -2.13283e-05, -0.000136675, -0.000102379, -0.00640897, -0.00321829, -0.0064116
0.0131299, 1.69103, -1.23048, -1.54173, -0.900711, -1.19289, 1.22683, -1.30249, -0.00508224, -0.00293526, -0.01116, 0.00051824, 0.000792532, -0.00835284, -0.00153289, 1.00349, 70.6308, 37.5773, 8.0014, 3.89209, 5.77579, -0.369801, -0.000279733, -0.00261239, 0.00451744, 0.00612527, 0.00410009, 0.00194224, 0.00373816, 0.00630667, -0.00595419, -0.0157653, -0.00720054, -0.00916996, 0.471008, -0.543389, 0.335894, -2.08385, -2.16584, -0.129887, 0.468246, -0.543077, 0.331468, -2.08053, -2.15909, -0.127053, -2.91898e-05, -0.000186294, -0.000142179, -0.00640897, -0.00321829, -0.0064116
0.0141299, 1.69103, -1.23048, -1.54173, -0.900711, -1.19289, 1.22683, -1.30249, -0.00508224, -0.00293526, -0.01116, 0.00051824, 0.000792532, -0.00835284, -0.00153289, 1.00349, 70.6308, 37.5773, 8.0014, 3.89209, 5.77579, -0.369801, -0.000279702, -0.00261239, 0.00451743, 0.00612525, 0.0041001, 0.00194223, 0.00367853, 0.00629724, -0.00591943, -0.0157343, -0.00719004, -0.00923618, 0.471008, -0.543389, 0.335894, -2.08385, -2.16584, -0.129887, 0.468246, -0.543077, 0.331468, -2.08053, -2.15909, -0.127053, -3.77325e-05, -0.000240197, -0.00018547, -0.00640897, -0.00321829, -0.0064116
0.0151299, 1.69103, -1.23048, -1.54173, -0.900711, -1.19289, 1.22683, -1.30249, -0.00508224, -0.00293526, -0.01116, 0.00051824, 0.000792532, -0.00835284, -0.00153289, 1.00349, 70.6308, 37.5773, 8.0014, 3.89209, 5.77579, -0.369801, -0.000279642, -0.00261238, 0.00451739, 0.0061252, 0.00410011, 0.00194222, 0.003614, 0.00628703, -0.00588177, -0.0157005, -0.00717852, -0.00930801, 0.471008, -0.543389, 0.335894, -2.08385, -2.16584, -0.129887, 0.468246, -0.543077, 0.331468, -2.08053, -2.15909, -0.127053, -4.69786e-05, -0.000298522, -0.00023237, -0.00640897, -0.00321829, -0.0064116
0.0161299, 1.69103, -1.23048, -1.54173, -0.900711, -1.19289, 1.22683, -1.30249, -0.00508224, -0.00293526, -0.01116, 0.00051824, 0.000792532, -0.00835284, -0.00153289, 1.00349, 70.6308, 37.5773, 8.0014, 3.89209, 5.77579, -0.369801, -0.000279544, -0.00261236, 0.00451733, 0.00612511, 0.00410013, 0.00194221, 0.00354442, 0.00627602, -0.0058411, -0.015664, -0.00716592, -0.00938563, 0.471008, -0.54339, 0.335894, -2.08385, -2.16584, -0.129887, 0.468246, -0.543077, 0.331468, -2.08053, -2.15909, -0.127053, -5.69498e-05, -0.000361405, -0.000282992, -0.00640897, -0.00321829, -0.0064116
0.0171299, 1.69103, -1.23048, -1.54173, -0.900711, -1.19289, 1.22683, -1.30249, -0.00508224, -0.00293526, -0.01116, 0.00051824, 0.000792532, -0.00835284, -0.00153289, 1.00349, 70.6308, 37.5773, 8.0014, 3.89209, 5.77579, -0.369801, -0.000279398, -0.00261234, 0.00451725, 0.00612499, 0.00410016, 0.00194219, 0.00346965, 0.0062642, -0.00579734, -0.0156245, -0.00715221, -0.00946924, 0.471008, -0.54339, 0.335894, -2.08385, -2.16584, -0.129886, 0.468246, -0.543077, 0.331468, -2.08053, -2.15909, -0.127053, -6.7667e-05, -0.000428975, -0.000337449, -0.00640897, -0.00321829, -0.0064116
0.0181299, 1.69103, -1.23048, -1.54173, -0.900711, -1.19289, 1.22683, -1.30249, -0.00508224, -0.00293526, -0.01116, 0.00051824, 0.000792532, -0.00835284, -0.00153289, 1.00349, 70.6308, 37.5773, 8.0014, 3.89209, 5.77579, -0.369801, -0.000279195, -0.0026123, 0.00451713, 0.00612482, 0.00410021, 0.00194216, 0.00338953, 0.00625152, -0.00575041, -0.0155821, -0.00713734, -0.009559, 0.471008, -0.54339, 0.335893, -2.08385, -2.16584, -0.129886, 0.468246, -0.543077, 0.331468, -2.08053, -2.15909, -0.127053, -7.91509e-05, -0.000501362, -0.000395848, -0.00640897, -0.00321829, -0.0064116
0.0191299, 1.69103, -1.23048, -1.54173, -0.900711, -1.19289, 1.22683, -1.30249, -0.00508224, -0.00293526, -0.01116, 0.00051824, 0.000792532, -0.00835284, -0.00153289, 1.00349, 70.6308, 37.5773, 8.0014, 3.89209, 5.77579, -0.369801, -0.000278927, -0.00261226, 0.00451698, 0.00612459, 0.00410026, 0.00194213, 0.00330394, 0.00623799, -0.0057002, -0.0155366, -0.00712126, -0.00965508, 0.471008, -0.54339, 0.335893, -2.08385, -2.16584, -0.129886, 0.468246, -0.543077, 0.331468, -2.08053, -2.15909, -0.127053, -9.14213e-05, -0.000578688, -0.000458296, -0.00640897, -0.00321829, -0.0064116
0.0201299, 1.69103, -1.23048, -1.54173, -0.900711, -1.19289, 1.22683, -1.30249, -0.00508224, -0.00293526, -0.01116, 0.00051824, 0.000792532, -0.00835284, -0.00153289, 1.00349, 70.6308, 37.5773, 8.0014, 3.89209, 5.77579, -0.369801, -0.000278583, -0.00261221, 0.00451678, 0.0061243, 0.00410034, 0.00194208, 0.00321274, 0.00622356, -0.00564665, -0.0154879, -0.00710394, -0.00975766, 0.471008, -0.54339, 0.335893, -2.08385, -2.16584, -0.129885, 0.468246, -0.543077, 0.331468, -2.08053, -2.15909, -0.127053, -0.000104498, -0.000661074, -0.000524897, -0.00640897, -0.00321829, -0.0064116
0.0211299, 1.69103, -1.23048, -1.54173, -0.900711, -1.19289, 1.22683, -1.30249, -0.00508224, -0.00293526, -0.01116, 0.00051824, 0.000792532, -0.00835284, -0.00153289, 1.00349, 70.6308, 37.5773, 8.0014, 3.89209, 5.77579, -0.369801, -0.000278155, -0.00261214, 0.00451653, 0.00612394, 0.00410043, 0.00194202, 0.0031158, 0.00620823, -0.00558967, -0.015436, -0.00708532, -0.0098669, 0.471008, -0.543391, 0.335893, -2.08385, -2.16584, -0.129885, 0.468246, -0.543077, 0.331468, -2.08053, -2.15909, -0.127053, -0.000118398, -0.000748633, -0.000595748, -0.00640897, -0.00321829, -0.0064116
0.0221299, 1.69103, -1.23048, -1.54173, -0.900711, -1.19289, 1.22683, -1.30249, -0.00508224, -0.00293526, -0.01116, 0.00051824, 0.000792532, -0.00835284, -0.00153289, 1.00349, 70.6308, 37.5773, 8.0014, 3.89209, 5.77579, -0.369801, -0.000277635, -0.00261205, 0.00451623, 0.0061235, 0.00410054, 0.00194195, 0.00301299, 0.00619197, -0.00552918, -0.0153807, -0.00706538, -0.00998296, 0.471008, -0.543391, 0.335892, -2.08385, -2.16584, -0.129884, 0.468246, -0.543077, 0.331468, -2.08053, -2.15909, -0.127053, -0.000133141, -0.000841478, -0.000670947, -0.00640897, -0.00321829, -0.0064116
0.0231299, 1.69103, -1.23048, -1.54173, -0.900711, -1.19289, 1.22683, -1.30249, -0.00508224, -0.00293526, -0.01116, 0.00051824, 0.000792532, -0.00835284, -0.00153289, 1.00349, 70.6308, 37.5773, 8.0014, 3.89209, 5.77579, -0.369801, -0.000277014, -0.00261195, 0.00451587, 0.00612297, 0.00410067, 0.00194187, 0.00290421, 0.00617477, -0.0054651, -0.0153221, -0.00704406, -0.010106, 0.471008, -0.543392, 0.335892, -2.08385, -2.16584, -0.129884, 0.468246, -0.543077, 0.331468, -2.08053, -2.15909, -0.127053, -0.000148743, -0.000939713, -0.000750586, -0.00640897, -0.00321829, -0.0064116
0.0241299, 1.69103, -1.23048, -1.54173, -0.900711, -1.19289, 1.22683, -1.30249, -0.00508224, -0.00293526, -0.01116, 0.00051824, 0.000792532, -0.00835284, -0.00153289, 1.00349, 70.6308, 37.5773, 8.0014, 3.89209, 5.77579, -0.369801, -0.000276284, -0.00261183, 0.00451544, 0.00612234, 0.00410082, 0.00194177, 0.00278933, 0.0061566, -0.00539737, -0.0152599, -0.00702132, -0.0102361, 0.471008, -0.543393, 0.335891, -2.08385, -2.16584, -0.129883, 0.468246, -0.543077, 0.331468, -2.08053, -2.15909, -0.127053, -0.00016522, -0.00104344, -0.000834754, -0.00640897, -0.00321829, -0.0064116
0.0251299, 1.69093, -1.2305, -1.54181, -0.900725, -1.19287, 1.2268, -1.3025, -0.00159023, -0.00229017, -0.00204192, -7.61296e-05, 0.00590644, -0.00331139, -0.00117765, 0.888436, 70.8173, 37.4662, 8.11249, 3.70166, 5.89755, -0.356984, -0.000326141, -0.00268061, 0.00455057, 0.00618821, 0.0041487, 0.00205127, -0.00147864, 0.000935404, -0.00154232, -0.00122403, -0.00846031, -0.000694943, 0.471007, -0.543393, 0.335891, -2.08385, -2.16584, -0.129882, 0.468178, -0.543125, 0.331428, -2.08059, -2.15892, -0.127016, -0.000182589, -0.00115275, -0.000923534, -0.00122533, 0.000506136, -0.0021888
0.0261299, 1.69092, -1.23051, -1.54181, -0.90073, -1.19286, 1.2268, -1.3025, -0.00218541, -0.0040387, -0.00154603, -0.000976761, 0.00524519, -0.00216017, 0.000361927, 0.928108, 70.9244, 37.4662, 8.15216, 3.67694, 5.89114, -0.389027, -0.000329857, -0.00268668, 0.0045577, 0.00619379, 0.00416185, 0.00205973, -0.00130156, 0.000793072, -0.00231332, -0.000512418, -0.00903357, -0.00212521, 0.471007, -0.543394, 0.33589, -2.08385, -2.16584, -0.129881, 0.468171, -0.543128, 0.331419, -2.08059, -2.1589, -0.127021, -0.000200863, -0.00126774, -0.00101701, -0.00112296, 0.000340819, -0.00307534
0.0271299, 1.69091, -1.23052, -1.54182, -0.900728, -1.19286, 1.2268, -1.3025, -0.00782347, -0.0105943, -0.00867689, -0.00204941, 0.00273864, -0.00254407, -2.58986e-05, 0.928108, 70.5951, 37.2043, 8.07678, 3.57898, 5.79043, -0.382618, -0.000334825, -0.00269274, 0.00456096, 0.00619359, 0.00416844, 0.00207396, 0.00326564, 0.00520169, -0.00850385, -0.00835443, -0.0133155, -0.0106386, 0.471007, -0.543395, 0.335889, -2.08384, -2.16584, -0.129879, 0.468165, -0.543134, 0.331415, -2.0806, -2.15888, -0.127025, -0.000220057, -0.00138849, -0.00111525, -0.00560526, -0.00351638, -0.00986219
0.0281299, 1.6909, -1.23051, -1.54184, -0.900734, -1.19286, 1.2268, -1.3025, -0.00988094, -0.00887164, -0.017359, -0.00534877, 0.000682669, -0.00812336, 0.000174631, 0.85273, 69.5636, 36.6092, 7.9657, 3.35193, 5.56796, -0.258107, -0.000336646, -0.00269697, 0.00456382, 0.00621034, 0.00416223, 0.00207443, 0.00451604, 0.00842546, -0.0113167, -0.0227786, -0.0118772, -0.0150232, 0.471007, -0.543396, 0.335888, -2.08384, -2.16584, -0.129878, 0.468161, -0.543137, 0.331411, -2.08059, -2.15888, -0.126999, -0.000240182, -0.00151507, -0.00121833, -0.00890185, -0.00457634, -0.0128397
0.0291299, 1.69091, -1.23051, -1.54188, -0.900743, -1.19287, 1.22678, -1.3025, -0.00851323, -0.0032218, -0.0280818, -0.00704248, 0.000140273, -0.0125282, -0.000684999, 0.626595, 68.0917, 36.0142, 7.81494, 3.08185, 5.33908, -0.226063, -0.000338538, -0.00270304, 0.00458037, 0.00627113, 0.00415834, 0.00208985, 0.00460726, 0.0101298, -0.0123955, -0.0367036, -0.00708095, -0.0169359, 0.471007, -0.543398, 0.335887, -2.08384, -2.16584, -0.129876, 0.468154, -0.543137, 0.331393, -2.08058, -2.15884, -0.126925, -0.000261251, -0.00164757, -0.00132632, -0.0106607, -0.00470258, -0.0139756
0.0301299, 1.69092, -1.23051, -1.54194, -0.900748, -1.19288, 1.22676, -1.30249, -0.00441011, 0.000626007, -0.0364101, -0.00591742, -0.00150301, -0.0181267, -0.00115098, 0.400459, 66.4334, 35.0858, 7.5531, 2.83008, 5.15964, -0.199513, -0.000343671, -0.00271477, 0.00460087, 0.00635269, 0.00415382, 0.00211322, 0.00407808, 0.0108123, -0.0135375, -0.0493259, -0.00407325, -0.0182025, 0.471007, -0.543399, 0.335886, -2.08384, -2.16584, -0.129874, 0.468141, -0.543141, 0.331372, -2.08056, -2.15878, -0.126826, -0.000283275, -0.00178604, -0.00143928, -0.0114246, -0.00417078, -0.0151135
0.0311299, 1.69093, -1.23052, -1.54201, -0.900757, -1.1929, 1.22671, -1.30249, 0.00304493, -0.0019986, -0.0492791, -0.00640681, -0.0050004, -0.029368, -0.00126262, 0.0949785, 64.9219, 34.1178, 7.33093, 2.63324, 5.03787, -0.180287, -0.000349472, -0.00272799, 0.00464208, 0.00647251, 0.00416974, 0.00213334, 0.00287949, 0.0111868, -0.0209774, -0.0735218, -0.00824503, -0.0177723, 0.471006, -0.543401, 0.335885, -2.08384, -2.16584, -0.129872, 0.468127, -0.543143, 0.331329, -2.08051, -2.15871, -0.126705, -0.000306264, -0.00193055, -0.00155726, -0.0121331, -0.00200223, -0.0223805
0.0321299, 1.69094, -1.23056, -1.5421, -0.900769, -1.19293, 1.22666, -1.30249, 0.00644911, -0.0119953, -0.0632261, -0.00992829, -0.0185527, -0.0370141, -0.00118779, -0.131157, 63.5968, 33.1855, 7.1048, 2.47394, 4.90146, -0.166554, -0.000361822, -0.0027465, 0.004704, 0.00662302, 0.00420197, 0.00216646, 0.00582377, 0.0136979, -0.0330268, -0.101649, -0.00954792, -0.0225987, 0.471006, -0.543402, 0.335883, -2.08384, -2.16584, -0.12987, 0.468106, -0.543148, 0.331265, -2.08045, -2.15859, -0.126565, -0.000330225, -0.00208114, -0.00168032, -0.0149948, -0.00330769, -0.0347827
0.0331299, 1.69096, -1.23061, -1.54221, -0.900784, -1.19298, 1.22661, -1.30249, 0.00717296, -0.0200074, -0.0785087, -0.0104619, -0.0286892, -0.0394519, -0.000432569, -0.281914, 62.5296, 32.2532, 6.91833, 2.44281, 4.67257, -0.172963, -0.000379571, -0.00276677, 0.00477641, 0.00679062, 0.00422844, 0.00220604, 0.0107966, 0.0173144, -0.043374, -0.12282, -0.00935122, -0.0329167, 0.471006, -0.543404, 0.335882, -2.08384, -2.16584, -0.129868, 0.468084, -0.543157, 0.33119, -2.08039, -2.15847, -0.1264, -0.000355167, -0.00223786, -0.0018085, -0.0188274, -0.00692918, -0.0457906
0.0341299, 1.69097, -1.23067, -1.54231, -0.900804, -1.19303, 1.22656, -1.30249, 0.0100575, -0.0298168, -0.0831675, -0.0149462, -0.0352301, -0.0395511, 0.00126113, -0.392998, 61.6449, 31.1741, 6.77154, 2.38788, 4.39242, -0.21233, -0.00039618, -0.00278554, 0.00485469, 0.00695819, 0.00426634, 0.00223968, 0.0111386, 0.0160806, -0.0514652, -0.133345, -0.0129885, -0.0322517, 0.471005, -0.543406, 0.33588, -2.08384, -2.16584, -0.129865, 0.468062, -0.543164, 0.331109, -2.08031, -2.15835, -0.126247, -0.000381096, -0.00240075, -0.00194184, -0.0179011, -0.00613392, -0.0540036
0.0351299, 1.69099, -1.23074, -1.54242, -0.900823, -1.19308, 1.22651, -1.30249, 0.0104127, -0.0404417, -0.0909786, -0.0150084, -0.0439031, -0.0411615, 0.00189269, -0.43267, 60.9427, 30.2457, 6.62079, 2.32654, 4.14157, -0.238881, -0.000415718, -0.00280685, 0.00494156, 0.00714257, 0.00430879, 0.00228009, 0.014888, 0.0183183, -0.0605357, -0.146508, -0.0167101, -0.0391071, 0.471005, -0.543408, 0.335878, -2.08384, -2.16584, -0.129862, 0.468038, -0.543173, 0.331019, -2.08024, -2.15821, -0.126079, -0.000408018, -0.00256985, -0.00208038, -0.0203565, -0.0087001, -0.0636129
0.0361299, 1.69099, -1.23074, -1.54242, -0.900823, -1.19308, 1.22651, -1.30249, 0.0104127, -0.0404417, -0.0909786, -0.0150084, -0.0439031, -0.0411615, 0.00189269, -0.43267, 60.9427, 30.2457, 6.62079, 2.32654, 4.14157, -0.238881, -0.000413055, -0.00280641, 0.00494, 0.00714024, 0.00430933, 0.00227973, 0.0146936, 0.0182874, -0.0604197, -0.146398, -0.0166673, -0.0393318, 0.471005, -0.543411, 0.335877, -2.08384, -2.16583, -0.129859, 0.468038, -0.543173, 0.331019, -2.08024, -2.15821, -0.126079, -0.000435936, -0.00274516, -0.00222414, -0.0203565, -0.0087001, -0.0636129
0.0371299, 1.69099, -1.23074, -1.54242, -0.900823, -1.19308, 1.22651, -1.30249, 0.0104127, -0.0404417, -0.0909786, -0.0150084, -0.0439031, -0.0411615, 0.00189269, -0.43267, 60.9427, 30.2457, 6.62079, 2.32654, 4.14157, -0.238881, -0.000410182, -0.00280595, 0.00493831, 0.00713772, 0.00430992, 0.00227934, 0.0144922, 0.0182554, -0.0602996, -0.146285, -0.0166227, -0.0395649, 0.471004, -0.543413, 0.335874, -2.08384, -2.16583, -0.129855, 0.468038, -0.543173, 0.331019, -2.08024, -2.15821, -0.126079, -0.000464854, -0.00292672, -0.00237315, -0.0203565, -0.0087001, -0.0636129
0.0381299, 1.69104, -1.23088, -1.54282, -0.900869, -1.19326, 1.22635, -1.30248, 0.0199658, -0.0401413, -0.1203, -0.0140011, -0.0522835, -0.0511795, 0.000265323, -0.543754, 59.1772, 28.1589, 6.0614, 2.13611, 3.62521, -0.193104, -0.000482792, -0.0028818, 0.00518492, 0.00774847, 0.0043539, 0.00243397, 0.0169614, 0.0211101, -0.0716034, -0.185452, -0.0122742, -0.0464752, 0.471004, -0.543416, 0.335872, -2.08384, -2.16583, -0.129852, 0.467956, -0.543213, 0.330764, -2.08005, -2.15778, -0.125428, -0.000494774, -0.00311453, -0.00252743, -0.0235576, -0.00970267, -0.075226
0.0391299, 1.69107, -1.23091, -1.54296, -0.900889, -1.19332, 1.22631, -1.30248, 0.0219257, -0.0332248, -0.1184, -0.0137213, -0.0563185, -0.0436572, -0.000547401, -0.583427, 58.7329, 27.7146, 6.02173, 2.06836, 3.46774, -0.172963, -0.000498385, -0.00289905, 0.00525305, 0.00794506, 0.00433877, 0.00247053, 0.0165282, 0.0189073, -0.0661431, -0.17861, 0.00161505, -0.0447976, 0.471003, -0.543419, 0.33587, -2.08384, -2.16583, -0.129848, 0.467936, -0.543221, 0.330693, -2.07999, -2.15768, -0.125188, -0.000525695, -0.00330858, -0.00268698, -0.021207, -0.0102193, -0.069993
0.0401299, 1.69109, -1.23093, -1.54308, -0.90091, -1.19339, 1.22627, -1.30248, 0.0218804, -0.0277371, -0.120066, -0.0172911, -0.0584108, -0.0393668, -0.00129809, -0.468376, 58.4393, 27.417, 6.02173, 1.97681, 3.3533, -0.147328, -0.000516716, -0.00291979, 0.00531494, 0.00813243, 0.00431525, 0.0025156, 0.0159778, 0.0179529, -0.0634888, -0.178415, 0.011383, -0.0428294, 0.471003, -0.543422, 0.335867, -2.08384, -2.16583, -0.129843, 0.467913, -0.543234, 0.330627, -2.07995, -2.15757, -0.124948, -0.000557617, -0.00350887, -0.00285182, -0.0202097, -0.0102458, -0.0674802
0.0411299, 1.69111, -1.23094, -1.54321, -0.900935, -1.19345, 1.22624, -1.30248, 0.0191958, -0.0219344, -0.120135, -0.0214751, -0.0591662, -0.0359447, 0.000604874, -0.317619, 58.2172, 27.2306, 6.09711, 1.87244, 3.23153, -0.186696, -0.000532307, -0.00293759, 0.00536886, 0.00831155, 0.00427714, 0.00255975, 0.0156952, 0.0180715, -0.0601003, -0.176801, 0.0198131, -0.0443861, 0.471002, -0.543426, 0.335864, -2.08384, -2.16583, -0.129839, 0.467894, -0.543245, 0.330569, -2.07992, -2.15747, -0.124702, -0.000590537, -0.00371538, -0.00302192, -0.020249, -0.0106997, -0.0642569
0.0421299, 1.69113, -1.23094, -1.54333, -0.900963, -1.19352, 1.2262, -1.30248, 0.0229749, -0.0139801, -0.12023, -0.0229196, -0.0658276, -0.0269597, -0.00104566, -0.131157, 58.1458, 27.2306, 6.24786, 1.79187, 3.19583, -0.147328, -0.000547569, -0.00295582, 0.00541525, 0.00849041, 0.00422091, 0.00259814, 0.0149207, 0.0148605, -0.0549309, -0.17266, 0.0379536, -0.0404463, 0.471002, -0.543429, 0.335861, -2.08384, -2.16583, -0.129834, 0.467874, -0.543257, 0.330518, -2.07989, -2.15739, -0.124439, -0.000624453, -0.00392809, -0.0031973, -0.0169172, -0.0108122, -0.0593045
0.0431299, 1.69113, -1.23093, -1.54344, -0.901, -1.1936, 1.22617, -1.30248, 0.0165506, -0.00735474, -0.121244, -0.0301379, -0.0656407, -0.0293434, 2.18384e-05, 0.285408, 58.2172, 27.306, 6.54541, 1.70032, 3.2883, -0.166554, -0.00056248, -0.00297927, 0.00545555, 0.00866814, 0.00416268, 0.00264115, 0.0147087, 0.0175412, -0.0521079, -0.177245, 0.0437464, -0.0423774, 0.471001, -0.543433, 0.335858, -2.08384, -2.16582, -0.129829, 0.467849, -0.543271, 0.330474, -2.07987, -2.15731, -0.124174, -0.000659358, -0.00414696, -0.00337792, -0.0195351, -0.0113659, -0.0565838
0.0441299, 1.69114, -1.23091, -1.54355, -0.901041, -1.19367, 1.22613, -1.30248, 0.0101901, -0.000679422, -0.121865, -0.0349305, -0.0719533, -0.0329067, -0.00191307, 0.701973, 58.3679, 27.5638, 6.84296, 1.64447, 3.44668, -0.114369, -0.000575706, -0.00300147, 0.00548865, 0.00884042, 0.00409084, 0.00267564, 0.0162567, 0.0216088, -0.0488798, -0.184391, 0.0540816, -0.0453594, 0.471, -0.543437, 0.335855, -2.08383, -2.16582, -0.129823, 0.467825, -0.543284, 0.330437, -2.07985, -2.15725, -0.123902, -0.000695248, -0.00437195, -0.00356376, -0.0234616, -0.0137824, -0.0536995
0.0451299, 1.69114, -1.23091, -1.54355, -0.901041, -1.19367, 1.22613, -1.30248, 0.0101901, -0.000679422, -0.121865, -0.0349305, -0.0719533, -0.0329067, -0.00191307, 0.701973, 58.3679, 27.5638, 6.84296, 1.64447, 3.44668, -0.114369, -0.000570922, -0.00300069, 0.00548583, 0.00883615, 0.00409179, 0.00267499, 0.0160002, 0.0215681, -0.0487255, -0.184242, 0.0541423, -0.0456607, 0.471, -0.543442, 0.335851, -2.08383, -2.16582, -0.129818, 0.467825, -0.543284, 0.330437, -2.07985, -2.15725, -0.123902, -0.000732114, -0.004603, -0.00375481, -0.0234616, -0.0137824, -0.0536995
0.0461299, 1.69113, -1.23086, -1.54374, -0.901119, -1.19383, 1.22608, -1.30248, 0.000360515, 0.0118039, -0.106723, -0.0367881, -0.0699379, -0.0306136, -0.00165858, 1.60651, 59.1019, 28.3097, 7.25555, 1.64447, 3.74698, -0.0750012, -0.000604375, -0.00304662, 0.00553715, 0.00915389, 0.00392208, 0.0027552, 0.0151366, 0.023518, -0.0353929, -0.166185, 0.0649748, -0.0466381, 0.470999, -0.543446, 0.335848, -2.08383, -2.16582, -0.129812, 0.467778, -0.543315, 0.330378, -2.07985, -2.15713, -0.123364, -0.000769946, -0.00484006, -0.003951, -0.0249959, -0.0152986, -0.0405378
0.0471299, 1.69113, -1.23085, -1.54382, -0.901157, -1.19391, 1.22606, -1.30247, -0.00185977, 0.0111479, -0.101386, -0.0394607, -0.0728265, -0.0261125, -0.000357565, 2.05878, 59.8755, 28.8294, 7.40631, 1.6756, 3.85501, -0.0951428, -0.000622741, -0.0030693, 0.00556465, 0.0092898, 0.00384621, 0.00280319, 0.0150597, 0.0226685, -0.0335881, -0.159771, 0.068799, -0.0464918, 0.470998, -0.543451, 0.335844, -2.08383, -2.16582, -0.129805, 0.467754, -0.543335, 0.330345, -2.07987, -2.15707, -0.123126, -0.000808735, -0.00508306, -0.00415231, -0.0241239, -0.0157087, -0.0389706
0.0481299, 1.69112, -1.23083, -1.5439, -0.901193, -1.194, 1.22605, -1.30247, -0.00422743, 0.0167652, -0.0968371, -0.042711, -0.0762478, -0.0210586, -0.00122009, 2.39997, 60.6848, 29.4999, 7.47772, 1.74884, 3.9191, -0.0685925, -0.00063971, -0.00308948, 0.00558218, 0.00941576, 0.00375179, 0.00284244, 0.0146335, 0.0219823, -0.0283913, -0.153529, 0.07967, -0.0445223, 0.470997, -0.543456, 0.33584, -2.08383, -2.16582, -0.129798, 0.467733, -0.543355, 0.330322, -2.07989, -2.15703, -0.12288, -0.000848468, -0.00533191, -0.00435868, -0.0233058, -0.0163086, -0.034
0.0491299, 1.69112, -1.23081, -1.54398, -0.901224, -1.19408, 1.22605, -1.30247, -0.00127969, 0.0188668, -0.0918471, -0.0389959, -0.0798189, -0.0179127, -0.00104953, 2.55073, 61.6449, 30.2814, 7.40631, 1.85321, 3.99783, -0.0621838, -0.000654146, -0.00310484, 0.00559939, 0.00953909, 0.00365511, 0.00287796, 0.013966, 0.0200883, -0.0245805, -0.146456, 0.0857804, -0.0442151, 0.470997, -0.543461, 0.335835, -2.08383, -2.16581, -0.129791, 0.467717, -0.543372, 0.330299, -2.07991, -2.157, -0.122635, -0.000889131, -0.00558652, -0.00457004, -0.0213412, -0.0164132, -0.0304019
0.0501299, 1.69112, -1.23079, -1.54405, -0.901245, -1.19417, 1.22604, -1.30247, -0.00353215, 0.019441, -0.0855767, -0.032978, -0.0817431, -0.00849831, 0.000250665, 2.73719, 62.7875, 30.9876, 7.18018, 1.94568, 4.14157, -0.0878186, -0.000671542, -0.00312533, 0.00561192, 0.00964994, 0.0035652, 0.00292617, 0.0164784, 0.0200361, -0.0200823, -0.130269, 0.0916716, -0.0509956, 0.470996, -0.543467, 0.335831, -2.08383, -2.16581, -0.129784, 0.467695, -0.543394, 0.33028, -2.07994, -2.15695, -0.122409, -0.00093071, -0.0058468, -0.00478633, -0.0210783, -0.019844, -0.0265679
0.0511299, 1.69112, -1.23076, -1.54411, -0.90127, -1.19427, 1.22602, -1.30247, -0.00202079, 0.0219314, -0.0790362, -0.0298491, -0.0825988, -0.0126023, 0.000913783, 2.77686, 63.8904, 31.7731, 6.99371, 2.02533, 4.33566, -0.10796, -0.000685933, -0.0031463, 0.00561834, 0.00977168, 0.00346185, 0.00297095, 0.0146086, 0.0195679, -0.0161146, -0.126879, 0.0922613, -0.0504697, 0.470995, -0.543473, 0.335826, -2.08383, -2.16581, -0.129776, 0.467674, -0.543414, 0.330267, -2.07998, -2.15691, -0.122158, -0.000973186, -0.00611264, -0.00500747, -0.0205765, -0.0188554, -0.0225951
0.0521299, 1.69111, -1.23073, -1.54417, -0.901288, -1.19437, 1.22599, -1.30247, -0.00216393, 0.0211592, -0.0745157, -0.0261491, -0.0881143, -0.0150961, -0.00132308, 2.85224, 64.9973, 32.5904, 6.73187, 2.10498, 4.52151, -0.0557752, -0.00070269, -0.00317084, 0.00562269, 0.00989024, 0.00336081, 0.0030161, 0.0154322, 0.0206903, -0.0144723, -0.125772, 0.0942235, -0.0516337, 0.470994, -0.543479, 0.335821, -2.08382, -2.16581, -0.129768, 0.467649, -0.543437, 0.330256, -2.08001, -2.15687, -0.121911, -0.00101654, -0.00638391, -0.00523338, -0.0216521, -0.0202385, -0.0212931
0.0531299, 1.69112, -1.2307, -1.54423, -0.90131, -1.19447, 1.22597, -1.30247, 0.00103049, 0.0233769, -0.0691547, -0.0224208, -0.0919771, -0.0168397, -0.000644305, 2.77686, 66.1359, 33.3362, 6.54541, 2.18555, 4.70828, -0.0621838, -0.000713863, -0.00318952, 0.0056257, 0.0100106, 0.00325505, 0.00305771, 0.0140928, 0.0195207, -0.0108755, -0.122763, 0.0982623, -0.0515646, 0.470993, -0.543485, 0.335816, -2.08382, -2.1658, -0.129759, 0.467629, -0.543455, 0.330246, -2.08004, -2.15684, -0.121658, -0.00106076, -0.00666049, -0.00546395, -0.020446, -0.0196984, -0.0177994
0.0541299, 1.69112, -1.23067, -1.54428, -0.901328, -1.19457, 1.22594, -1.30247, -0.000905614, 0.0238295, -0.0632169, -0.0196998, -0.0946347, -0.0169525, -0.000429247, 2.73719, 67.207, 34.0027, 6.35895, 2.25879, 4.86575, -0.0621838, -0.000726177, -0.00321019, 0.00562555, 0.010124, 0.00315042, 0.00310119, 0.0146904, 0.0204378, -0.00784151, -0.117087, 0.100232, -0.0545023, 0.470992, -0.543492, 0.33581, -2.08382, -2.1658, -0.12975, 0.467608, -0.543474, 0.33024, -2.08008, -2.1568, -0.121414, -0.00110581, -0.00694224, -0.0056991, -0.0212759, -0.0210746, -0.0151036
0.0551299, 1.69111, -1.23063, -1.54433, -0.901351, -1.19468, 1.22592, -1.30246, -0.0023149, 0.02442, -0.0616491, -0.0211904, -0.0974057, -0.0213505, 0.000663489, 2.81654, 68.1274, 34.6375, 6.32324, 2.35126, 5.00949, -0.0878186, -0.000743517, -0.00323657, 0.00562094, 0.0102397, 0.00302755, 0.0031572, 0.0142645, 0.0217004, -0.00724802, -0.121074, 0.100976, -0.0562545, 0.470991, -0.543499, 0.335805, -2.08382, -2.1658, -0.12974, 0.467581, -0.5435, 0.330237, -2.08014, -2.15677, -0.121146, -0.00115168, -0.007229, -0.00593872, -0.0225766, -0.0210838, -0.0146528
0.0561299, 1.6911, -1.23059, -1.54438, -0.901377, -1.19479, 1.2259, -1.30247, -0.00226982, 0.023882, -0.0586971, -0.0213596, -0.103429, -0.0229636, 0.00020513, 2.85224, 69.0836, 35.1969, 6.39465, 2.4245, 5.10928, -0.0814099, -0.000757427, -0.00326008, 0.00561973, 0.0103599, 0.00291138, 0.00320123, 0.0143317, 0.0220296, -0.00647733, -0.12264, 0.104483, -0.0565779, 0.47099, -0.543506, 0.335799, -2.08382, -2.16579, -0.129731, 0.467557, -0.543522, 0.330231, -2.08018, -2.15674, -0.120881, -0.00119834, -0.00752062, -0.00618267, -0.0229217, -0.0215739, -0.014136
0.0571299, 1.69109, -1.23054, -1.54444, -0.901406, -1.19491, 1.22587, -1.30247, -0.00319495, 0.0367224, -0.0610981, -0.0239758, -0.106314, -0.0237997, -0.00108383, 2.92762, 69.7461, 35.792, 6.58508, 2.45563, 5.19534, -0.0484509, -0.00077274, -0.00328761, 0.00561233, 0.0104883, 0.00277801, 0.00324909, 0.0134631, 0.0230543, 5.47606e-05, -0.126621, 0.119645, -0.0567126, 0.470988, -0.543514, 0.335793, -2.08381, -2.16579, -0.12972, 0.467529, -0.543547, 0.33023, -2.08023, -2.15671, -0.120589, -0.00124576, -0.00781692, -0.00643084, -0.0237871, -0.0220599, -0.00776826
0.0581299, 1.69108, -1.23051, -1.54448, -0.901435, -1.19503, 1.22584, -1.30247, -0.00383208, 0.0334862, -0.0561184, -0.0230341, -0.113148, -0.0248905, -0.000451192, 3.003, 70.5197, 36.0895, 6.80725, 2.48035, 5.28872, -0.0557752, -0.000786699, -0.00331388, 0.00560737, 0.0106111, 0.00265534, 0.00329585, 0.0141893, 0.0235986, 0.000197532, -0.125927, 0.121148, -0.0590272, 0.470987, -0.543521, 0.335786, -2.08381, -2.16579, -0.12971, 0.467502, -0.543571, 0.330227, -2.08027, -2.15668, -0.120314, -0.00129392, -0.00811772, -0.00668309, -0.0243477, -0.0231218, -0.00797552
0.0591299, 1.69107, -1.23047, -1.54454, -0.901466, -1.19515, 1.2258, -1.30246, -0.00167366, 0.0368355, -0.0598904, -0.0250389, -0.12092, -0.0273832, 0.000886069, 2.96729, 71.0355, 36.5378, 7.02942, 2.46753, 5.42514, -0.0878186, -0.00079796, -0.00333816, 0.00560593, 0.0107535, 0.00252849, 0.00334296, 0.0140548, 0.0239592, 0.000450131, -0.13582, 0.130201, -0.0613694, 0.470986, -0.54353, 0.335779, -2.08381, -2.16578, -0.129699, 0.467477, -0.543591, 0.330221, -2.08031, -2.15664, -0.120012, -0.00134278, -0.00842284, -0.00693927, -0.0247524, -0.0233478, -0.00795028
0.0601299, 1.69107, -1.23043, -1.54459, -0.901494, -1.19527, 1.22575, -1.30247, -0.00441658, 0.0364173, -0.0550931, -0.0263909, -0.120903, -0.0299581, -0.00134202, 2.96729, 71.5155, 36.6489, 7.25555, 2.38788, 5.58261, -0.0356336, -0.000807758, -0.00336576, 0.00560053, 0.0108891, 0.00241424, 0.00338057, 0.0132993, 0.0247526, 0.00185428, -0.133881, 0.128287, -0.0587782, 0.470984, -0.543538, 0.335772, -2.08381, -2.16578, -0.129687, 0.467449, -0.543611, 0.330219, -2.08033, -2.15661, -0.119731, -0.00139231, -0.00873205, -0.00719924, -0.0255704, -0.0231597, -0.00668227
0.0611299, 1.69107, -1.23039, -1.54464, -0.901508, -1.19539, 1.2257, -1.30247, -0.000505278, 0.0369003, -0.0572455, -0.0228043, -0.121047, -0.0355111, -0.00065728, 2.85224, 71.8091, 36.8354, 7.29126, 2.31372, 5.7117, -0.0420422, -0.000818882, -0.00339278, 0.00559592, 0.0110335, 0.0022931, 0.00343204, 0.0121296, 0.0247321, 0.0014156, -0.139312, 0.126195, -0.0602769, 0.470983, -0.543547, 0.335765, -2.0838, -2.16578, -0.129675, 0.467421, -0.543633, 0.330215, -2.08037, -2.15656, -0.119432, -0.00144249, -0.00904515, -0.00746282, -0.0256578, -0.0222496, -0.0071979
0.0621299, 1.69107, -1.23035, -1.54469, -0.901537, -1.19551, 1.22565, -1.30247, 0.000309256, 0.0371961, -0.051367, -0.0247176, -0.117134, -0.0426036, -0.000438157, 2.81654, 72.067, 36.8354, 7.51739, 2.21576, 5.79776, -0.0420422, -0.000824435, -0.00341585, 0.0055947, 0.0111748, 0.00218477, 0.00346731, 0.00809696, 0.0236062, 0.0029742, -0.139287, 0.119688, -0.0543512, 0.470982, -0.543556, 0.335758, -2.0838, -2.16577, -0.129663, 0.467397, -0.543649, 0.330209, -2.08038, -2.15652, -0.11915, -0.00149327, -0.00936199, -0.00772991, -0.0246716, -0.018779, -0.00533415
0.0631299, 1.69108, -1.23034, -1.54474, -0.90156, -1.19563, 1.22559, -1.30247, 0.00368362, 0.0321474, -0.0552797, -0.0233749, -0.117505, -0.0505479, 0.000216543, 2.66181, 72.4002, 36.8711, 7.62848, 2.11139, 5.81882, -0.0557752, -0.000830097, -0.0034367, 0.00560736, 0.011332, 0.00209275, 0.00350312, 0.00714658, 0.024066, -0.00182618, -0.149881, 0.111379, -0.0551918, 0.47098, -0.543565, 0.33575, -2.0838, -2.16577, -0.12965, 0.467374, -0.543662, 0.330189, -2.08038, -2.15647, -0.118867, -0.00154466, -0.00968246, -0.00800043, -0.0253903, -0.0174414, -0.010183
0.0641299, 1.69109, -1.23031, -1.54481, -0.901578, -1.19576, 1.22553, -1.30247, 0.00494783, 0.0301029, -0.0621435, -0.0215631, -0.11555, -0.0551952, -0.000838966, 2.55073, 72.5113, 36.9068, 7.70386, 2.05646, 5.79776, -0.0292249, -0.000838177, -0.00346177, 0.00561695, 0.0114963, 0.00199221, 0.00354417, 0.00748813, 0.0255297, -0.0054422, -0.158298, 0.105854, -0.0575251, 0.470979, -0.543575, 0.335742, -2.0838, -2.16576, -0.129636, 0.467347, -0.54368, 0.330171, -2.08038, -2.15642, -0.118566, -0.00159663, -0.0100065, -0.00827433, -0.0270231, -0.0176061, -0.0140358
0.0651299, 1.69111, -1.2303, -1.54486, -0.901598, -1.19588, 1.22545, -1.30248, 0.00984965, 0.0241073, -0.059627, -0.0194746, -0.115227, -0.0634232, -0.00201736, 2.39997, 72.6581, 36.76, 7.73956, 2.04364, 5.89755, 0.0101428, -0.000841316, -0.00348736, 0.00563427, 0.0116753, 0.00191861, 0.00357583, 0.00466767, 0.0241028, -0.00852038, -0.163142, 0.0954683, -0.0523597, 0.470977, -0.543585, 0.335734, -2.08379, -2.16576, -0.129623, 0.46732, -0.543691, 0.330146, -2.08035, -2.15635, -0.118277, -0.00164918, -0.0103339, -0.00855153, -0.0258631, -0.0146171, -0.0169579
0.0661299, 1.69112, -1.2303, -1.54493, -0.901619, -1.19601, 1.22536, -1.30247, 0.0102918, 0.0187269, -0.0636465, -0.0180813, -0.120052, -0.0728632, -0.00110754, 2.24921, 72.6938, 36.6846, 7.77924, 2.04364, 5.96255, 0.00373412, -0.000845728, -0.0035139, 0.00565777, 0.0118683, 0.00184538, 0.00361507, 0.00579063, 0.0270141, -0.0135071, -0.176744, 0.0896386, -0.057945, 0.470975, -0.543595, 0.335725, -2.08379, -2.16576, -0.129608, 0.467291, -0.543703, 0.330114, -2.08033, -2.15627, -0.117971, -0.00170228, -0.0106648, -0.00883197, -0.0289647, -0.0154085, -0.0222479
0.0671299, 1.69114, -1.2303, -1.54499, -0.901638, -1.19614, 1.22526, -1.30247, 0.00970159, 0.00783006, -0.0614438, -0.0184588, -0.119591, -0.0784023, 0.0014657, 2.13416, 72.7295, 36.5378, 7.73956, 2.06836, 5.98361, -0.0557752, -0.000849504, -0.00354218, 0.00568829, 0.012073, 0.00178859, 0.00366093, 0.0054183, 0.0275827, -0.019401, -0.180187, 0.0756537, -0.059786, 0.470974, -0.543606, 0.335716, -2.08379, -2.16575, -0.129594, 0.46726, -0.543714, 0.330075, -2.08029, -2.15617, -0.117668, -0.00175593, -0.0109989, -0.0091156, -0.0298137, -0.0144914, -0.0282761
0.0681299, 1.69116, -1.23029, -1.54506, -0.901663, -1.19626, 1.22517, -1.30247, 0.0114947, 0.0103502, -0.058168, -0.0217088, -0.12105, -0.0831832, 0.00121449, 2.05878, 72.4359, 36.3117, 7.81494, 2.00702, 5.89114, -0.0621838, -0.000850151, -0.00356944, 0.00570705, 0.0122661, 0.00171679, 0.00369626, 0.00217651, 0.026295, -0.0174684, -0.183515, 0.0772361, -0.0543785, 0.470972, -0.543617, 0.335707, -2.08378, -2.16575, -0.129578, 0.46723, -0.543724, 0.330048, -2.08026, -2.1561, -0.117363, -0.0018101, -0.0113362, -0.00940234, -0.0286278, -0.011873, -0.0261903
0.0691299, 1.69116, -1.23028, -1.54512, -0.901692, -1.19638, 1.22508, -1.30247, 0.00624642, 0.00794855, -0.0623422, -0.0270879, -0.118593, -0.0849431, 6.36814e-05, 2.13416, 72.2891, 36.0538, 7.89032, 1.98871, 5.73276, -0.0420422, -0.000854647, -0.00360166, 0.00573295, 0.0124691, 0.00165233, 0.00373545, 0.00293185, 0.0287381, -0.0207391, -0.189237, 0.0726001, -0.0553009, 0.47097, -0.543628, 0.335698, -2.08378, -2.16574, -0.129563, 0.467195, -0.543737, 0.330014, -2.08022, -2.15601, -0.117054, -0.00186479, -0.0116765, -0.00969213, -0.0312144, -0.0125559, -0.0297523
0.0701299, 1.69117, -1.23028, -1.54519, -0.901715, -1.19651, 1.22497, -1.30247, 0.00842488, 0.00695145, -0.0612619, -0.0262343, -0.121388, -0.0875635, -0.00066962, 2.09846, 72.1027, 35.7523, 7.89032, 1.95209, 5.61099, -0.0228162, -0.000856397, -0.0036341, 0.00575669, 0.0126768, 0.00159229, 0.00377415, 0.0019831, 0.0282345, -0.0209127, -0.191644, 0.0726404, -0.0540494, 0.470968, -0.54364, 0.335688, -2.08378, -2.16574, -0.129546, 0.46716, -0.543748, 0.329981, -2.08018, -2.15591, -0.116744, -0.00191999, -0.0120199, -0.00998491, -0.0308071, -0.0119153, -0.0300843
0.0711299, 1.69119, -1.23026, -1.54526, -0.901744, -1.19663, 1.22485, -1.30247, 0.00700333, 0.0115018, -0.0637823, -0.0264985, -0.121112, -0.0959383, 0.00148637, 2.05878, 71.8091, 35.5698, 7.92602, 1.87244, 5.51761, -0.0750012, -0.0008536, -0.00366541, 0.00577797, 0.0128971, 0.00152597, 0.00381468, 0.00132749, 0.030958, -0.0195519, -0.200261, 0.0730514, -0.0591166, 0.470966, -0.543652, 0.335678, -2.08377, -2.16573, -0.12953, 0.467126, -0.543756, 0.329952, -2.08013, -2.15582, -0.116412, -0.00197567, -0.0123662, -0.0102806, -0.033557, -0.0119352, -0.0288514
0.0721299, 1.6912, -1.23024, -1.54533, -0.901764, -1.19675, 1.22473, -1.30247, 0.0139724, 0.0145354, -0.0679003, -0.0233687, -0.118551, -0.103363, 0.000278837, 1.9477, 71.5155, 35.3437, 7.81494, 1.79828, 5.45352, -0.0557752, -0.000849266, -0.00369798, 0.00579652, 0.0131202, 0.00146415, 0.00385008, -0.00192182, 0.0295483, -0.0195333, -0.208209, 0.0706474, -0.0554866, 0.470964, -0.543664, 0.335668, -2.08377, -2.16572, -0.129512, 0.467091, -0.543762, 0.329925, -2.08008, -2.15572, -0.116083, -0.00203183, -0.0127153, -0.0105792, -0.0323209, -0.00902167, -0.02867
0.0731299, 1.69123, -1.23021, -1.54539, -0.901787, -1.19687, 1.2246, -1.30247, 0.0136295, 0.0174857, -0.0642989, -0.0221077, -0.120933, -0.112556, -0.000560092, 1.79694, 71.1823, 34.9708, 7.73956, 1.75525, 5.36014, -0.0356336, -0.000839118, -0.00372609, 0.00580956, 0.0133438, 0.00139421, 0.00387365, -0.00328779, 0.031331, -0.0168556, -0.212989, 0.0707408, -0.0557668, 0.470962, -0.543677, 0.335657, -2.08377, -2.16572, -0.129495, 0.46706, -0.543764, 0.329904, -2.08001, -2.15564, -0.115745, -0.00208844, -0.0130671, -0.0108805, -0.0341095, -0.00850988, -0.0260608
0.0741299, 1.69125, -1.23018, -1.54546, -0.901808, -1.19699, 1.22448, -1.30247, 0.0173241, 0.0219583, -0.0620508, -0.020467, -0.117608, -0.117257, -0.000848112, 1.72157, 70.7419, 34.7486, 7.62848, 1.70032, 5.20999, -0.0228162, -0.000831615, -0.00375795, 0.00581882, 0.0135636, 0.00131968, 0.00390702, -0.00684183, 0.0297265, -0.0135382, -0.212706, 0.0701114, -0.0517223, 0.47096, -0.54369, 0.335646, -2.08376, -2.16571, -0.129476, 0.467025, -0.54377, 0.329886, -2.07997, -2.15556, -0.115405, -0.00214551, -0.0134215, -0.0111846, -0.0325705, -0.0058004, -0.0225862
0.0751299, 1.69126, -1.23015, -1.54553, -0.901835, -1.19711, 1.22436, -1.30247, 0.0187089, 0.0241047, -0.0617027, -0.0240878, -0.115409, -0.114247, 0.00160473, 1.72157, 70.3372, 34.6018, 7.59277, 1.65729, 5.00949, -0.0814099, -0.00082523, -0.00379077, 0.00583112, 0.013781, 0.00124977, 0.00394882, -0.00930194, 0.0272556, -0.0122097, -0.210243, 0.0724279, -0.049299, 0.470958, -0.543704, 0.335635, -2.08376, -2.16571, -0.129457, 0.466989, -0.543776, 0.329865, -2.07992, -2.15546, -0.115071, -0.00220301, -0.0137786, -0.0114914, -0.0302, -0.00383199, -0.0212745
0.0761299, 1.69128, -1.23011, -1.54559, -0.901853, -1.19723, 1.22423, -1.30247, 0.0235218, 0.0272989, -0.0643318, -0.021932, -0.12035, -0.119047, 0.000357745, 1.57081, 69.8572, 34.451, 7.47772, 1.65729, 4.8804, -0.0621838, -0.000814966, -0.00381999, 0.00583907, 0.0139981, 0.00117579, 0.00397763, -0.0104608, 0.0269438, -0.0113478, -0.218207, 0.0775519, -0.0487192, 0.470956, -0.543717, 0.335624, -2.08375, -2.1657, -0.129438, 0.466957, -0.54378, 0.329848, -2.07987, -2.15538, -0.114735, -0.00226092, -0.014138, -0.0118008, -0.0299566, -0.00316731, -0.0205621
0.0771299, 1.69131, -1.23009, -1.54566, -0.901867, -1.19736, 1.22409, -1.30247, 0.0279187, 0.0290775, -0.0647626, -0.0196922, -0.124698, -0.122773, -0.000744847, 1.38038, 69.5279, 34.3757, 7.33093, 1.70581, 4.85843, -0.0356336, -0.000803907, -0.00385055, 0.00585256, 0.0142283, 0.00111388, 0.00400667, -0.0117449, 0.0262003, -0.010415, -0.223048, 0.0811541, -0.0474864, 0.470954, -0.543731, 0.335612, -2.08375, -2.16569, -0.129418, 0.466923, -0.543782, 0.329826, -2.07981, -2.15529, -0.114395, -0.00231925, -0.0144999, -0.0121127, -0.0292844, -0.00237451, -0.0197761
0.0781299, 1.69133, -1.23006, -1.54572, -0.901877, -1.19748, 1.22395, -1.30247, 0.0282173, 0.027445, -0.0651831, -0.015037, -0.125108, -0.131194, 0.000724139, 1.305, 69.1946, 34.3043, 7.18018, 1.79187, 4.87308, -0.0685925, -0.00079488, -0.00388446, 0.00586338, 0.0144542, 0.00105187, 0.0040489, -0.0114769, 0.0286528, -0.0113426, -0.228626, 0.075458, -0.0536051, 0.470951, -0.543746, 0.3356, -2.08374, -2.16569, -0.129398, 0.466886, -0.543788, 0.329805, -2.07976, -2.15519, -0.114058, -0.00237796, -0.014864, -0.0124272, -0.0318168, -0.00296088, -0.0209729
0.0791299, 1.69136, -1.23005, -1.54578, -0.901884, -1.19762, 1.22382, -1.30247, 0.0287824, 0.0202584, -0.0643218, -0.00842442, -0.126247, -0.128226, 0.000720118, 1.18995, 69.1193, 34.34, 7.02942, 1.90906, 4.77237, -0.0750012, -0.000789135, -0.0039142, 0.00588507, 0.0146747, 0.000995852, 0.00408845, -0.00918254, 0.0290526, -0.0138576, -0.223119, 0.0702252, -0.0591602, 0.470949, -0.543761, 0.335587, -2.08374, -2.16568, -0.129377, 0.466853, -0.543795, 0.329773, -2.0797, -2.15508, -0.113733, -0.00243706, -0.0152304, -0.012744, -0.0322851, -0.00522192, -0.0241164
0.0801299, 1.69139, -1.23004, -1.54584, -0.901891, -1.19774, 1.22371, -1.30247, 0.0280114, 0.0196866, -0.0641442, -0.00539053, -0.130083, -0.124632, -0.000231998, 1.15424, 68.8614, 34.4153, 6.95801, 1.97681, 4.50686, -0.0557752, -0.000783848, -0.00394121, 0.00589687, 0.0148685, 0.000925542, 0.00412563, -0.00720836, 0.029836, -0.0130867, -0.219846, 0.0744018, -0.0633433, 0.470946, -0.543776, 0.335575, -2.08373, -2.16567, -0.129355, 0.466823, -0.543804, 0.329751, -2.07967, -2.155, -0.113423, -0.00249652, -0.0155988, -0.0130633, -0.0330285, -0.00769007, -0.0239563
0.0811299, 1.69142, -1.23002, -1.5459, -0.901897, -1.19787, 1.22361, -1.30247, 0.0293702, 0.017505, -0.0601519, -0.0046772, -0.131441, -0.118735, 0.00877529, 1.03919, 68.6789, 34.4867, 6.95801, 2.01343, 4.26333, -0.0420422, -0.000774909, -0.00396298, 0.00590912, 0.0150587, 0.000856506, 0.00415812, -0.00775189, 0.0274851, -0.0121557, -0.211644, 0.0762102, -0.0706498, 0.470944, -0.543792, 0.335562, -2.08373, -2.16567, -0.129333, 0.466798, -0.54381, 0.329728, -2.07963, -2.15492, -0.113118, -0.00255634, -0.0159693, -0.0133848, -0.0307262, -0.00757104, -0.0233454
0.0821299, 1.69145, -1.23001, -1.54596, -0.901893, -1.198, 1.22351, -1.30246, 0.0280981, 0.013517, -0.0606451, -0.00123951, -0.128692, -0.107286, 0.00931551, 1.00349, 68.6035, 34.5621, 6.84296, 2.05646, 4.07748, -0.114369, -0.000771574, -0.00398832, 0.00592212, 0.0152378, 0.000791462, 0.0042075, -0.00547718, 0.0265076, -0.0128905, -0.199082, 0.0754928, -0.0751892, 0.470941, -0.543808, 0.335548, -2.08372, -2.16566, -0.129311, 0.466769, -0.543822, 0.329703, -2.07962, -2.15483, -0.112827, -0.0026165, -0.0163418, -0.0137086, -0.0297559, -0.0100362, -0.0247771
0.0831299, 1.69149, -1.23001, -1.54601, -0.901893, -1.19813, 1.2234, -1.30246, 0.0273342, 0.00907411, -0.0574638, -0.00236384, -0.127078, -0.108639, 0.00778359, 0.85273, 68.6035, 34.6375, 6.88263, 2.1297, 4.03445, -0.140919, -0.000762035, -0.00400772, 0.00593826, 0.0154245, 0.000730731, 0.00423916, -0.00660945, 0.0260386, -0.0143419, -0.19722, 0.0690749, -0.0718099, 0.470939, -0.543824, 0.335534, -2.08372, -2.16565, -0.129287, 0.466746, -0.543827, 0.329675, -2.07957, -2.15475, -0.112533, -0.00267698, -0.0167161, -0.0140346, -0.0294417, -0.0090503, -0.0263745
0.0841299, 1.69153, -1.23001, -1.54607, -0.901884, -1.19826, 1.2233, -1.30246, 0.0293211, 0.00776695, -0.056858, 0.00105804, -0.127815, -0.105981, 0.00464815, 0.701973, 68.5321, 34.7883, 6.88263, 2.1297, 4.02713, -0.114369, -0.000754419, -0.004027, 0.00595424, 0.0156049, 0.000670561, 0.00427522, -0.00648104, 0.025086, -0.014021, -0.193234, 0.0695551, -0.0701849, 0.470936, -0.543841, 0.33552, -2.08371, -2.16564, -0.129264, 0.466724, -0.543835, 0.329647, -2.07954, -2.15467, -0.112246, -0.00273778, -0.0170921, -0.0143627, -0.028535, -0.00956357, -0.0264344
0.0851299, 1.69156, -1.23001, -1.54611, -0.901872, -1.19838, 1.22321, -1.30246, 0.0316311, 0.00354286, -0.0541368, 0.00371722, -0.124079, -0.100011, 0.00295588, 0.6623, 68.6035, 34.8597, 6.88263, 2.13611, 4.04819, -0.101552, -0.000749071, -0.00404645, 0.00597057, 0.0157646, 0.000619748, 0.00431005, -0.00743471, 0.022232, -0.01452, -0.183093, 0.0650684, -0.0664236, 0.470933, -0.543858, 0.335506, -2.08371, -2.16563, -0.129239, 0.4667, -0.543845, 0.329618, -2.07951, -2.15459, -0.11199, -0.00279888, -0.0174699, -0.0146928, -0.0257983, -0.00880636, -0.0271962
0.0861299, 1.6916, -1.23001, -1.54617, -0.901868, -1.19851, 1.22314, -1.30246, 0.0383223, 0.00322362, -0.0528286, 0.00234548, -0.127217, -0.0937603, 0.00269417, 0.551216, 68.5678, 34.9708, 7.02942, 2.16083, 4.03445, -0.114369, -0.000740422, -0.00405786, 0.00598322, 0.0159173, 0.000548292, 0.00434147, -0.0101822, 0.0170662, -0.0139666, -0.179402, 0.0708693, -0.0593088, 0.470931, -0.543875, 0.335491, -2.0837, -2.16563, -0.129214, 0.466685, -0.543852, 0.329593, -2.07949, -2.15453, -0.111722, -0.00286026, -0.0178492, -0.015025, -0.0207788, -0.00634706, -0.0267137
0.0871299, 1.69164, -1.23001, -1.54622, -0.901859, -1.19864, 1.22308, -1.30246, 0.0414071, 0.00133373, -0.0521016, 0.00152551, -0.122905, -0.0830472, 0.00198277, 0.475838, 68.6035, 35.0858, 7.18018, 2.14252, 3.9841, -0.114369, -0.000734992, -0.00406811, 0.00599828, 0.0160591, 0.00047673, 0.00437442, -0.0119212, 0.0124614, -0.0139123, -0.168181, 0.0710673, -0.0535223, 0.470928, -0.543893, 0.335476, -2.0837, -2.16562, -0.129189, 0.466671, -0.543863, 0.329564, -2.07948, -2.15447, -0.111464, -0.00292192, -0.0182301, -0.0153591, -0.0163019, -0.00483112, -0.0268655
0.0881299, 1.69169, -1.23003, -1.54627, -0.90185, -1.19877, 1.22303, -1.30246, 0.0427217, -0.00345763, -0.0549184, 0.00115166, -0.125336, -0.0720059, 0.000987114, 0.360787, 68.79, 35.1969, 7.33093, 2.12421, 3.9841, -0.101552, -0.000730801, -0.00407593, 0.00601721, 0.0161956, 0.000405298, 0.0044048, -0.010395, 0.0102398, -0.016624, -0.162686, 0.0741763, -0.0534639, 0.470925, -0.543911, 0.335461, -2.08369, -2.16561, -0.129163, 0.46666, -0.543874, 0.329531, -2.07947, -2.15442, -0.111212, -0.00298385, -0.0186124, -0.0156951, -0.0141903, -0.00621225, -0.0301837
0.0891299, 1.69174, -1.23004, -1.54632, -0.901834, -1.1989, 1.22299, -1.30246, 0.0443042, -0.00832604, -0.051882, 0.00601166, -0.127398, -0.0592362, 0.000763068, 0.21003, 69.0479, 35.2326, 7.40631, 2.13611, 3.99142, -0.101552, -0.00072602, -0.0040791, 0.00603613, 0.0163175, 0.000335714, 0.0044366, -0.0085355, 0.00762292, -0.0164578, -0.147963, 0.0769542, -0.0555682, 0.470922, -0.54393, 0.335445, -2.08368, -2.1656, -0.129136, 0.466653, -0.543885, 0.329498, -2.07947, -2.15437, -0.110977, -0.00304602, -0.0189961, -0.016033, -0.0115669, -0.00835029, -0.030726
0.0901299, 1.69179, -1.23007, -1.54637, -0.901832, -1.19904, 1.22295, -1.30246, 0.0479479, -0.0165328, -0.0515109, 0.00217252, -0.122045, -0.0555679, 0.000350097, 0.0949785, 69.3771, 35.3437, 7.66418, 2.17914, 4.03445, -0.0951428, -0.000720991, -0.00408138, 0.00606274, 0.0164488, 0.000267737, 0.00445705, -0.0117262, 0.00315461, -0.0212972, -0.144735, 0.0668346, -0.0465702, 0.470919, -0.543949, 0.335429, -2.08368, -2.16559, -0.129109, 0.466646, -0.543896, 0.329456, -2.07945, -2.15432, -0.110734, -0.00310843, -0.019381, -0.0163726, -0.0074585, -0.00465823, -0.0354866
0.0911299, 1.69184, -1.2301, -1.54643, -0.901821, -1.19918, 1.22293, -1.30245, 0.0491612, -0.0190849, -0.0503639, 0.00529597, -0.124747, -0.0413764, 0.00198788, -0.0914839, 69.7104, 35.4191, 7.81494, 2.18555, 4.02713, -0.140919, -0.00071818, -0.00407903, 0.00608714, 0.0165632, 0.000187989, 0.00449077, -0.0097615, 0.000548836, -0.0205308, -0.131292, 0.0734288, -0.0505527, 0.470916, -0.543968, 0.335413, -2.08367, -2.16558, -0.129081, 0.466644, -0.543908, 0.329416, -2.07945, -2.15428, -0.110496, -0.00317106, -0.0197671, -0.0167139, -0.00482098, -0.00699532, -0.0354559
0.0921299, 1.69189, -1.23012, -1.54648, -0.901804, -1.19933, 1.22292, -1.30246, 0.0501234, -0.0189562, -0.0502204, 0.00532547, -0.131648, -0.0294424, -0.000597144, -0.206535, 69.9683, 35.5301, 7.92602, 2.18555, 3.9841, -0.0878186, -0.000718722, -0.0040768, 0.00610695, 0.016668, 9.34696e-05, 0.00451936, -0.00803895, -0.00148673, -0.0191367, -0.123839, 0.0853056, -0.0498119, 0.470912, -0.543988, 0.335396, -2.08366, -2.16557, -0.129052, 0.466642, -0.543925, 0.32938, -2.07947, -2.15425, -0.110253, -0.00323391, -0.0201544, -0.0170569, -0.00273871, -0.00921431, -0.0347521
0.0931299, 1.69194, -1.23015, -1.54654, -0.901803, -1.19947, 1.22292, -1.30246, 0.0470767, -0.0261421, -0.0482766, 0.00392536, -0.135988, -0.0214033, -0.00131431, -0.242241, 70.4086, 35.5698, 8.22754, 2.17273, 3.96213, -0.0621838, -0.000718283, -0.00407128, 0.00613667, 0.0167711, 1.01268e-05, 0.00454059, -0.00560533, -0.00161807, -0.0217443, -0.117677, 0.0857397, -0.0517497, 0.470909, -0.544008, 0.335379, -2.08366, -2.16556, -0.129023, 0.466643, -0.54394, 0.329334, -2.07947, -2.15422, -0.110024, -0.00329695, -0.0205426, -0.0174015, -0.00268001, -0.0115989, -0.038053
0.0941299, 1.69199, -1.23018, -1.5466, -0.901803, -1.19962, 1.22293, -1.30246, 0.044975, -0.0247556, -0.0461165, 0.00330767, -0.139267, -0.016753, -0.000613934, -0.281914, 70.7062, 35.5698, 8.52509, 2.16083, 3.97677, -0.0685925, -0.000717975, -0.00406506, 0.00616059, 0.0168688, -8.84575e-05, 0.00456528, -0.00473018, -0.00148766, -0.0194517, -0.112809, 0.0921301, -0.0546422, 0.470906, -0.544029, 0.335362, -2.08365, -2.16555, -0.128993, 0.466645, -0.543957, 0.329292, -2.07949, -2.1542, -0.109784, -0.00336018, -0.0209318, -0.0177477, -0.00275845, -0.0132101, -0.036267
0.0951299, 1.69205, -1.23022, -1.54666, -0.901794, -1.19976, 1.22293, -1.30245, 0.0501827, -0.0270803, -0.0542921, 0.00348378, -0.145303, -0.010296, 0.00106746, -0.468376, 71.1465, 35.6809, 8.67188, 2.11139, 4.04086, -0.10796, -0.000714622, -0.00405459, 0.00619197, 0.0169731, -0.000171438, 0.0045898, -0.00365764, -0.0035185, -0.0231001, -0.117785, 0.0988629, -0.0577585, 0.470903, -0.54405, 0.335344, -2.08364, -2.16554, -0.128963, 0.466651, -0.543969, 0.329244, -2.07949, -2.15417, -0.109552, -0.00342359, -0.0213219, -0.0180953, -0.000890122, -0.014015, -0.0404462
0.0961299, 1.6921, -1.23026, -1.54671, -0.901797, -1.19991, 1.22293, -1.30246, 0.0505686, -0.0268907, -0.0566878, 0.000812888, -0.149687, -0.00585222, -0.000732408, -0.508049, 71.5155, 35.6412, 8.93372, 2.05646, 4.12051, -0.0685925, -0.000710301, -0.00404664, 0.00621941, 0.0170758, -0.000258713, 0.00460231, -0.00324774, -0.00428512, -0.0235454, -0.119055, 0.105415, -0.0564174, 0.470899, -0.544071, 0.335326, -2.08363, -2.16553, -0.128932, 0.466654, -0.543982, 0.329199, -2.07949, -2.15416, -0.109318, -0.00348715, -0.0217127, -0.0184443, -0.000190396, -0.0147108, -0.0413223
0.0971299, 1.69216, -1.23029, -1.54677, -0.901792, -1.20006, 1.22294, -1.30246, 0.0506177, -0.023279, -0.0580626, 0.00145703, -0.148053, -0.00614051, -0.00146111, -0.583427, 71.7377, 35.7166, 9.08447, 2.00061, 4.17727, -0.0420422, -0.000708547, -0.00403833, 0.00624513, 0.0171807, -0.000360239, 0.00462393, -0.00391087, -0.00405608, -0.021548, -0.118815, 0.10774, -0.0570028, 0.470896, -0.544093, 0.335307, -2.08363, -2.16552, -0.1289, 0.466658, -0.543997, 0.329156, -2.0795, -2.15414, -0.109066, -0.00355087, -0.0221042, -0.0187947, -0.00043348, -0.0147642, -0.0395906
0.0981299, 1.69222, -1.2303, -1.54684, -0.901791, -1.20021, 1.22294, -1.30246, 0.0509901, -0.0181412, -0.0570128, 0.00180793, -0.143913, -0.00166489, -0.000457561, -0.619133, 71.8448, 35.7166, 9.23523, 1.93378, 4.23495, -0.0557752, -0.000704352, -0.00403091, 0.00626449, 0.0172842, -0.00046731, 0.00465129, -0.00543298, -0.00564339, -0.0174522, -0.111198, 0.1118, -0.0567721, 0.470892, -0.544115, 0.335289, -2.08362, -2.16551, -0.128868, 0.466661, -0.544012, 0.329118, -2.07952, -2.15412, -0.108808, -0.00361472, -0.0224964, -0.0191465, 0.00118409, -0.0142185, -0.0357112
0.0991299, 1.69227, -1.23032, -1.5469, -0.901801, -1.20036, 1.22294, -1.30245, 0.0556591, -0.0203511, -0.0638091, -0.00361304, -0.143861, 0.00163348, 0.00115893, -0.694511, 71.9202, 35.7523, 9.4931, 1.87244, 4.29904, -0.0951428, -0.000697182, -0.00402216, 0.00628728, 0.0174048, -0.000579035, 0.00466886, -0.00760405, -0.00897803, -0.0215667, -0.117406, 0.112492, -0.0527795, 0.470888, -0.544138, 0.335269, -2.08361, -2.1655, -0.128835, 0.466664, -0.544024, 0.329078, -2.07952, -2.15411, -0.108527, -0.00367869, -0.0228891, -0.0194995, 0.00422072, -0.0116988, -0.0398938
0.10013, 1.69233, -1.23035, -1.54697, -0.901797, -1.20051, 1.22294, -1.30246, 0.0565158, -0.0207658, -0.0659241, 0.000664678, -0.148282, -0.000955317, -0.000681005, -0.734184, 72.067, 35.792, 9.53278, 1.78638, 4.37137, -0.0557752, -0.00069422, -0.00401627, 0.0063126, 0.0175172, -0.000679133, 0.00469426, -0.00609017, -0.0072206, -0.0219212, -0.121385, 0.11438, -0.0569324, 0.470885, -0.54416, 0.33525, -2.0836, -2.16549, -0.128801, 0.466665, -0.54404, 0.329033, -2.07953, -2.15408, -0.108266, -0.00374278, -0.0232822, -0.0198537, 0.00244185, -0.0136041, -0.0407785
0.10113, 1.69239, -1.23037, -1.54705, -0.901803, -1.20066, 1.22294, -1.30246, 0.056468, -0.0210632, -0.0683716, -0.00205021, -0.146866, -0.00358578, -0.00167138, -0.809562, 72.2137, 35.8674, 9.67957, 1.71222, 4.46383, -0.0228162, -0.000688108, -0.00400879, 0.00633908, 0.0176399, -0.000783533, 0.00470834, -0.00733835, -0.00710968, -0.0232597, -0.126118, 0.112197, -0.0549113, 0.470881, -0.544184, 0.33523, -2.08359, -2.16547, -0.128767, 0.466668, -0.544053, 0.328988, -2.07952, -2.15406, -0.107989, -0.00380697, -0.0236758, -0.020209, 0.00217238, -0.0125642, -0.0422588
0.10213, 1.69244, -1.23037, -1.54712, -0.90182, -1.20081, 1.22294, -1.30246, 0.056363, -0.0152697, -0.0700292, -0.00678647, -0.146399, -0.0054923, -0.000162324, -0.809562, 72.1027, 35.792, 9.94141, 1.65729, 4.55722, -0.0484509, -0.000676959, -0.00399993, 0.00635447, 0.0177597, -0.000904682, 0.00472166, -0.00959512, -0.0074752, -0.0209391, -0.130384, 0.117369, -0.0537777, 0.470877, -0.544207, 0.33521, -2.08358, -2.16546, -0.128732, 0.466672, -0.544063, 0.328954, -2.07952, -2.15406, -0.107698, -0.00387125, -0.0240696, -0.0205654, 0.00247788, -0.0110719, -0.0399855
0.10313, 1.69249, -1.23039, -1.5472, -0.901819, -1.20096, 1.22294, -1.30245, 0.0532917, -0.011954, -0.075894, -0.00316015, -0.146394, -0.00630999, 0.00135172, -0.884941, 72.1423, 35.9031, 9.9057, 1.60785, 4.63595, -0.0878186, -0.000673074, -0.00399646, 0.00637699, 0.0178837, -0.00101514, 0.0047599, -0.00678808, -0.0037387, -0.020157, -0.133414, 0.1204, -0.0650077, 0.470873, -0.544231, 0.335189, -2.08357, -2.16545, -0.128697, 0.46667, -0.544079, 0.328912, -2.07954, -2.15402, -0.10741, -0.00393561, -0.0244637, -0.0209229, -0.00118961, -0.0145105, -0.0398901
0.10413, 1.69255, -1.23039, -1.54727, -0.901832, -1.2011, 1.22294, -1.30246, 0.0530168, -0.00684069, -0.0721682, -0.00523653, -0.145738, -0.00641341, -0.000555514, -0.920646, 72.067, 35.8277, 10.0565, 1.53461, 4.70096, -0.0484509, -0.000662108, -0.00398901, 0.0063915, 0.0180029, -0.00113453, 0.00476876, -0.00908125, -0.00474833, -0.0158075, -0.130084, 0.125024, -0.0603039, 0.470869, -0.544256, 0.335168, -2.08357, -2.16544, -0.128661, 0.466673, -0.54409, 0.328879, -2.07954, -2.15402, -0.107121, -0.00400003, -0.0248579, -0.0212814, -0.000166938, -0.0132681, -0.0356298
0.10513, 1.6926, -1.23038, -1.54736, -0.90184, -1.20126, 1.22293, -1.30246, 0.0521866, -0.000767528, -0.0733353, -0.0071113, -0.146372, -0.00649864, -0.00131873, -0.960319, 71.8845, 35.9031, 10.0922, 1.49707, 4.76504, -0.0228162, -0.000655021, -0.00398611, 0.00640574, 0.0181353, -0.00126471, 0.0047963, -0.00989177, -0.00435877, -0.0125532, -0.131357, 0.131951, -0.0602671, 0.470865, -0.544281, 0.335147, -2.08356, -2.16543, -0.128624, 0.46667, -0.544106, 0.328844, -2.07955, -2.154, -0.106804, -0.0040645, -0.0252522, -0.0216408, -0.00052916, -0.0133784, -0.0326382
0.10613, 1.69266, -1.23038, -1.54744, -0.901856, -1.2014, 1.22292, -1.30246, 0.0542434, 0.000894585, -0.0746723, -0.0114653, -0.146608, -0.00689827, -0.000166285, -1.07537, 71.8091, 35.8674, 10.2429, 1.45404, 4.83737, -0.0420422, -0.000642602, -0.00397955, 0.00642222, 0.018268, -0.00138581, 0.00481136, -0.0123934, -0.00618423, -0.0124799, -0.134862, 0.134372, -0.0569548, 0.470861, -0.544306, 0.335125, -2.08355, -2.16541, -0.128586, 0.466672, -0.544116, 0.328808, -2.07955, -2.15398, -0.106496, -0.00412902, -0.0256465, -0.022001, 0.00114262, -0.0112396, -0.0325953
0.10713, 1.69271, -1.23038, -1.54753, -0.901867, -1.20155, 1.22291, -1.30246, 0.0546376, 0.00376234, -0.0793383, -0.00960296, -0.1515, -0.00793891, 0.000635721, -1.15075, 71.6623, 35.9784, 10.3143, 1.42383, 4.92984, -0.0621838, -0.000634134, -0.00397938, 0.00643695, 0.0184098, -0.00151242, 0.00484166, -0.010898, -0.00441647, -0.0119634, -0.140714, 0.141081, -0.0635708, 0.470857, -0.544332, 0.335103, -2.08354, -2.1654, -0.128548, 0.466667, -0.544131, 0.328773, -2.07956, -2.15395, -0.10617, -0.00419356, -0.0260407, -0.0223621, -0.000615233, -0.0132619, -0.0326233
0.10813, 1.69276, -1.23038, -1.5476, -0.901885, -1.2017, 1.2229, -1.30246, 0.0580871, 0.00147221, -0.0765895, -0.0109804, -0.152159, -0.00841648, 0.000424258, -1.22613, 71.698, 35.8277, 10.5008, 1.40552, 5.0159, -0.0621838, -0.000621938, -0.00397492, 0.00645142, 0.0185397, -0.00163333, 0.0048586, -0.0135527, -0.0071059, -0.012445, -0.140053, 0.139399, -0.0582184, 0.470853, -0.544358, 0.335081, -2.08353, -2.16539, -0.128509, 0.466666, -0.544143, 0.328738, -2.07956, -2.15394, -0.105864, -0.00425812, -0.0264347, -0.0227239, 0.0018933, -0.010851, -0.0331333
0.10913, 1.69281, -1.23037, -1.54769, -0.901888, -1.20185, 1.22289, -1.30245, 0.0569054, 0.00426455, -0.0818831, -0.00748282, -0.147626, -0.00847947, 0.000995248, -1.41259, 71.5512, 35.8277, 10.5008, 1.40552, 5.09463, -0.0814099, -0.000613482, -0.00397487, 0.00646112, 0.0186767, -0.00176687, 0.00489735, -0.0125023, -0.00522388, -0.0118235, -0.140198, 0.138632, -0.0647473, 0.470849, -0.544384, 0.335058, -2.08352, -2.16537, -0.12847, 0.466661, -0.54416, 0.328707, -2.07958, -2.15391, -0.105534, -0.00432269, -0.0268285, -0.0230865, 9.37371e-06, -0.0124544, -0.0329865
0.11013, 1.69281, -1.23037, -1.54769, -0.901888, -1.20185, 1.22289, -1.30245, 0.0569054, 0.00426455, -0.0818831, -0.00748282, -0.147626, -0.00847947, 0.000995248, -1.41259, 71.5512, 35.8277, 10.5008, 1.40552, 5.09463, -0.0814099, -0.000583549, -0.00396997, 0.00644241, 0.0186449, -0.00176251, 0.00489336, -0.0129449, -0.00529343, -0.0115227, -0.13984, 0.138842, -0.0653844, 0.470844, -0.544411, 0.335035, -2.08351, -2.16536, -0.12843, 0.466661, -0.54416, 0.328707, -2.07958, -2.15391, -0.105534, -0.00438725, -0.027222, -0.0234497, 9.37371e-06, -0.0124544, -0.0329865
0.11113, 1.69291, -1.23036, -1.54787, -0.901911, -1.20214, 1.22286, -1.30246, 0.0563819, 0.00461221, -0.0852275, -0.00789104, -0.141282, -0.0117718, -0.000190271, -1.6784, 71.4401, 35.7523, 10.7269, 1.40552, 5.2457, -0.0557752, -0.000593944, -0.00397443, 0.00649024, 0.0189469, -0.00200826, 0.00494941, -0.014217, -0.00465806, -0.0125001, -0.142389, 0.132795, -0.0644951, 0.47084, -0.544438, 0.335012, -2.08349, -2.16534, -0.128389, 0.46665, -0.54419, 0.328635, -2.07959, -2.15385, -0.104906, -0.00445179, -0.0276151, -0.0238135, -0.000771717, -0.0114675, -0.0340985
0.11213, 1.69297, -1.23036, -1.54795, -0.901922, -1.20229, 1.22285, -1.30245, 0.0580509, 0.00301127, -0.0876368, -0.00792773, -0.13945, -0.0145782, 0.00058537, -1.97991, 71.4401, 35.6055, 10.838, 1.41742, 5.29605, -0.0750012, -0.000578779, -0.00396706, 0.00650578, 0.0190779, -0.00212637, 0.00497114, -0.0154253, -0.00495793, -0.0143159, -0.146131, 0.128761, -0.064738, 0.470836, -0.544466, 0.334988, -2.08348, -2.16533, -0.128348, 0.466652, -0.5442, 0.328599, -2.07959, -2.15383, -0.104598, -0.00451631, -0.0280078, -0.0241779, -0.000647842, -0.0103759, -0.0360783
0.11313, 1.69301, -1.23035, -1.54804, -0.901933, -1.20242, 1.22285, -1.30246, 0.0553921, 0.00279509, -0.0868659, -0.00793504, -0.137345, -0.0113577, 0.000152993, -2.13067, 71.4044, 35.4548, 10.9491, 1.40552, 5.32443, -0.0685925, -0.000567459, -0.00396587, 0.00651961, 0.0192029, -0.0022404, 0.00499551, -0.0149136, -0.00450422, -0.0134575, -0.140926, 0.12848, -0.0664688, 0.470831, -0.544494, 0.334964, -2.08347, -2.16531, -0.128305, 0.466647, -0.544215, 0.328563, -2.0796, -2.1538, -0.1043, -0.00458078, -0.0283999, -0.0245428, -0.00111559, -0.0114238, -0.0356608
0.11413, 1.69306, -1.23035, -1.54813, -0.901942, -1.20256, 1.22284, -1.30246, 0.0512221, 0.00359089, -0.0882379, -0.00801986, -0.134799, -0.00801253, -0.00206806, -2.3211, 71.329, 35.3834, 11.0641, 1.3689, 5.32443, -0.00999879, -0.000556295, -0.00396421, 0.00653337, 0.0193288, -0.00235758, 0.00501743, -0.0134798, -0.0028855, -0.0126799, -0.137001, 0.128972, -0.0687398, 0.470826, -0.544522, 0.334939, -2.08346, -2.1653, -0.128263, 0.466643, -0.54423, 0.328526, -2.0796, -2.15378, -0.103998, -0.00464521, -0.0287914, -0.0249081, -0.00271691, -0.0134166, -0.0354299
0.11513, 1.69312, -1.23033, -1.54822, -0.901941, -1.20269, 1.22284, -1.30246, 0.0489042, 0.00839925, -0.0848018, -0.00444748, -0.13351, -0.0046211, 4.55032e-05, -2.54723, 71.0712, 35.2683, 11.0245, 1.34967, 5.29605, -0.0484509, -0.00054341, -0.00396089, 0.00653493, 0.0194417, -0.0024897, 0.00505236, -0.0128741, -0.00215003, -0.00742075, -0.12761, 0.134003, -0.0749663, 0.470822, -0.544551, 0.334914, -2.08345, -2.16528, -0.128219, 0.466641, -0.544246, 0.328502, -2.07963, -2.15376, -0.103693, -0.00470957, -0.0291822, -0.0252738, -0.003298, -0.0152437, -0.0306736
0.11613, 1.69317, -1.23033, -1.54831, -0.901948, -1.20282, 1.22284, -1.30246, 0.0511855, 0.00641462, -0.0864721, -0.00474993, -0.128106, -0.00278612, 0.00101372, -2.80907, 71.0355, 35.1969, 11.0999, 1.32587, 5.2814, -0.0750012, -0.000529259, -0.00395573, 0.00654816, 0.0195615, -0.00260354, 0.0050796, -0.0147661, -0.0042533, -0.00888632, -0.125254, 0.128978, -0.0729905, 0.470817, -0.54458, 0.334889, -2.08344, -2.16527, -0.128175, 0.466641, -0.544259, 0.328466, -2.07964, -2.15373, -0.103398, -0.00477385, -0.0295723, -0.0256399, -0.00138421, -0.0134546, -0.0322598
0.11713, 1.69322, -1.23032, -1.5484, -0.901948, -1.20295, 1.22283, -1.30246, 0.0509095, 0.00426134, -0.0865834, -0.00401811, -0.12867, -0.00700422, 0.00043849, -2.9995, 71.0355, 35.0858, 11.1356, 1.30755, 5.28872, -0.0685925, -0.000516964, -0.00395258, 0.0065588, 0.0196728, -0.00271628, 0.00510899, -0.0149858, -0.003179, -0.0101241, -0.128704, 0.125358, -0.0741835, 0.470812, -0.54461, 0.334863, -2.08342, -2.16525, -0.12813, 0.466638, -0.544274, 0.328431, -2.07966, -2.1537, -0.103114, -0.00483806, -0.0299616, -0.0260062, -0.00257571, -0.0134808, -0.0337807
0.11813, 1.69326, -1.23032, -1.54849, -0.901948, -1.20308, 1.22283, -1.30247, 0.0482419, 0.00542804, -0.0923738, -0.00269094, -0.128827, -0.00519974, -0.00238641, -3.07488, 70.9244, 35.0461, 11.1356, 1.27002, 5.28872, 0.00373412, -0.000507806, -0.00395611, 0.00656793, 0.019786, -0.00282597, 0.00514195, -0.0125474, -0.000694085, -0.010687, -0.130778, 0.127889, -0.0786457, 0.470808, -0.54464, 0.334837, -2.08341, -2.16524, -0.128084, 0.466629, -0.544294, 0.328398, -2.07968, -2.15367, -0.102829, -0.00490216, -0.0303499, -0.0263728, -0.00505606, -0.0162918, -0.0350028
0.11913, 1.69331, -1.23031, -1.54856, -0.901948, -1.2032, 1.22282, -1.30246, 0.0482611, 0.00528065, -0.0919611, -0.00273114, -0.123775, -0.0095756, -0.000132861, -3.22564, 70.853, 34.824, 11.1752, 1.2334, 5.31711, -0.0356336, -0.000490743, -0.00395249, 0.00657152, 0.0198802, -0.0029274, 0.00517093, -0.0145325, -0.000624865, -0.0107073, -0.131511, 0.121666, -0.079639, 0.470803, -0.54467, 0.334811, -2.0834, -2.16522, -0.128038, 0.466626, -0.544307, 0.328371, -2.07969, -2.15364, -0.102573, -0.00496616, -0.0307373, -0.0267396, -0.00526091, -0.0147191, -0.0350799
0.12013, 1.69336, -1.2303, -1.54865, -0.901948, -1.20332, 1.22282, -1.30246, 0.0491259, 0.00694775, -0.092148, -0.00266284, -0.126012, -0.0109837, 0.00113214, -3.4121, 70.7062, 34.7486, 11.2109, 1.21509, 5.29605, -0.0685925, -0.000474318, -0.00394708, 0.00657447, 0.0199765, -0.00304106, 0.00520056, -0.0151442, -0.000583162, -0.00962289, -0.133512, 0.124754, -0.081657, 0.470798, -0.544701, 0.334784, -2.08339, -2.1652, -0.127991, 0.466626, -0.544321, 0.328344, -2.07972, -2.15362, -0.102302, -0.00503004, -0.0311236, -0.0271065, -0.0053478, -0.0146699, -0.0342801
0.12113, 1.6934, -1.23031, -1.54873, -0.901942, -1.20344, 1.22282, -1.30246, 0.0479598, 0.00119339, -0.0930565, -0.000945159, -0.127313, -0.0130506, 0.000992131, -3.52715, 70.853, 34.7129, 11.1752, 1.20318, 5.29605, -0.0750012, -0.000463289, -0.00394716, 0.00658952, 0.0200758, -0.00312938, 0.00523805, -0.0138258, 0.000978493, -0.0129012, -0.135846, 0.11916, -0.0855471, 0.470793, -0.544732, 0.334757, -2.08337, -2.16519, -0.127943, 0.466619, -0.544339, 0.328304, -2.07973, -2.15357, -0.102052, -0.0050938, -0.0315088, -0.0274735, -0.00704779, -0.0159171, -0.0380391
0.12213, 1.69345, -1.23031, -1.54881, -0.901934, -1.20356, 1.22282, -1.30247, 0.0511307, 0.000792013, -0.0885027, 0.0033948, -0.124321, -0.0086967, -0.0022547, -3.67791, 70.853, 34.6018, 11.1356, 1.20318, 5.26675, 0.00373412, -0.000450606, -0.00394577, 0.00659582, 0.0201676, -0.00323149, 0.00526507, -0.0154173, -0.00187056, -0.0104229, -0.124779, 0.118138, -0.080427, 0.470788, -0.544764, 0.33473, -2.08336, -2.16517, -0.127895, 0.466615, -0.544357, 0.328272, -2.07975, -2.15355, -0.101796, -0.00515741, -0.0318928, -0.0278405, -0.00422992, -0.014994, -0.0358027
0.12313, 1.69349, -1.2303, -1.54889, -0.901925, -1.20369, 1.22282, -1.30246, 0.0503949, 0.00312378, -0.0885071, 0.00649223, -0.127723, -0.00555768, -0.000282421, -3.82867, 70.7419, 34.6375, 11.0999, 1.23981, 5.23837, -0.0292249, -0.000440894, -0.00394785, 0.00660041, 0.0202669, -0.00334595, 0.00531593, -0.0138171, -0.000974922, -0.00799038, -0.121478, 0.124765, -0.0876876, 0.470782, -0.544796, 0.334702, -2.08335, -2.16515, -0.127846, 0.466607, -0.544379, 0.328241, -2.0798, -2.1535, -0.101517, -0.00522087, -0.0322756, -0.0282076, -0.00503961, -0.0173669, -0.0339875
0.12413, 1.69354, -1.2303, -1.54898, -0.901919, -1.20382, 1.22282, -1.30246, 0.0532903, 0.00384375, -0.0881022, 0.00788327, -0.130124, -0.00244844, 0.000795068, -3.97942, 70.6665, 34.6732, 11.0999, 1.25171, 5.18802, -0.0557752, -0.000428846, -0.00394773, 0.00660449, 0.0203633, -0.00345916, 0.00535614, -0.0144638, -0.00271621, -0.00679314, -0.11888, 0.129226, -0.088397, 0.470777, -0.544828, 0.334674, -2.08333, -2.16513, -0.127796, 0.466601, -0.544398, 0.328211, -2.07983, -2.15346, -0.101242, -0.00528417, -0.032657, -0.0285745, -0.00334206, -0.0172225, -0.0331275
0.12513, 1.69358, -1.2303, -1.54906, -0.901911, -1.20395, 1.22282, -1.30246, 0.0501628, 0.00079775, -0.0828298, 0.00812673, -0.136647, -0.000223542, 0.000767408, -4.0548, 70.7419, 34.6375, 11.1356, 1.29474, 5.13766, -0.0621838, -0.000418493, -0.00394838, 0.00661151, 0.0204537, -0.00356495, 0.00539721, -0.0127388, -0.00164252, -0.00602102, -0.114655, 0.132404, -0.091891, 0.470772, -0.54486, 0.334645, -2.08332, -2.16511, -0.127746, 0.466594, -0.54442, 0.328177, -2.07986, -2.15343, -0.100981, -0.0053473, -0.0330371, -0.0289414, -0.00438717, -0.0194682, -0.0329652
0.12613, 1.69362, -1.2303, -1.54914, -0.901894, -1.20409, 1.22282, -1.30247, 0.0438266, 0.000530701, -0.0830533, 0.0109029, -0.14261, 0.00161114, -0.0019298, -4.20556, 70.7419, 34.6375, 11.0641, 1.33777, 5.0809, 0.00373412, -0.000411522, -0.00395208, 0.00661506, 0.0205428, -0.00367859, 0.00544173, -0.00811596, 0.00285671, -0.005061, -0.113401, 0.137658, -0.100625, 0.470766, -0.544894, 0.334616, -2.0833, -2.1651, -0.127694, 0.466584, -0.544446, 0.328146, -2.0799, -2.15339, -0.100712, -0.00541024, -0.0334157, -0.0293081, -0.00874288, -0.0247426, -0.032957
0.12713, 1.69362, -1.2303, -1.54914, -0.901894, -1.20409, 1.22282, -1.30247, 0.0438266, 0.000530701, -0.0830533, 0.0109029, -0.14261, 0.00161114, -0.0019298, -4.20556, 70.7419, 34.6375, 11.0641, 1.33777, 5.0809, 0.00373412, -0.000374163, -0.00394597, 0.00659121, 0.0205007, -0.00367386, 0.00543681, -0.00854276, 0.00279012, -0.00475474, -0.113006, 0.13791, -0.101296, 0.470761, -0.544927, 0.334587, -2.08329, -2.16508, -0.127643, 0.466584, -0.544446, 0.328146, -2.0799, -2.15339, -0.100712, -0.00547299, -0.0337927, -0.0296745, -0.00874288, -0.0247426, -0.032957
0.12813, 1.69367, -1.2303, -1.54922, -0.901877, -1.20423, 1.22282, -1.30246, 0.0483147, 0.0025877, -0.0849992, 0.0121468, -0.140676, 0.00241117, 0.00040889, -4.35632, 70.7776, 34.7129, 11.0245, 1.36249, 5.03787, -0.0420422, -0.000366771, -0.00394844, 0.00659726, 0.0205957, -0.0037907, 0.00549417, -0.0106618, 0.000502906, -0.00390415, -0.112637, 0.139258, -0.101299, 0.470756, -0.544961, 0.334557, -2.08327, -2.16506, -0.12759, 0.466576, -0.544471, 0.328112, -2.07996, -2.15334, -0.10043, -0.00553554, -0.0341681, -0.0300408, -0.00656452, -0.0230629, -0.032228
0.12913, 1.69376, -1.2303, -1.54939, -0.901843, -1.20451, 1.22284, -1.30246, 0.047633, 0.0024087, -0.0874012, 0.0174528, -0.137909, 0.00487929, 0.000927716, -4.62212, 70.6665, 34.7129, 11.0245, 1.40552, 4.90146, -0.0621838, -0.000390102, -0.00395848, 0.00662442, 0.0208103, -0.0040436, 0.00560589, -0.00900198, 0.00167761, -0.00356106, -0.10833, 0.137961, -0.108011, 0.47075, -0.544995, 0.334527, -2.08326, -2.16504, -0.127537, 0.46656, -0.544525, 0.328052, -2.08007, -2.15325, -0.0998727, -0.00559787, -0.0345419, -0.0304067, -0.00772811, -0.0251762, -0.0324747
0.13013, 1.69381, -1.23028, -1.54947, -0.90182, -1.20466, 1.22285, -1.30246, 0.0487903, 0.00601824, -0.0890706, 0.020064, -0.141171, 0.00606072, -0.0013143, -4.81255, 70.484, 34.7129, 10.9888, 1.40552, 4.82272, -0.00999879, -0.000383617, -0.00396061, 0.00662052, 0.0208976, -0.00418296, 0.00565782, -0.00837216, 0.00207188, -0.0012863, -0.108525, 0.144978, -0.109569, 0.470744, -0.545029, 0.334497, -2.08324, -2.16502, -0.127483, 0.466551, -0.544554, 0.328027, -2.08013, -2.15322, -0.099576, -0.00565998, -0.0349139, -0.0307722, -0.00807531, -0.0265355, -0.0306791
0.13113, 1.69385, -1.23029, -1.54956, -0.901798, -1.20481, 1.22287, -1.30246, 0.0487599, 0.0032846, -0.086623, 0.0234976, -0.142887, 0.0170573, 0.000310594, -4.96331, 70.5197, 34.6732, 11.0245, 1.38721, 4.72201, -0.0420422, -0.000377954, -0.00396132, 0.00662487, 0.0209809, -0.00430849, 0.00571707, -0.00654279, 0.000473451, -0.000312403, -0.0958554, 0.148945, -0.114154, 0.470739, -0.545064, 0.334466, -2.08323, -2.165, -0.127428, 0.466544, -0.544583, 0.327993, -2.0802, -2.15318, -0.0992963, -0.00572185, -0.0352841, -0.0311374, -0.00643893, -0.0287959, -0.0304172
0.13213, 1.6939, -1.23028, -1.54965, -0.901772, -1.20496, 1.22288, -1.30246, 0.0508435, 0.0031057, -0.0884695, 0.0229524, -0.143132, 0.0155161, 0.00119041, -5.07439, 70.484, 34.6375, 11.0641, 1.33777, 4.62955, -0.0685925, -0.000375293, -0.00396677, 0.00662561, 0.0210653, -0.00443941, 0.00578607, -0.00775975, -0.000239928, -0.00106343, -0.0991152, 0.148737, -0.114136, 0.470733, -0.5451, 0.334435, -2.08321, -2.16498, -0.127372, 0.466533, -0.544615, 0.327962, -2.08027, -2.15312, -0.0990081, -0.00578347, -0.0356524, -0.0315021, -0.00585993, -0.0278182, -0.0313579
0.13313, 1.69394, -1.23028, -1.54973, -0.901748, -1.20511, 1.22289, -1.30246, 0.0484398, 0.00296624, -0.0890387, 0.0209211, -0.144379, 0.0140713, 0.000556246, -5.14977, 70.4483, 34.5621, 11.1752, 1.31946, 4.54349, -0.0621838, -0.000371943, -0.00397103, 0.00662625, 0.0211517, -0.00457615, 0.00584901, -0.0074906, 0.00110648, -0.00130772, -0.101651, 0.149282, -0.115456, 0.470727, -0.545135, 0.334403, -2.08319, -2.16496, -0.127316, 0.466522, -0.544648, 0.32793, -2.08035, -2.15308, -0.0987118, -0.00584484, -0.0360188, -0.0318663, -0.00726564, -0.0284679, -0.0319617
0.13413, 1.69399, -1.23028, -1.54982, -0.90171, -1.20527, 1.2229, -1.30246, 0.0491615, 0.00202291, -0.0868642, 0.0285192, -0.146299, 0.0124645, -0.00183322, -5.30053, 70.4483, 34.5264, 11.1752, 1.30755, 4.47116, -0.00267457, -0.000370291, -0.00397529, 0.00662687, 0.0212341, -0.00471012, 0.00591346, -0.00614156, 0.00244544, 0.000101194, -0.0982561, 0.148579, -0.119284, 0.470721, -0.545171, 0.334371, -2.08318, -2.16494, -0.127259, 0.466512, -0.544682, 0.327899, -2.08042, -2.15303, -0.0984218, -0.00590595, -0.0363832, -0.0322299, -0.00856226, -0.0304354, -0.0311
0.13513, 1.69404, -1.23028, -1.54991, -0.90167, -1.20542, 1.22291, -1.30246, 0.0504655, 0.000547455, -0.0865833, 0.0341056, -0.14631, 0.0152832, -0.000950877, -5.37591, 70.484, 34.5621, 11.1752, 1.27643, 4.4208, -0.00999879, -0.000370417, -0.00398207, 0.00662849, 0.0213174, -0.00484142, 0.00599049, -0.00511744, 0.00230728, 0.000588829, -0.0928652, 0.148345, -0.124262, 0.470716, -0.545208, 0.334339, -2.08316, -2.16492, -0.127202, 0.466499, -0.544719, 0.327865, -2.0805, -2.15297, -0.0981316, -0.00596678, -0.0367455, -0.032593, -0.00843009, -0.031878, -0.0311445
0.13613, 1.6941, -1.23028, -1.54999, -0.901629, -1.20559, 1.22293, -1.30246, 0.0566237, 0.00122574, -0.0858966, 0.0373473, -0.148375, 0.0137331, 0.00201094, -5.52666, 70.4483, 34.4153, 11.2109, 1.28284, 4.34207, -0.0814099, -0.00036549, -0.00398254, 0.00662334, 0.0213913, -0.00498341, 0.00606392, -0.00724707, -8.42696e-05, 0.00155833, -0.0935106, 0.150188, -0.125057, 0.47071, -0.545245, 0.334306, -2.08314, -2.16489, -0.127143, 0.466492, -0.544752, 0.327839, -2.0806, -2.15292, -0.0978403, -0.00602732, -0.0371056, -0.0329554, -0.00614079, -0.0301864, -0.030297
0.13713, 1.69415, -1.23029, -1.55008, -0.901585, -1.20575, 1.22294, -1.30246, 0.0585598, -0.00803009, -0.0854047, 0.0398139, -0.148578, 0.0117288, 0.00134063, -5.56634, 70.5594, 34.4153, 11.2506, 1.26453, 4.28531, -0.0814099, -0.00036538, -0.00398827, 0.00662827, 0.0214749, -0.00510979, 0.00614075, -0.00724592, -0.000551967, -0.00335295, -0.0944685, 0.14025, -0.124887, 0.470704, -0.545282, 0.334273, -2.08313, -2.16487, -0.127084, 0.46648, -0.544788, 0.327801, -2.08068, -2.15285, -0.0975533, -0.00608756, -0.0374636, -0.0333171, -0.00592189, -0.0297724, -0.0355235
0.13813, 1.69421, -1.2303, -1.55017, -0.901544, -1.20591, 1.22296, -1.30246, 0.0596279, -0.008367, -0.0858931, 0.0399091, -0.1499, 0.00976625, 0.000656392, -5.64172, 70.6665, 34.451, 11.3617, 1.27643, 4.24228, -0.0750012, -0.000362828, -0.00398812, 0.00663368, 0.0215549, -0.00524336, 0.00620886, -0.00791139, -0.000596407, -0.00361273, -0.0969585, 0.140372, -0.124584, 0.470697, -0.545319, 0.33424, -2.08311, -2.16485, -0.127025, 0.466473, -0.544822, 0.327763, -2.08075, -2.1528, -0.0972631, -0.0061475, -0.0378192, -0.0336781, -0.00597115, -0.0294293, -0.0360394
0.13913, 1.69427, -1.23031, -1.55026, -0.901491, -1.20607, 1.22297, -1.30246, 0.0577295, -0.00855743, -0.0844537, 0.045082, -0.149887, 0.0125542, -0.00224117, -5.67742, 70.7776, 34.4153, 11.3974, 1.26453, 4.21298, -0.00267457, -0.000362703, -0.00399151, 0.00663634, 0.0216321, -0.00537562, 0.00627949, -0.00594653, 0.000795959, -0.00185757, -0.0901664, 0.141176, -0.128062, 0.470691, -0.545357, 0.334206, -2.08309, -2.16483, -0.126964, 0.466463, -0.54486, 0.327727, -2.08083, -2.15275, -0.0969763, -0.00620712, -0.0381726, -0.0340383, -0.00728428, -0.032049, -0.0349257
0.14013, 1.69434, -1.23031, -1.55035, -0.901435, -1.20624, 1.22299, -1.30246, 0.060335, -0.0069187, -0.0843338, 0.0498509, -0.155769, 0.0148116, -3.60515e-05, -5.7528, 70.8173, 34.4153, 11.3974, 1.27643, 4.1846, -0.0420422, -0.000362638, -0.00399349, 0.00663663, 0.0217099, -0.00551821, 0.00636397, -0.00486642, 0.000604169, 0.000207483, -0.0884372, 0.148744, -0.134494, 0.470685, -0.545395, 0.334172, -2.08307, -2.1648, -0.126903, 0.466455, -0.544898, 0.327693, -2.08093, -2.15268, -0.0966762, -0.00626642, -0.0385235, -0.0343977, -0.00703441, -0.0337755, -0.0334196
0.14113, 1.6944, -1.23032, -1.55043, -0.901373, -1.20642, 1.22301, -1.30246, 0.0625636, -0.00566198, -0.0841486, 0.0530519, -0.163255, 0.015962, 0.000721951, -5.82818, 70.853, 34.4153, 11.3974, 1.25171, 4.16995, -0.0621838, -0.00036365, -0.00399513, 0.00663469, 0.0217861, -0.0056692, 0.00644973, -0.0038588, 0.000641404, 0.00178419, -0.0890759, 0.156803, -0.138975, 0.470679, -0.545434, 0.334138, -2.08305, -2.16478, -0.126841, 0.466447, -0.544938, 0.327661, -2.08104, -2.15262, -0.0963685, -0.00632538, -0.038872, -0.0347562, -0.00703408, -0.0353623, -0.032376
0.14213, 1.69447, -1.23033, -1.55052, -0.901313, -1.2066, 1.22303, -1.30246, 0.0645626, -0.00736905, -0.0862286, 0.057859, -0.167857, 0.0174893, 0.00071866, -5.79247, 70.9998, 34.3757, 11.4371, 1.20318, 4.14157, -0.0685925, -0.000365593, -0.0039968, 0.00663552, 0.0218579, -0.00581513, 0.00653413, -0.00208001, 0.0011246, 0.00106634, -0.0895068, 0.159722, -0.144356, 0.470673, -0.545473, 0.334103, -2.08303, -2.16476, -0.126778, 0.466438, -0.544979, 0.327625, -2.08114, -2.15256, -0.0960701, -0.006384, -0.0392179, -0.0351138, -0.00753971, -0.037374, -0.0337021
0.14313, 1.69454, -1.23033, -1.55061, -0.901252, -1.20679, 1.22305, -1.30246, 0.0691799, -0.00503324, -0.084655, 0.0606751, -0.172226, 0.0227784, -0.00121631, -5.7528, 70.9998, 34.34, 11.5085, 1.17847, 4.12051, -0.0228162, -0.000364601, -0.00399461, 0.00662999, 0.0219303, -0.00597891, 0.00660802, -0.00279565, -0.00161642, 0.00393489, -0.0843347, 0.168385, -0.141749, 0.470666, -0.545512, 0.334068, -2.08301, -2.16473, -0.126715, 0.466434, -0.545018, 0.327596, -2.08125, -2.15252, -0.0957534, -0.00644226, -0.0395612, -0.0354704, -0.0047753, -0.0373387, -0.031205
0.14413, 1.69462, -1.23033, -1.5507, -0.901184, -1.20698, 1.22308, -1.30246, 0.0738714, -0.00428112, -0.0861982, 0.0636363, -0.180556, 0.0259771, 0.000138559, -5.7528, 71.0355, 34.4153, 11.5482, 1.13544, 4.12692, -0.0484509, -0.000364658, -0.00399251, 0.006629, 0.0220078, -0.00613699, 0.00669423, -0.0021576, -0.00299579, 0.00462554, -0.0856315, 0.17791, -0.145256, 0.47066, -0.545551, 0.334033, -2.08299, -2.16471, -0.126651, 0.466429, -0.545058, 0.327561, -2.08135, -2.15246, -0.0954347, -0.00650015, -0.0399019, -0.035826, -0.00340619, -0.0383588, -0.0310227
0.14513, 1.6947, -1.23033, -1.55079, -0.901119, -1.20717, 1.2231, -1.30246, 0.0758553, -0.00292188, -0.084451, 0.0641518, -0.187241, 0.0226684, 0.00107572, -5.67742, 71.0355, 34.3757, 11.6592, 1.12262, 4.16354, -0.0750012, -0.000364525, -0.00399052, 0.00662409, 0.0220832, -0.00630501, 0.00677935, -0.00277684, -0.0029712, 0.00607374, -0.0896034, 0.183341, -0.14683, 0.470653, -0.545591, 0.333997, -2.08297, -2.16469, -0.126586, 0.466425, -0.545098, 0.327531, -2.08147, -2.15241, -0.0951077, -0.00655767, -0.0402399, -0.0361806, -0.00345391, -0.0383086, -0.0298508
0.14613, 1.69477, -1.23033, -1.55088, -0.90105, -1.20737, 1.22312, -1.30246, 0.078798, -0.00199877, -0.0877001, 0.0640495, -0.19126, 0.0194454, 0.000479786, -5.52666, 71.0355, 34.3757, 11.6592, 1.086, 4.22763, -0.0685925, -0.00036588, -0.0039907, 0.00661904, 0.0221615, -0.00647374, 0.00686684, -0.00345028, -0.00304772, 0.00537233, -0.097118, 0.186603, -0.146857, 0.470647, -0.545631, 0.333961, -2.08295, -2.16466, -0.12652, 0.466418, -0.545141, 0.327499, -2.08158, -2.15236, -0.0947757, -0.00661481, -0.0405751, -0.036534, -0.00348534, -0.0378681, -0.0307953
0.14713, 1.69485, -1.23033, -1.55098, -0.900984, -1.20757, 1.22315, -1.30246, 0.0821381, -0.00373362, -0.0907541, 0.0671996, -0.194693, 0.0218186, -0.00185028, -5.41558, 70.9998, 34.4153, 11.7703, 1.06128, 4.29263, -0.00999879, -0.000366051, -0.00398776, 0.00661381, 0.0222409, -0.00665142, 0.00694506, -0.00267713, -0.00380105, 0.00406804, -0.0981101, 0.189219, -0.147197, 0.47064, -0.545672, 0.333924, -2.08293, -2.16464, -0.126454, 0.466414, -0.545182, 0.327468, -2.08169, -2.15232, -0.0944337, -0.00667155, -0.0409074, -0.0368864, -0.00281271, -0.0387327, -0.0325801
0.14813, 1.69493, -1.23034, -1.55108, -0.900911, -1.20777, 1.22317, -1.30246, 0.0794172, -0.00445464, -0.0958901, 0.0679406, -0.198128, 0.0235528, 0.000190633, -5.22515, 71.0712, 34.451, 11.8457, 1.04297, 4.36404, -0.0484509, -0.000369607, -0.00398728, 0.0066133, 0.0223214, -0.00682191, 0.00704168, 0.000336658, -0.00116363, 0.00255003, -0.101592, 0.192664, -0.156803, 0.470633, -0.545713, 0.333887, -2.08291, -2.16461, -0.126387, 0.466408, -0.545227, 0.327431, -2.08181, -2.15225, -0.0940951, -0.00672789, -0.0412368, -0.0372375, -0.00545483, -0.0419128, -0.0348101
0.14913, 1.69502, -1.23033, -1.55117, -0.900835, -1.20797, 1.2232, -1.30246, 0.0823511, -0.000685444, -0.0941928, 0.0692256, -0.194249, 0.0290973, 0.00111043, -5.07439, 70.9641, 34.3757, 11.8854, 0.993529, 4.4501, -0.0750012, -0.000369631, -0.00398478, 0.00660179, 0.0223901, -0.00700185, 0.0071341, -0.00181996, -0.00427683, 0.00617522, -0.0925553, 0.196229, -0.154604, 0.470627, -0.545754, 0.33385, -2.08289, -2.16458, -0.126319, 0.466403, -0.54527, 0.327406, -2.08194, -2.1522, -0.0937597, -0.00678382, -0.0415633, -0.0375874, -0.00233701, -0.0405386, -0.0313494
0.15013, 1.6951, -1.23033, -1.55127, -0.900762, -1.20817, 1.22323, -1.30246, 0.0820145, 0.00281071, -0.094139, 0.0694707, -0.197368, 0.029083, 0.000740288, -4.96331, 70.8173, 34.34, 11.9568, 0.981627, 4.52151, -0.0750012, -0.000368476, -0.00398004, 0.00659255, 0.0224669, -0.00718823, 0.00722025, -0.00167708, -0.00366617, 0.00863978, -0.0930677, 0.202535, -0.156582, 0.47062, -0.545796, 0.333812, -2.08287, -2.16456, -0.126251, 0.466401, -0.545311, 0.327377, -2.08206, -2.15215, -0.0934086, -0.00683932, -0.0418868, -0.0379361, -0.00290084, -0.0414062, -0.0292668
0.15113, 1.69519, -1.23033, -1.55138, -0.900683, -1.20837, 1.22326, -1.30246, 0.0869653, -0.00146164, -0.0993813, 0.074318, -0.193816, 0.0294891, -0.00167661, -4.81255, 70.8173, 34.3757, 11.9568, 0.945006, 4.58652, -0.0164075, -0.000370136, -0.00397696, 0.00659123, 0.0225491, -0.00736289, 0.00730654, -0.00201626, -0.0050293, 0.00502275, -0.0941035, 0.196, -0.155385, 0.470613, -0.545838, 0.333774, -2.08285, -2.16453, -0.126182, 0.466397, -0.545355, 0.327341, -2.08217, -2.1521, -0.0930627, -0.0068944, -0.0422071, -0.0382834, -0.00174739, -0.0407808, -0.0331784
0.15213, 1.69528, -1.23032, -1.55147, -0.900603, -1.20857, 1.22329, -1.30246, 0.0875041, -0.00190864, -0.102893, 0.0780023, -0.198429, 0.0299839, 0.000815038, -4.65783, 70.7062, 34.2646, 11.9568, 0.951415, 4.64328, -0.0685925, -0.000369716, -0.00397305, 0.00658154, 0.0226223, -0.00754661, 0.00740269, 0.000181998, -0.00349134, 0.00437996, -0.0968634, 0.199859, -0.164446, 0.470606, -0.54588, 0.333736, -2.08282, -2.1645, -0.126112, 0.466394, -0.545398, 0.327312, -2.0823, -2.15205, -0.0927159, -0.00694903, -0.0425243, -0.0386293, -0.00328486, -0.0432328, -0.0344486
0.15313, 1.69538, -1.23032, -1.55158, -0.900521, -1.20877, 1.22331, -1.30246, 0.0903863, -0.000879433, -0.106076, 0.0783622, -0.199907, 0.0303081, 0.000306, -4.58245, 70.6665, 34.1892, 11.9211, 0.926695, 4.70096, -0.0621838, -0.000368468, -0.00396734, 0.00657616, 0.022699, -0.00772453, 0.00749102, -0.000459854, -0.00437711, 0.00412171, -0.0998116, 0.202887, -0.164119, 0.470599, -0.545922, 0.333697, -2.0828, -2.16448, -0.126041, 0.466393, -0.54544, 0.327279, -2.08242, -2.15199, -0.0923711, -0.00700322, -0.0428383, -0.0389739, -0.0024871, -0.0428371, -0.0349785
0.15413, 1.69547, -1.23032, -1.55168, -0.900439, -1.20898, 1.22333, -1.30246, 0.0920131, 0.0015181, -0.104055, 0.0775692, -0.202992, 0.0288619, 0.000916077, -4.50707, 70.5594, 34.1892, 11.9211, 0.913878, 4.80807, -0.0814099, -0.000367389, -0.00396462, 0.0065678, 0.0227875, -0.00791218, 0.00758603, -0.0019406, -0.00522112, 0.00626203, -0.100697, 0.207435, -0.163261, 0.470592, -0.545965, 0.333659, -2.08278, -2.16445, -0.12597, 0.466388, -0.545483, 0.327249, -2.08254, -2.15193, -0.092002, -0.00705695, -0.0431491, -0.039317, -0.00166622, -0.0419796, -0.0330074
0.15513, 1.69556, -1.23031, -1.55179, -0.900353, -1.20919, 1.22335, -1.30246, 0.0923623, 0.00247435, -0.104106, 0.0818219, -0.208206, 0.0244542, -0.00230541, -4.39599, 70.484, 34.1178, 11.8457, 0.889159, 4.8804, -0.00267457, -0.00036964, -0.00396497, 0.00656196, 0.0228724, -0.00809285, 0.00767833, -0.000710018, -0.00307383, 0.00734081, -0.104551, 0.210401, -0.165941, 0.470585, -0.546008, 0.333619, -2.08275, -2.16442, -0.125898, 0.466381, -0.545529, 0.327215, -2.08266, -2.15187, -0.0916436, -0.00711021, -0.0434565, -0.0396587, -0.00377748, -0.0437554, -0.0324031
0.15613, 1.69565, -1.23032, -1.5519, -0.900272, -1.2094, 1.22337, -1.30246, 0.092183, -0.000777217, -0.105256, 0.0822141, -0.207665, 0.0207994, -0.00102831, -4.28094, 70.4483, 34.0781, 11.8854, 0.870848, 4.95914, -0.0164075, -0.000369877, -0.00396452, 0.00655834, 0.022963, -0.00827065, 0.00777629, -0.000841355, -0.0021735, 0.00507065, -0.108127, 0.205288, -0.168716, 0.470578, -0.546052, 0.33358, -2.08273, -2.16439, -0.125825, 0.466374, -0.545574, 0.327179, -2.08278, -2.1518, -0.0912805, -0.007163, -0.0437605, -0.0399988, -0.00482283, -0.0436185, -0.0349345
0.15713, 1.69573, -1.23031, -1.55201, -0.900183, -1.20961, 1.22338, -1.30246, 0.0917976, 0.00425646, -0.106022, 0.0845364, -0.209291, 0.0180815, 0.00172196, -4.13018, 70.2261, 34.0424, 11.8457, 0.901976, 5.03787, -0.0814099, -0.000375234, -0.00397138, 0.00654955, 0.0230576, -0.00845951, 0.00789288, -0.000585986, -0.000554316, 0.00821305, -0.109861, 0.210473, -0.175658, 0.470571, -0.546096, 0.33354, -2.08271, -2.16437, -0.125751, 0.46636, -0.545624, 0.327147, -2.08292, -2.15172, -0.090899, -0.0072153, -0.0440611, -0.0403373, -0.00635889, -0.0447196, -0.0321557
0.15813, 1.69582, -1.23031, -1.55211, -0.900092, -1.20983, 1.22339, -1.30246, 0.0896541, 0.000301885, -0.10657, 0.0892726, -0.210576, 0.0119005, 0.000435894, -4.0548, 70.1904, 33.8559, 11.81, 0.895568, 5.10196, -0.0621838, -0.000376468, -0.00397394, 0.00654457, 0.0231528, -0.00863675, 0.00799626, 0.00146533, 0.00298297, 0.00622831, -0.113694, 0.204352, -0.181952, 0.470564, -0.54614, 0.333499, -2.08268, -2.16434, -0.125677, 0.46635, -0.545671, 0.327112, -2.08304, -2.15164, -0.0905294, -0.0072671, -0.0443582, -0.0406742, -0.00994828, -0.0468826, -0.0346513
0.15913, 1.69591, -1.2303, -1.55222, -0.900002, -1.21005, 1.2234, -1.30246, 0.0873706, 0.00090167, -0.107403, 0.0877625, -0.214893, 0.00905586, 0.000290596, -3.94372, 70.004, 33.8202, 11.8457, 0.901976, 5.11661, -0.0621838, -0.000382626, -0.00398236, 0.00653569, 0.0232508, -0.0088278, 0.00811328, 0.00235511, 0.00506889, 0.00628285, -0.118781, 0.207499, -0.185295, 0.470556, -0.546184, 0.333458, -2.08266, -2.16431, -0.125602, 0.466335, -0.545723, 0.32708, -2.08318, -2.15156, -0.0901405, -0.00731841, -0.0446518, -0.0410095, -0.0120486, -0.0481486, -0.0350001
0.16013, 1.69599, -1.2303, -1.55233, -0.899916, -1.21027, 1.22341, -1.30246, 0.0888071, -0.000605293, -0.107427, 0.0859756, -0.217865, 0.0135361, -0.00126433, -3.82867, 69.8929, 33.7806, 11.9211, 0.889159, 5.07358, -0.0228162, -0.000388423, -0.00399016, 0.00653057, 0.0233488, -0.00901371, 0.00822248, 0.00204578, 0.00330494, 0.00576037, -0.117067, 0.211222, -0.182341, 0.470549, -0.546229, 0.333417, -2.08263, -2.16428, -0.125526, 0.46632, -0.545774, 0.327044, -2.08331, -2.15147, -0.0897569, -0.0073692, -0.0449417, -0.0413431, -0.0103691, -0.0479806, -0.0358608
0.16113, 1.69608, -1.2303, -1.55243, -0.899819, -1.21049, 1.22341, -1.30246, 0.0860027, 0.00136295, -0.107725, 0.0883392, -0.214521, 0.0106198, -0.00036817, -3.82867, 69.7858, 33.5941, 11.8457, 0.877257, 5.06625, -0.0356336, -0.000390212, -0.00399634, 0.00651963, 0.0234412, -0.00919432, 0.00833473, 0.00256509, 0.00562612, 0.00733273, -0.116146, 0.209024, -0.187885, 0.470542, -0.546274, 0.333376, -2.08261, -2.16425, -0.12545, 0.466306, -0.545823, 0.327013, -2.08344, -2.15139, -0.0893838, -0.00741948, -0.0452279, -0.0416749, -0.0126562, -0.0491159, -0.034642
0.16213, 1.69616, -1.23028, -1.55255, -0.899727, -1.2107, 1.22341, -1.30246, 0.085094, 0.00555117, -0.110792, 0.0871934, -0.213707, 0.00834451, 0.000229271, -3.75329, 69.5636, 33.5187, 11.8854, 0.858946, 5.05893, -0.0484509, -0.000395702, -0.00400885, 0.00650819, 0.023543, -0.00938194, 0.00845717, 0.00216235, 0.00680698, 0.00873781, -0.120002, 0.212014, -0.190397, 0.470534, -0.546319, 0.333334, -2.08258, -2.16422, -0.125373, 0.466287, -0.545876, 0.326983, -2.08358, -2.15129, -0.0889915, -0.00746922, -0.0455105, -0.042005, -0.0138431, -0.0492647, -0.0334821
0.16313, 1.69624, -1.23028, -1.55266, -0.899626, -1.21092, 1.2234, -1.30246, 0.0823326, 0.00671867, -0.112122, 0.0923369, -0.215511, 0.00471433, 0.000152848, -3.71758, 69.4168, 33.4076, 11.81, 0.822325, 5.10196, -0.0484509, -0.000404086, -0.00402546, 0.00649999, 0.0236488, -0.00955988, 0.00858744, 0.00470782, 0.0106247, 0.00981715, -0.121789, 0.212692, -0.199557, 0.470527, -0.546364, 0.333292, -2.08255, -2.16419, -0.125295, 0.466263, -0.545932, 0.326948, -2.08372, -2.15118, -0.0886031, -0.00751843, -0.0457892, -0.0423333, -0.0175712, -0.0523788, -0.0330089
0.16413, 1.69633, -1.23027, -1.55277, -0.899531, -1.21114, 1.22339, -1.30246, 0.0853643, 0.00760095, -0.115846, 0.0963461, -0.217157, -0.00270645, -0.0010849, -3.75329, 69.27, 33.2609, 11.8457, 0.766478, 5.14499, -0.0164075, -0.000406878, -0.00403702, 0.00649029, 0.0237545, -0.00973918, 0.00870171, 0.00445689, 0.0120271, 0.00912101, -0.13032, 0.211586, -0.20195, 0.470519, -0.54641, 0.33325, -2.08253, -2.16416, -0.125216, 0.466244, -0.545983, 0.326916, -2.08385, -2.15108, -0.0882143, -0.00756709, -0.0460641, -0.0426597, -0.0190562, -0.0523568, -0.0339355
0.16513, 1.6964, -1.23026, -1.55289, -0.899434, -1.21136, 1.22339, -1.30246, 0.0822633, 0.0100303, -0.118318, 0.0968362, -0.218051, -0.00776729, 0.000972157, -3.71758, 69.0479, 33.2609, 11.8457, 0.717955, 5.18069, -0.0621838, -0.000416477, -0.0040565, 0.00648038, 0.0238691, -0.00992856, 0.00884169, 0.00558819, 0.0153835, 0.00979732, -0.135923, 0.212571, -0.209785, 0.470512, -0.546456, 0.333207, -2.0825, -2.16412, -0.125137, 0.466217, -0.54604, 0.326882, -2.084, -2.15096, -0.0878021, -0.0076152, -0.0463352, -0.0429842, -0.0223883, -0.0539862, -0.0336524
0.16613, 1.69648, -1.23026, -1.553, -0.899332, -1.21159, 1.22338, -1.30246, 0.08365, 0.00408069, -0.115915, 0.0985836, -0.22066, -0.00531563, 0.00112282, -3.71758, 69.0121, 33.1101, 11.81, 0.693236, 5.17428, -0.0750012, -0.00042765, -0.00407277, 0.00647223, 0.0239692, -0.0101162, 0.00897746, 0.00596526, 0.0142524, 0.00779989, -0.132407, 0.210117, -0.210292, 0.470504, -0.546503, 0.333164, -2.08247, -2.16409, -0.125057, 0.466193, -0.5461, 0.326847, -2.08416, -2.15085, -0.0874073, -0.00766275, -0.0466022, -0.0433068, -0.0213723, -0.0542729, -0.036043
0.16713, 1.69656, -1.23025, -1.55311, -0.899235, -1.21183, 1.22338, -1.30246, 0.0835975, 0.00584321, -0.114376, 0.098117, -0.227169, -0.00382485, -0.000946873, -3.67791, 68.8614, 33.0744, 11.8457, 0.693236, 5.17428, -0.0292249, -0.000438735, -0.00409189, 0.00646168, 0.0240767, -0.0103103, 0.00910867, 0.00650596, 0.0143688, 0.00978052, -0.132416, 0.218219, -0.210025, 0.470496, -0.546549, 0.333121, -2.08245, -2.16406, -0.124976, 0.466167, -0.54616, 0.326813, -2.0843, -2.15074, -0.0869976, -0.00770973, -0.0468653, -0.0436274, -0.0214365, -0.0553783, -0.0344867
0.16813, 1.69663, -1.23026, -1.55323, -0.899136, -1.21205, 1.22337, -1.30246, 0.0778925, 0.00359268, -0.110227, 0.0978674, -0.22874, -0.00847214, -0.000868607, -3.6422, 68.8614, 33.0744, 11.8854, 0.680419, 5.20267, -0.0228162, -0.000451223, -0.00411329, 0.00645636, 0.0241866, -0.0104919, 0.00924777, 0.00780372, 0.0177369, 0.0100569, -0.132567, 0.214792, -0.214728, 0.470489, -0.546596, 0.333077, -2.08242, -2.16403, -0.124894, 0.466138, -0.546221, 0.326774, -2.08445, -2.15062, -0.0865964, -0.00775613, -0.0471243, -0.043946, -0.0247886, -0.0570993, -0.034617
0.16913, 1.69671, -1.23024, -1.55334, -0.899037, -1.21228, 1.22337, -1.30246, 0.0792039, 0.00643692, -0.109016, 0.0976569, -0.227954, -0.011787, 0.000641632, -3.71758, 68.6789, 32.999, 11.9211, 0.674925, 5.22372, -0.0557752, -0.000457451, -0.00412894, 0.00644102, 0.0242902, -0.0106876, 0.00938091, 0.00586017, 0.0172735, 0.0120885, -0.133584, 0.21571, -0.214733, 0.470481, -0.546643, 0.333034, -2.08239, -2.164, -0.124812, 0.466115, -0.546277, 0.326745, -2.0846, -2.15051, -0.0861876, -0.00780194, -0.0473792, -0.0442625, -0.0243579, -0.0557277, -0.0326415
0.17013, 1.69677, -1.23024, -1.55345, -0.89893, -1.21251, 1.22336, -1.30246, 0.0756468, 0.00588419, -0.109725, 0.102555, -0.22631, -0.00894014, 0.00161455, -3.60253, 68.6035, 32.999, 11.8854, 0.693236, 5.23105, -0.0878186, -0.000475022, -0.00415633, 0.0064308, 0.024391, -0.0108731, 0.00953612, 0.00873189, 0.019763, 0.0128921, -0.127752, 0.215044, -0.223945, 0.470473, -0.546691, 0.332989, -2.08236, -2.16396, -0.124729, 0.466081, -0.546345, 0.326709, -2.08478, -2.15038, -0.0857893, -0.00784715, -0.04763, -0.044577, -0.0267546, -0.0590393, -0.0325201
0.17113, 1.69685, -1.23025, -1.55357, -0.898827, -1.21274, 1.22336, -1.30246, 0.0766322, 0.000595601, -0.117286, 0.105224, -0.226557, -0.006297, -0.00109377, -3.6422, 68.6035, 33.0387, 11.8854, 0.699645, 5.22372, -0.0292249, -0.00048801, -0.0041767, 0.00642779, 0.0244987, -0.0110532, 0.00967384, 0.0111188, 0.0205897, 0.00794153, -0.13118, 0.211945, -0.226747, 0.470465, -0.546738, 0.332945, -2.08233, -2.16393, -0.124645, 0.466052, -0.546406, 0.326666, -2.08492, -2.15026, -0.08539, -0.00789177, -0.0478765, -0.0448893, -0.0277393, -0.0609175, -0.0380599
0.17213, 1.69692, -1.23023, -1.55368, -0.89872, -1.21297, 1.22336, -1.30246, 0.0714737, 0.00208331, -0.110397, 0.107008, -0.223414, -0.0033317, -0.000729182, -3.56683, 68.3853, 32.9633, 11.8854, 0.699645, 5.18802, -0.0292249, -0.000501863, -0.00420079, 0.00641005, 0.0245867, -0.0112448, 0.00982361, 0.0117722, 0.0217494, 0.012264, -0.118903, 0.211837, -0.230158, 0.470457, -0.546786, 0.3329, -2.0823, -2.16389, -0.124561, 0.466021, -0.546472, 0.326638, -2.0851, -2.15013, -0.0849985, -0.00793577, -0.0481188, -0.0451995, -0.028743, -0.0625151, -0.0341618
0.17313, 1.69698, -1.23023, -1.5538, -0.898614, -1.21319, 1.22335, -1.30246, 0.0727042, 0.00346089, -0.112261, 0.105401, -0.219505, -0.00671122, 0.000497223, -3.56683, 68.2742, 33.0387, 11.8854, 0.699645, 5.17428, -0.0557752, -0.00051633, -0.00422512, 0.0064016, 0.0246858, -0.0114254, 0.0099765, 0.00960844, 0.0212054, 0.0121311, -0.121995, 0.209038, -0.229096, 0.470449, -0.546834, 0.332855, -2.08227, -2.16386, -0.124476, 0.465989, -0.546536, 0.3266, -2.08526, -2.15, -0.0846053, -0.00797915, -0.0483568, -0.0455074, -0.028324, -0.0605741, -0.0342834
0.17413, 1.69706, -1.23024, -1.55391, -0.898499, -1.2134, 1.22335, -1.30246, 0.0745699, 0.00014919, -0.110028, 0.105987, -0.214836, -0.00589866, 0.00151828, -3.56683, 68.3496, 32.9633, 11.81, 0.662108, 5.19534, -0.0878186, -0.000528141, -0.00424688, 0.00639239, 0.0247691, -0.0115892, 0.0101257, 0.00766839, 0.0190989, 0.0112634, -0.117012, 0.202598, -0.22673, 0.470441, -0.546883, 0.332809, -2.08224, -2.16383, -0.12439, 0.46596, -0.546599, 0.326563, -2.08542, -2.14986, -0.084246, -0.00802191, -0.0485903, -0.0458132, -0.026366, -0.0586727, -0.0352171
0.17513, 1.69713, -1.23022, -1.55402, -0.898383, -1.21362, 1.22334, -1.30246, 0.0765613, 0.0035653, -0.107765, 0.111729, -0.217371, -0.00884903, -0.00139531, -3.6422, 68.0521, 32.8522, 11.7703, 0.643798, 5.18802, -0.0228162, -0.000538259, -0.00426909, 0.00637068, 0.0248543, -0.0117778, 0.0102663, 0.0076248, 0.0197353, 0.0148289, -0.115624, 0.206363, -0.227496, 0.470433, -0.546931, 0.332763, -2.08221, -2.16379, -0.124304, 0.465931, -0.546662, 0.326538, -2.08559, -2.14975, -0.0838595, -0.00806403, -0.0488195, -0.0461166, -0.0268994, -0.0594314, -0.0319699
0.17613, 1.6972, -1.23023, -1.55414, -0.898261, -1.21385, 1.22333, -1.30246, 0.0761245, -0.00220897, -0.111311, 0.113571, -0.226497, -0.0166594, -0.000218132, -3.6422, 68.0917, 32.8126, 11.6989, 0.643798, 5.20267, -0.0420422, -0.000556738, -0.00429691, 0.00636371, 0.0249485, -0.0119507, 0.0104309, 0.0102856, 0.0233842, 0.0101015, -0.128934, 0.204641, -0.236008, 0.470425, -0.54698, 0.332717, -2.08218, -2.16375, -0.124217, 0.465895, -0.546731, 0.326497, -2.08576, -2.14959, -0.083476, -0.00810551, -0.0490442, -0.0464177, -0.0306821, -0.0617086, -0.0372218
0.17713, 1.69728, -1.23023, -1.55426, -0.898136, -1.21407, 1.22333, -1.30246, 0.0831599, -0.000339964, -0.113186, 0.115587, -0.221464, -0.0121896, 0.000600564, -3.79296, 68.0164, 32.8879, 11.5839, 0.631896, 5.19534, -0.0621838, -0.000570036, -0.00431742, 0.00635495, 0.0250436, -0.0121304, 0.0105865, 0.0072064, 0.0188206, 0.0111248, -0.123828, 0.205283, -0.231546, 0.470417, -0.547029, 0.332671, -2.08215, -2.16372, -0.124129, 0.465867, -0.546796, 0.326459, -2.08593, -2.14945, -0.0830847, -0.00814634, -0.0492643, -0.0467165, -0.0262319, -0.0588579, -0.0361912
0.17813, 1.69736, -1.23023, -1.55438, -0.89801, -1.2143, 1.22332, -1.30246, 0.0792072, -0.00291738, -0.114922, 0.119539, -0.218752, -0.00887103, 0.000875094, -3.71758, 67.9807, 32.8522, 11.5085, 0.631896, 5.18802, -0.0750012, -0.000587538, -0.00434465, 0.00634695, 0.0251366, -0.0123029, 0.0107514, 0.0102336, 0.0212674, 0.0102717, -0.118571, 0.202109, -0.239662, 0.470409, -0.547078, 0.332624, -2.08211, -2.16368, -0.12404, 0.465832, -0.546864, 0.326418, -2.08611, -2.1493, -0.0827015, -0.00818651, -0.0494799, -0.0470129, -0.0286426, -0.0620323, -0.0377112
0.17913, 1.69743, -1.23023, -1.5545, -0.897884, -1.21452, 1.22331, -1.30246, 0.077093, 4.44299e-05, -0.113006, 0.124624, -0.221447, -0.00535352, -0.00111203, -3.67791, 67.8696, 32.8126, 11.4728, 0.662108, 5.15231, -0.0292249, -0.000604649, -0.00437081, 0.00633589, 0.0252271, -0.0124836, 0.0109091, 0.0126445, 0.0229654, 0.0140993, -0.111692, 0.208686, -0.244957, 0.470401, -0.547128, 0.332577, -2.08208, -2.16365, -0.123951, 0.465798, -0.546934, 0.326381, -2.08628, -2.14916, -0.0823126, -0.00822601, -0.0496909, -0.0473069, -0.0301353, -0.06528, -0.0345379
0.18013, 1.69751, -1.23024, -1.55463, -0.897755, -1.21474, 1.22331, -1.30247, 0.0767665, -0.00171581, -0.117698, 0.12311, -0.220854, -0.00707666, -0.000978709, -3.67791, 67.7942, 32.8879, 11.3974, 0.699645, 5.10196, -0.0228162, -0.000621677, -0.00439657, 0.00632737, 0.0253172, -0.0126576, 0.0110695, 0.0129045, 0.023855, 0.0113477, -0.117405, 0.206423, -0.24673, 0.470393, -0.547178, 0.33253, -2.08205, -2.16361, -0.123861, 0.465765, -0.547003, 0.326341, -2.08645, -2.14901, -0.08193, -0.00826484, -0.0498971, -0.0475984, -0.0311651, -0.0653579, -0.0375534
0.18113, 1.69759, -1.23024, -1.55475, -0.897625, -1.21497, 1.22331, -1.30246, 0.079986, 0.00169286, -0.115867, 0.125153, -0.224705, -0.00422403, 0.00104295, -3.67791, 67.6474, 32.8879, 11.322, 0.766478, 5.06625, -0.0685925, -0.000634902, -0.00441755, 0.00631527, 0.0254007, -0.0128364, 0.0112295, 0.0122194, 0.0221312, 0.014678, -0.113857, 0.214658, -0.248534, 0.470384, -0.547228, 0.332482, -2.08201, -2.16357, -0.12377, 0.465736, -0.547068, 0.326304, -2.08663, -2.14887, -0.0815491, -0.00830299, -0.0500987, -0.0478874, -0.0293683, -0.0653225, -0.0345071
0.18213, 1.69767, -1.23025, -1.55486, -0.897489, -1.21519, 1.2233, -1.30246, 0.0812072, -0.00236976, -0.110177, 0.127219, -0.221927, -0.00719509, 0.000932658, -3.6422, 67.6474, 32.8522, 11.2109, 0.804015, 5.03787, -0.0750012, -0.000649877, -0.00444, 0.00630664, 0.0254808, -0.0130036, 0.0113934, 0.0103663, 0.0209972, 0.0144793, -0.109288, 0.206738, -0.245976, 0.470376, -0.547278, 0.332434, -2.08198, -2.16353, -0.123678, 0.465706, -0.547136, 0.326263, -2.08681, -2.14872, -0.0811826, -0.00834046, -0.0502955, -0.0481739, -0.0283457, -0.0636126, -0.0347413
0.18313, 1.69776, -1.23026, -1.55499, -0.897355, -1.2154, 1.22329, -1.30246, 0.0821829, -0.00439974, -0.114353, 0.130453, -0.220123, -0.00566359, 0.000859131, -3.60253, 67.6117, 32.8879, 11.1356, 0.858946, 5.03787, -0.0814099, -0.00066096, -0.00446044, 0.00630236, 0.0255696, -0.0131601, 0.0115461, 0.0114794, 0.0213896, 0.012601, -0.109163, 0.204441, -0.249731, 0.470368, -0.547328, 0.332386, -2.08195, -2.1635, -0.123586, 0.465677, -0.547198, 0.326219, -2.08696, -2.14857, -0.0808179, -0.00837722, -0.0504874, -0.0484579, -0.0288114, -0.064632, -0.0370364
0.18413, 1.69784, -1.23025, -1.55512, -0.897223, -1.21561, 1.22329, -1.30246, 0.0800349, -0.00157616, -0.120419, 0.132739, -0.219308, -0.00829981, -0.00159739, -3.45177, 67.3895, 32.9236, 11.0999, 0.908385, 5.0159, -0.0228162, -0.000672752, -0.00448266, 0.0062869, 0.0256475, -0.0133342, 0.0117, 0.0134208, 0.02466, 0.0126253, -0.114302, 0.205735, -0.254796, 0.470359, -0.547378, 0.332338, -2.08191, -2.16346, -0.123493, 0.465647, -0.547264, 0.326185, -2.08713, -2.14843, -0.0804465, -0.00841329, -0.0506745, -0.0487392, -0.0320428, -0.0668742, -0.0374764
0.18513, 1.69794, -1.23026, -1.55524, -0.897077, -1.21582, 1.22328, -1.30246, 0.0853196, -0.00432672, -0.121413, 0.138011, -0.21729, -0.0113742, 0.000867857, -3.4121, 67.3538, 32.9236, 10.9134, 0.945006, 5.02322, -0.0750012, -0.00068336, -0.00450238, 0.00628036, 0.0257309, -0.0134882, 0.0118611, 0.0121269, 0.0233072, 0.0111053, -0.115009, 0.200093, -0.257078, 0.470351, -0.547429, 0.332289, -2.08188, -2.16342, -0.1234, 0.465619, -0.547327, 0.326142, -2.08729, -2.14827, -0.0800881, -0.00844864, -0.0508567, -0.0490179, -0.0308348, -0.0654904, -0.0391017
0.18613, 1.69803, -1.23027, -1.55536, -0.896935, -1.21602, 1.22327, -1.30246, 0.08604, -0.0109267, -0.1212, 0.139267, -0.216542, -0.0132872, 0.00081593, -3.26134, 67.3895, 32.8879, 10.838, 0.951415, 5.02322, -0.0814099, -0.000693764, -0.00452131, 0.00627654, 0.0258073, -0.0136346, 0.0120189, 0.0121285, 0.0232584, 0.00748532, -0.11583, 0.192274, -0.257517, 0.470343, -0.54748, 0.33224, -2.08184, -2.16338, -0.123306, 0.465592, -0.547389, 0.326096, -2.08745, -2.14812, -0.0797447, -0.00848328, -0.0510339, -0.0492939, -0.03097, -0.0651126, -0.0429519
