alisrour97/Franka_experiments/Real_Robot_scripts/servo-franka/Data2/log_dyn_PI2_2.csv
Time,q1,q2,q3,q4,q5,q6,q7,dq1,dq2,dq3,dq4,dq5,dq6,dq7,t1,t2,t3,t4,t5,t6,t7,ex1,ex2,ex3,ex4,ex5,ex6,ev1,ev2,ev3,ev4,ev5,ev6,xd,yd,zd,uxd,uyd,uzd,x,y,z,ux,uy,uz,vxd,vyd,vzd,vx,vy,vz
7.32422e-07, 1.69112, -1.22611, -1.53905, -0.900015, -1.19187, 1.22843, -1.3026, 0.00822852, -0.00495525, 0.00102303, -0.00084888, 0.0109966, 2.66318e-05, -0.000975726, -0.508049, 60.7602, 30.2457, 6.84296, 1.69391, 3.24527, -0.226063, 0.000548029, -0.00191449, 0.00076614, 0.00122933, 1.38501e-05, 0.000808912, -0.00591946, -0.00633861, -0.00304603, 0.00397985, -0.0136705, 0.0140221, 0.471008, -0.543389, 0.335894, -2.08385, -2.16584, -0.129887, 0.46904, -0.542819, 0.335289, -2.08409, -2.16448, -0.128426, -1.41255e-05, -9.11997e-05, -6.59526e-05, 0.00599469, 0.00648084, -0.002346
0.0121719, 1.69119, -1.22619, -1.53904, -0.900055, -1.19181, 1.22843, -1.3026, 0.0091145, -0.00860802, -5.9308e-05, -0.00584132, 0.00293341, -8.95452e-05, -2.46615e-05, -0.694511, 60.7602, 30.1703, 6.95801, 1.66369, 3.24527, -0.199513, 0.000601658, -0.00185293, 0.000814094, 0.00122313, 0.000137301, 0.000671392, -0.00568865, -0.0069039, -0.00629509, -0.00361719, -0.0102223, 0.0151012, 0.471008, -0.543389, 0.335894, -2.08385, -2.16584, -0.129887, 0.469107, -0.542746, 0.335239, -2.08384, -2.16457, -0.1286, -2.13283e-05, -0.000136675, -0.000102379, 0.00644302, 0.00673071, -0.00564348
0.0131719, 1.69119, -1.22619, -1.53904, -0.900055, -1.19181, 1.22843, -1.3026, 0.0091145, -0.00860802, -5.9308e-05, -0.00584132, 0.00293341, -8.95452e-05, -2.46615e-05, -0.694511, 60.7602, 30.1703, 6.95801, 1.66369, 3.24527, -0.199513, 0.00060167, -0.00185292, 0.000814088, 0.00122312, 0.000137304, 0.00067139, -0.00574353, -0.00691258, -0.00626314, -0.00358889, -0.0102127, 0.0150404, 0.471008, -0.543389, 0.335894, -2.08385, -2.16584, -0.129887, 0.469107, -0.542746, 0.335239, -2.08384, -2.16457, -0.1286, -2.91898e-05, -0.000186294, -0.000142179, 0.00644302, 0.00673071, -0.00564348
0.0141719, 1.69119, -1.22619, -1.53904, -0.900055, -1.19181, 1.22843, -1.3026, 0.0091145, -0.00860802, -5.9308e-05, -0.00584132, 0.00293341, -8.95452e-05, -2.46615e-05, -0.694511, 60.7602, 30.1703, 6.95801, 1.66369, 3.24527, -0.199513, 0.000601701, -0.00185292, 0.00081407, 0.0012231, 0.000137311, 0.000671386, -0.00580316, -0.00692201, -0.00622838, -0.00355798, -0.010202, 0.0149741, 0.471008, -0.543389, 0.335894, -2.08385, -2.16584, -0.129887, 0.469107, -0.542746, 0.335239, -2.08384, -2.16457, -0.1286, -3.77325e-05, -0.000240197, -0.00018547, 0.00644302, 0.00673071, -0.00564348
0.0151719, 1.69119, -1.22619, -1.53904, -0.900055, -1.19181, 1.22843, -1.3026, 0.0091145, -0.00860802, -5.9308e-05, -0.00584132, 0.00293341, -8.95452e-05, -2.46615e-05, -0.694511, 60.7602, 30.1703, 6.95801, 1.66369, 3.24527, -0.199513, 0.00060176, -0.00185291, 0.000814035, 0.00122305, 0.000137323, 0.000671378, -0.00586769, -0.00693222, -0.00619071, -0.00352438, -0.0101903, 0.0149023, 0.471008, -0.543389, 0.335894, -2.08385, -2.16584, -0.129887, 0.469107, -0.542746, 0.335239, -2.08384, -2.16457, -0.1286, -4.69786e-05, -0.000298522, -0.00023237, 0.00644302, 0.00673071, -0.00564348
0.0161719, 1.69119, -1.22619, -1.53904, -0.900055, -1.19181, 1.22843, -1.3026, 0.0091145, -0.00860802, -5.9308e-05, -0.00584132, 0.00293341, -8.95452e-05, -2.46615e-05, -0.694511, 60.7602, 30.1703, 6.95801, 1.66369, 3.24527, -0.199513, 0.000601859, -0.00185289, 0.000813978, 0.00122297, 0.000137345, 0.000671365, -0.00593727, -0.00694323, -0.00615005, -0.003488, -0.0101774, 0.0148246, 0.471008, -0.54339, 0.335894, -2.08385, -2.16584, -0.129887, 0.469107, -0.542746, 0.335239, -2.08384, -2.16457, -0.1286, -5.69498e-05, -0.000361405, -0.000282992, 0.00644302, 0.00673071, -0.00564348
0.0171719, 1.69119, -1.22619, -1.53904, -0.900055, -1.19181, 1.22843, -1.3026, 0.0091145, -0.00860802, -5.9308e-05, -0.00584132, 0.00293341, -8.95452e-05, -2.46615e-05, -0.694511, 60.7602, 30.1703, 6.95801, 1.66369, 3.24527, -0.199513, 0.000602004, -0.00185287, 0.000813893, 0.00122284, 0.000137376, 0.000671346, -0.00601204, -0.00695505, -0.00610629, -0.00344873, -0.0101635, 0.014741, 0.471008, -0.54339, 0.335894, -2.08385, -2.16584, -0.129886, 0.469107, -0.542746, 0.335239, -2.08384, -2.16457, -0.1286, -6.7667e-05, -0.000428975, -0.000337449, 0.00644302, 0.00673071, -0.00564348
0.0181719, 1.69119, -1.22619, -1.53904, -0.900055, -1.19181, 1.22843, -1.3026, 0.0091145, -0.00860802, -5.9308e-05, -0.00584132, 0.00293341, -8.95452e-05, -2.46615e-05, -0.694511, 60.7602, 30.1703, 6.95801, 1.66369, 3.24527, -0.199513, 0.000602207, -0.00185284, 0.000813776, 0.00122267, 0.00013742, 0.000671319, -0.00609216, -0.00696773, -0.00605935, -0.00340649, -0.0101484, 0.0146512, 0.471008, -0.54339, 0.335893, -2.08385, -2.16584, -0.129886, 0.469107, -0.542746, 0.335239, -2.08384, -2.16457, -0.1286, -7.91509e-05, -0.000501362, -0.000395848, 0.00644302, 0.00673071, -0.00564348
0.0191719, 1.69119, -1.22619, -1.53904, -0.900055, -1.19181, 1.22843, -1.3026, 0.0091145, -0.00860802, -5.9308e-05, -0.00584132, 0.00293341, -8.95452e-05, -2.46615e-05, -0.694511, 60.7602, 30.1703, 6.95801, 1.66369, 3.24527, -0.199513, 0.000602476, -0.0018528, 0.00081362, 0.00122244, 0.000137477, 0.000671283, -0.00617775, -0.00698126, -0.00600914, -0.00336118, -0.010132, 0.014555, 0.471008, -0.54339, 0.335893, -2.08385, -2.16584, -0.129886, 0.469107, -0.542746, 0.335239, -2.08384, -2.16457, -0.1286, -9.14213e-05, -0.000578688, -0.000458296, 0.00644302, 0.00673071, -0.00564348
0.0201719, 1.69119, -1.22619, -1.53904, -0.900055, -1.19181, 1.22843, -1.3026, 0.0091145, -0.00860802, -5.9308e-05, -0.00584132, 0.00293341, -8.95452e-05, -2.46615e-05, -0.694511, 60.7602, 30.1703, 6.95801, 1.66369, 3.24527, -0.199513, 0.000602819, -0.00185274, 0.00081342, 0.00122215, 0.000137551, 0.000671237, -0.00626895, -0.00699569, -0.00595559, -0.00331273, -0.0101144, 0.0144524, 0.471008, -0.54339, 0.335893, -2.08385, -2.16584, -0.129885, 0.469107, -0.542746, 0.335239, -2.08384, -2.16457, -0.1286, -0.000104498, -0.000661074, -0.000524897, 0.00644302, 0.00673071, -0.00564348
0.0211719, 1.69128, -1.22628, -1.53903, -0.900114, -1.19176, 1.22843, -1.3026, 0.0107628, -0.00865623, 0.000272189, -0.00624397, 0.0080399, 0.000318357, -0.000115727, -0.960319, 60.907, 30.0236, 7.1048, 1.56482, 3.22421, -0.21233, 0.000664785, -0.00177851, 0.000875268, 0.00123691, 0.000260167, 0.000501916, -0.00825073, -0.00873419, -0.00591656, -0.000689298, -0.0140588, 0.0182859, 0.471008, -0.543391, 0.335893, -2.08385, -2.16584, -0.129885, 0.469176, -0.542673, 0.335185, -2.08359, -2.16468, -0.128725, -0.000118398, -0.000748633, -0.000595748, 0.00809593, 0.00866474, -0.00542063
0.0221719, 1.6913, -1.22628, -1.53902, -0.900118, -1.19176, 1.22843, -1.3026, 0.0128634, -0.0063183, 0.00110951, -0.00565656, 0.00569183, 0.000754772, 0.000668834, -1.0357, 60.907, 29.9839, 7.02942, 1.57123, 3.20956, -0.232472, 0.000671838, -0.00177047, 0.00087964, 0.00123957, 0.000268331, 0.000487565, -0.008997, -0.00971822, -0.00417663, -0.000469339, -0.00961079, 0.0185196, 0.471008, -0.543391, 0.335892, -2.08385, -2.16584, -0.129884, 0.469184, -0.542665, 0.335181, -2.08357, -2.16469, -0.128731, -0.000133141, -0.000841478, -0.000670947, 0.00910007, 0.0090811, -0.00369162
0.0231719, 1.69129, -1.2263, -1.53903, -0.900129, -1.19175, 1.22844, -1.30261, 0.00663525, -0.0127278, 0.000166442, -0.00727187, 0.00605255, 0.00128307, -0.00270759, -0.920646, 60.7245, 29.8728, 7.02942, 1.52179, 3.18851, -0.147328, 0.000674646, -0.00176717, 0.000887079, 0.00123929, 0.000280929, 0.000471016, -0.00603497, -0.00668841, -0.00806138, -0.000943202, -0.016001, 0.0168189, 0.471008, -0.543392, 0.335892, -2.08385, -2.16584, -0.129884, 0.469187, -0.542662, 0.335174, -2.08355, -2.1647, -0.128745, -0.000148743, -0.000939713, -0.000750586, 0.00602424, 0.00653261, -0.00797555
0.0241719, 1.69131, -1.2263, -1.53903, -0.900141, -1.19175, 1.22843, -1.30261, 0.00591471, -0.0110663, -0.00252463, -0.00839222, 0.00133609, 7.54883e-05, 0.00615681, -0.960319, 60.2444, 29.5752, 7.02942, 1.47327, 3.20956, -0.10796, 0.000682584, -0.00175877, 0.000895171, 0.00125166, 0.000287864, 0.000447342, -0.0049514, -0.00529585, -0.00819502, -0.00676455, -0.0108028, 0.00518687, 0.471008, -0.543393, 0.335891, -2.08385, -2.16584, -0.129883, 0.469194, -0.542653, 0.335166, -2.08351, -2.16471, -0.12874, -0.00016522, -0.00104344, -0.000834754, 0.00465092, 0.00532275, -0.00831788
0.0251719, 1.69132, -1.22631, -1.53904, -0.900156, -1.19175, 1.22844, -1.30261, 0.0134898, -0.00729812, -0.00503001, -0.0111501, 0.00300139, -0.00049221, 0.00583897, -1.07537, 59.6176, 29.2777, 6.99371, 1.41192, 3.22421, -0.133595, 0.000692896, -0.00174699, 0.000903638, 0.00126788, 0.000290047, 0.000428456, -0.00947511, -0.00975569, -0.00763035, -0.0107807, -0.00803226, 0.0145445, 0.471007, -0.543393, 0.335891, -2.08385, -2.16584, -0.129882, 0.469205, -0.542642, 0.335159, -2.08348, -2.16473, -0.128725, -0.000182589, -0.00115275, -0.000923534, 0.00894626, 0.00977494, -0.00728144
0.0261719, 1.69134, -1.22633, -1.53906, -0.900171, -1.19175, 1.22843, -1.30261, 0.016895, -0.0065717, -0.00906727, -0.00968282, 0.00347372, -0.00192184, 0.00254861, -1.11108, 59.1772, 29.0555, 6.91833, 1.3689, 3.26724, -0.0814099, 0.000700284, -0.00173792, 0.000924134, 0.00129764, 0.000308074, 0.000406182, -0.0101495, -0.0104261, -0.00866047, -0.0150327, -0.00814127, 0.017969, 0.471007, -0.543394, 0.33589, -2.08385, -2.16584, -0.129881, 0.469213, -0.542632, 0.335139, -2.08343, -2.16473, -0.128711, -0.000200863, -0.00126774, -0.00101701, 0.00953621, 0.0105117, -0.00830763
0.0271719, 1.69135, -1.22635, -1.53907, -0.900188, -1.19175, 1.22844, -1.3026, 0.012905, -0.00711588, -0.0112073, -0.0123104, -0.00265869, -0.00100996, 0.00264926, -0.996025, 58.7726, 28.7937, 6.88263, 1.37439, 3.25992, -0.0951428, 0.000703447, -0.00173184, 0.000943563, 0.0013192, 0.000321706, 0.000395198, -0.00748609, -0.00790365, -0.00973409, -0.0195711, -0.00293797, 0.0130007, 0.471007, -0.543395, 0.335889, -2.08384, -2.16584, -0.129879, 0.469218, -0.542626, 0.335119, -2.0834, -2.16472, -0.128701, -0.000220057, -0.00138849, -0.00111525, 0.00705431, 0.0078236, -0.00980334
0.0281719, 1.69137, -1.22637, -1.53909, -0.900204, -1.19176, 1.22844, -1.3026, 0.0154529, -0.00995927, -0.0098173, -0.0134881, -0.00290867, 0.000377856, 0.00158872, -1.11108, 58.475, 28.5319, 6.80725, 1.3927, 3.23153, -0.0814099, 0.000712683, -0.00171797, 0.000963985, 0.00134291, 0.000335324, 0.000367009, -0.00893369, -0.0101402, -0.0110043, -0.0183831, -0.00475924, 0.0180849, 0.471007, -0.543396, 0.335888, -2.08384, -2.16584, -0.129878, 0.469231, -0.542615, 0.335099, -2.08335, -2.16474, -0.12869, -0.000240182, -0.00151507, -0.00121833, 0.00917017, 0.00941313, -0.0110034
0.0291719, 1.69138, -1.2264, -1.53911, -0.900229, -1.19176, 1.22845, -1.30261, 0.0114036, -0.0173107, -0.0146489, -0.0199251, -0.00343553, 0.00238813, -0.000387899, -1.11108, 58.4036, 28.3851, 6.84296, 1.42383, 3.17386, -0.0356336, 0.000718586, -0.0017057, 0.000993584, 0.00137129, 0.000355924, 0.000336905, -0.00717859, -0.00891865, -0.0174524, -0.0240702, -0.00987892, 0.0191598, 0.471007, -0.543398, 0.335887, -2.08384, -2.16584, -0.129876, 0.469242, -0.542605, 0.335069, -2.08329, -2.16475, -0.128681, -0.000261251, -0.00164757, -0.00132632, 0.00775912, 0.00849042, -0.017714
0.0301719, 1.69139, -1.22643, -1.53913, -0.900243, -1.19176, 1.22846, -1.30261, 0.0102075, -0.0181982, -0.0180771, -0.0210062, -0.00346353, 0.00372832, 0.000673669, -0.920646, 58.2925, 28.2343, 6.73187, 1.44855, 3.11618, -0.0557752, 0.000717296, -0.00170221, 0.00101601, 0.00138841, 0.000371823, 0.000330598, -0.0061797, -0.00816721, -0.0190678, -0.0262333, -0.00976556, 0.0160446, 0.471007, -0.543399, 0.335886, -2.08384, -2.16584, -0.129874, 0.469244, -0.542604, 0.335045, -2.08327, -2.16474, -0.128676, -0.000283275, -0.00178604, -0.00143928, 0.00696399, 0.00758368, -0.0195544
0.0311719, 1.6914, -1.22646, -1.53915, -0.900261, -1.19177, 1.22847, -1.3026, 0.0142826, -0.0228456, -0.0143952, -0.0211301, -0.0027057, 0.00380797, 0.00177562, -0.920646, 58.3679, 28.0875, 6.69617, 1.45404, 3.08047, -0.0878186, 0.000724144, -0.00168912, 0.0010421, 0.00140977, 0.000392961, 0.000311645, -0.00865608, -0.0113389, -0.0206218, -0.0235845, -0.0150429, 0.021002, 0.471006, -0.543401, 0.335885, -2.08384, -2.16584, -0.129872, 0.469256, -0.542594, 0.335019, -2.08323, -2.16474, -0.128674, -0.000306264, -0.00193055, -0.00155726, 0.00996394, 0.0102529, -0.0209182
0.0321719, 1.69142, -1.22648, -1.53916, -0.900282, -1.19177, 1.22848, -1.3026, 0.0171229, -0.023994, -0.0144588, -0.0238176, -0.00665126, 0.00787118, 0.00179716, -0.920646, 58.3679, 27.9368, 6.65649, 1.45404, 3.06674, -0.101552, 0.000733942, -0.00167432, 0.00106142, 0.00142817, 0.000403341, 0.000284231, -0.0095559, -0.0138671, -0.021386, -0.0236701, -0.0105836, 0.024615, 0.471006, -0.543402, 0.335883, -2.08384, -2.16584, -0.12987, 0.469269, -0.542583, 0.335, -2.08318, -2.16475, -0.128665, -0.000330225, -0.00208114, -0.00168032, 0.0124051, 0.0112117, -0.0217324
0.0331719, 1.69143, -1.2265, -1.53918, -0.900298, -1.19177, 1.22849, -1.3026, 0.0165516, -0.0225492, -0.014153, -0.0222083, -0.00357841, 0.00592071, 0.000530707, -0.809562, 58.4036, 27.9011, 6.58508, 1.41742, 3.05942, -0.0814099, 0.000738996, -0.0016653, 0.00108133, 0.00144534, 0.000418378, 0.000265673, -0.010011, -0.0132314, -0.0202435, -0.0225948, -0.0127664, 0.0248596, 0.471006, -0.543404, 0.335882, -2.08384, -2.16584, -0.129868, 0.469277, -0.542576, 0.334979, -2.08315, -2.16475, -0.12866, -0.000355167, -0.00223786, -0.0018085, 0.0117702, 0.0113023, -0.0206427
0.0341719, 1.69145, -1.22652, -1.5392, -0.900312, -1.19177, 1.2285, -1.3026, 0.0189343, -0.020575, -0.0159161, -0.0172016, -0.00232023, 0.0086762, -6.19719e-05, -0.809562, 58.5504, 27.8257, 6.47003, 1.40552, 3.06674, -0.0685925, 0.000747502, -0.00165115, 0.00109852, 0.00145676, 0.00042887, 0.00024295, -0.00954691, -0.0137784, -0.0187902, -0.0188784, -0.010678, 0.0227524, 0.471005, -0.543406, 0.33588, -2.08384, -2.16584, -0.129865, 0.46929, -0.542567, 0.334961, -2.08311, -2.16477, -0.128658, -0.000381096, -0.00240075, -0.00194184, 0.0123596, 0.01048, -0.0194296
0.0351719, 1.69147, -1.22654, -1.53921, -0.900335, -1.19177, 1.22851, -1.30261, 0.0165044, -0.0178966, -0.0172796, -0.0179037, -0.000234695, 0.0058932, -0.00145517, -0.76989, 58.6615, 27.7503, 6.54541, 1.36249, 3.08047, -0.0292249, 0.00075919, -0.00163639, 0.00111476, 0.00147163, 0.000439386, 0.000207941, -0.00953586, -0.0120381, -0.0178028, -0.0211451, -0.0109789, 0.0221382, 0.471005, -0.543408, 0.335878, -2.08384, -2.16584, -0.129862, 0.469303, -0.542554, 0.334945, -2.08306, -2.16479, -0.128653, -0.000408018, -0.00256985, -0.00208038, 0.0106306, 0.0100768, -0.0185423
0.0361719, 1.69148, -1.22654, -1.53922, -0.900356, -1.19177, 1.22852, -1.3026, 0.0151998, -0.0113539, -0.0176276, -0.0203417, 0.000310526, 0.00959028, -0.000462242, -0.619133, 58.5861, 27.79, 6.58508, 1.34418, 3.06674, -0.0420422, 0.000768729, -0.00162502, 0.0011195, 0.00148098, 0.00042797, 0.000186834, -0.0101416, -0.012439, -0.0139136, -0.018284, -0.00283915, 0.0216642, 0.471005, -0.543411, 0.335877, -2.08384, -2.16583, -0.129859, 0.469314, -0.542546, 0.334939, -2.08304, -2.16482, -0.12863, -0.000435936, -0.00274516, -0.00222414, 0.0111219, 0.00991737, -0.014764
0.0371719, 1.6915, -1.22654, -1.53924, -0.900371, -1.19177, 1.22854, -1.3026, 0.015932, -0.010222, -0.0176112, -0.0210385, -0.00362048, 0.00662314, 0.000937408, -0.658806, 58.6615, 27.8257, 6.58508, 1.31305, 3.08047, -0.0750012, 0.000782557, -0.00160729, 0.00112715, 0.00149031, 0.000423478, 0.000159035, -0.0105161, -0.0120335, -0.0135182, -0.0229179, 0.000169666, 0.0200348, 0.471004, -0.543413, 0.335874, -2.08384, -2.16583, -0.129855, 0.46933, -0.542533, 0.334931, -2.08301, -2.16485, -0.128614, -0.000464854, -0.00292672, -0.00237315, 0.0106888, 0.010028, -0.0144522
0.0381719, 1.69151, -1.22654, -1.53925, -0.900402, -1.19177, 1.22855, -1.3026, 0.0108008, -0.00748186, -0.0214617, -0.0238101, -0.00249347, 0.00469785, 0.000643588, -0.468376, 58.6615, 27.9011, 6.80725, 1.30115, 3.0878, -0.0750012, 0.000794419, -0.00159454, 0.00113136, 0.0015022, 0.000407452, 0.000129907, -0.00914856, -0.00885258, -0.0134337, -0.0276066, 0.00140349, 0.0159207, 0.471004, -0.543416, 0.335872, -2.08384, -2.16583, -0.129852, 0.469342, -0.542523, 0.334926, -2.08298, -2.16488, -0.128584, -0.000494774, -0.00311453, -0.00252743, 0.00753404, 0.00834699, -0.0146394
0.0391719, 1.69152, -1.22655, -1.53926, -0.900429, -1.19177, 1.22856, -1.3026, 0.0105953, -0.00662741, -0.0207674, -0.0267413, -0.00113725, 0.00195347, -0.000269031, -0.281914, 58.844, 27.9725, 6.95801, 1.27643, 3.13083, -0.0557752, 0.000805263, -0.00158321, 0.00114209, 0.00151081, 0.000412957, 0.000103429, -0.0109214, -0.00918255, -0.0131943, -0.029922, 4.031e-05, 0.0197187, 0.471003, -0.543419, 0.33587, -2.08384, -2.16583, -0.129848, 0.469352, -0.542513, 0.334915, -2.08294, -2.1649, -0.128579, -0.000525695, -0.00330858, -0.00268698, 0.00777789, 0.00987976, -0.0142975
0.0401719, 1.69153, -1.22654, -1.53926, -0.900447, -1.19177, 1.22858, -1.3026, 0.00736287, -0.00546076, -0.0153958, -0.0260365, -0.00128838, 0.0052485, -0.00186428, -0.0914839, 58.8837, 27.9725, 6.99371, 1.28284, 3.15921, -0.00999879, 0.000814338, -0.00157205, 0.00114217, 0.00150849, 0.000397355, 7.85872e-05, -0.0103551, -0.00875793, -0.00991467, -0.0213716, 0.00249792, 0.0197617, 0.471003, -0.543422, 0.335867, -2.08384, -2.16583, -0.129843, 0.469362, -0.542507, 0.334913, -2.08292, -2.16494, -0.128564, -0.000557617, -0.00350887, -0.00285182, 0.00746059, 0.0085983, -0.011299
0.0411719, 1.69154, -1.22654, -1.53928, -0.900468, -1.19177, 1.2286, -1.3026, 0.00869018, -0.00456157, -0.0157887, -0.0237512, -0.000841195, 0.00770373, -0.000760271, -0.0557783, 58.9194, 28.1589, 7.06909, 1.27643, 3.18851, -0.0228162, 0.000824894, -0.00155928, 0.00114665, 0.00151743, 0.000382479, 5.65496e-05, -0.010332, -0.00944265, -0.00892585, -0.0182867, 0.00416249, 0.0176457, 0.471002, -0.543426, 0.335864, -2.08384, -2.16583, -0.129839, 0.469374, -0.542499, 0.334907, -2.0829, -2.16496, -0.128537, -0.000590537, -0.00371538, -0.00302192, 0.00814804, 0.00824478, -0.010517
0.0421719, 1.69155, -1.22655, -1.53929, -0.900485, -1.19178, 1.22862, -1.3026, 0.00758431, -0.00570389, -0.0140894, -0.0211097, -0.000962884, 0.00991163, -0.000975664, 0.059273, 59.0305, 28.274, 7.1048, 1.28284, 3.20956, -0.00999879, 0.000830663, -0.00155052, 0.00115221, 0.00151754, 0.000373454, 4.16012e-05, -0.00928621, -0.00898031, -0.00823387, -0.0134712, 0.00389641, 0.0149799, 0.471002, -0.543429, 0.335861, -2.08384, -2.16583, -0.129834, 0.469382, -0.542495, 0.334899, -2.08289, -2.16498, -0.128524, -0.000624453, -0.00392809, -0.0031973, 0.00771474, 0.00687422, -0.0101575
0.0431719, 1.69156, -1.22655, -1.5393, -0.900497, -1.19178, 1.22865, -1.3026, 0.00549769, -0.00552132, -0.0126457, -0.0202834, -0.00120628, 0.0167906, 0.000778136, 0.0949785, 59.1019, 28.3851, 7.06909, 1.29474, 3.21689, -0.0484509, 0.00083788, -0.00153806, 0.00115463, 0.00150804, 0.000359378, 2.87613e-05, -0.00791156, -0.00914618, -0.00664103, -0.00547194, 0.00750815, 0.0107701, 0.471001, -0.543433, 0.335858, -2.08384, -2.16582, -0.129829, 0.469393, -0.542491, 0.334895, -2.08289, -2.16501, -0.128517, -0.000659358, -0.00414696, -0.00337792, 0.00795217, 0.00505988, -0.00898367
0.0441719, 1.69157, -1.22656, -1.53931, -0.900514, -1.19179, 1.22867, -1.3026, 0.0116789, -0.00493189, -0.0132828, -0.0188199, -0.00686603, 0.0219983, 0.00625618, 0.059273, 59.2883, 28.5715, 7.1048, 1.32587, 3.22421, -0.0750012, 0.000844528, -0.00152466, 0.00116402, 0.00150766, 0.00034801, 1.36211e-05, -0.00873282, -0.0125194, -0.00603553, -0.00421138, 0.0154743, 0.00761082, 0.471, -0.543437, 0.335855, -2.08383, -2.16582, -0.129823, 0.469406, -0.542487, 0.334883, -2.08288, -2.16503, -0.128502, -0.000695248, -0.00437195, -0.00356376, 0.0112776, 0.00569047, -0.00854603
0.0451719, 1.69159, -1.22657, -1.53932, -0.900523, -1.1918, 1.2287, -1.3026, 0.0117138, -0.00167385, -0.0108937, -0.0149688, -0.00572637, 0.0244589, 0.0038571, -0.0557783, 59.3597, 28.6429, 7.02942, 1.34418, 3.26724, -0.0557752, 0.00085459, -0.00150828, 0.00116561, 0.00149592, 0.000332517, -1.0825e-05, -0.00863689, -0.0126605, -0.0023715, 0.00279341, 0.0185744, 0.00784553, 0.471, -0.543442, 0.335851, -2.08383, -2.16582, -0.129818, 0.469421, -0.54248, 0.334879, -2.08286, -2.16506, -0.128496, -0.000732114, -0.004603, -0.00375481, 0.0115175, 0.00480657, -0.00513832
0.0461719, 1.69161, -1.22658, -1.53933, -0.90053, -1.1918, 1.22872, -1.30259, 0.0175099, -0.00504717, -0.0101369, -0.0125378, -0.00484889, 0.0260121, 0.00287019, -0.166862, 59.5462, 28.754, 6.95801, 1.36249, 3.31759, -0.0557752, 0.000862792, -0.00149379, 0.00117147, 0.00148727, 0.000325115, -2.5245e-05, -0.0106051, -0.0159885, -0.00375691, 0.00534047, 0.0152441, 0.0128374, 0.470999, -0.543446, 0.335848, -2.08383, -2.16582, -0.129812, 0.469434, -0.542475, 0.33487, -2.08285, -2.16509, -0.128493, -0.000769946, -0.00484006, -0.003951, 0.0146829, 0.00686199, -0.00649761
0.0471719, 1.69162, -1.22658, -1.53934, -0.900533, -1.19181, 1.22875, -1.3026, 0.0178208, -0.00647563, -0.0104914, -0.0106503, -0.00485379, 0.0276186, -6.64975e-05, -0.242241, 59.693, 28.9048, 6.88263, 1.39911, 3.36062, 0.00373412, 0.000866902, -0.00148244, 0.00117597, 0.00147966, 0.000308469, -3.84744e-05, -0.010077, -0.0160412, -0.00417195, 0.00731197, 0.014551, 0.013965, 0.470998, -0.543451, 0.335844, -2.08383, -2.16582, -0.129805, 0.469444, -0.542475, 0.334862, -2.08285, -2.16511, -0.12848, -0.000808735, -0.00508306, -0.00415231, 0.0147006, 0.00616362, -0.00719237
0.0481719, 1.69163, -1.22659, -1.53934, -0.900535, -1.19182, 1.22878, -1.3026, 0.0171612, -0.00750865, -0.00714956, -0.00730915, -0.00786469, 0.0291417, 0.000632364, -0.281914, 59.8398, 28.9048, 6.84296, 1.3927, 3.39633, -0.00999879, 0.000872329, -0.00146953, 0.001176, 0.00145645, 0.000293178, -4.73336e-05, -0.00891383, -0.0155164, -0.00279369, 0.0119208, 0.0162825, 0.00998361, 0.470997, -0.543456, 0.33584, -2.08383, -2.16582, -0.129798, 0.469456, -0.542474, 0.334858, -2.08286, -2.16513, -0.128484, -0.000848468, -0.00533191, -0.00435868, 0.0142282, 0.00453288, -0.00620255
0.0491719, 1.69165, -1.2266, -1.53936, -0.900534, -1.19184, 1.22882, -1.30259, 0.0183601, -0.00825785, -0.00840929, -0.00489031, -0.0115186, 0.0307885, 0.0073762, -0.392998, 59.9866, 29.0555, 6.80725, 1.41742, 3.41739, -0.0685925, 0.000876053, -0.00145623, 0.00117925, 0.00144087, 0.000272691, -4.73516e-05, -0.00778439, -0.0153755, -0.0030915, 0.0116147, 0.0193261, 0.000156574, 0.470997, -0.543461, 0.335835, -2.08383, -2.16581, -0.129791, 0.469468, -0.542475, 0.334851, -2.08288, -2.16515, -0.128473, -0.000889131, -0.00558652, -0.00457004, 0.0140764, 0.00320331, -0.00687908
0.0501719, 1.69166, -1.2266, -1.53936, -0.900535, -1.19185, 1.22885, -1.30259, 0.0165384, -0.00713228, -0.00652875, -0.00473499, -0.0131925, 0.0366776, 0.00465422, -0.392998, 60.062, 29.0912, 6.84296, 1.41742, 3.43936, -0.0484509, 0.000878961, -0.00144546, 0.00117759, 0.00141738, 0.000249344, -5.05984e-05, -0.00677215, -0.0155647, -0.00095412, 0.0182189, 0.0246102, 0.000927368, 0.470996, -0.543467, 0.335831, -2.08383, -2.16581, -0.129784, 0.469478, -0.542477, 0.334848, -2.0829, -2.16517, -0.128468, -0.00093071, -0.0058468, -0.00478633, 0.0143373, 0.00162251, -0.00514776
0.0511719, 1.69168, -1.22662, -1.53937, -0.900537, -1.19186, 1.2289, -1.30259, 0.0179656, -0.00975682, -0.00618124, -0.00257496, -0.0104695, 0.0369405, 0.00373614, -0.508049, 60.2802, 29.1666, 6.91833, 1.43573, 3.44668, -0.0557752, 0.000883082, -0.00142987, 0.001184, 0.00139799, 0.000231003, -5.92235e-05, -0.00739789, -0.0163934, -0.0019455, 0.0207799, 0.0198025, 0.00213936, 0.470995, -0.543473, 0.335826, -2.08383, -2.16581, -0.129776, 0.469492, -0.542477, 0.334837, -2.08291, -2.1652, -0.128464, -0.000973186, -0.00611264, -0.00500747, 0.0150642, 0.0021609, -0.00627585
0.0521719, 1.6917, -1.22662, -1.53939, -0.90054, -1.19188, 1.22894, -1.30259, 0.0197659, -0.00423227, -0.0100576, -0.00443947, -0.00752342, 0.0365073, 0.00106688, -0.658806, 60.3198, 29.2777, 7.02942, 1.43024, 3.46774, -0.00999879, 0.000889409, -0.00141294, 0.00118283, 0.001377, 0.000198477, -7.5796e-05, -0.00939353, -0.0173364, -0.000284276, 0.0178612, 0.0232238, 0.00688085, 0.470994, -0.543479, 0.335821, -2.08382, -2.16581, -0.129768, 0.469508, -0.542477, 0.334834, -2.08292, -2.16524, -0.128448, -0.00101654, -0.00638391, -0.00523338, 0.0159514, 0.00364273, -0.00458036
0.0531719, 1.69172, -1.22663, -1.53939, -0.900542, -1.19189, 1.22898, -1.30259, 0.0190096, -0.00417419, -0.00608798, -0.00574418, -0.0149185, 0.0404673, 0.000643643, -0.734184, 60.3912, 29.238, 7.14447, 1.43024, 3.50345, -0.00267457, 0.000895992, -0.00139601, 0.00118101, 0.00134687, 0.000172153, -8.97223e-05, -0.00870874, -0.0178422, 0.00155134, 0.0210134, 0.0312106, 0.00676909, 0.470993, -0.543485, 0.335816, -2.08382, -2.1658, -0.129759, 0.469524, -0.542476, 0.334831, -2.08293, -2.16528, -0.128448, -0.00106076, -0.00666049, -0.00546395, 0.0165032, 0.0024283, -0.00312008
0.0541719, 1.69173, -1.22664, -1.5394, -0.900541, -1.19191, 1.22903, -1.30259, 0.0163327, -0.00690616, -0.0083966, -0.00556985, -0.019634, 0.043271, 0.000581838, -0.845268, 60.5777, 29.2777, 7.21588, 1.40552, 3.53915, -0.00267457, 0.000900572, -0.00138006, 0.00118347, 0.00132013, 0.000150137, -9.82714e-05, -0.0058185, -0.0159762, -0.000269708, 0.0196924, 0.0338712, 0.00102272, 0.470992, -0.543492, 0.33581, -2.08382, -2.1658, -0.12975, 0.469538, -0.542477, 0.334823, -2.08294, -2.16531, -0.128447, -0.00110581, -0.00694224, -0.0056991, 0.0146319, -0.0005029, -0.00554558
0.0551719, 1.69175, -1.22664, -1.53941, -0.90054, -1.19192, 1.22907, -1.30259, 0.0126123, -0.00442537, -0.00510934, -0.00552894, -0.0178848, 0.0450783, 0.00172315, -0.884941, 60.5777, 29.238, 7.29126, 1.36249, 3.58951, -0.0356336, 0.00090529, -0.00136538, 0.0011772, 0.00128817, 0.000113852, -0.000100868, -0.00554934, -0.014992, 0.0029077, 0.025947, 0.0355577, -0.00208613, 0.470991, -0.543499, 0.335805, -2.08382, -2.1658, -0.12974, 0.469552, -0.54248, 0.334824, -2.08297, -2.16534, -0.128436, -0.00115168, -0.007229, -0.00593872, 0.0137279, -0.00158461, -0.00265986
0.0561719, 1.69176, -1.22664, -1.53942, -0.900541, -1.19195, 1.22912, -1.30259, 0.0121938, -0.00448662, -0.00772666, -0.00548855, -0.0170394, 0.0479419, 0.00147204, -0.884941, 60.6491, 29.2777, 7.36664, 1.32587, 3.59683, -0.0420422, 0.000907568, -0.00135132, 0.00117747, 0.00126331, 7.89109e-05, -0.000103531, -0.00499456, -0.0149586, 0.00242044, 0.0268156, 0.0364593, -0.00364659, 0.47099, -0.543506, 0.335799, -2.08382, -2.16579, -0.129731, 0.469565, -0.542484, 0.334818, -2.083, -2.16537, -0.128419, -0.00119834, -0.00752062, -0.00618267, 0.01365, -0.00235031, -0.00347015
0.0571719, 1.69178, -1.22665, -1.53943, -0.900538, -1.19197, 1.22917, -1.30259, 0.0135906, -0.00465378, -0.00648884, -0.00461657, -0.0221808, 0.0497791, -0.000140994, -0.960319, 60.7245, 29.3134, 7.40631, 1.31946, 3.61148, -0.00999879, 0.000910086, -0.00133619, 0.00117591, 0.00123764, 3.86685e-05, -0.000109313, -0.0047193, -0.0155781, 0.0031725, 0.027482, 0.0413881, -0.00293373, 0.470988, -0.543514, 0.335793, -2.08381, -2.16579, -0.12972, 0.469579, -0.542489, 0.334813, -2.08303, -2.1654, -0.128397, -0.00124576, -0.00781692, -0.00643084, 0.0142584, -0.00300874, -0.0030373
0.0581719, 1.6918, -1.22666, -1.53944, -0.900536, -1.19199, 1.22923, -1.30259, 0.0130097, -0.007296, -0.00775582, -0.00393506, -0.020224, 0.047209, 0.00114113, -0.960319, 60.907, 29.3134, 7.44202, 1.28284, 3.60415, -0.0420422, 0.000911258, -0.00132054, 0.00117725, 0.00120323, 4.50959e-06, -0.000104855, -0.00473594, -0.0147275, 0.00127545, 0.0254474, 0.0359787, -0.00569676, 0.470987, -0.543521, 0.335786, -2.08381, -2.16579, -0.12971, 0.469593, -0.542495, 0.334805, -2.08307, -2.16543, -0.128389, -0.00129392, -0.00811772, -0.00668309, 0.0132915, -0.00303598, -0.00513454
0.0591719, 1.69182, -1.22666, -1.53945, -0.900533, -1.19202, 1.22928, -1.30259, 0.0143698, -0.00564267, -0.0111082, -0.00263998, -0.0198601, 0.0494882, 0.0035446, -1.0357, 60.9427, 29.2777, 7.44202, 1.27643, 3.60415, 0.0101428, 0.000914786, -0.00130243, 0.00117346, 0.00116853, -4.09134e-05, -0.000114758, -0.00458804, -0.0150925, 0.00157454, 0.0254162, 0.0386959, -0.0098202, 0.470986, -0.54353, 0.335779, -2.08381, -2.16578, -0.129699, 0.46961, -0.542499, 0.334802, -2.08309, -2.16548, -0.128372, -0.00134278, -0.00842284, -0.00693927, 0.0136232, -0.00351819, -0.00512953
0.0601719, 1.69184, -1.22668, -1.53947, -0.90053, -1.19205, 1.22934, -1.30259, 0.0153013, -0.0106795, -0.0100912, -0.00177244, -0.0245912, 0.0518499, 0.00254292, -1.11108, 61.2402, 29.3531, 7.44202, 1.27643, 3.58951, 0.0165515, 0.000916615, -0.00128489, 0.00118058, 0.00114031, -6.96482e-05, -0.000121824, -0.00364437, -0.0156459, -0.000532906, 0.0262104, 0.0387039, -0.0100756, 0.470984, -0.543538, 0.335772, -2.08381, -2.16578, -0.129687, 0.469626, -0.542504, 0.334788, -2.08311, -2.16551, -0.128363, -0.00139231, -0.00873205, -0.00719924, 0.0140838, -0.0044121, -0.00763376
0.0611719, 1.69186, -1.22669, -1.53948, -0.900529, -1.19208, 1.2294, -1.30259, 0.0173341, -0.00792308, -0.01215, -0.00202618, -0.0236741, 0.0533571, 0.00441569, -1.11108, 61.2759, 29.4245, 7.47772, 1.28833, 3.58218, -0.0484509, 0.00091644, -0.00126999, 0.00117989, 0.00111137, -0.000119403, -0.00011322, -0.0048269, -0.0168641, 0.000560736, 0.026156, 0.0417616, -0.0108731, 0.470983, -0.543547, 0.335765, -2.0838, -2.16578, -0.129675, 0.469639, -0.542512, 0.334781, -2.08316, -2.16553, -0.128332, -0.00144249, -0.00904515, -0.00746282, 0.0152476, -0.00367621, -0.00667103
0.0621719, 1.69187, -1.2267, -1.5395, -0.900526, -1.19211, 1.22946, -1.30259, 0.0192395, -0.0104551, -0.0112142, 0.000755242, -0.0270034, 0.0588173, 0.0024664, -1.11108, 61.4981, 29.3888, 7.51739, 1.28284, 3.58218, -0.0292249, 0.000916792, -0.00125391, 0.00118193, 0.00107513, -0.000157795, -0.000115291, -0.00393076, -0.018203, 0.00038879, 0.0312006, 0.0445213, -0.0105213, 0.470982, -0.543556, 0.335758, -2.0838, -2.16577, -0.129663, 0.469654, -0.54252, 0.334771, -2.0832, -2.16557, -0.128321, -0.00149327, -0.00936199, -0.00772991, 0.0165598, -0.00479651, -0.00728768
0.0631719, 1.69189, -1.2267, -1.53952, -0.90052, -1.19214, 1.22952, -1.30259, 0.0164903, -0.00518894, -0.0172406, 0.00448423, -0.0295544, 0.0583317, 0.002295, -1.07537, 61.4227, 29.4999, 7.47772, 1.27643, 3.58218, -0.0420422, 0.000915116, -0.00124141, 0.00117513, 0.00104534, -0.00021929, -9.99023e-05, -0.000745636, -0.0143507, 0.00218645, 0.0271804, 0.0517022, -0.020609, 0.47098, -0.543565, 0.33575, -2.0838, -2.16577, -0.12965, 0.469665, -0.542532, 0.334769, -2.08326, -2.16559, -0.128277, -0.00154466, -0.00968246, -0.00800043, 0.0128401, -0.00869568, -0.00616075
0.0641719, 1.6919, -1.22671, -1.53953, -0.900522, -1.19217, 1.22959, -1.30259, 0.0144282, -0.00780756, -0.0171194, 0.00164609, -0.0313034, 0.0635568, 0.000475215, -1.0357, 61.6092, 29.4245, 7.5531, 1.26453, 3.5538, -0.00999879, 0.000916898, -0.00122295, 0.00117585, 0.00100448, -0.000263195, -0.00010595, 7.80058e-05, -0.0147123, 0.00108728, 0.0299886, 0.0533897, -0.0192574, 0.470979, -0.543575, 0.335742, -2.0838, -2.16576, -0.129636, 0.469682, -0.542539, 0.33476, -2.08329, -2.16564, -0.128265, -0.00159663, -0.0100065, -0.00827433, 0.0131389, -0.0096489, -0.0076589
0.0651719, 1.69193, -1.22671, -1.53955, -0.900519, -1.1922, 1.22966, -1.30259, 0.0158073, -0.00519498, -0.0167739, 0.00339759, -0.0315836, 0.0608135, -0.0012796, -1.11108, 61.6092, 29.4642, 7.59277, 1.22699, 3.56845, 0.0357776, 0.000920359, -0.00120435, 0.0011719, 0.000971807, -0.000318087, -0.000112178, -0.000927452, -0.0146322, 0.00290099, 0.0288398, 0.0548407, -0.018095, 0.470977, -0.543585, 0.335734, -2.08379, -2.16576, -0.129623, 0.469699, -0.542545, 0.334756, -2.08333, -2.16568, -0.128233, -0.00164918, -0.0103339, -0.00855153, 0.0130362, -0.00926608, -0.00598693
0.0661719, 1.69194, -1.22671, -1.53958, -0.900515, -1.19223, 1.22972, -1.30259, 0.0132711, -0.00345577, -0.0218685, 0.00559842, -0.0375115, 0.0644913, -0.000304096, -1.0357, 61.6092, 29.4642, 7.59277, 1.21509, 3.56845, 0.0229602, 0.00091892, -0.00119025, 0.00116808, 0.000938325, -0.0003773, -0.000101903, 0.00293727, -0.011852, 0.00310819, 0.0266352, 0.0634202, -0.0284135, 0.470975, -0.543595, 0.335725, -2.08379, -2.16576, -0.129608, 0.469711, -0.542557, 0.33475, -2.08338, -2.16571, -0.128194, -0.00170228, -0.0106648, -0.00883197, 0.0103521, -0.013558, -0.00657819
0.0671719, 1.69196, -1.22671, -1.5396, -0.900509, -1.19226, 1.22979, -1.30259, 0.0173082, -0.00137016, -0.0265773, 0.00725009, -0.0318409, 0.0615145, 0.00131102, -1.07537, 61.5695, 29.4999, 7.59277, 1.18396, 3.59683, -0.0164075, 0.00091985, -0.00117422, 0.00116234, 0.000906732, -0.000439737, -9.09851e-05, 0.000613892, -0.0130327, 0.00264989, 0.0231402, 0.0597801, -0.0283526, 0.470974, -0.543606, 0.335716, -2.08379, -2.16575, -0.129594, 0.469726, -0.542567, 0.334747, -2.08344, -2.16574, -0.12815, -0.00175593, -0.0109989, -0.0091156, 0.011378, -0.0114795, -0.00698985
0.0681719, 1.69198, -1.22671, -1.53963, -0.900508, -1.19229, 1.22986, -1.30258, 0.0161157, -0.000909197, -0.0269427, 0.00667776, -0.0327964, 0.0659087, 0.00186522, -1.07537, 61.5695, 29.5395, 7.66418, 1.16565, 3.57577, -0.0420422, 0.000919689, -0.00115887, 0.00115909, 0.000875043, -0.000501091, -8.10756e-05, 0.00127676, -0.0131739, 0.00339499, 0.026384, 0.0633469, -0.0305463, 0.470972, -0.543617, 0.335707, -2.08378, -2.16575, -0.129578, 0.46974, -0.542578, 0.334741, -2.0835, -2.16577, -0.128107, -0.0018101, -0.0113362, -0.00940234, 0.0115156, -0.01258, -0.00664814
0.0691719, 1.692, -1.2267, -1.53965, -0.900499, -1.19233, 1.22993, -1.30259, 0.0199843, 0.00366595, -0.0253509, 0.00895943, -0.0332865, 0.0679695, 0.000325371, -1.15075, 61.387, 29.4999, 7.62848, 1.14093, 3.58218, -0.0164075, 0.000922769, -0.00114142, 0.00114724, 0.000839259, -0.00057204, -7.87229e-05, -0.000595252, -0.0154134, 0.00718045, 0.0304474, 0.0692598, -0.0271315, 0.47097, -0.543628, 0.335698, -2.08378, -2.16574, -0.129563, 0.469755, -0.542587, 0.334743, -2.08355, -2.16582, -0.128059, -0.00186479, -0.0116765, -0.00969213, 0.0137682, -0.011563, -0.00297783
0.0701719, 1.69202, -1.2267, -1.53968, -0.900496, -1.19237, 1.23, -1.30259, 0.0211721, 0.00328157, -0.0276903, 0.00594623, -0.0349056, 0.0697993, -0.000268217, -1.15075, 61.3513, 29.4642, 7.66418, 1.14734, 3.58218, -0.00267457, 0.000923484, -0.00112471, 0.00114238, 0.000808886, -0.00064008, -7.33734e-05, -0.00136616, -0.01656, 0.00604435, 0.0278343, 0.0716785, -0.024857, 0.470968, -0.54364, 0.335688, -2.08378, -2.16574, -0.129546, 0.46977, -0.542598, 0.334738, -2.0836, -2.16586, -0.128007, -0.00191999, -0.0120199, -0.00998491, 0.0147893, -0.0109236, -0.00430785
0.0711719, 1.69205, -1.22669, -1.53971, -0.900483, -1.1924, 1.23007, -1.30259, 0.0237619, 0.0021895, -0.0302181, 0.00825714, -0.0307172, 0.0710065, -0.00209397, -1.22613, 61.3513, 29.4642, 7.62848, 1.14093, 3.58951, 0.0495105, 0.000923596, -0.00110796, 0.00113756, 0.000775486, -0.000704175, -6.76712e-05, -0.00229158, -0.0178242, 0.00503854, 0.0294759, 0.0679205, -0.0227717, 0.470966, -0.543652, 0.335678, -2.08377, -2.16573, -0.12953, 0.469785, -0.54261, 0.334732, -2.08366, -2.1659, -0.127961, -0.00197567, -0.0123662, -0.0102806, 0.0159268, -0.0101498, -0.00549181
0.0721719, 1.69207, -1.22669, -1.53974, -0.900473, -1.19244, 1.23014, -1.30259, 0.0247672, 0.00238903, -0.0249537, 0.00905757, -0.0323385, 0.0673295, -0.000636779, -1.26183, 61.3116, 29.4245, 7.62848, 1.14093, 3.58951, 0.0293689, 0.000924525, -0.00109075, 0.00113108, 0.000741348, -0.00077285, -5.58983e-05, -0.00406694, -0.0183392, 0.00700334, 0.0306203, 0.0673741, -0.022437, 0.470964, -0.543664, 0.335668, -2.08377, -2.16572, -0.129512, 0.469801, -0.542622, 0.334728, -2.08372, -2.16593, -0.127911, -0.00203183, -0.0127153, -0.0105792, 0.016393, -0.00902734, -0.00359076
0.0731719, 1.6921, -1.22669, -1.53977, -0.900465, -1.19247, 1.23021, -1.30259, 0.0243436, 0.00242891, -0.0282383, 0.0116303, -0.0333917, 0.0644697, 0.00104345, -1.26183, 61.2759, 29.4245, 7.66418, 1.12903, 3.59683, -0.00999879, 0.000925789, -0.00107373, 0.00112701, 0.000713001, -0.000840539, -4.23526e-05, -0.00291583, -0.0163668, 0.00623735, 0.0263169, 0.0669677, -0.0292103, 0.470962, -0.543677, 0.335657, -2.08377, -2.16572, -0.129495, 0.469816, -0.542634, 0.334721, -2.08378, -2.16596, -0.127855, -0.00208844, -0.0130671, -0.0108805, 0.0143799, -0.0104784, -0.00476731
0.0741719, 1.69212, -1.22669, -1.53981, -0.900441, -1.19251, 1.23029, -1.30259, 0.0245248, -0.000143206, -0.0328971, 0.0150824, -0.0346455, 0.071897, 0.00165251, -1.26183, 61.3513, 29.3888, 7.51739, 1.12903, 3.59683, -0.0356336, 0.000921324, -0.0010592, 0.00112481, 0.000674532, -0.000902126, -1.60111e-05, -0.000134383, -0.0162026, 0.00444651, 0.0297665, 0.069244, -0.0357654, 0.47096, -0.54369, 0.335646, -2.08376, -2.16571, -0.129476, 0.469828, -0.542651, 0.334711, -2.08386, -2.16598, -0.127814, -0.00214551, -0.0134215, -0.0111846, 0.0141931, -0.0133101, -0.00726645
0.0751719, 1.69215, -1.2267, -1.53984, -0.900433, -1.19255, 1.23036, -1.30258, 0.0272054, -0.000930122, -0.0325579, 0.0121695, -0.0351375, 0.0733211, 0.000632528, -1.37688, 61.387, 29.3134, 7.59277, 1.11713, 3.58218, -0.0228162, 0.000926191, -0.00103539, 0.00112381, 0.000640133, -0.000966141, -1.45688e-05, -0.00234042, -0.0186991, 0.00393541, 0.0294674, 0.0700124, -0.0300325, 0.470958, -0.543704, 0.335635, -2.08376, -2.16571, -0.129457, 0.46985, -0.542659, 0.334701, -2.0839, -2.16602, -0.127768, -0.00220301, -0.0137786, -0.0114914, 0.0165315, -0.0113084, -0.00781196
0.0761719, 1.69218, -1.2267, -1.53988, -0.900416, -1.19259, 1.23044, -1.30259, 0.0296425, 0.000215562, -0.0333177, 0.0120162, -0.0365661, 0.0746538, -0.00174427, -1.37688, 61.3513, 29.2777, 7.59277, 1.13544, 3.56112, 0.0357776, 0.000926396, -0.00101807, 0.00111965, 0.000610516, -0.00103611, -7.92588e-06, -0.0033987, -0.0200917, 0.00456169, 0.0292039, 0.0732556, -0.0264803, 0.470956, -0.543717, 0.335624, -2.08375, -2.1657, -0.129438, 0.469865, -0.542672, 0.334693, -2.08396, -2.16606, -0.12771, -0.00226092, -0.014138, -0.0118008, 0.0178494, -0.0106624, -0.00738149
0.0771719, 1.69222, -1.22669, -1.53992, -0.900394, -1.19263, 1.23051, -1.30259, 0.0291912, 0.00190726, -0.0409602, 0.0164801, -0.0359204, 0.0751691, -0.000922353, -1.41259, 61.2759, 29.2777, 7.51739, 1.11072, 3.54648, 0.0293689, 0.000926365, -0.00100103, 0.00111594, 0.000580634, -0.00110337, 1.362e-05, -0.000918009, -0.0176929, 0.00379117, 0.0258671, 0.0749015, -0.0356532, 0.470954, -0.543731, 0.335612, -2.08375, -2.16569, -0.129418, 0.46988, -0.542686, 0.334684, -2.08403, -2.16608, -0.127653, -0.00231925, -0.0144999, -0.0121127, 0.015456, -0.0134529, -0.00876627
0.0781719, 1.69225, -1.2267, -1.53996, -0.900373, -1.19267, 1.23058, -1.30259, 0.0328567, 0.000436531, -0.0415882, 0.0189582, -0.03616, 0.0694321, -0.00061255, -1.48797, 61.3116, 29.2023, 7.47772, 1.10431, 3.57577, 0.0293689, 0.000928373, -0.000981161, 0.00111454, 0.000551726, -0.00116803, 2.40589e-05, -0.00249808, -0.0180993, 0.00260946, 0.0209749, 0.070875, -0.0353863, 0.470951, -0.543746, 0.3356, -2.08374, -2.16569, -0.129398, 0.469898, -0.542698, 0.334673, -2.08408, -2.16611, -0.127598, -0.00237796, -0.014864, -0.0124272, 0.0157037, -0.0120587, -0.0100151
0.0791719, 1.69229, -1.2267, -1.54001, -0.900355, -1.1927, 1.23065, -1.30259, 0.0313414, 0.0002912, -0.0463721, 0.0196958, -0.0358805, 0.0700331, 0.00128882, -1.52764, 61.3116, 29.1666, 7.47772, 1.086, 3.60415, -0.0164075, 0.000931895, -0.000961456, 0.00111422, 0.000528206, -0.0012299, 4.01296e-05, -0.000997191, -0.0164486, 0.00132245, 0.0182894, 0.0711432, -0.0421508, 0.470949, -0.543761, 0.335587, -2.08374, -2.16568, -0.129377, 0.469915, -0.542709, 0.334661, -2.08414, -2.16612, -0.127539, -0.00243706, -0.0152304, -0.012744, 0.0140027, -0.0137764, -0.0117855
0.0801719, 1.69232, -1.2267, -1.54006, -0.900337, -1.19274, 1.23072, -1.30258, 0.0317015, 0.000194268, -0.0475609, 0.0215184, -0.0363005, 0.0748642, 0.00157261, -1.48797, 61.3116, 29.1666, 7.5531, 1.07959, 3.63986, -0.0356336, 0.000931754, -0.000945265, 0.00111471, 0.000508778, -0.0012978, 6.48578e-05, -0.000185699, -0.0169358, 0.00176639, 0.0223299, 0.0738558, -0.0449043, 0.470946, -0.543776, 0.335575, -2.08373, -2.16567, -0.129355, 0.469928, -0.542723, 0.334647, -2.0842, -2.16614, -0.127467, -0.00249652, -0.0155988, -0.0130633, 0.014475, -0.0149943, -0.0118074
0.0811719, 1.69236, -1.22669, -1.54011, -0.900319, -1.19278, 1.23079, -1.30259, 0.0323655, 0.00272807, -0.0475395, 0.020062, -0.0406617, 0.0744672, -0.000171303, -1.45226, 61.2006, 29.1269, 7.62848, 1.05578, 3.66092, -0.00267457, 0.000935461, -0.000926742, 0.00110976, 0.000485772, -0.00137022, 7.30919e-05, -0.000747974, -0.0170917, 0.00325762, 0.0196683, 0.0800506, -0.0432468, 0.470944, -0.543792, 0.335562, -2.08373, -2.16567, -0.129333, 0.469944, -0.542735, 0.334639, -2.08426, -2.16617, -0.127396, -0.00255634, -0.0159693, -0.0133848, 0.0146053, -0.0150327, -0.0105743
0.0821719, 1.69239, -1.22668, -1.54015, -0.900305, -1.19281, 1.23086, -1.30258, 0.0326672, 0.00265401, -0.0475991, 0.0145426, -0.0441859, 0.0696224, 0.000395169, -1.41259, 61.1649, 29.0912, 7.77924, 1.03656, 3.67557, -0.0164075, 0.000940503, -0.000907085, 0.00110707, 0.00046474, -0.00143967, 8.76752e-05, -0.00272372, -0.0172669, 0.00225055, 0.0113724, 0.0811111, -0.0404192, 0.470941, -0.543808, 0.335548, -2.08372, -2.16566, -0.129311, 0.469961, -0.542746, 0.334629, -2.08431, -2.1662, -0.127325, -0.0026165, -0.0163418, -0.0137086, 0.0146129, -0.0132925, -0.0115917
0.0831719, 1.69243, -1.22668, -1.54021, -0.900282, -1.19285, 1.23093, -1.30259, 0.0339745, 0.00343983, -0.0508939, 0.0191483, -0.0382209, 0.0703608, -0.00166878, -1.41259, 61.0934, 29.0555, 7.81494, 1.04297, 3.69021, 0.0357776, 0.000944323, -0.000889032, 0.00110423, 0.000445996, -0.00150766, 9.99493e-05, -0.00284693, -0.0172475, 0.00244775, 0.0142452, 0.0773797, -0.0412414, 0.470939, -0.543824, 0.335534, -2.08372, -2.16565, -0.129287, 0.469977, -0.542758, 0.334618, -2.08437, -2.16622, -0.127252, -0.00267698, -0.0167161, -0.0140346, 0.0145359, -0.0135762, -0.0117036
0.0841719, 1.69246, -1.22667, -1.54027, -0.900259, -1.19289, 1.231, -1.30259, 0.0341955, 0.00489172, -0.0543069, 0.0195755, -0.0371525, 0.0671642, -0.00162072, -1.37688, 60.9824, 29.0555, 7.85065, 1.01825, 3.69021, 0.0495105, 0.000944507, -0.000874108, 0.00110262, 0.000428997, -0.00157923, 0.000124057, -0.0032075, -0.0162481, 0.00212756, 0.00955778, 0.0767188, -0.0432978, 0.470936, -0.543841, 0.33552, -2.08371, -2.16564, -0.129264, 0.469989, -0.542774, 0.334605, -2.08443, -2.16623, -0.127172, -0.00273778, -0.0170921, -0.0143627, 0.0134524, -0.0135879, -0.0122617
0.0851719, 1.6925, -1.22668, -1.54033, -0.900235, -1.19293, 1.23107, -1.30259, 0.0351384, 0.00242596, -0.0566208, 0.0198277, -0.0378987, 0.064027, -0.000334184, -1.37688, 61.0181, 29.0555, 7.89032, 1.03107, 3.70395, 0.0293689, 0.000946972, -0.000856031, 0.00110698, 0.00041846, -0.00164222, 0.000146575, -0.00343871, -0.0157656, -0.00016137, 0.00451658, 0.0736398, -0.0457377, 0.470933, -0.543858, 0.335506, -2.08371, -2.16563, -0.129239, 0.470004, -0.542788, 0.334586, -2.08449, -2.16624, -0.127093, -0.00279888, -0.0174699, -0.0146928, 0.0128175, -0.0134051, -0.0148017
0.0861719, 1.69254, -1.22667, -1.54038, -0.900216, -1.19297, 1.23113, -1.30258, 0.0358253, 0.00245255, -0.0564504, 0.0174315, -0.0374042, 0.0667665, 0.00194758, -1.37688, 60.9824, 28.9802, 8.03711, 1.01825, 3.71127, -0.0292249, 0.000953361, -0.000837149, 0.00110727, 0.00040696, -0.00170643, 0.00016626, -0.00473114, -0.0173388, 6.03754e-05, 0.00633185, 0.0749938, -0.0455431, 0.470931, -0.543875, 0.335491, -2.0837, -2.16563, -0.129214, 0.47002, -0.542798, 0.334571, -2.08454, -2.16625, -0.127014, -0.00286026, -0.0178492, -0.015025, 0.0142892, -0.0124782, -0.014763
0.0871719, 1.69258, -1.22667, -1.54044, -0.900188, -1.193, 1.2312, -1.30259, 0.0371659, 0.00256307, -0.0582715, 0.0192612, -0.0374727, 0.0645962, 0.00058649, -1.41259, 60.9427, 28.9802, 8.03711, 1.01276, 3.70395, -0.00999879, 0.000955803, -0.000820352, 0.00110798, 0.000393997, -0.00177289, 0.00018539, -0.0050528, -0.0170201, -0.000251504, 0.00378592, 0.0742525, -0.0459158, 0.470928, -0.543893, 0.335476, -2.0837, -2.16562, -0.129189, 0.470034, -0.542813, 0.334556, -2.0846, -2.16627, -0.126934, -0.00292192, -0.0182301, -0.0153591, 0.0138863, -0.0125066, -0.0153458
0.0881719, 1.69263, -1.22667, -1.5405, -0.900167, -1.19304, 1.23126, -1.30259, 0.0381691, 0.00170873, -0.0570016, 0.0216743, -0.0374461, 0.0615399, -0.0013043, -1.45226, 60.9427, 28.8691, 8.11249, 1.00635, 3.73324, 0.0357776, 0.000962616, -0.000801351, 0.00111006, 0.00038766, -0.00183612, 0.000193801, -0.00571736, -0.0167935, -1.23515e-05, 0.00346768, 0.071772, -0.0450746, 0.470925, -0.543911, 0.335461, -2.08369, -2.16561, -0.129163, 0.470049, -0.542823, 0.334539, -2.08464, -2.16629, -0.126849, -0.00298385, -0.0186124, -0.0156951, 0.0135832, -0.0122789, -0.015336
0.0891719, 1.69266, -1.22666, -1.54057, -0.900136, -1.19308, 1.23132, -1.30259, 0.0338218, 0.00364482, -0.0596476, 0.022196, -0.0377267, 0.061075, -0.00137806, -1.41259, 60.8356, 28.9048, 8.11249, 1.01276, 3.7186, 0.0495105, 0.000961876, -0.000790355, 0.0011073, 0.000378335, -0.0019099, 0.00023072, -0.00368157, -0.0136833, 0.000727102, 0.00200148, 0.0738635, -0.0517124, 0.470922, -0.54393, 0.335445, -2.08368, -2.1656, -0.129136, 0.470058, -0.542842, 0.334525, -2.08471, -2.16628, -0.126754, -0.00304602, -0.0189961, -0.016033, 0.0105147, -0.0149134, -0.0151642
0.0901719, 1.6927, -1.22666, -1.54064, -0.900112, -1.19312, 1.23138, -1.30259, 0.0346276, 0.00419312, -0.0606496, 0.0209049, -0.0370652, 0.0594281, -0.000172645, -1.41259, 60.7602, 28.9048, 8.18787, 0.999938, 3.73324, 0.0293689, 0.000966139, -0.000775084, 0.00110967, 0.000375973, -0.00197457, 0.000257793, -0.00499873, -0.0140769, 0.000607759, -0.000382781, 0.0734263, -0.051829, 0.470919, -0.543949, 0.335429, -2.08368, -2.16559, -0.129109, 0.470069, -0.542856, 0.334507, -2.08477, -2.16628, -0.126661, -0.00310843, -0.019381, -0.0163726, 0.010794, -0.0139634, -0.0154298
0.0911719, 1.69274, -1.22665, -1.5407, -0.900084, -1.19316, 1.23144, -1.30258, 0.0358575, 0.00539388, -0.0618827, 0.0245636, -0.0366975, 0.0587799, 0.00134302, -1.45226, 60.6491, 28.7937, 8.18787, 0.981627, 3.73324, -0.00999879, 0.000971009, -0.000759832, 0.00110772, 0.000369463, -0.00204307, 0.000287848, -0.00488727, -0.0136989, 0.00154692, 0.00010377, 0.0739769, -0.056397, 0.470916, -0.543968, 0.335413, -2.08367, -2.16558, -0.129081, 0.470081, -0.542871, 0.334493, -2.08483, -2.16628, -0.126568, -0.00317106, -0.0197671, -0.0167139, 0.0103923, -0.0146195, -0.0148498
0.0921719, 1.69279, -1.22665, -1.54077, -0.900057, -1.1932, 1.23151, -1.30259, 0.0348743, 0.00359592, -0.0646661, 0.0262118, -0.0418072, 0.0635855, 0.000386763, -1.52764, 60.6491, 28.754, 8.22754, 0.981627, 3.7186, 0.00373412, 0.000973762, -0.0007448, 0.00111285, 0.000369702, -0.00210925, 0.00031401, -0.00213475, -0.01269, 0.000492913, 0.000553871, 0.0789368, -0.0614308, 0.470912, -0.543988, 0.335396, -2.08366, -2.16557, -0.129052, 0.470093, -0.542886, 0.334471, -2.08489, -2.16628, -0.126469, -0.00323391, -0.0201544, -0.0170569, 0.00938142, -0.0176034, -0.0166297
0.0931719, 1.69283, -1.22664, -1.54085, -0.900029, -1.19324, 1.23157, -1.30259, 0.0339728, 0.00666618, -0.0646513, 0.0248653, -0.0410968, 0.0621313, 2.05146e-05, -1.60302, 60.4666, 28.754, 8.26324, 0.988036, 3.71127, 0.0101428, 0.000978651, -0.000730483, 0.00110949, 0.000370655, -0.00218683, 0.000342051, -0.00315129, -0.0123115, 0.00232179, -0.000292766, 0.0809598, -0.0611653, 0.470909, -0.544008, 0.335379, -2.08366, -2.16556, -0.129023, 0.470104, -0.542901, 0.334458, -2.08495, -2.16629, -0.126357, -0.00329695, -0.0205426, -0.0174015, 0.00897129, -0.0172847, -0.0149994
0.0941719, 1.69286, -1.22663, -1.54092, -0.9, -1.19328, 1.23162, -1.30259, 0.030615, 0.00527934, -0.0658608, 0.0237182, -0.0348334, 0.0653908, 0.000488418, -1.56335, 60.4309, 28.6826, 8.29895, 0.969725, 3.71127, -0.00267457, 0.000978856, -0.000721528, 0.00111188, 0.000370618, -0.00225114, 0.000378244, -0.00295275, -0.0118631, 0.00166425, 0.00457164, 0.0763119, -0.0629911, 0.470906, -0.544029, 0.335362, -2.08365, -2.16555, -0.128993, 0.47011, -0.542921, 0.334438, -2.08501, -2.16627, -0.126259, -0.00336018, -0.0209318, -0.0177477, 0.00844324, -0.0177871, -0.0160121
0.0951719, 1.6929, -1.22663, -1.54099, -0.899973, -1.19333, 1.23168, -1.30259, 0.0309378, 0.0052828, -0.0698636, 0.0247694, -0.0403761, 0.0688962, -0.000623806, -1.63873, 60.3555, 28.6072, 8.37433, 0.969725, 3.68289, 0.0229602, 0.000983259, -0.000707958, 0.00111428, 0.000372925, -0.00231803, 0.000406287, -0.000926177, -0.011186, 0.000976506, 0.00229913, 0.0829588, -0.0668293, 0.470903, -0.54405, 0.335344, -2.08364, -2.16554, -0.128963, 0.470119, -0.542937, 0.334418, -2.08507, -2.16627, -0.126155, -0.00342359, -0.0213219, -0.0180953, 0.00775063, -0.0200999, -0.0173324
0.0961719, 1.69294, -1.22662, -1.54106, -0.899946, -1.19337, 1.23174, -1.30259, 0.0337823, 0.00779076, -0.0665636, 0.0265592, -0.0397566, 0.0613715, -0.000178499, -1.7141, 60.173, 28.5319, 8.414, 0.969725, 3.67557, 0.0165515, 0.000989435, -0.000694311, 0.0011111, 0.000372516, -0.00239103, 0.000435917, -0.00392508, -0.0116792, 0.00334904, -0.000119467, 0.0811297, -0.0648849, 0.470899, -0.544071, 0.335326, -2.08363, -2.16553, -0.128932, 0.47013, -0.542952, 0.334403, -2.08513, -2.16627, -0.126047, -0.00348715, -0.0217127, -0.0184443, 0.00816008, -0.0178746, -0.0148893
0.0971719, 1.69298, -1.22661, -1.54113, -0.899913, -1.19341, 1.23179, -1.30259, 0.0313999, 0.0077923, -0.0666329, 0.0286747, -0.0384913, 0.0557356, 0.000593088, -1.7141, 60.062, 28.4208, 8.414, 0.951415, 3.66824, -0.00267457, 0.000991312, -0.000686251, 0.00110704, 0.000367474, -0.00245953, 0.000475109, -0.00349751, -0.00903474, 0.00353809, -0.0027944, 0.0772427, -0.0700733, 0.470896, -0.544093, 0.335307, -2.08363, -2.16552, -0.1289, 0.470134, -0.542972, 0.334389, -2.0852, -2.16626, -0.125948, -0.00355087, -0.0221042, -0.0187947, 0.00547763, -0.0188255, -0.0150379
0.0981719, 1.69302, -1.2266, -1.5412, -0.899879, -1.19345, 1.23185, -1.30258, 0.0363049, 0.0069581, -0.0675947, 0.0324327, -0.0433858, 0.0562095, 0.00114138, -1.86486, 59.9866, 28.3454, 8.44971, 0.956908, 3.66092, -0.0228162, 0.000995714, -0.000674019, 0.00110628, 0.000369347, -0.00252955, 0.000513714, -0.00370647, -0.0103958, 0.00331, -0.0042219, 0.0807414, -0.0717408, 0.470892, -0.544115, 0.335289, -2.08362, -2.16551, -0.128868, 0.470143, -0.542989, 0.334371, -2.08527, -2.16624, -0.125838, -0.00361472, -0.0224964, -0.0191465, 0.00675733, -0.0189206, -0.0156248
0.0991719, 1.69305, -1.2266, -1.54128, -0.899843, -1.1935, 1.2319, -1.30259, 0.032188, 0.00547395, -0.0667707, 0.0330726, -0.0412935, 0.0559099, -0.000697133, -1.82915, 59.9509, 28.3454, 8.44971, 0.938597, 3.66824, 0.0165515, 0.000994612, -0.000669438, 0.001106, 0.00036833, -0.00259367, 0.000557547, -0.00260322, -0.00836163, 0.00329884, -0.001651, 0.0773548, -0.0740089, 0.470888, -0.544138, 0.335269, -2.08361, -2.1655, -0.128835, 0.470144, -0.543013, 0.334352, -2.08534, -2.16622, -0.125737, -0.00367869, -0.0228891, -0.0194995, 0.00470082, -0.020484, -0.0160972
0.100172, 1.69309, -1.22659, -1.54134, -0.899801, -1.19355, 1.23195, -1.30259, 0.0358469, 0.00624776, -0.0676133, 0.0343235, -0.0449535, 0.0557677, -0.00192281, -1.94024, 59.8398, 28.274, 8.414, 0.932189, 3.67557, 0.0559192, 0.000997627, -0.000660892, 0.00110131, 0.000365973, -0.00266231, 0.00059573, -0.00348785, -0.00960167, 0.00372307, -0.00379225, 0.0813133, -0.0725048, 0.470885, -0.54416, 0.33525, -2.0836, -2.16549, -0.128801, 0.470149, -0.543033, 0.334338, -2.08541, -2.16621, -0.125632, -0.00374278, -0.0232822, -0.0198537, 0.00585936, -0.0200182, -0.015934
0.101172, 1.69312, -1.22659, -1.54142, -0.899765, -1.19359, 1.232, -1.30259, 0.0368264, 0.00500039, -0.0683869, 0.0364711, -0.0436678, 0.0562944, -0.00128187, -1.97991, 59.8041, 28.3454, 8.44971, 0.945006, 3.66092, 0.0559192, 0.000996845, -0.000655502, 0.00110179, 0.000368001, -0.00273038, 0.000643836, -0.00364884, -0.00986564, 0.00330424, -0.00231719, 0.0793729, -0.0745847, 0.470881, -0.544184, 0.33523, -2.08359, -2.16547, -0.128767, 0.47015, -0.543057, 0.334317, -2.08548, -2.16618, -0.125522, -0.00380697, -0.0236758, -0.020209, 0.00603768, -0.0201776, -0.0166864
0.102172, 1.69316, -1.22658, -1.54148, -0.899726, -1.19364, 1.23205, -1.30259, 0.0384606, 0.00593205, -0.067714, 0.0387693, -0.0428787, 0.051579, 0.000603483, -2.05529, 59.693, 28.2343, 8.44971, 0.963317, 3.66092, 0.0165515, 0.00100051, -0.000646596, 0.00109465, 0.000359397, -0.00280295, 0.000688911, -0.00500903, -0.00966438, 0.00420658, -0.00420221, 0.0773312, -0.0769156, 0.470877, -0.544207, 0.33521, -2.08358, -2.16546, -0.128732, 0.470155, -0.543078, 0.334304, -2.08556, -2.16617, -0.125418, -0.00387125, -0.0240696, -0.0205654, 0.00575738, -0.0193755, -0.015935
0.103172, 1.6932, -1.22658, -1.54154, -0.899684, -1.1937, 1.2321, -1.30259, 0.0392848, 0.00478992, -0.064073, 0.0406831, -0.0463393, 0.0529956, 0.00162303, -2.24175, 59.6573, 28.1232, 8.44971, 0.963317, 3.65451, -0.0164075, 0.00100697, -0.000634016, 0.0010897, 0.000350788, -0.00286978, 0.000724882, -0.00506995, -0.0102994, 0.00547339, -0.000376324, 0.0795545, -0.0787915, 0.470873, -0.544231, 0.335189, -2.08357, -2.16545, -0.128697, 0.470164, -0.543096, 0.334289, -2.08563, -2.16616, -0.125321, -0.00393561, -0.0244637, -0.0209229, 0.00637204, -0.0198782, -0.0150522
0.104172, 1.69324, -1.22657, -1.54161, -0.899644, -1.19375, 1.23216, -1.30258, 0.0391651, 0.00495652, -0.0690118, 0.0411378, -0.0493588, 0.0497729, 0.00108202, -2.28143, 59.5819, 28.1986, 8.48541, 0.975218, 3.63986, -0.0164075, 0.00100622, -0.000629492, 0.00108679, 0.000350398, -0.00294367, 0.000778546, -0.00404823, -0.00839207, 0.00390709, -0.00831779, 0.081092, -0.0827631, 0.470869, -0.544256, 0.335168, -2.08357, -2.16544, -0.128661, 0.470165, -0.543121, 0.334271, -2.08572, -2.16613, -0.125204, -0.00400003, -0.0248579, -0.0212814, 0.00438138, -0.0211183, -0.0170567
0.105172, 1.69327, -1.22657, -1.54167, -0.899603, -1.1938, 1.23221, -1.30258, 0.0409325, 0.00506758, -0.0658873, 0.0413224, -0.0514057, 0.0554808, 0.000212721, -2.39648, 59.5065, 28.1232, 8.52509, 0.981627, 3.65451, -0.00267457, 0.00101143, -0.000619634, 0.00107938, 0.000340591, -0.0030152, 0.000817702, -0.00488633, -0.0107732, 0.00581852, -0.00141109, 0.0857452, -0.0801031, 0.470865, -0.544281, 0.335147, -2.08356, -2.16543, -0.128624, 0.470171, -0.543142, 0.334257, -2.08579, -2.16612, -0.125102, -0.0040645, -0.0252522, -0.0216408, 0.006736, -0.0208815, -0.0154731
0.106172, 1.69331, -1.22657, -1.54174, -0.899564, -1.19386, 1.23226, -1.30259, 0.040308, 0.00337839, -0.0670227, 0.0437571, -0.0532864, 0.0560095, -0.00202832, -2.43218, 59.5065, 28.1986, 8.60046, 0.999938, 3.64718, 0.0559192, 0.00101204, -0.000614331, 0.00107829, 0.000341928, -0.0030856, 0.000860752, -0.00350693, -0.00965967, 0.00514191, -0.00137577, 0.0859231, -0.0823705, 0.470861, -0.544306, 0.335125, -2.08355, -2.16541, -0.128586, 0.470172, -0.543166, 0.334237, -2.08586, -2.1661, -0.124987, -0.00412902, -0.0256465, -0.022001, 0.00558364, -0.0225792, -0.016681
0.107172, 1.69334, -1.22656, -1.5418, -0.89952, -1.19392, 1.23231, -1.30259, 0.0360275, 0.00225226, -0.0650904, 0.0406909, -0.0533044, 0.0559145, -0.00060623, -2.43218, 59.5065, 28.1589, 8.63617, 0.981627, 3.65451, 0.0357776, 0.001012, -0.000610773, 0.00107171, 0.000330184, -0.00315484, 0.000916354, -0.00326017, -0.00835167, 0.00525277, -0.000320247, 0.084984, -0.0850142, 0.470857, -0.544332, 0.335103, -2.08354, -2.1654, -0.128548, 0.470171, -0.543193, 0.334221, -2.08595, -2.16607, -0.124886, -0.00419356, -0.0260407, -0.0223621, 0.00422589, -0.0232875, -0.0169304
0.108172, 1.69338, -1.22656, -1.54186, -0.899475, -1.19397, 1.23236, -1.30258, 0.031654, 0.00233672, -0.0631111, 0.0444462, -0.054142, 0.0554365, 0.00152863, -2.50756, 59.4708, 28.0875, 8.67188, 0.988036, 3.66824, -0.0164075, 0.00101747, -0.000602207, 0.00106326, 0.000317712, -0.00322336, 0.000965283, -0.000947309, -0.00528716, 0.00701557, 0.00341666, 0.0851423, -0.0947164, 0.470853, -0.544358, 0.335081, -2.08353, -2.16539, -0.128509, 0.470176, -0.543214, 0.334208, -2.08604, -2.16605, -0.124786, -0.00425812, -0.0264347, -0.0227239, 0.00124892, -0.0263613, -0.0158148
0.109172, 1.69342, -1.22655, -1.54193, -0.89943, -1.19403, 1.23241, -1.30259, 0.0345359, 0.00415627, -0.0656136, 0.0433761, -0.0592497, 0.0511618, -0.000676336, -2.58294, 59.3597, 28.1986, 8.74725, 0.981627, 3.66824, 0.0293689, 0.00102149, -0.000594289, 0.00105566, 0.000312068, -0.00330024, 0.00100446, -0.002073, -0.00537858, 0.00683071, -0.00531424, 0.0895941, -0.0922942, 0.470849, -0.544384, 0.335058, -2.08352, -2.16537, -0.12847, 0.47018, -0.543238, 0.334193, -2.08611, -2.16604, -0.124671, -0.00432269, -0.0268285, -0.0230865, 0.0012289, -0.0256116, -0.0161884
0.110172, 1.69345, -1.22655, -1.54199, -0.899379, -1.19409, 1.23246, -1.30259, 0.0378884, 0.00444128, -0.0628809, 0.0449386, -0.0580409, 0.0481964, 0.000735904, -2.58294, 59.2883, 28.1232, 8.71155, 0.969725, 3.66092, -0.00267457, 0.00102179, -0.000590743, 0.00104443, 0.000296691, -0.00337719, 0.00106696, -0.00468697, -0.00705016, 0.00805165, -0.00432928, 0.08743, -0.0906921, 0.470844, -0.544411, 0.335035, -2.08351, -2.16536, -0.12843, 0.470179, -0.543266, 0.334181, -2.08621, -2.16601, -0.124563, -0.00438725, -0.027222, -0.0234497, 0.00278626, -0.0235435, -0.0149933
0.111172, 1.69349, -1.22654, -1.54205, -0.899339, -1.19415, 1.23251, -1.30259, 0.0403479, 0.00472409, -0.0647594, 0.0400757, -0.06203, 0.0454081, -0.000696192, -2.69799, 59.213, 28.1986, 8.82263, 0.956908, 3.66824, 0.0293689, 0.00102789, -0.000581554, 0.00103777, 0.000292192, -0.00345308, 0.00110395, -0.00680345, -0.00829107, 0.0068086, -0.0125589, 0.0904463, -0.0854389, 0.47084, -0.544438, 0.335012, -2.08349, -2.16534, -0.128389, 0.470184, -0.543288, 0.334165, -2.08628, -2.166, -0.124447, -0.00445179, -0.0276151, -0.0238135, 0.00383958, -0.0216052, -0.0162956
0.112172, 1.69352, -1.22654, -1.54211, -0.899284, -1.19421, 1.23256, -1.30259, 0.0373488, 0.00481983, -0.0617165, 0.0452521, -0.0610545, 0.0439875, -0.00168483, -2.62261, 59.1415, 28.0875, 8.78693, 0.969725, 3.65451, 0.0623279, 0.00102803, -0.00057843, 0.0010233, 0.000272885, -0.00353498, 0.00116236, -0.00535851, -0.00589896, 0.0089998, -0.00739893, 0.088522, -0.090805, 0.470836, -0.544466, 0.334988, -2.08348, -2.16533, -0.128348, 0.470183, -0.543317, 0.334155, -2.08638, -2.16598, -0.124337, -0.00451631, -0.0280078, -0.0241779, 0.00151951, -0.023859, -0.0146456
0.113172, 1.69356, -1.22654, -1.54217, -0.899237, -1.19428, 1.23261, -1.30259, 0.0342989, 0.00321322, -0.06218, 0.044628, -0.0600652, 0.0422866, 0.000334842, -2.62261, 59.1415, 28.0875, 8.82263, 0.969725, 3.65451, 0.0229602, 0.00103105, -0.000571207, 0.00101468, 0.000256423, -0.00361115, 0.00121801, -0.00475441, -0.00414047, 0.00811547, -0.00842364, 0.0854861, -0.095794, 0.470831, -0.544494, 0.334964, -2.08347, -2.16531, -0.128305, 0.470186, -0.543343, 0.33414, -2.08648, -2.16595, -0.12423, -0.00458078, -0.0283999, -0.0245428, -0.000312285, -0.0247836, -0.0159224
0.114172, 1.6936, -1.22654, -1.54223, -0.899187, -1.19434, 1.23267, -1.30259, 0.0327149, 0.00214215, -0.0615344, 0.0451527, -0.0641529, 0.0464751, -0.00025149, -2.65832, 59.1415, 28.0478, 8.82263, 0.975218, 3.63986, 0.0357776, 0.00103467, -0.000563547, 0.00100605, 0.000242521, -0.0036879, 0.00126477, -0.00312602, -0.00363759, 0.00854795, -0.00536559, 0.0899361, -0.0988948, 0.470826, -0.544522, 0.334939, -2.08346, -2.1653, -0.128263, 0.470189, -0.543369, 0.334124, -2.08656, -2.16593, -0.12412, -0.00464521, -0.0287914, -0.0249081, -0.000804513, -0.0268697, -0.0160974
0.115172, 1.69364, -1.22653, -1.54229, -0.899128, -1.19441, 1.23272, -1.30258, 0.0356909, 0.00235612, -0.0620393, 0.0498091, -0.0621858, 0.0447204, 0.0024772, -2.7337, 59.1019, 28.0478, 8.74725, 0.975218, 3.62521, -0.0356336, 0.00103647, -0.000556532, 0.000995832, 0.000228054, -0.00377059, 0.00133258, -0.00399465, -0.00413982, 0.0091398, -0.00427627, 0.0876303, -0.103002, 0.470822, -0.544551, 0.334914, -2.08345, -2.16528, -0.128219, 0.470192, -0.543398, 0.334109, -2.08667, -2.1659, -0.124002, -0.00470957, -0.0291822, -0.0252738, -0.000375803, -0.0264733, -0.01576
0.116172, 1.69368, -1.22653, -1.54235, -0.899074, -1.19448, 1.23278, -1.30259, 0.038959, 0.00157075, -0.0636155, 0.0517244, -0.0615495, 0.0492642, -4.39564e-05, -2.7337, 59.1019, 27.9725, 8.74725, 0.993529, 3.58218, 0.0101428, 0.00103758, -0.000550172, 0.000986029, 0.000208997, -0.00385252, 0.00138578, -0.00457166, -0.00625086, 0.00892415, -0.000710112, 0.0888565, -0.100098, 0.470817, -0.54458, 0.334889, -2.08344, -2.16527, -0.128175, 0.470194, -0.543427, 0.334093, -2.08677, -2.16588, -0.12389, -0.00477385, -0.0295723, -0.0256399, 0.00163986, -0.0261741, -0.0163162
0.117172, 1.69372, -1.22653, -1.54242, -0.899015, -1.19455, 1.23283, -1.30258, 0.0435281, 0.00188238, -0.0635972, 0.0537561, -0.0652714, 0.051471, 0.000716681, -2.80907, 59.0662, 27.9725, 8.71155, 0.999938, 3.56845, -0.00999879, 0.00104056, -0.000543461, 0.000975973, 0.000195581, -0.00393221, 0.00144593, -0.00550836, -0.00840901, 0.00966633, 0.000147689, 0.0935192, -0.100003, 0.470812, -0.54461, 0.334863, -2.08342, -2.16525, -0.12813, 0.470196, -0.543455, 0.334078, -2.08687, -2.16585, -0.123773, -0.00483806, -0.0299616, -0.0260062, 0.00372572, -0.0256642, -0.0158728
0.118172, 1.69377, -1.22653, -1.54248, -0.898953, -1.19462, 1.23288, -1.30259, 0.0458698, 0.00125492, -0.0636055, 0.0534102, -0.0683165, 0.0538658, -0.000505557, -2.84875, 59.0662, 27.9725, 8.63617, 1.01276, 3.53274, 0.0165515, 0.00104139, -0.00053713, 0.000966038, 0.000177407, -0.00401439, 0.00150516, -0.00618014, -0.009972, 0.0096468, 0.000592521, 0.0969233, -0.0978122, 0.470808, -0.54464, 0.334837, -2.08341, -2.16524, -0.128084, 0.470198, -0.543485, 0.334062, -2.08697, -2.16582, -0.123658, -0.00490216, -0.0303499, -0.0263728, 0.00519824, -0.0253222, -0.0162042
0.119172, 1.69381, -1.22653, -1.54254, -0.89889, -1.19469, 1.23294, -1.30259, 0.0458509, 0.000836614, -0.0609536, 0.0559524, -0.0698468, 0.0586957, -0.00132038, -2.80907, 59.0662, 27.8614, 8.56079, 1.00635, 3.53274, 0.0431018, 0.00104184, -0.000532421, 0.000953446, 0.000152217, -0.00409498, 0.0015662, -0.00556377, -0.0106428, 0.0114319, 0.00793675, 0.100001, -0.0991151, 0.470803, -0.54467, 0.334811, -2.0834, -2.16522, -0.128038, 0.470198, -0.543517, 0.334048, -2.08708, -2.1658, -0.123551, -0.00496616, -0.0307373, -0.0267396, 0.00589346, -0.0265648, -0.0149254
0.120172, 1.69385, -1.22653, -1.5426, -0.898829, -1.19477, 1.23299, -1.30259, 0.0446147, 0.000557743, -0.064842, 0.0557746, -0.0714256, 0.0535203, -0.000880255, -2.84875, 59.0662, 27.8614, 8.56079, 1.01825, 3.52542, 0.0431018, 0.00104542, -0.000525238, 0.000944818, 0.000144783, -0.00417738, 0.0016252, -0.00489301, -0.00824634, 0.00978283, -0.000242614, 0.0989393, -0.103665, 0.470798, -0.544701, 0.334784, -2.08339, -2.1652, -0.127991, 0.4702, -0.543545, 0.33403, -2.08717, -2.16577, -0.123423, -0.00503004, -0.0311236, -0.0271065, 0.00339865, -0.0274581, -0.0169493
0.121172, 1.69385, -1.22653, -1.5426, -0.898829, -1.19477, 1.23299, -1.30259, 0.0446147, 0.000557743, -0.064842, 0.0557746, -0.0714256, 0.0535203, -0.000880255, -2.84875, 59.0662, 27.8614, 8.56079, 1.01825, 3.52542, 0.0431018, 0.00108018, -0.000519766, 0.000922655, 0.00010642, -0.00417275, 0.00162067, -0.00532791, -0.00831376, 0.0100888, 0.00013887, 0.0991831, -0.104323, 0.470793, -0.544732, 0.334757, -2.08337, -2.16519, -0.127943, 0.4702, -0.543545, 0.33403, -2.08717, -2.16577, -0.123423, -0.0050938, -0.0315088, -0.0274735, 0.00339865, -0.0274581, -0.0169493
0.122172, 1.69385, -1.22653, -1.5426, -0.898829, -1.19477, 1.23299, -1.30259, 0.0446147, 0.000557743, -0.064842, 0.0557746, -0.0714256, 0.0535203, -0.000880255, -2.84875, 59.0662, 27.8614, 8.56079, 1.01825, 3.52542, 0.0431018, 0.00111538, -0.000514227, 0.000900187, 6.74451e-05, -0.00416811, 0.00161609, -0.00576165, -0.00838096, 0.010395, 0.000522453, 0.0994296, -0.104983, 0.470788, -0.544764, 0.33473, -2.08336, -2.16517, -0.127895, 0.4702, -0.543545, 0.33403, -2.08717, -2.16577, -0.123423, -0.00515741, -0.0318928, -0.0278405, 0.00339865, -0.0274581, -0.0169493
0.123172, 1.694, -1.22653, -1.5428, -0.898629, -1.195, 1.23315, -1.30258, 0.0434275, 0.00192849, -0.0640082, 0.0605119, -0.0729563, 0.0573773, 0.00133288, -2.84875, 58.9908, 27.7146, 8.48541, 0.981627, 3.46774, -0.0292249, 0.00105136, -0.000503976, 0.000908841, 8.84597e-05, -0.00444005, 0.00182468, -0.00386107, -0.00736112, 0.0128805, 0.00680703, 0.103729, -0.113295, 0.470782, -0.544796, 0.334702, -2.08335, -2.16515, -0.127846, 0.470207, -0.543639, 0.333983, -2.08751, -2.16567, -0.123052, -0.00522087, -0.0322756, -0.0282076, 0.00247837, -0.0301407, -0.0151245
0.124172, 1.69404, -1.22652, -1.54287, -0.898556, -1.19508, 1.23321, -1.30259, 0.0439199, 0.0029561, -0.06897, 0.0632625, -0.0737235, 0.0577583, -0.000806835, -2.80907, 58.9194, 27.79, 8.44971, 0.981627, 3.44668, 0.0165515, 0.0010512, -0.000498742, 0.000894795, 6.9828e-05, -0.00453498, 0.00189173, -0.0025667, -0.00616925, 0.0124325, 0.00413108, 0.105943, -0.116389, 0.470777, -0.544828, 0.334674, -2.08333, -2.16513, -0.127796, 0.470208, -0.543673, 0.333969, -2.08762, -2.16564, -0.12292, -0.00528417, -0.032657, -0.0285745, 0.00125445, -0.03178, -0.0160969
0.125172, 1.69409, -1.22652, -1.54294, -0.898489, -1.19516, 1.23327, -1.30259, 0.0406439, 0.00197073, -0.0682535, 0.0651968, -0.0744845, 0.0583272, -0.000775249, -2.7337, 58.9194, 27.8257, 8.52509, 0.993529, 3.41739, 0.0229602, 0.00105125, -0.000492866, 0.000883438, 5.08996e-05, -0.00462799, 0.00196025, -0.000813493, -0.00411923, 0.0129059, 0.00661054, 0.10581, -0.121902, 0.470772, -0.54486, 0.334645, -2.08332, -2.16511, -0.127746, 0.470209, -0.543707, 0.333951, -2.08774, -2.16561, -0.122789, -0.0053473, -0.0330371, -0.0289414, -0.000775231, -0.0340475, -0.0162029
0.126172, 1.69415, -1.22652, -1.543, -0.898417, -1.19524, 1.23333, -1.30259, 0.0411979, 0.00131382, -0.0650236, 0.0653856, -0.0784769, 0.0584222, -0.00126282, -2.77337, 58.9194, 27.7503, 8.56079, 0.981627, 3.39633, 0.0431018, 0.00105664, -0.000480951, 0.000868933, 2.2966e-05, -0.00471818, 0.00201766, -0.00124601, -0.00460121, 0.0139828, 0.00798886, 0.108523, -0.12146, 0.470766, -0.544894, 0.334616, -2.0833, -2.1651, -0.127694, 0.470216, -0.543737, 0.333937, -2.08784, -2.16559, -0.122671, -0.00541024, -0.0334157, -0.0293081, -0.000330989, -0.0341446, -0.0154549
0.127172, 1.6942, -1.22652, -1.54307, -0.898336, -1.19532, 1.23339, -1.30259, 0.0443436, 0.0017111, -0.064535, 0.0700825, -0.082461, 0.0583878, 0.000378825, -2.69799, 58.8837, 27.7503, 8.52509, 0.981627, 3.38168, 0.0101428, 0.00105548, -0.000476144, 0.000854397, -4.63368e-06, -0.00480895, 0.00209515, -0.00103451, -0.00499938, 0.0151935, 0.00869582, 0.112099, -0.125871, 0.470761, -0.544927, 0.334587, -2.08329, -2.16508, -0.127643, 0.470216, -0.543773, 0.333922, -2.08797, -2.16555, -0.122549, -0.00547299, -0.0337927, -0.0296745, 5.78166e-05, -0.0349, -0.0146715
0.128172, 1.69425, -1.22652, -1.54313, -0.898254, -1.19541, 1.23345, -1.30258, 0.0476689, 0.000305515, -0.0652471, 0.0722859, -0.0856861, 0.0579953, 0.00194797, -2.65832, 58.9194, 27.6749, 8.52509, 0.988036, 3.37436, -0.0356336, 0.00105619, -0.000468118, 0.00083925, -3.52807e-05, -0.00490267, 0.00217169, -0.00141011, -0.00590059, 0.0145269, 0.00703222, 0.113383, -0.128138, 0.470756, -0.544961, 0.334557, -2.08327, -2.16506, -0.12759, 0.470219, -0.543808, 0.333907, -2.0881, -2.16552, -0.122427, -0.00553554, -0.0341681, -0.0300408, 0.000857303, -0.0347652, -0.0156667
0.129172, 1.6943, -1.22652, -1.54321, -0.898172, -1.19549, 1.23351, -1.30259, 0.0467771, -0.000631541, -0.0689786, 0.0735892, -0.0829629, 0.0576015, 0.00129865, -2.58294, 58.9551, 27.7146, 8.56079, 0.981627, 3.37436, -0.0356336, 0.001055, -0.000463167, 0.000828276, -5.66749e-05, -0.00499174, 0.00225012, -0.000765496, -0.00476063, 0.0131543, 0.00575439, 0.110408, -0.131043, 0.47075, -0.544995, 0.334527, -2.08326, -2.16504, -0.127537, 0.470219, -0.543845, 0.333887, -2.08823, -2.16547, -0.122299, -0.00559787, -0.0345419, -0.0304067, -0.000371976, -0.0356112, -0.0174517
0.130172, 1.69436, -1.22652, -1.54328, -0.898082, -1.19557, 1.23357, -1.30259, 0.0487149, 0.00041419, -0.0706449, 0.0787431, -0.0850412, 0.0625424, -0.000354938, -2.62261, 58.9194, 27.7146, 8.52509, 0.963317, 3.36062, -0.00267457, 0.00105496, -0.00045531, 0.000812931, -8.81499e-05, -0.00508548, 0.00232789, 0.0006529, -0.00510544, 0.01455, 0.0102402, 0.11561, -0.134157, 0.470744, -0.545029, 0.334497, -2.08324, -2.16502, -0.127483, 0.470221, -0.543882, 0.333872, -2.08836, -2.16543, -0.122177, -0.00565998, -0.0349139, -0.0307722, 1.42159e-05, -0.0375837, -0.0166701
0.131172, 1.69441, -1.22653, -1.54335, -0.897993, -1.19566, 1.23363, -1.30259, 0.0483127, -0.00139431, -0.0728074, 0.0809603, -0.0831357, 0.060683, -0.00166078, -2.58294, 58.9908, 27.7503, 8.56079, 0.975218, 3.36703, 0.0357776, 0.00105432, -0.000449213, 0.00080224, -0.000112895, -0.00517181, 0.0024044, 0.00111801, -0.00396867, 0.0131913, 0.00896304, 0.111548, -0.136233, 0.470739, -0.545064, 0.334466, -2.08323, -2.165, -0.127428, 0.470222, -0.543919, 0.333851, -2.08848, -2.16539, -0.122054, -0.00572185, -0.0352841, -0.0311374, -0.00121738, -0.0382509, -0.0184127
0.132172, 1.69447, -1.22653, -1.54342, -0.897897, -1.19574, 1.23369, -1.30259, 0.0521429, -0.00269278, -0.0725206, 0.0866983, -0.0798058, 0.063349, -0.000869827, -2.58294, 59.0662, 27.7146, 8.56079, 0.938597, 3.39633, 0.0293689, 0.0010535, -0.000442385, 0.00078882, -0.000148367, -0.00525659, 0.00248783, 0.000377983, -0.00583191, 0.0136716, 0.0154979, 0.10874, -0.137666, 0.470733, -0.5451, 0.334435, -2.08321, -2.16498, -0.127372, 0.470224, -0.543957, 0.333833, -2.08861, -2.16534, -0.121943, -0.00578347, -0.0356524, -0.0315021, 0.000574281, -0.0378859, -0.0182486
0.133172, 1.69452, -1.22653, -1.5435, -0.897799, -1.19582, 1.23376, -1.30259, 0.0513838, -3.19469e-05, -0.0710008, 0.0903925, -0.0783186, 0.0620704, -0.000342526, -2.43218, 58.9908, 27.7503, 8.56079, 0.926695, 3.38901, 0.0229602, 0.00104862, -0.000441156, 0.000769052, -0.000186692, -0.0053535, 0.00258308, 0.000402404, -0.00478512, 0.0165297, 0.0189063, 0.109377, -0.141685, 0.470727, -0.545135, 0.334403, -2.08319, -2.16496, -0.127316, 0.47022, -0.544, 0.33382, -2.08877, -2.16529, -0.121821, -0.00584484, -0.0360188, -0.0318663, -0.000422066, -0.0387581, -0.0157609
0.134172, 1.69459, -1.22654, -1.54357, -0.897703, -1.1959, 1.23382, -1.30258, 0.0554133, -0.00354777, -0.0721132, 0.0929028, -0.0822194, 0.0603932, 0.00170443, -2.47185, 59.1415, 27.7503, 8.60046, 0.920287, 3.39633, -0.0292249, 0.00104951, -0.00043039, 0.000759819, -0.000219211, -0.00543852, 0.00266681, 9.52273e-05, -0.0056696, 0.0143687, 0.0153236, 0.10852, -0.144387, 0.470721, -0.545171, 0.334371, -2.08318, -2.16494, -0.127259, 0.470225, -0.544036, 0.333797, -2.0889, -2.16524, -0.121705, -0.00590595, -0.0363832, -0.0322299, 0.000307512, -0.038451, -0.0182396
0.135172, 1.69465, -1.22655, -1.54365, -0.897604, -1.19598, 1.23388, -1.30258, 0.0565606, -0.00403562, -0.0728507, 0.0946114, -0.0798109, 0.0642927, 0.00113629, -2.43218, 59.213, 27.7503, 8.63617, 0.895568, 3.39633, -0.0292249, 0.0010481, -0.000423989, 0.000748029, -0.000254782, -0.00552239, 0.00274967, -0.000192742, -0.00685183, 0.0146516, 0.0201777, 0.108224, -0.144391, 0.470716, -0.545208, 0.334339, -2.08316, -2.16492, -0.127202, 0.470226, -0.544076, 0.333776, -2.08903, -2.16519, -0.121593, -0.00596678, -0.0367455, -0.032593, 0.00142856, -0.0385239, -0.0183171
0.136172, 1.69471, -1.22654, -1.54372, -0.897497, -1.19607, 1.23395, -1.30259, 0.0603466, -0.00501321, -0.0686466, 0.0983224, -0.0827885, 0.0670135, -0.00022582, -2.39648, 59.1772, 27.6749, 8.56079, 0.870848, 3.39633, -0.00267457, 0.00104735, -0.000417739, 0.000727172, -0.000299836, -0.00561544, 0.00283482, -0.00110065, -0.00912764, 0.0164386, 0.026321, 0.11085, -0.142167, 0.47071, -0.545245, 0.334306, -2.08314, -2.16489, -0.127143, 0.470227, -0.544116, 0.333764, -2.08918, -2.16515, -0.121481, -0.00602732, -0.0371056, -0.0329554, 0.00367754, -0.0381687, -0.0168482
0.137172, 1.69477, -1.22655, -1.5438, -0.897395, -1.19615, 1.23401, -1.30258, 0.0643886, -0.00360531, -0.0722581, 0.101474, -0.0858918, 0.0633081, 0.000120721, -2.39648, 59.1772, 27.7503, 8.60046, 0.870848, 3.41739, -0.00999879, 0.00104629, -0.000411714, 0.000714742, -0.00032549, -0.00570755, 0.00292745, -0.00152473, -0.00905542, 0.0162083, 0.0198967, 0.113362, -0.144752, 0.470704, -0.545282, 0.334273, -2.08313, -2.16487, -0.127084, 0.470228, -0.544156, 0.333743, -2.08932, -2.16509, -0.121347, -0.00608756, -0.0374636, -0.0333171, 0.00352207, -0.0380754, -0.0173698
0.138172, 1.69484, -1.22655, -1.54388, -0.897288, -1.19624, 1.23407, -1.30259, 0.0673109, -0.0065298, -0.0754116, 0.105175, -0.0825751, 0.0614427, -0.000665505, -2.39648, 59.213, 27.7146, 8.56079, 0.852538, 3.42471, 0.0101428, 0.00104464, -0.000404208, 0.000701045, -0.000361537, -0.00579938, 0.00301664, -0.00205341, -0.00945665, 0.0138713, 0.0185136, 0.1071, -0.145355, 0.470697, -0.545319, 0.33424, -2.08311, -2.16485, -0.127025, 0.47023, -0.544197, 0.333723, -2.08946, -2.16504, -0.121224, -0.0061475, -0.0378192, -0.0336781, 0.00375525, -0.0375338, -0.01997
0.139172, 1.6949, -1.22656, -1.54396, -0.897183, -1.19632, 1.23414, -1.30259, 0.0653636, -0.00652228, -0.0746196, 0.103763, -0.08518, 0.0647513, -0.00166437, -2.3568, 59.2883, 27.6749, 8.60046, 0.834227, 3.43204, 0.0431018, 0.00104324, -0.00039721, 0.000687562, -0.000396364, -0.00589179, 0.00310372, -0.00131753, -0.00918359, 0.0146649, 0.0208953, 0.111189, -0.146193, 0.470691, -0.545357, 0.334206, -2.08309, -2.16483, -0.126964, 0.470231, -0.544238, 0.333702, -2.0896, -2.16499, -0.1211, -0.00620712, -0.0381726, -0.0340383, 0.00348019, -0.0387465, -0.0196522
0.140172, 1.69496, -1.22656, -1.54405, -0.897071, -1.19641, 1.2342, -1.30258, 0.0652985, -0.00465256, -0.0779404, 0.105499, -0.0866772, 0.0628932, 0.000585839, -2.24175, 59.2883, 27.6749, 8.52509, 0.804015, 3.43204, -0.00267457, 0.00103698, -0.000397558, 0.000673633, -0.000427513, -0.00598192, 0.00321455, -0.000556253, -0.00767768, 0.0149856, 0.0170857, 0.113739, -0.152831, 0.470685, -0.545395, 0.334172, -2.08307, -2.1648, -0.126903, 0.470225, -0.544284, 0.333681, -2.08976, -2.16491, -0.12097, -0.00626642, -0.0385235, -0.0343977, 0.0019571, -0.0399599, -0.0197643
0.141172, 1.69502, -1.22656, -1.54413, -0.896967, -1.1965, 1.23426, -1.30259, 0.063948, -0.00721104, -0.0820189, 0.102709, -0.0889384, 0.0660853, 0.00113654, -2.20605, 59.324, 27.6035, 8.60046, 0.809508, 3.43204, -0.0228162, 0.00103595, -0.000391399, 0.000660868, -0.000453926, -0.00607779, 0.00330566, 0.000684288, -0.00725439, 0.0123073, 0.0143015, 0.115411, -0.155588, 0.470679, -0.545434, 0.334138, -2.08305, -2.16478, -0.126841, 0.470226, -0.544325, 0.333659, -2.0899, -2.16485, -0.12083, -0.00632538, -0.038872, -0.0347562, 0.00141709, -0.0411393, -0.0229461
0.142172, 1.69509, -1.22656, -1.54423, -0.896847, -1.19659, 1.23432, -1.30258, 0.0658306, -0.00439718, -0.0876314, 0.108564, -0.090139, 0.0685008, 0.00146977, -2.16637, 59.2883, 27.6392, 8.48541, 0.797606, 3.43204, -0.0420422, 0.001029, -0.00039003, 0.000649606, -0.000477442, -0.00617395, 0.0034164, 0.00258145, -0.00630427, 0.013228, 0.0140668, 0.120653, -0.163004, 0.470673, -0.545473, 0.334103, -2.08303, -2.16476, -0.126778, 0.470221, -0.544373, 0.333634, -2.09006, -2.16477, -0.120684, -0.006384, -0.0392179, -0.0351138, 0.000513043, -0.0435384, -0.0226578
0.143172, 1.69515, -1.22656, -1.54433, -0.896739, -1.19667, 1.23438, -1.30259, 0.0627913, -0.00325023, -0.0902267, 0.110536, -0.0905885, 0.0698117, 0.000267772, -2.05529, 59.2883, 27.6035, 8.56079, 0.779296, 3.44668, -0.0228162, 0.00102649, -0.000387444, 0.000638401, -0.000497381, -0.00626592, 0.00351373, 0.00478287, -0.00390803, 0.0138433, 0.0146259, 0.123039, -0.168618, 0.470666, -0.545512, 0.334068, -2.08301, -2.16473, -0.126715, 0.470218, -0.544416, 0.333609, -2.0902, -2.16471, -0.120539, -0.00644226, -0.0395612, -0.0354704, -0.0018357, -0.0462478, -0.0226698
0.144172, 1.69522, -1.22656, -1.54443, -0.896617, -1.19676, 1.23444, -1.30259, 0.0623352, -0.00147788, -0.0905854, 0.114092, -0.0872471, 0.0661723, -0.00273761, -2.01562, 59.2487, 27.6392, 8.44971, 0.784789, 3.45309, 0.0559192, 0.00102051, -0.0003857, 0.000626041, -0.00051922, -0.00636448, 0.00361865, 0.00451906, -0.00251759, 0.0152636, 0.0150227, 0.120285, -0.168965, 0.47066, -0.545551, 0.334033, -2.08299, -2.16471, -0.126651, 0.470214, -0.544464, 0.333585, -2.09035, -2.16463, -0.120388, -0.00650015, -0.0399019, -0.035826, -0.00323588, -0.0466029, -0.0215368
0.145172, 1.6953, -1.22657, -1.54453, -0.896505, -1.19685, 1.2345, -1.30259, 0.0636548, -0.00209258, -0.0920655, 0.112266, -0.0881337, 0.0678398, -0.00158771, -2.05529, 59.2883, 27.6035, 8.52509, 0.754576, 3.47507, 0.0495105, 0.00102004, -0.000378988, 0.000618505, -0.00053675, -0.00645492, 0.00371643, 0.00371532, -0.00367701, 0.0145121, 0.0140616, 0.12185, -0.168871, 0.470653, -0.545591, 0.333997, -2.08297, -2.16469, -0.126586, 0.470215, -0.544505, 0.333556, -2.09049, -2.16456, -0.12024, -0.00655767, -0.0402399, -0.0361806, -0.00219236, -0.0459844, -0.0225471
0.146172, 1.69536, -1.22656, -1.54463, -0.89638, -1.19694, 1.23456, -1.30259, 0.0587653, 0.00106892, -0.0990525, 0.114071, -0.0843485, 0.0654724, -7.51318e-05, -1.86486, 59.1772, 27.5638, 8.44971, 0.736266, 3.46774, 0.0229602, 0.00101055, -0.000383323, 0.000599716, -0.000561584, -0.00656274, 0.00384238, 0.00620632, 0.000736788, 0.014505, 0.00995505, 0.121213, -0.179628, 0.470647, -0.545631, 0.333961, -2.08295, -2.16466, -0.12652, 0.470205, -0.544557, 0.333538, -2.09067, -2.16447, -0.12008, -0.00661481, -0.0405751, -0.036534, -0.00656845, -0.0489587, -0.0231486
0.147172, 1.69543, -1.22656, -1.54474, -0.896251, -1.19703, 1.23462, -1.30258, 0.0633025, 0.00061175, -0.100905, 0.118759, -0.08652, 0.0627072, 0.00188269, -1.86486, 59.1772, 27.4885, 8.37433, 0.723448, 3.48239, -0.0292249, 0.00100584, -0.000381569, 0.000588343, -0.000582893, -0.00665468, 0.00395752, 0.0057633, 0.00025914, 0.0140649, 0.00682861, 0.121368, -0.183497, 0.47064, -0.545672, 0.333924, -2.08293, -2.16464, -0.126454, 0.4702, -0.544604, 0.333511, -2.09083, -2.16438, -0.119931, -0.00667155, -0.0409074, -0.0368864, -0.00618022, -0.0487664, -0.0238825
0.148172, 1.6955, -1.22657, -1.54485, -0.896126, -1.19712, 1.23467, -1.30258, 0.0645307, -0.00366601, -0.105152, 0.119168, -0.0882522, 0.0612942, 0.00149249, -1.78948, 59.213, 27.5281, 8.414, 0.711547, 3.48239, -0.0356336, 0.000997631, -0.000383015, 0.000582898, -0.000593897, -0.0067462, 0.00407972, 0.00643523, 0.000734075, 0.010212, 0.00111497, 0.118459, -0.185455, 0.470633, -0.545713, 0.333887, -2.08291, -2.16461, -0.126387, 0.470193, -0.544654, 0.333479, -2.09099, -2.16428, -0.119771, -0.00672789, -0.0412368, -0.0372375, -0.00683604, -0.0491874, -0.0281264
0.149172, 1.69557, -1.22657, -1.54496, -0.895996, -1.19721, 1.23473, -1.30258, 0.0657116, -0.00192911, -0.106345, 0.119802, -0.0850016, 0.0601033, 0.000520273, -1.7141, 59.1772, 27.4885, 8.44971, 0.705138, 3.48239, -0.0228162, 0.000990001, -0.000385935, 0.000570473, -0.000610628, -0.00684289, 0.00420087, 0.0050407, 0.000258846, 0.011042, 0.00125007, 0.117335, -0.184079, 0.470627, -0.545754, 0.33385, -2.08289, -2.16458, -0.126319, 0.470184, -0.544705, 0.333453, -2.09115, -2.16419, -0.11961, -0.00678382, -0.0415633, -0.0375874, -0.00643395, -0.0482449, -0.0274565
0.150172, 1.69565, -1.22656, -1.54508, -0.895859, -1.1973, 1.23479, -1.30259, 0.067738, 0.00107215, -0.110397, 0.126211, -0.0830449, 0.0596254, -0.00209456, -1.6784, 59.0662, 27.4528, 8.37433, 0.711547, 3.47507, 0.0431018, 0.000981461, -0.000388403, 0.000556027, -0.000629062, -0.00694597, 0.00432003, 0.00579316, 0.00115987, 0.0124345, 0.00160377, 0.118621, -0.187111, 0.47062, -0.545796, 0.333812, -2.08287, -2.16456, -0.126251, 0.470176, -0.544757, 0.333428, -2.09132, -2.1641, -0.119445, -0.00683932, -0.0418868, -0.0379361, -0.00730769, -0.0495617, -0.0265169
0.151172, 1.69572, -1.22656, -1.54519, -0.895721, -1.19739, 1.23484, -1.30259, 0.0691439, 0.00229782, -0.107217, 0.12913, -0.0806587, 0.0592047, -0.000413027, -1.63873, 58.9908, 27.417, 8.33862, 0.699645, 3.46774, 0.0165515, 0.000975469, -0.000388619, 0.000543064, -0.000647256, -0.00704319, 0.00444479, 0.00437034, 0.000246919, 0.0148827, 0.0068449, 0.117591, -0.188355, 0.470613, -0.545838, 0.333774, -2.08285, -2.16453, -0.126182, 0.470169, -0.544807, 0.333402, -2.09149, -2.164, -0.119284, -0.0068944, -0.0422071, -0.0382834, -0.00640521, -0.0488154, -0.0242568
0.152172, 1.6958, -1.22656, -1.5453, -0.895585, -1.19748, 1.23489, -1.30258, 0.0691107, 0.00306718, -0.108963, 0.127602, -0.0846973, 0.0590314, 0.000707993, -1.56335, 58.9194, 27.417, 8.37433, 0.711547, 3.45309, -0.00999879, 0.00096765, -0.000391638, 0.00053076, -0.00066441, -0.00713977, 0.00457402, 0.00463458, 0.000690371, 0.0148046, 0.00306035, 0.122175, -0.191035, 0.470606, -0.54588, 0.333736, -2.08282, -2.1645, -0.126112, 0.47016, -0.544859, 0.333375, -2.09166, -2.1639, -0.119121, -0.00694903, -0.0425243, -0.0386293, -0.00689554, -0.0493996, -0.024706
0.153172, 1.69588, -1.22656, -1.54542, -0.895446, -1.19757, 1.23494, -1.30259, 0.0703062, 0.00194344, -0.108441, 0.130686, -0.0871823, 0.0584667, -0.000511349, -1.52764, 58.9194, 27.3417, 8.33862, 0.711547, 3.45309, 0.0165515, 0.000963153, -0.000391954, 0.000519275, -0.000679929, -0.00723139, 0.00468834, 0.00507951, 0.000938083, 0.0149491, 0.00346202, 0.122897, -0.192572, 0.470599, -0.545922, 0.333697, -2.0828, -2.16448, -0.126041, 0.470153, -0.544908, 0.333347, -2.09181, -2.16381, -0.118963, -0.00700322, -0.0428383, -0.0389739, -0.00717484, -0.0501852, -0.0249685
0.154172, 1.69596, -1.22656, -1.54554, -0.895306, -1.19766, 1.235, -1.30258, 0.070821, 0.00205483, -0.114917, 0.131134, -0.0895729, 0.0577689, 0.00159188, -1.48797, 58.8837, 27.417, 8.37433, 0.723448, 3.45309, -0.0356336, 0.000955981, -0.000394211, 0.000511129, -0.00068786, -0.00732493, 0.00482086, 0.00635821, 0.00225515, 0.0130081, -0.00335253, 0.125401, -0.199128, 0.470592, -0.545965, 0.333659, -2.08278, -2.16445, -0.12597, 0.470145, -0.544959, 0.333315, -2.09198, -2.16369, -0.118791, -0.00705695, -0.0431491, -0.039317, -0.0085738, -0.0515146, -0.0273821
0.155172, 1.69603, -1.22655, -1.54566, -0.895162, -1.19775, 1.23505, -1.30258, 0.0714696, 0.00171445, -0.115872, 0.135784, -0.0908902, 0.0572933, 0.000823895, -1.45226, 58.7329, 27.3417, 8.37433, 0.723448, 3.46042, -0.0292249, 0.000950411, -0.000396444, 0.000495051, -0.000706354, -0.0074234, 0.00495044, 0.00753049, 0.00329574, 0.0133457, -0.00272363, 0.125948, -0.203364, 0.470585, -0.546008, 0.333619, -2.08275, -2.16442, -0.125898, 0.470136, -0.54501, 0.333291, -2.09216, -2.16359, -0.118625, -0.00711021, -0.0434565, -0.0396587, -0.0096107, -0.0530738, -0.027537
0.156172, 1.69612, -1.22655, -1.54578, -0.895012, -1.19783, 1.2351, -1.30259, 0.0749297, 0.00167502, -0.120967, 0.138477, -0.0873565, 0.0571719, -0.000908799, -1.41259, 58.6972, 27.306, 8.37433, 0.736266, 3.46042, 0.0101428, 0.000943148, -0.000399312, 0.000484363, -0.000721502, -0.00751346, 0.00507899, 0.00678847, 0.00243627, 0.0120082, -0.00446903, 0.123552, -0.202515, 0.470578, -0.546052, 0.33358, -2.08273, -2.16439, -0.125825, 0.470127, -0.545063, 0.333261, -2.09232, -2.16348, -0.118464, -0.007163, -0.0437605, -0.0399988, -0.00888331, -0.0524047, -0.0291115
0.157172, 1.6962, -1.22656, -1.54591, -0.894852, -1.19792, 1.23514, -1.30259, 0.0755041, -0.000873933, -0.122463, 0.140715, -0.0801464, 0.0563753, -0.00108058, -1.41259, 58.7726, 27.306, 8.26324, 0.748168, 3.47507, 0.0229602, 0.000934578, -0.00040209, 0.000478952, -0.000733815, -0.00759402, 0.00521463, 0.00588734, 0.00211799, 0.0104724, -0.0019297, 0.115003, -0.202693, 0.470571, -0.546096, 0.33354, -2.08271, -2.16437, -0.125751, 0.470117, -0.545116, 0.333225, -2.09249, -2.16336, -0.118308, -0.0072153, -0.0440611, -0.0403373, -0.00870946, -0.0515669, -0.0308374
0.158172, 1.69628, -1.22656, -1.54604, -0.894701, -1.19801, 1.23519, -1.30259, 0.0753679, 0.000174867, -0.127348, 0.145346, -0.0796207, 0.0509614, -0.000957748, -1.26183, 58.7329, 27.3417, 8.26324, 0.766478, 3.49612, 0.0293689, 0.000925791, -0.000408739, 0.000469259, -0.000742232, -0.00768289, 0.00534968, 0.00722292, 0.00501637, 0.00983746, -0.00792507, 0.113233, -0.209888, 0.470564, -0.54614, 0.333499, -2.08268, -2.16434, -0.125677, 0.470104, -0.545171, 0.333193, -2.09266, -2.16324, -0.118138, -0.0072671, -0.0443582, -0.0406742, -0.0116328, -0.0532041, -0.0319106
0.159172, 1.69637, -1.22655, -1.54616, -0.894549, -1.19809, 1.23524, -1.30259, 0.0778638, 0.000382493, -0.126931, 0.149415, -0.0785907, 0.0476784, 0.00153164, -1.22613, 58.5861, 27.3417, 8.33862, 0.766478, 3.49612, -0.0292249, 0.000924632, -0.000406934, 0.00045446, -0.000757617, -0.00777659, 0.00547902, 0.00632232, 0.00490041, 0.0105533, -0.00791793, 0.111035, -0.213632, 0.470556, -0.546184, 0.333458, -2.08266, -2.16431, -0.125602, 0.470099, -0.545218, 0.333167, -2.09282, -2.16313, -0.117972, -0.00731841, -0.0446518, -0.0410095, -0.0115712, -0.0527135, -0.0314033
0.160172, 1.69646, -1.22655, -1.54629, -0.894387, -1.19817, 1.23528, -1.30258, 0.0781123, -9.42496e-05, -0.126591, 0.154145, -0.0786062, 0.0447155, 0.00173317, -1.11108, 58.5861, 27.3417, 8.26324, 0.791197, 3.51077, -0.0484509, 0.000917222, -0.000411335, 0.000445777, -0.000769582, -0.00785845, 0.0056201, 0.00693967, 0.00626306, 0.0110701, -0.00761093, 0.109048, -0.218257, 0.470549, -0.546229, 0.333417, -2.08263, -2.16428, -0.125526, 0.470088, -0.545272, 0.333133, -2.09299, -2.163, -0.117811, -0.0073692, -0.0449417, -0.0413431, -0.0129398, -0.0537481, -0.031276
0.161172, 1.69655, -1.22655, -1.54642, -0.894219, -1.19825, 1.23532, -1.30259, 0.0857826, -0.00257728, -0.127355, 0.157422, -0.0789017, 0.0467763, 0.000680729, -1.0357, 58.5504, 27.3774, 8.15216, 0.827819, 3.53915, -0.0356336, 0.000911401, -0.000413775, 0.000435306, -0.000786399, -0.00793846, 0.00575746, 0.0048242, 0.00238503, 0.00987827, -0.00603412, 0.108248, -0.213584, 0.470542, -0.546274, 0.333376, -2.08261, -2.16425, -0.12545, 0.470079, -0.545324, 0.333101, -2.09316, -2.16287, -0.117657, -0.00741948, -0.0452279, -0.0416749, -0.00923891, -0.0516037, -0.0325876
0.162172, 1.69665, -1.22655, -1.54656, -0.894054, -1.19833, 1.23537, -1.30259, 0.0880705, -0.00133673, -0.127871, 0.158799, -0.0783912, 0.0443722, -0.00100424, -0.960319, 58.5147, 27.417, 8.11249, 0.840636, 3.54648, 0.00373412, 0.000908462, -0.000413909, 0.000424693, -0.000800697, -0.00801976, 0.00588618, 0.00352136, 0.00186548, 0.0105886, -0.00748141, 0.108242, -0.211631, 0.470534, -0.546319, 0.333334, -2.08258, -2.16422, -0.125373, 0.470072, -0.545374, 0.33307, -2.09332, -2.16276, -0.117499, -0.00746922, -0.0455105, -0.042005, -0.00878704, -0.0506875, -0.032032
0.163172, 1.69674, -1.22656, -1.54669, -0.893883, -1.19841, 1.23541, -1.30259, 0.0889452, -0.00206669, -0.131066, 0.16168, -0.0782222, 0.0419906, -0.00236492, -0.845268, 58.5504, 27.4528, 8.0014, 0.858946, 3.56845, 0.0495105, 0.000901508, -0.000417472, 0.000419097, -0.000811598, -0.00809447, 0.00602644, 0.00410661, 0.00295511, 0.00946772, -0.0106719, 0.106582, -0.214072, 0.470527, -0.546364, 0.333292, -2.08255, -2.16419, -0.125295, 0.470061, -0.545427, 0.333032, -2.09349, -2.16262, -0.117343, -0.00751843, -0.0457892, -0.0423333, -0.00994757, -0.0514169, -0.0335206
0.164172, 1.69684, -1.22655, -1.54682, -0.893711, -1.19849, 1.23545, -1.30259, 0.0930033, 0.00096542, -0.135085, 0.16395, -0.0780435, 0.0402735, -0.000593267, -0.734184, 58.4393, 27.4528, 7.9657, 0.877257, 3.58951, 0.0229602, 0.000899709, -0.000418491, 0.000405095, -0.000825194, -0.0081765, 0.00616334, 0.002988, 0.00221208, 0.0100997, -0.0144079, 0.10921, -0.216427, 0.470519, -0.54641, 0.33325, -2.08253, -2.16416, -0.125216, 0.470053, -0.545477, 0.333004, -2.09365, -2.1625, -0.117181, -0.00756709, -0.0460641, -0.0426597, -0.00926798, -0.0506537, -0.0330748
0.165172, 1.69694, -1.22654, -1.54696, -0.893532, -1.19856, 1.23549, -1.30259, 0.095145, 0.00388586, -0.135888, 0.171396, -0.0824621, 0.0448596, 0.000316566, -0.583427, 58.2925, 27.4528, 7.85065, 0.889159, 3.58218, 0.00373412, 0.000894602, -0.000422153, 0.000389532, -0.00084274, -0.00826107, 0.00631036, 0.00516488, 0.00252494, 0.0131837, -0.00929355, 0.117896, -0.224321, 0.470512, -0.546456, 0.333207, -2.0825, -2.16412, -0.125137, 0.470043, -0.545531, 0.332976, -2.09383, -2.16236, -0.11702, -0.0076152, -0.0463352, -0.0429842, -0.00942783, -0.0535597, -0.0306805
0.166172, 1.69705, -1.22655, -1.5471, -0.89336, -1.19864, 1.23553, -1.30259, 0.0993997, -0.000151458, -0.135504, 0.172477, -0.0817625, 0.0473074, 0.00143175, -0.543754, 58.4036, 27.417, 7.89032, 0.920287, 3.59683, -0.0292249, 0.000895659, -0.000416821, 0.000385246, -0.000852368, -0.00833298, 0.00644056, 0.00368754, -0.000340848, 0.0113704, -0.00656012, 0.114934, -0.222347, 0.470504, -0.546503, 0.333164, -2.08247, -2.16409, -0.125057, 0.470041, -0.545576, 0.332937, -2.09398, -2.16223, -0.116863, -0.00766275, -0.0466022, -0.0433068, -0.00673748, -0.0519724, -0.0326622
0.167172, 1.69715, -1.22655, -1.54724, -0.893171, -1.19872, 1.23557, -1.30259, 0.100217, 0.00155459, -0.142715, 0.179194, -0.0801735, 0.0499464, 0.000954498, -0.43267, 58.3282, 27.417, 7.81494, 0.926695, 3.58951, -0.0292249, 0.00089044, -0.0004187, 0.000372643, -0.000867473, -0.0084155, 0.00658917, 0.00630339, 0.00134178, 0.011257, -0.0061941, 0.117007, -0.230571, 0.470496, -0.546549, 0.333121, -2.08245, -2.16406, -0.124976, 0.470032, -0.54563, 0.332905, -2.09416, -2.1621, -0.1167, -0.00770973, -0.0468653, -0.0436274, -0.00837612, -0.0548698, -0.0334422
0.168172, 1.69726, -1.22655, -1.54739, -0.892984, -1.1988, 1.2356, -1.30259, 0.100357, 0.00262607, -0.149972, 0.183803, -0.0795856, 0.0469257, -0.00153381, -0.281914, 58.2568, 27.3774, 7.77924, 0.945006, 3.58951, 0.0293689, 0.000884103, -0.000423763, 0.000362685, -0.000876816, -0.00849228, 0.00673807, 0.00827471, 0.00407109, 0.00998925, -0.0122059, 0.116619, -0.235962, 0.470489, -0.546596, 0.333077, -2.08242, -2.16403, -0.124894, 0.47002, -0.545685, 0.332871, -2.09434, -2.16195, -0.116534, -0.00775613, -0.0471243, -0.043946, -0.0111285, -0.0569928, -0.0352241
0.169172, 1.69737, -1.22654, -1.54755, -0.892785, -1.19888, 1.23565, -1.30259, 0.10158, 0.00261816, -0.154509, 0.184189, -0.0796904, 0.0404287, -0.0012599, -0.166862, 58.2172, 27.417, 7.70386, 0.981627, 3.57577, 0.0357776, 0.000873803, -0.000428539, 0.000355992, -0.000882558, -0.00857542, 0.00690076, 0.00782474, 0.00544099, 0.00809112, -0.0214168, 0.114203, -0.238258, 0.470481, -0.546643, 0.333034, -2.08239, -2.164, -0.124812, 0.470008, -0.545744, 0.332832, -2.09452, -2.16179, -0.116357, -0.00780194, -0.0473792, -0.0442625, -0.0126337, -0.0565687, -0.0372979
0.170172, 1.69748, -1.22655, -1.54771, -0.892587, -1.19895, 1.23569, -1.30259, 0.106693, 0.000771994, -0.153615, 0.187735, -0.0787004, 0.0402397, -0.000602572, -0.0914839, 58.2568, 27.417, 7.66418, 0.988036, 3.56112, 0.0293689, 0.000867531, -0.000429289, 0.000351117, -0.000890759, -0.00865079, 0.00705173, 0.00606885, 0.00305531, 0.00781877, -0.0191499, 0.111675, -0.236852, 0.470473, -0.546691, 0.332989, -2.08236, -2.16396, -0.124729, 0.47, -0.545798, 0.332792, -2.0947, -2.16164, -0.11619, -0.00784715, -0.04763, -0.044577, -0.0103691, -0.054946, -0.0376911
0.171172, 1.69759, -1.22655, -1.54786, -0.892383, -1.19903, 1.23572, -1.30259, 0.105432, -0.00162768, -0.156441, 0.19159, -0.0781992, 0.0397926, 0.00129371, 0.059273, 58.2172, 27.306, 7.5531, 0.999938, 3.5538, -0.0164075, 0.000858927, -0.000435049, 0.000340625, -0.000907132, -0.00872441, 0.00721847, 0.00813789, 0.00509051, 0.00624513, -0.0195356, 0.108891, -0.24518, 0.470465, -0.546738, 0.332945, -2.08233, -2.16393, -0.124645, 0.469987, -0.545856, 0.332756, -2.09489, -2.16148, -0.116032, -0.00789177, -0.0478765, -0.0448893, -0.0124359, -0.0570777, -0.0398071
0.172172, 1.69771, -1.22654, -1.54802, -0.892183, -1.19911, 1.23576, -1.30258, 0.109329, -0.00136369, -0.15942, 0.194344, -0.0770196, 0.0396232, 0.00204927, 0.134651, 58.2172, 27.3417, 7.5531, 0.988036, 3.53915, -0.0484509, 0.000853129, -0.000437367, 0.000333828, -0.000907796, -0.00880483, 0.00737831, 0.00727157, 0.00392059, 0.00581084, -0.0205452, 0.10863, -0.246206, 0.470457, -0.546786, 0.3329, -2.0823, -2.16389, -0.124561, 0.469977, -0.545911, 0.332717, -2.09507, -2.16132, -0.115849, -0.00793577, -0.0481188, -0.0451995, -0.0113594, -0.05635, -0.040452
0.173172, 1.69783, -1.22654, -1.54819, -0.89197, -1.19918, 1.2358, -1.30258, 0.114118, -0.00111806, -0.158901, 0.204053, -0.0765287, 0.0398229, 0.00136618, 0.21003, 58.2172, 27.2663, 7.44202, 0.988036, 3.5181, -0.0484509, 0.000845997, -0.000438271, 0.000326706, -0.000919469, -0.00888134, 0.00753934, 0.00751915, 0.00321446, 0.0075521, -0.0153576, 0.108289, -0.249572, 0.470449, -0.546834, 0.332855, -2.08227, -2.16386, -0.124476, 0.469969, -0.545967, 0.332678, -2.09525, -2.16116, -0.115682, -0.00797915, -0.0483568, -0.0455074, -0.0106181, -0.0570703, -0.0391031
0.174172, 1.69795, -1.22655, -1.54835, -0.891759, -1.19926, 1.23583, -1.30259, 0.119882, -0.00183009, -0.158517, 0.203272, -0.0754132, 0.0396733, -0.000784636, 0.245735, 58.2568, 27.1909, 7.44202, 0.969725, 3.50345, -0.00267457, 0.000840066, -0.000439098, 0.000321685, -0.000927767, -0.00895269, 0.00769343, 0.00419073, -0.00042456, 0.0071373, -0.0154848, 0.107252, -0.241138, 0.470441, -0.546883, 0.332809, -2.08224, -2.16383, -0.12439, 0.46996, -0.546022, 0.332637, -2.09542, -2.161, -0.115517, -0.00802191, -0.0485903, -0.0458132, -0.00716072, -0.0538045, -0.0394292
0.175172, 1.69808, -1.22654, -1.54851, -0.891537, -1.19933, 1.23587, -1.30259, 0.119988, 0.000425651, -0.159326, 0.207316, -0.0750936, 0.0394936, -0.00170989, 0.325081, 58.1815, 27.1552, 7.40631, 0.969725, 3.48971, 0.0293689, 0.000832974, -0.000441676, 0.000310208, -0.00094502, -0.00902773, 0.00785953, 0.00493746, 0.000596728, 0.00901535, -0.0136445, 0.109287, -0.244649, 0.470433, -0.546931, 0.332763, -2.08221, -2.16379, -0.124304, 0.46995, -0.54608, 0.332601, -2.09562, -2.16084, -0.115355, -0.00806403, -0.0488195, -0.0461166, -0.00811951, -0.0551007, -0.0379585
0.176172, 1.6982, -1.22655, -1.54868, -0.89131, -1.19941, 1.2359, -1.30259, 0.123465, -0.00156761, -0.162688, 0.21622, -0.0747779, 0.0397379, -0.00137728, 0.400459, 58.2568, 27.1195, 7.36664, 0.956908, 3.46774, 0.0357776, 0.000823756, -0.000444403, 0.000305545, -0.000958569, -0.00909484, 0.00802747, 0.00659656, 0.00110883, 0.00801502, -0.0122854, 0.1072, -0.251481, 0.470425, -0.54698, 0.332717, -2.08218, -2.16375, -0.124217, 0.46994, -0.546138, 0.332558, -2.0958, -2.16067, -0.115197, -0.00810551, -0.0490442, -0.0464177, -0.00865396, -0.0568311, -0.0394862
0.177172, 1.69833, -1.22655, -1.54884, -0.89108, -1.19948, 1.23594, -1.30259, 0.122583, -0.00111118, -0.164573, 0.213292, -0.0743856, 0.0398284, -0.000918188, 0.475838, 58.2568, 27.0441, 7.44202, 0.938597, 3.44668, 0.0357776, 0.000814838, -0.000446767, 0.000295987, -0.000975667, -0.00917141, 0.00819897, 0.0061332, 0.00120452, 0.00754825, -0.0144182, 0.108166, -0.25168, 0.470417, -0.547029, 0.332671, -2.08215, -2.16372, -0.124129, 0.46993, -0.546198, 0.33252, -2.096, -2.1605, -0.115032, -0.00814634, -0.0492643, -0.0467165, -0.00882513, -0.0565262, -0.0401707
0.178172, 1.69846, -1.22654, -1.54902, -0.890849, -1.19955, 1.23598, -1.30259, 0.127103, 0.000972868, -0.169327, 0.223745, -0.0696652, 0.0399013, 0.000812028, 0.475838, 58.1815, 26.9687, 7.47772, 0.926695, 3.42471, -0.00267457, 0.000806213, -0.000448621, 0.000286297, -0.000989474, -0.00925143, 0.00837659, 0.00682204, 0.00134412, 0.00862064, -0.0113914, 0.106463, -0.259527, 0.470409, -0.547078, 0.332624, -2.08211, -2.16368, -0.12404, 0.469921, -0.546257, 0.332482, -2.0962, -2.16032, -0.114858, -0.00818651, -0.0494799, -0.0470129, -0.00893607, -0.0575919, -0.0395099
0.179172, 1.69859, -1.22654, -1.5492, -0.890607, -1.19963, 1.23602, -1.30258, 0.130893, 0.000611393, -0.170662, 0.227137, -0.0749516, 0.0399505, 0.00199941, 0.586922, 58.1815, 26.933, 7.47772, 0.908385, 3.40365, -0.0420422, 0.000790264, -0.000456531, 0.000281884, -0.00100177, -0.00932466, 0.00857183, 0.0072344, 0.00078196, 0.008512, -0.0135364, 0.110839, -0.262985, 0.470401, -0.547128, 0.332577, -2.08208, -2.16365, -0.123951, 0.469906, -0.546323, 0.332437, -2.09642, -2.16012, -0.114687, -0.00822601, -0.0496909, -0.0473069, -0.00840353, -0.0581702, -0.0399945
0.180172, 1.69874, -1.22655, -1.54939, -0.890363, -1.1997, 1.23607, -1.30258, 0.134873, -0.00138353, -0.16918, 0.232097, -0.0747884, 0.040253, 0.00133294, 0.511544, 58.2568, 26.933, 7.51739, 0.895568, 3.37436, -0.0420422, 0.000781134, -0.000455115, 0.000279951, -0.00101492, -0.00939354, 0.00874761, 0.00654984, -0.000735818, 0.00864341, -0.00989205, 0.108925, -0.262591, 0.470393, -0.547178, 0.33253, -2.08205, -2.16361, -0.123861, 0.469899, -0.546382, 0.33239, -2.09661, -2.15994, -0.114522, -0.00826484, -0.0498971, -0.0475984, -0.00694491, -0.0576583, -0.0401036
0.181172, 1.69887, -1.22655, -1.54958, -0.890109, -1.19977, 1.23611, -1.30259, 0.137243, -0.000943271, -0.173941, 0.236742, -0.0751771, 0.0444505, 0.00065127, 0.586922, 58.2568, 26.933, 7.40631, 0.895568, 3.36703, -0.0356336, 0.000762543, -0.000463847, 0.000275507, -0.00102965, -0.00946864, 0.00894682, 0.0080813, -0.000895022, 0.00841065, -0.00827243, 0.112262, -0.266692, 0.470384, -0.547228, 0.332482, -2.08201, -2.16357, -0.12377, 0.469883, -0.546452, 0.332344, -2.09683, -2.15974, -0.11435, -0.00830299, -0.0500987, -0.0478874, -0.0067791, -0.0593297, -0.040865
0.182172, 1.69902, -1.22654, -1.54976, -0.889859, -1.19985, 1.23615, -1.30259, 0.137773, 0.0011187, -0.174729, 0.240319, -0.0804016, 0.0483096, -0.00197332, 0.586922, 58.1815, 26.933, 7.47772, 0.908385, 3.33865, 0.0293689, 0.000753534, -0.000462229, 0.000264083, -0.0010511, -0.00955414, 0.00912221, 0.0100618, -0.000315826, 0.0104596, -0.00581429, 0.120742, -0.269472, 0.470376, -0.547278, 0.332434, -2.08198, -2.16353, -0.123678, 0.469877, -0.546512, 0.332306, -2.09704, -2.15957, -0.114177, -0.00834046, -0.0502955, -0.0481739, -0.00724021, -0.0618196, -0.0394145
0.183172, 1.69916, -1.22655, -1.54994, -0.889598, -1.19992, 1.2362, -1.30259, 0.14044, -0.0010292, -0.180445, 0.248119, -0.0792804, 0.0458399, -0.0015529, 0.626595, 58.2568, 26.8934, 7.51739, 0.908385, 3.33133, 0.0357776, 0.000739537, -0.000464482, 0.000259466, -0.00107581, -0.00962248, 0.00931374, 0.0118447, 0.00123264, 0.00817567, -0.00890329, 0.116768, -0.277074, 0.470368, -0.547328, 0.332386, -2.08195, -2.1635, -0.123586, 0.469867, -0.546577, 0.332261, -2.09725, -2.15937, -0.114022, -0.00837722, -0.0504874, -0.0484579, -0.00885389, -0.0634856, -0.0421746
0.184172, 1.6993, -1.22655, -1.55013, -0.889336, -1.19999, 1.23624, -1.30259, 0.139613, -0.000694959, -0.182055, 0.248657, -0.0779981, 0.0436197, 0.00113487, 0.626595, 58.2568, 27.0084, 7.51739, 0.901976, 3.33133, -0.0228162, 0.00072418, -0.000469387, 0.000252027, -0.001096, -0.00969877, 0.00951483, 0.0119511, 0.00236224, 0.0079975, -0.0107487, 0.115449, -0.282058, 0.470359, -0.547378, 0.332338, -2.08191, -2.16346, -0.123493, 0.469855, -0.546644, 0.332217, -2.09748, -2.15917, -0.113852, -0.00841329, -0.0506745, -0.0487392, -0.0100209, -0.0637968, -0.0426082
