alisrour97/Franka_experiments/Real_Robot_scripts/servo-franka/Data2/log_dyn_PI2_1.csv
Time,q1,q2,q3,q4,q5,q6,q7,dq1,dq2,dq3,dq4,dq5,dq6,dq7,t1,t2,t3,t4,t5,t6,t7,ex1,ex2,ex3,ex4,ex5,ex6,ev1,ev2,ev3,ev4,ev5,ev6,xd,yd,zd,uxd,uyd,uzd,x,y,z,ux,uy,uz,vxd,vyd,vzd,vx,vy,vz
4.88281e-07, 1.69139, -1.22406, -1.53783, -0.899763, -1.19155, 1.22859, -1.30256, 0.00155184, -0.00312921, 0.00376468, -0.000208243, 0.000700895, 0.00123454, -2.78233e-05, -0.809562, 55.2734, 26.933, 6.13678, 1.50989, 2.8873, -0.27184, 0.001091, -0.0015776, -0.000905866, -0.000371347, -0.00175216, 0.000141489, -0.00134681, -0.00195559, -0.000453568, 0.00411983, -0.00326355, 0.00376033, 0.471008, -0.543389, 0.335894, -2.08385, -2.16584, -0.129887, 0.469427, -0.542514, 0.337006, -2.08509, -2.16682, -0.128499, -1.41255e-05, -9.11997e-05, -6.59526e-05, 0.00187441, 0.00138823, -0.000363725
0.0121145, 1.6914, -1.22411, -1.53781, -0.899785, -1.19154, 1.2286, -1.30257, 0.00435194, -0.0070773, 0.00156349, -0.0019259, 0.00117639, 0.000351981, -0.00053693, -0.920646, 55.1624, 26.8577, 6.20819, 1.47876, 2.87997, -0.226063, 0.00110379, -0.00155734, -0.000878717, -0.000382913, -0.00169849, 8.49982e-05, -0.00249495, -0.00349592, -0.00398592, 9.6804e-05, -0.00763663, 0.00764638, 0.471008, -0.543389, 0.335894, -2.08385, -2.16584, -0.129887, 0.469445, -0.542499, 0.33698, -2.08502, -2.16685, -0.12858, -2.13283e-05, -0.000136675, -0.000102379, 0.00323699, 0.00308294, -0.00375631
0.0131145, 1.6914, -1.22411, -1.53781, -0.899785, -1.19154, 1.2286, -1.30257, 0.00435194, -0.0070773, 0.00156349, -0.0019259, 0.00117639, 0.000351981, -0.00053693, -0.920646, 55.1624, 26.8577, 6.20819, 1.47876, 2.87997, -0.226063, 0.0011038, -0.00155733, -0.000878724, -0.000382923, -0.00169849, 8.49967e-05, -0.00254983, -0.0035046, -0.00395397, 0.000125048, -0.0076269, 0.00758553, 0.471008, -0.543389, 0.335894, -2.08385, -2.16584, -0.129887, 0.469445, -0.542499, 0.33698, -2.08502, -2.16685, -0.12858, -2.91898e-05, -0.000186294, -0.000142179, 0.00323699, 0.00308294, -0.00375631
0.0141145, 1.6914, -1.22411, -1.53781, -0.899785, -1.19154, 1.2286, -1.30257, 0.00435194, -0.0070773, 0.00156349, -0.0019259, 0.00117639, 0.000351981, -0.00053693, -0.920646, 55.1624, 26.8577, 6.20819, 1.47876, 2.87997, -0.226063, 0.00110383, -0.00155733, -0.000878741, -0.000382949, -0.00169848, 8.49926e-05, -0.00260946, -0.00351403, -0.00391921, 0.000155888, -0.00761616, 0.00751926, 0.471008, -0.543389, 0.335894, -2.08385, -2.16584, -0.129887, 0.469445, -0.542499, 0.33698, -2.08502, -2.16685, -0.12858, -3.77325e-05, -0.000240197, -0.00018547, 0.00323699, 0.00308294, -0.00375631
0.0151152, 1.6914, -1.22411, -1.53781, -0.899785, -1.19154, 1.2286, -1.30257, 0.00435194, -0.0070773, 0.00156349, -0.0019259, 0.00117639, 0.000351981, -0.00053693, -0.920646, 55.1624, 26.8577, 6.20819, 1.47876, 2.87997, -0.226063, 0.00110389, -0.00155732, -0.000878776, -0.000382999, -0.00169847, 8.49846e-05, -0.00267399, -0.00352424, -0.00388154, 0.000189416, -0.00760437, 0.00744737, 0.471008, -0.543389, 0.335894, -2.08385, -2.16584, -0.129887, 0.469445, -0.542499, 0.33698, -2.08502, -2.16685, -0.12858, -4.69786e-05, -0.000298522, -0.00023237, 0.00323699, 0.00308294, -0.00375631
0.0161152, 1.6914, -1.22411, -1.53781, -0.899785, -1.19154, 1.2286, -1.30257, 0.00435194, -0.0070773, 0.00156349, -0.0019259, 0.00117639, 0.000351981, -0.00053693, -0.920646, 55.1624, 26.8577, 6.20819, 1.47876, 2.87997, -0.226063, 0.00110399, -0.00155731, -0.000878833, -0.000383081, -0.00169845, 8.49716e-05, -0.00274356, -0.00353524, -0.00384088, 0.000225728, -0.00759148, 0.00736968, 0.471008, -0.54339, 0.335894, -2.08385, -2.16584, -0.129887, 0.469445, -0.542499, 0.33698, -2.08502, -2.16685, -0.12858, -5.69498e-05, -0.000361405, -0.000282992, 0.00323699, 0.00308294, -0.00375631
0.0171155, 1.6914, -1.22411, -1.53781, -0.899785, -1.19154, 1.2286, -1.30257, 0.00435194, -0.0070773, 0.00156349, -0.0019259, 0.00117639, 0.000351981, -0.00053693, -0.920646, 55.1624, 26.8577, 6.20819, 1.47876, 2.87997, -0.226063, 0.00110414, -0.00155728, -0.000878918, -0.000383204, -0.00169842, 8.49522e-05, -0.00281834, -0.00354707, -0.00379712, 0.000264916, -0.00757746, 0.007286, 0.471008, -0.54339, 0.335894, -2.08385, -2.16584, -0.129886, 0.469445, -0.542499, 0.33698, -2.08502, -2.16685, -0.12858, -6.7667e-05, -0.000428975, -0.000337449, 0.00323699, 0.00308294, -0.00375631
0.0181155, 1.6914, -1.22411, -1.53781, -0.899785, -1.19154, 1.2286, -1.30257, 0.00435194, -0.0070773, 0.00156349, -0.0019259, 0.00117639, 0.000351981, -0.00053693, -0.920646, 55.1624, 26.8577, 6.20819, 1.47876, 2.87997, -0.226063, 0.00110434, -0.00155725, -0.000879036, -0.000383376, -0.00169837, 8.49253e-05, -0.00289846, -0.00355974, -0.00375018, 0.00030707, -0.00756226, 0.00719617, 0.471008, -0.54339, 0.335893, -2.08385, -2.16584, -0.129886, 0.469445, -0.542499, 0.33698, -2.08502, -2.16685, -0.12858, -7.91509e-05, -0.000501362, -0.000395848, 0.00323699, 0.00308294, -0.00375631
0.0191155, 1.6914, -1.22411, -1.53781, -0.899785, -1.19154, 1.2286, -1.30257, 0.00435194, -0.0070773, 0.00156349, -0.0019259, 0.00117639, 0.000351981, -0.00053693, -0.920646, 55.1624, 26.8577, 6.20819, 1.47876, 2.87997, -0.226063, 0.00110461, -0.00155721, -0.000879192, -0.000383603, -0.00169831, 8.48896e-05, -0.00298405, -0.00357328, -0.00369997, 0.000352281, -0.00754583, 0.00710001, 0.471008, -0.54339, 0.335893, -2.08385, -2.16584, -0.129886, 0.469445, -0.542499, 0.33698, -2.08502, -2.16685, -0.12858, -9.14213e-05, -0.000578688, -0.000458296, 0.00323699, 0.00308294, -0.00375631
0.0201155, 1.6914, -1.22411, -1.53781, -0.899785, -1.19154, 1.2286, -1.30257, 0.00435194, -0.0070773, 0.00156349, -0.0019259, 0.00117639, 0.000351981, -0.00053693, -0.920646, 55.1624, 26.8577, 6.20819, 1.47876, 2.87997, -0.226063, 0.00110495, -0.00155715, -0.000879392, -0.000383894, -0.00169824, 8.4844e-05, -0.00307525, -0.0035877, -0.00364642, 0.000400635, -0.00752812, 0.00699734, 0.471008, -0.54339, 0.335893, -2.08385, -2.16584, -0.129885, 0.469445, -0.542499, 0.33698, -2.08502, -2.16685, -0.12858, -0.000104498, -0.000661074, -0.000524897, 0.00323699, 0.00308294, -0.00375631
0.0211155, 1.69142, -1.22416, -1.53779, -0.899792, -1.19153, 1.22861, -1.30258, 0.000795235, -0.00435518, 0.00574772, -0.000480308, 0.00149015, 0.000734059, 0.000172511, -0.996025, 55.1981, 26.6355, 6.20819, 1.3808, 2.82962, -0.232472, 0.00111701, -0.00153788, -0.000860348, -0.000409042, -0.00164735, 4.00811e-05, -0.00232387, -0.00207464, -8.72242e-05, 0.00605074, -0.00536954, 0.00347949, 0.471008, -0.543391, 0.335893, -2.08385, -2.16584, -0.129885, 0.469463, -0.542483, 0.336962, -2.08496, -2.16688, -0.128663, -0.000118398, -0.000748633, -0.000595748, 0.00186732, 0.00164387, -0.00038374
0.0221155, 1.69142, -1.22416, -1.5378, -0.899797, -1.19153, 1.22861, -1.30258, 0.000542029, -0.00409631, 0.00241383, -0.00124773, 0.00143417, 0.00506267, 0.000352366, -0.996025, 55.2377, 26.7069, 6.24786, 1.3689, 2.82229, -0.238881, 0.00111947, -0.00153526, -0.000856181, -0.000404026, -0.00164324, 3.46319e-05, -0.00140877, -0.00231556, -0.000767285, 0.00662494, -0.00262945, 0.00197537, 0.471008, -0.543391, 0.335892, -2.08385, -2.16584, -0.129884, 0.469465, -0.542481, 0.336958, -2.08495, -2.16688, -0.128662, -0.000133141, -0.000841478, -0.000670947, 0.00210136, 0.000762137, -0.00127973
0.0231155, 1.69142, -1.22416, -1.53779, -0.899793, -1.19153, 1.22861, -1.30257, -0.000464961, -0.00350151, 0.00302758, 0.000931789, 0.00187159, 0.00319108, 0.000234911, -0.960319, 55.1266, 26.5244, 6.17248, 1.34418, 2.83694, -0.238881, 0.00111941, -0.00153515, -0.000858595, -0.000415525, -0.00163984, 3.90335e-05, -0.000891243, -0.00108487, 5.4534e-05, 0.00703996, -0.00356031, -0.000499357, 0.471008, -0.543392, 0.335892, -2.08385, -2.16584, -0.129884, 0.469465, -0.542482, 0.33696, -2.08496, -2.16688, -0.128677, -0.000148743, -0.000939713, -0.000750586, 0.00090483, -2.38584e-05, -0.000591115
0.0241155, 1.69143, -1.22417, -1.53779, -0.899803, -1.19152, 1.22861, -1.30257, 0.00290893, -0.00497257, 0.00459833, -0.00506803, 0.00307874, 0.00624746, -0.00153881, -0.960319, 55.087, 26.4094, 6.28357, 1.29474, 2.85159, -0.193104, 0.00112476, -0.00152936, -0.000852735, -0.000412898, -0.00163126, 2.38502e-05, -0.00439017, -0.00533332, -0.000928331, 0.00818765, -0.00395198, 0.0109146, 0.471008, -0.543393, 0.335891, -2.08385, -2.16584, -0.129883, 0.469471, -0.542476, 0.336954, -2.08494, -2.16689, -0.128683, -0.00016522, -0.00104344, -0.000834754, 0.00497073, 0.00365176, -0.0012308
0.0251155, 1.69143, -1.22417, -1.53779, -0.899801, -1.19152, 1.22861, -1.30258, 0.0030472, -0.00221725, 0.00641574, -0.00187283, 0.00249328, 0.00740722, -0.00346728, -0.996025, 55.0156, 26.2626, 6.20819, 1.28284, 2.89462, -0.127186, 0.00112837, -0.00152573, -0.000853886, -0.000416409, -0.00162952, 1.5365e-05, -0.00403478, -0.00513107, 0.00194417, 0.0123056, -0.00052358, 0.0106809, 0.471007, -0.543393, 0.335891, -2.08385, -2.16584, -0.129882, 0.469474, -0.542473, 0.336955, -2.08493, -2.1669, -0.128689, -0.000182589, -0.00115275, -0.000923534, 0.00486777, 0.0027412, 0.00146773
0.0261155, 1.69143, -1.22417, -1.53779, -0.899806, -1.19152, 1.22861, -1.30258, 0.000472749, -0.00274286, 0.00337932, -0.00144158, 0.00189952, 0.00792716, -0.00376958, -0.920646, 55.0513, 26.2983, 6.20819, 1.27643, 2.95138, -0.0878186, 0.0011304, -0.00152398, -0.000851162, -0.000409743, -0.00163056, 1.18976e-05, -0.00203423, -0.00311555, 0.000876991, 0.0104568, -0.000196332, 0.00626332, 0.471007, -0.543394, 0.33589, -2.08385, -2.16584, -0.129881, 0.469476, -0.542472, 0.336952, -2.08492, -2.1669, -0.12868, -0.000200863, -0.00126774, -0.00101701, 0.00286959, 0.000732996, 7.07632e-05
0.0271155, 1.69144, -1.22418, -1.5378, -0.8998, -1.19152, 1.22862, -1.30258, 0.00363527, -0.00418088, 0.000442681, 0.00149262, 0.0019445, 0.00891678, -0.00275041, -0.920646, 55.2734, 26.3736, 6.09711, 1.25812, 2.99441, -0.0814099, 0.00113215, -0.0015189, -0.000848254, -0.000416862, -0.00162604, 9.54522e-06, -0.00185694, -0.00395216, -0.000598955, 0.00963682, -0.00112271, 0.00427175, 0.471007, -0.543395, 0.335889, -2.08384, -2.16584, -0.129879, 0.46948, -0.54247, 0.336948, -2.08492, -2.16691, -0.128691, -0.000220057, -0.00138849, -0.00111525, 0.00363898, 0.000698622, -0.00153759
0.0281155, 1.69144, -1.22418, -1.5378, -0.899806, -1.19152, 1.22863, -1.30258, -0.000724025, -0.00180071, -0.00233856, -4.15181e-05, 0.000855511, 0.010587, -0.00329167, -0.76989, 55.4916, 26.4847, 6.13678, 1.27002, 3.01639, -0.0420422, 0.00113122, -0.00151931, -0.000848157, -0.000422062, -0.00162967, 6.84721e-06, 0.000225674, -0.00152276, 5.95654e-05, 0.0083683, 0.00318041, -5.81513e-05, 0.471007, -0.543396, 0.335888, -2.08384, -2.16584, -0.129878, 0.46948, -0.542472, 0.336947, -2.08492, -2.16691, -0.128692, -0.000240182, -0.00151507, -0.00121833, 0.00129083, -0.00168474, -0.00124043
0.0291155, 1.69144, -1.22418, -1.5378, -0.899811, -1.19152, 1.22864, -1.30258, 0.00121124, -0.00587495, -0.00112967, -0.00177955, 0.000332972, 0.0133204, -0.00168582, -0.694511, 55.7138, 26.5958, 6.20819, 1.27643, 2.99441, -0.0557752, 0.00113339, -0.00151359, -0.000847501, -0.000431948, -0.0016358, 1.13841e-06, -0.000768803, -0.00374734, -0.00191901, 0.0101719, 0.00106367, 0.0020788, 0.471007, -0.543398, 0.335887, -2.08384, -2.16584, -0.129876, 0.469485, -0.542471, 0.336946, -2.08492, -2.16692, -0.128696, -0.000261251, -0.00164757, -0.00132632, 0.00338447, -0.000439917, -0.00321483
0.0301155, 1.69145, -1.22418, -1.5378, -0.899812, -1.19152, 1.22866, -1.30258, 0.000449841, -0.00217524, -0.00228164, -0.00124744, 0.000459334, 0.0138275, -0.000411804, -0.658806, 55.7892, 26.6712, 6.20819, 1.27002, 3.00906, -0.0750012, 0.00113856, -0.00150596, -0.000852662, -0.000444321, -0.00164666, -9.65076e-06, -0.000514009, -0.00306286, 9.43374e-05, 0.0104299, 0.00493467, -0.00116492, 0.471007, -0.543399, 0.335886, -2.08384, -2.16584, -0.129874, 0.469493, -0.542468, 0.33695, -2.08492, -2.16695, -0.128698, -0.000283275, -0.00178604, -0.00143928, 0.00276065, -0.00116781, -0.00135867
0.0311155, 1.69145, -1.22417, -1.53779, -0.899817, -1.19152, 1.22867, -1.30258, 0.000398879, 0.00143336, -0.00134507, -0.00264067, 0.000509668, 0.0140061, 0.000708808, -0.508049, 55.8249, 26.6712, 6.28357, 1.26453, 3.03012, -0.101552, 0.00114155, -0.00150218, -0.000857877, -0.000456282, -0.00165729, -1.34513e-05, -0.00159882, -0.00350765, 0.0024637, 0.0111601, 0.00867201, -0.000893978, 0.471006, -0.543401, 0.335885, -2.08384, -2.16584, -0.129872, 0.469496, -0.542467, 0.336954, -2.08493, -2.16696, -0.128698, -0.000306264, -0.00193055, -0.00155726, 0.00322865, -0.000587833, 0.00101785
0.0321155, 1.69145, -1.22417, -1.5378, -0.899817, -1.19152, 1.22868, -1.30257, -0.000121196, 0.00532474, -0.00159991, -0.00179481, 0.000814492, 0.0133524, 0.00118462, -0.468376, 55.936, 26.7069, 6.28357, 1.25171, 3.07315, -0.120778, 0.00114418, -0.00149797, -0.000858915, -0.000462841, -0.00166212, -1.20906e-05, -0.00173362, -0.00285237, 0.00484399, 0.0114114, 0.0119391, -0.00290278, 0.471006, -0.543402, 0.335883, -2.08384, -2.16584, -0.12987, 0.4695, -0.542466, 0.336954, -2.08494, -2.16696, -0.128698, -0.000330225, -0.00208114, -0.00168032, 0.00263138, -0.000998507, 0.00328582
0.0331155, 1.69146, -1.22416, -1.5378, -0.899812, -1.19152, 1.22869, -1.30257, 0.00184598, 0.00951291, -0.000967586, 0.000540934, 0.000542992, 0.0126618, 0.000315026, -0.392998, 55.8606, 26.7069, 6.20819, 1.25171, 3.1235, -0.10796, 0.00114774, -0.00149344, -0.000866435, -0.000472187, -0.0016764, -1.4587e-05, -0.00264229, -0.00333925, 0.00779027, 0.0124911, 0.0158435, -0.00219186, 0.471006, -0.543404, 0.335882, -2.08384, -2.16584, -0.129868, 0.469504, -0.542465, 0.336961, -2.08495, -2.16698, -0.128692, -0.000355167, -0.00223786, -0.0018085, 0.0031666, -0.000691703, 0.0061932
0.0341155, 1.69147, -1.22416, -1.5378, -0.89982, -1.19152, 1.2287, -1.30257, 0.00241981, 0.00394701, 0.00109964, -0.00234996, 0.000361992, 0.0136592, -0.00124804, -0.281914, 56.0074, 26.6355, 6.32324, 1.25171, 3.13815, -0.0685925, 0.00115336, -0.0014841, -0.000868218, -0.000489588, -0.00168378, -2.9918e-05, -0.00369141, -0.00496185, 0.00501872, 0.0132483, 0.0111172, 0.003291, 0.471005, -0.543406, 0.33588, -2.08384, -2.16584, -0.129865, 0.469513, -0.542462, 0.336961, -2.08494, -2.167, -0.128703, -0.000381096, -0.00240075, -0.00194184, 0.0046236, 0.00067409, 0.00343705
0.0351157, 1.69147, -1.22415, -1.5378, -0.899817, -1.19152, 1.22872, -1.30257, 0.00138613, 0.00647066, -4.64267e-05, -0.000653114, 0.000682136, 0.0139815, -0.00083203, -0.242241, 56.0074, 26.6712, 6.28357, 1.23981, 3.15921, -0.0685925, 0.00115694, -0.00147815, -0.00087321, -0.000501069, -0.00169636, -2.92298e-05, -0.00295026, -0.00388032, 0.0065248, 0.0139598, 0.0134645, -0.000335029, 0.471005, -0.543408, 0.335878, -2.08384, -2.16584, -0.129862, 0.469519, -0.542461, 0.336965, -2.08496, -2.16701, -0.1287, -0.000408018, -0.00256985, -0.00208038, 0.00359744, -0.00050274, 0.00470323
0.0361157, 1.69149, -1.22414, -1.5378, -0.899825, -1.19152, 1.22874, -1.30257, 0.00762221, 0.0101114, 0.00084604, -0.00220952, 0.00113292, 0.0144739, -0.00153803, -0.242241, 55.936, 26.6355, 6.35895, 1.2215, 3.17386, -0.0420422, 0.00116731, -0.00146595, -0.000882046, -0.000515912, -0.00171493, -5.39627e-05, -0.0069508, -0.00798782, 0.00859201, 0.0140843, 0.0172759, 0.00818604, 0.471005, -0.543411, 0.335877, -2.08384, -2.16583, -0.129859, 0.469531, -0.542454, 0.336973, -2.08495, -2.16706, -0.128697, -0.000435936, -0.00274516, -0.00222414, 0.00760336, 0.0031213, 0.00709766
0.0371157, 1.69149, -1.22414, -1.5378, -0.899817, -1.19152, 1.22875, -1.30258, 0.00564036, 0.00597398, -0.000239862, 0.00111729, 0.000551832, 0.0142852, -0.00173743, -0.0914839, 56.0074, 26.6712, 6.24786, 1.22699, 3.20224, -0.0228162, 0.00116579, -0.0014649, -0.000885978, -0.000532941, -0.0017236, -4.90966e-05, -0.00456547, -0.00594976, 0.0064504, 0.0143607, 0.0133, 0.00263657, 0.471004, -0.543413, 0.335874, -2.08384, -2.16583, -0.129855, 0.469532, -0.542459, 0.336974, -2.08496, -2.16706, -0.128703, -0.000464854, -0.00292672, -0.00237315, 0.00554697, 0.000831103, 0.00452522
0.0381157, 1.69149, -1.22415, -1.5378, -0.899823, -1.19152, 1.22877, -1.30258, 0.00434794, 0.00335763, -0.000136411, -0.00102449, 0.000367887, 0.0143834, -0.000920928, 0.059273, 56.1938, 26.6712, 6.32324, 1.22699, 3.22421, -0.0292249, 0.00116844, -0.00145863, -0.00088472, -0.000549401, -0.0017266, -5.53473e-05, -0.00455755, -0.00579927, 0.00485456, 0.0135293, 0.0110829, 0.00220826, 0.471004, -0.543416, 0.335872, -2.08384, -2.16583, -0.129852, 0.469537, -0.542458, 0.336971, -2.08497, -2.16707, -0.128715, -0.000494774, -0.00311453, -0.00252743, 0.00530941, 0.000874943, 0.00279846
0.0391157, 1.6915, -1.22414, -1.5378, -0.899815, -1.19151, 1.22879, -1.30257, 0.00625186, 0.00701097, -7.33175e-05, 0.00200368, 0.000923426, 0.0142398, 9.81247e-05, 0.0949785, 56.1581, 26.6712, 6.20819, 1.20868, 3.25259, -0.0484509, 0.00117426, -0.00144989, -0.000893871, -0.000570757, -0.00174125, -5.9254e-05, -0.00521101, -0.00620545, 0.00745864, 0.0152945, 0.0140328, 0.000324957, 0.471003, -0.543419, 0.33587, -2.08384, -2.16583, -0.129848, 0.469546, -0.542457, 0.336978, -2.08498, -2.16709, -0.12872, -0.000525695, -0.00330858, -0.00268698, 0.00575486, 0.000941835, 0.00529938
0.0401157, 1.6915, -1.22414, -1.5378, -0.899813, -1.19152, 1.22881, -1.30257, 0.00480753, 0.00384041, -0.000870879, 0.00216756, 0.000378258, 0.0147686, 0.000811402, 0.245735, 56.2296, 26.7069, 6.17248, 1.21509, 3.26724, -0.0685925, 0.00117518, -0.00144493, -0.000895438, -0.000590202, -0.00174871, -5.35448e-05, -0.00410833, -0.00534692, 0.00559405, 0.0149668, 0.0116271, -0.00273028, 0.471003, -0.543422, 0.335867, -2.08384, -2.16583, -0.129843, 0.46955, -0.542459, 0.336977, -2.085, -2.1671, -0.12873, -0.000557617, -0.00350887, -0.00285182, 0.00483761, -9.51979e-05, 0.00314816
0.0411157, 1.69152, -1.22414, -1.53781, -0.899812, -1.19152, 1.22883, -1.30257, 0.00745701, 0.00402314, 0.000264545, 0.00227768, -0.000425997, 0.0205236, 0.000778293, 0.245735, 56.1938, 26.6712, 6.13678, 1.2334, 3.25259, -0.0750012, 0.00118177, -0.00143313, -0.000901764, -0.00061152, -0.00176788, -6.64138e-05, -0.00497983, -0.00800235, 0.0066252, 0.0203757, 0.0153625, -0.00016623, 0.471002, -0.543426, 0.335864, -2.08384, -2.16583, -0.129839, 0.469561, -0.542456, 0.336981, -2.08501, -2.16713, -0.128731, -0.000590537, -0.00371538, -0.00302192, 0.0074628, 0.000508603, 0.00405135
0.0421157, 1.69152, -1.22413, -1.53781, -0.899808, -1.19152, 1.22886, -1.30257, 0.00939627, 0.00315283, -0.00065142, 0.00244454, -0.000283998, 0.0202725, 0.000518862, 0.360787, 56.1938, 26.7069, 6.09711, 1.2334, 3.23886, -0.0750012, 0.00118379, -0.00142607, -0.000907024, -0.000633414, -0.00178539, -6.77258e-05, -0.00580673, -0.0089154, 0.00583056, 0.0192654, 0.0144135, 0.00120708, 0.471002, -0.543429, 0.335861, -2.08384, -2.16583, -0.129834, 0.469568, -0.542459, 0.336984, -2.08503, -2.16715, -0.128732, -0.000624453, -0.00392809, -0.0031973, 0.00828251, 0.0012719, 0.00319208
0.0431157, 1.69153, -1.22413, -1.53781, -0.899808, -1.19152, 1.22889, -1.30257, 0.0090144, 0.00329015, -0.000428704, 0.000700222, -0.00110486, 0.0192405, -0.00012881, 0.436165, 56.1581, 26.7069, 6.13678, 1.25812, 3.24527, -0.0621838, 0.00118896, -0.00141608, -0.000912059, -0.000658183, -0.00179977, -7.46644e-05, -0.00640146, -0.00888466, 0.00582246, 0.0175582, 0.014898, 0.00254768, 0.471001, -0.543433, 0.335858, -2.08384, -2.16582, -0.129829, 0.469577, -0.542458, 0.336986, -2.08504, -2.16717, -0.128741, -0.000659358, -0.00414696, -0.00337792, 0.00819537, 0.00164017, 0.00309664
0.0441157, 1.69154, -1.22413, -1.53781, -0.899799, -1.19152, 1.22891, -1.30257, 0.00863832, 0.00422146, -0.000281621, 0.0039922, -0.00117738, 0.0182049, -0.000831858, 0.511544, 56.0828, 26.7069, 5.98602, 1.27002, 3.25992, -0.0420422, 0.00119273, -0.00140827, -0.000920938, -0.000683833, -0.00181759, -7.6646e-05, -0.0057223, -0.00778893, 0.00695835, 0.0186, 0.0151234, -0.000263025, 0.471, -0.543437, 0.335855, -2.08383, -2.16582, -0.129823, 0.469585, -0.542459, 0.336992, -2.08506, -2.16719, -0.128746, -0.000695248, -0.00437195, -0.00356376, 0.00713053, 0.000525052, 0.00396003
0.0451157, 1.69155, -1.22412, -1.53782, -0.8998, -1.19153, 1.22893, -1.30257, 0.00834768, -0.00154983, -0.00111263, 0.00182543, -0.00217517, 0.0259248, 0.000191413, 0.586922, 56.0074, 26.7466, 6.02173, 1.30755, 3.28097, -0.0621838, 0.00119657, -0.00139993, -0.0009256, -0.000700347, -0.00183935, -7.84336e-05, -0.00476317, -0.00940919, 0.00382663, 0.0227997, 0.0143044, -0.00061213, 0.471, -0.543442, 0.335851, -2.08383, -2.16582, -0.129818, 0.469592, -0.54246, 0.336993, -2.08507, -2.16721, -0.128737, -0.000732114, -0.004603, -0.00375481, 0.00863295, -0.000104621, 0.000478862
0.0461157, 1.69156, -1.22413, -1.53782, -0.899789, -1.19153, 1.22896, -1.30257, 0.00811401, -0.00400989, 0.000188619, 0.0038148, -0.00121275, 0.0227538, -0.00180517, 0.6623, 56.1185, 26.7069, 5.91064, 1.30115, 3.31027, -0.00999879, 0.00119905, -0.0013907, -0.000927018, -0.000731775, -0.00184367, -8.53117e-05, -0.00488815, -0.00867707, 0.0030114, 0.0225569, 0.00929648, 9.46745e-05, 0.470999, -0.543446, 0.335848, -2.08383, -2.16582, -0.129812, 0.469601, -0.542462, 0.336991, -2.08509, -2.16723, -0.128762, -0.000769946, -0.00484006, -0.003951, 0.00783003, -0.00012278, -0.000480865
0.0471157, 1.69158, -1.22412, -1.53783, -0.899784, -1.19154, 1.22899, -1.30257, 0.0105809, 0.000476746, -0.00163573, 0.00337796, -0.00640809, 0.0252927, -0.00072873, 0.626595, 55.9717, 26.7823, 5.87494, 1.32587, 3.324, -0.0228162, 0.00120469, -0.00137929, -0.00093427, -0.000751543, -0.00187014, -8.92353e-05, -0.00514169, -0.00967821, 0.00519658, 0.0206947, 0.0195727, -0.00118191, 0.470998, -0.543451, 0.335844, -2.08383, -2.16582, -0.129805, 0.469612, -0.542462, 0.336995, -2.0851, -2.16726, -0.128751, -0.000808735, -0.00508306, -0.00415231, 0.00886104, -0.000410806, 0.0014846
0.0481157, 1.69158, -1.22413, -1.53782, -0.899783, -1.19154, 1.22903, -1.30257, 0.00862301, -0.00165816, 0.00234451, 0.00225163, -0.00486585, 0.0281502, -0.00170652, 0.737679, 56.0471, 26.6355, 5.87494, 1.33136, 3.31027, 0.0101428, 0.00121019, -0.00136661, -0.000940855, -0.000793213, -0.00188455, -9.97873e-05, -0.00551755, -0.0103086, 0.00571898, 0.0271202, 0.0174472, 0.000997426, 0.470997, -0.543456, 0.33584, -2.08383, -2.16582, -0.129798, 0.469623, -0.542462, 0.336998, -2.08512, -2.16729, -0.128777, -0.000848468, -0.00533191, -0.00435868, 0.00945635, -0.000343191, 0.0018333
0.0491157, 1.69159, -1.22412, -1.53783, -0.899775, -1.19154, 1.22906, -1.30257, 0.0113761, 0.00216867, -0.00156577, 0.00326406, -0.00421482, 0.0290662, 0.00032038, 0.813057, 55.9003, 26.6355, 5.79956, 1.34967, 3.324, -0.0292249, 0.00121383, -0.00135879, -0.000952017, -0.000821654, -0.00191057, -9.29755e-05, -0.00630788, -0.011156, 0.00682792, 0.0253477, 0.0214969, -0.00126317, 0.470997, -0.543461, 0.335835, -2.08383, -2.16581, -0.129791, 0.469631, -0.542465, 0.337005, -2.08516, -2.1673, -0.128774, -0.000889131, -0.00558652, -0.00457004, 0.0102739, 4.64481e-05, 0.00281392
0.0501157, 1.6916, -1.22412, -1.53783, -0.899767, -1.19154, 1.2291, -1.30257, 0.0142341, 0.000490894, -0.00435815, 0.00393909, -0.0032668, 0.0311042, 0.000213587, 0.85273, 55.936, 26.6355, 5.72418, 1.35608, 3.31027, -0.0292249, 0.00121799, -0.00134659, -0.00095674, -0.000857845, -0.00192612, -9.64126e-05, -0.00689718, -0.012674, 0.00515236, 0.0250314, 0.020337, -0.000266169, 0.470996, -0.543467, 0.335831, -2.08383, -2.16581, -0.129784, 0.469642, -0.542467, 0.337005, -2.08518, -2.16733, -0.128791, -0.00093071, -0.0058468, -0.00478633, 0.0116667, 0.000687926, 0.000988656
0.0511157, 1.69161, -1.22412, -1.53783, -0.899763, -1.19154, 1.22913, -1.30256, 0.0135183, 0.00107273, -0.00242699, 0.00577929, -0.00210518, 0.0320078, 0.00160045, 0.888436, 55.9003, 26.5958, 5.72418, 1.34967, 3.31027, -0.0685925, 0.00122447, -0.00133422, -0.000964722, -0.000891772, -0.00194663, -9.97678e-05, -0.00692532, -0.012532, 0.00673087, 0.0292553, 0.0201787, -0.0030081, 0.470995, -0.543473, 0.335826, -2.08383, -2.16581, -0.129776, 0.469653, -0.542467, 0.337009, -2.0852, -2.16735, -0.128801, -0.000973186, -0.00611264, -0.00500747, 0.0115386, 0.000201141, 0.00233475
0.0521157, 1.69162, -1.22411, -1.53784, -0.899758, -1.19155, 1.22916, -1.30256, 0.0126826, 0.00157586, -0.00288319, 0.00495075, -0.00643005, 0.0321853, 0.000592251, 0.928108, 55.8606, 26.6355, 5.68848, 1.35608, 3.324, -0.0557752, 0.00122801, -0.00132423, -0.000970882, -0.000920633, -0.00197006, -0.000101591, -0.0061795, -0.0117521, 0.00699333, 0.0269508, 0.0244653, -0.00414046, 0.470994, -0.543479, 0.335821, -2.08382, -2.16581, -0.129768, 0.469663, -0.54247, 0.33701, -2.08522, -2.16738, -0.128801, -0.00101654, -0.00638391, -0.00523338, 0.0107525, -0.000878709, 0.00227575
0.0531157, 1.69164, -1.22411, -1.53784, -0.899755, -1.19155, 1.22921, -1.30257, 0.0115501, 0.00267052, -0.00430003, 0.00580182, -0.00432733, 0.036729, -0.000113792, 0.85273, 55.7892, 26.5958, 5.72418, 1.34418, 3.33133, -0.0420422, 0.00123589, -0.00130881, -0.000979246, -0.000955163, -0.00199687, -0.000113638, -0.00548518, -0.0117738, 0.00790011, 0.0314943, 0.0261445, -0.00565694, 0.470993, -0.543485, 0.335816, -2.08382, -2.1658, -0.129759, 0.469677, -0.542469, 0.337014, -2.08524, -2.16742, -0.128804, -0.00106076, -0.00666049, -0.00546395, 0.0107876, -0.00197941, 0.00283208
0.0541157, 1.69164, -1.22411, -1.53785, -0.899746, -1.19155, 1.22924, -1.30256, 0.00927716, 0.00174248, -0.00730534, 0.0060405, -0.00277125, 0.0357796, 0.000161497, 0.963814, 55.7892, 26.6355, 5.6488, 1.33136, 3.34598, -0.0484509, 0.00123534, -0.00130327, -0.000983412, -0.000989912, -0.00201191, -0.000100151, -0.00440629, -0.00998592, 0.00654987, 0.0293411, 0.0236656, -0.0096722, 0.470992, -0.543492, 0.33581, -2.08382, -2.1658, -0.12975, 0.469682, -0.542477, 0.337012, -2.08528, -2.16742, -0.128817, -0.00110581, -0.00694224, -0.0056991, 0.00894677, -0.00319161, 0.00115021
0.0551157, 1.69165, -1.2241, -1.53786, -0.899746, -1.19155, 1.22928, -1.30256, 0.0103779, 0.00456693, -0.00687608, 0.0025708, -0.00191486, 0.0396164, -0.00107913, 0.963814, 55.6424, 26.5601, 5.72418, 1.32587, 3.3533, -0.0164075, 0.00124353, -0.00128912, -0.000995441, -0.00102724, -0.00204343, -0.000112249, -0.00637555, -0.0122502, 0.00835228, 0.0320515, 0.0280705, -0.00424197, 0.470991, -0.543499, 0.335805, -2.08382, -2.1658, -0.12974, 0.469695, -0.542477, 0.33702, -2.0853, -2.16746, -0.128819, -0.00115168, -0.007229, -0.00593872, 0.0111572, -0.00171896, 0.00292737
0.0561157, 1.69167, -1.2241, -1.53786, -0.899737, -1.19156, 1.22932, -1.30257, 0.00877912, 0.00395134, -0.0107788, 0.00591825, -0.00080151, 0.0375395, -0.00170276, 0.928108, 55.6027, 26.5244, 5.68848, 1.30755, 3.37436, 0.0101428, 0.00124986, -0.00127694, -0.00100515, -0.00106423, -0.00206681, -0.000117973, -0.00455768, -0.00972859, 0.00717267, 0.0293387, 0.0255183, -0.0100144, 0.47099, -0.543506, 0.335799, -2.08382, -2.16579, -0.129731, 0.469706, -0.542479, 0.337024, -2.08533, -2.16749, -0.128827, -0.00119834, -0.00752062, -0.00618267, 0.00861449, -0.00372687, 0.00131273
0.0571157, 1.69168, -1.2241, -1.53787, -0.899733, -1.19156, 1.22936, -1.30256, 0.00979471, 0.000855015, -0.00647946, 0.00665141, -0.000686671, 0.0400501, -0.000389191, 0.928108, 55.6781, 26.449, 5.72418, 1.30755, 3.40365, -0.00999879, 0.00125534, -0.00126495, -0.00100958, -0.00110017, -0.00208371, -0.000119973, -0.00548422, -0.0114693, 0.00735047, 0.035464, 0.0233555, -0.00919643, 0.470988, -0.543514, 0.335793, -2.08381, -2.16579, -0.12972, 0.469717, -0.542481, 0.337022, -2.08535, -2.16752, -0.128839, -0.00124576, -0.00781692, -0.00643084, 0.0102789, -0.00306459, 0.00133115
0.0581157, 1.69168, -1.2241, -1.53787, -0.89973, -1.19157, 1.2294, -1.30256, 0.00986429, -0.000277188, -0.00334903, 0.00409087, -0.000775479, 0.0430837, -0.000259461, 0.963814, 55.7138, 26.3736, 5.76385, 1.31305, 3.40365, -0.00999879, 0.00125732, -0.00125575, -0.001014, -0.00113657, -0.00210598, -0.000117127, -0.00682182, -0.0132476, 0.00790794, 0.0396709, 0.0239152, -0.00591985, 0.470987, -0.543521, 0.335786, -2.08381, -2.16579, -0.12971, 0.469725, -0.542488, 0.33702, -2.08538, -2.16754, -0.128846, -0.00129392, -0.00811772, -0.00668309, 0.0119792, -0.00205788, 0.00178298
0.0591157, 1.6917, -1.2241, -1.53788, -0.899729, -1.19158, 1.22945, -1.30256, 0.0114666, 0.0032399, -0.00598641, 0.00373896, -0.00541972, 0.041263, 0.00125118, 0.928108, 55.567, 26.3736, 5.87494, 1.31946, 3.39633, -0.0484509, 0.00126394, -0.0012413, -0.00102375, -0.00117125, -0.00214395, -0.000118549, -0.00703434, -0.0128957, 0.00895347, 0.033709, 0.0306655, -0.00884231, 0.470986, -0.54353, 0.335779, -2.08381, -2.16578, -0.129699, 0.469738, -0.54249, 0.337024, -2.08542, -2.16757, -0.128835, -0.00134278, -0.00842284, -0.00693927, 0.0116092, -0.00232844, 0.00260268
0.0601157, 1.69171, -1.2241, -1.53789, -0.899714, -1.19159, 1.22949, -1.30256, 0.0127268, 0.00131797, -0.00698732, 0.00484904, -0.00839687, 0.0438914, 0.00158011, 0.888436, 55.6027, 26.3379, 5.79956, 1.30755, 3.39633, -0.0685925, 0.00126569, -0.00123113, -0.0010301, -0.00121311, -0.00216676, -0.000109255, -0.00635255, -0.0134136, 0.00800355, 0.0341175, 0.0325893, -0.0107626, 0.470984, -0.543538, 0.335772, -2.08381, -2.16578, -0.129687, 0.469747, -0.542497, 0.337023, -2.08546, -2.16758, -0.128846, -0.00139231, -0.00873205, -0.00719924, 0.012067, -0.00314337, 0.00128315
0.0611157, 1.69172, -1.22409, -1.5379, -0.899708, -1.1916, 1.22954, -1.30256, 0.0102949, 0.00430727, -0.00674247, 0.00813047, -0.00561848, 0.0414926, 0.000578686, 0.85273, 55.4559, 26.2626, 5.87494, 1.28833, 3.39633, -0.0557752, 0.0012704, -0.00121967, -0.00104402, -0.00125462, -0.0022068, -0.000109008, -0.00578569, -0.0112331, 0.0104319, 0.0359393, 0.0318298, -0.0144578, 0.470983, -0.543547, 0.335765, -2.0838, -2.16578, -0.129675, 0.469757, -0.542503, 0.33703, -2.0855, -2.16762, -0.12884, -0.00144249, -0.00904515, -0.00746282, 0.00994743, -0.00447894, 0.0033953
0.0621157, 1.69173, -1.22409, -1.53791, -0.8997, -1.19161, 1.22959, -1.30256, 0.00935785, 0.00286772, -0.00837517, 0.00854728, -0.00827541, 0.0402798, 0.000114523, 0.777352, 55.4559, 26.2626, 5.91064, 1.27002, 3.38168, -0.0484509, 0.00127525, -0.00120677, -0.00104997, -0.00129049, -0.00223512, -0.000109267, -0.00471802, -0.00988882, 0.00922635, 0.0326606, 0.032115, -0.0173687, 0.470982, -0.543556, 0.335758, -2.0838, -2.16577, -0.129663, 0.469769, -0.542508, 0.337029, -2.08553, -2.16765, -0.128838, -0.00149327, -0.00936199, -0.00772991, 0.00854869, -0.00571929, 0.00181282
0.0631157, 1.69174, -1.22409, -1.53792, -0.899693, -1.19162, 1.22963, -1.30256, 0.00855033, 0.00190897, -0.00787854, 0.00566812, -0.0114577, 0.0428382, -0.00161907, 0.701973, 55.4559, 26.1872, 5.95032, 1.28284, 3.38901, -0.00267457, 0.00127988, -0.00119426, -0.00105798, -0.00132837, -0.00226806, -0.000110251, -0.00468538, -0.0103494, 0.00892839, 0.0327276, 0.0353315, -0.0151599, 0.47098, -0.543565, 0.33575, -2.0838, -2.16577, -0.12965, 0.46978, -0.542513, 0.337029, -2.08556, -2.16768, -0.128834, -0.00154466, -0.00968246, -0.00800043, 0.00894774, -0.00600727, 0.00122895
0.0641157, 1.69175, -1.22409, -1.53793, -0.899684, -1.19163, 1.22967, -1.30256, 0.00611161, 0.00294095, -0.00534808, 0.00672141, -0.0118293, 0.0441789, -0.00179146, 0.701973, 55.3845, 26.1515, 5.98602, 1.23981, 3.41006, 0.0165515, 0.00128352, -0.00118533, -0.00106753, -0.00136328, -0.0022996, -0.000104231, -0.00406597, -0.00943057, 0.0110477, 0.0371174, 0.0371032, -0.0176797, 0.470979, -0.543575, 0.335742, -2.0838, -2.16576, -0.129636, 0.469788, -0.54252, 0.337031, -2.0856, -2.1677, -0.128827, -0.00159663, -0.0100065, -0.00827433, 0.00807724, -0.00730647, 0.00297941
0.0651157, 1.69176, -1.22409, -1.53794, -0.899679, -1.19164, 1.22972, -1.30256, 0.008358, 0.00195903, -0.00483435, 0.00575558, -0.0132132, 0.0461819, -0.000719588, 0.6623, 55.3845, 26.0404, 6.09711, 1.22699, 3.41006, 0.00373412, 0.00128863, -0.00117332, -0.00107569, -0.00140222, -0.00233154, -0.000104795, -0.00524625, -0.0112824, 0.0108041, 0.038003, 0.0384733, -0.016334, 0.470977, -0.543585, 0.335734, -2.08379, -2.16576, -0.129623, 0.469798, -0.542526, 0.337031, -2.08563, -2.16773, -0.128824, -0.00164918, -0.0103339, -0.00855153, 0.00982327, -0.00635543, 0.00258844
0.0661157, 1.69178, -1.22408, -1.53795, -0.899667, -1.19166, 1.22976, -1.30256, 0.0158443, 0.00306806, -0.005988, 0.00781468, -0.0142799, 0.0469245, -0.000479725, 0.511544, 55.3091, 26.0007, 6.09711, 1.21509, 3.42471, 0.00373412, 0.00129573, -0.00115956, -0.00108562, -0.00143622, -0.0023667, -0.000101373, -0.00790858, -0.014873, 0.0112342, 0.0372956, 0.0410453, -0.0123671, 0.470975, -0.543595, 0.335725, -2.08379, -2.16576, -0.129608, 0.46981, -0.54253, 0.337033, -2.08567, -2.16775, -0.128811, -0.00170228, -0.0106648, -0.00883197, 0.0132767, -0.00397714, 0.00303666
0.0671157, 1.69179, -1.22408, -1.53796, -0.899659, -1.19167, 1.22981, -1.30255, 0.0114486, 0.00204447, -0.0079706, 0.00433266, -0.0147036, 0.0473888, 0.00188423, 0.511544, 55.3091, 26.0007, 6.17248, 1.19678, 3.44668, -0.0557752, 0.00129803, -0.00115135, -0.00109243, -0.00146905, -0.00239963, -8.44053e-05, -0.0067139, -0.0129517, 0.00994917, 0.0349391, 0.0410171, -0.0175655, 0.470974, -0.543606, 0.335716, -2.08379, -2.16575, -0.129594, 0.469817, -0.54254, 0.337031, -2.08572, -2.16776, -0.128798, -0.00175593, -0.0109989, -0.0091156, 0.0113004, -0.00537154, 0.00135699
0.0681157, 1.6918, -1.22408, -1.53797, -0.899646, -1.19169, 1.22985, -1.30256, 0.0140668, 0.00303274, -0.00853831, 0.00983454, -0.0114098, 0.0450401, 0.000747527, 0.400459, 55.2377, 25.965, 6.17248, 1.20318, 3.42471, -0.0420422, 0.00130328, -0.00113954, -0.00110299, -0.00150226, -0.00243998, -7.97793e-05, -0.0074943, -0.0130735, 0.010982, 0.0364709, 0.0378907, -0.0183073, 0.470972, -0.543617, 0.335707, -2.08378, -2.16575, -0.129578, 0.469827, -0.542547, 0.337033, -2.08576, -2.16778, -0.128778, -0.0018101, -0.0113362, -0.00940234, 0.0113776, -0.00509228, 0.0022073
0.0691157, 1.69182, -1.22407, -1.53799, -0.899631, -1.19171, 1.22989, -1.30256, 0.0150993, 0.00461978, -0.0096796, 0.0106779, -0.0126078, 0.042629, -0.000451084, 0.325081, 55.1266, 25.965, 6.17248, 1.18396, 3.41739, -0.0164075, 0.00130712, -0.00112998, -0.001114, -0.00153393, -0.00248097, -7.12067e-05, -0.00800952, -0.0127187, 0.0115961, 0.0334348, 0.0394103, -0.0182775, 0.47097, -0.543628, 0.335698, -2.08378, -2.16574, -0.129563, 0.469835, -0.542555, 0.337035, -2.0858, -2.16781, -0.128755, -0.00186479, -0.0116765, -0.00969213, 0.0109726, -0.00503295, 0.00261439
0.0701157, 1.69184, -1.22407, -1.538, -0.899621, -1.19173, 1.22993, -1.30255, 0.015828, 0.00307947, -0.00876186, 0.00948815, -0.014685, 0.040286, 0.00115734, 0.245735, 55.1266, 25.8896, 6.24786, 1.19678, 3.42471, -0.0557752, 0.00131525, -0.00111709, -0.00112256, -0.00156624, -0.0025123, -6.61791e-05, -0.00894443, -0.0129809, 0.0108449, 0.0306712, 0.0386025, -0.0188311, 0.470968, -0.54364, 0.335688, -2.08378, -2.16574, -0.129546, 0.469846, -0.54256, 0.337035, -2.08584, -2.16782, -0.128742, -0.00191999, -0.0120199, -0.00998491, 0.0111187, -0.00432699, 0.00171674
0.0711157, 1.69185, -1.22407, -1.53802, -0.899605, -1.19174, 1.22998, -1.30255, 0.0144869, 0.00121748, -0.0138887, 0.0105023, -0.0152315, 0.0387999, 0.00594511, 0.245735, 55.1624, 25.9253, 6.24786, 1.18396, 3.42471, -0.0685925, 0.00131679, -0.00111011, -0.00112818, -0.00159781, -0.00254186, -4.85542e-05, -0.00722751, -0.0108639, 0.00825635, 0.0254325, 0.0367842, -0.0289367, 0.470966, -0.543652, 0.335678, -2.08377, -2.16573, -0.12953, 0.469852, -0.542571, 0.33703, -2.08588, -2.16783, -0.128729, -0.00197567, -0.0123662, -0.0102806, 0.00891616, -0.00605662, -0.0013371
0.0721157, 1.69187, -1.22406, -1.53803, -0.899595, -1.19177, 1.23001, -1.30256, 0.0163368, 0.0034099, -0.0131814, 0.0126024, -0.0162663, 0.0332321, 0.00289691, 0.134651, 55.0513, 25.7786, 6.32324, 1.19037, 3.43204, -0.0292249, 0.00132657, -0.00109615, -0.00114102, -0.00162994, -0.002583, -5.35672e-05, -0.00854846, -0.0104431, 0.00974078, 0.0218746, 0.0370145, -0.0264322, 0.470964, -0.543664, 0.335668, -2.08377, -2.16572, -0.129512, 0.469864, -0.542575, 0.337034, -2.08591, -2.16786, -0.128706, -0.00203183, -0.0127153, -0.0105792, 0.00844668, -0.00534716, 4.7658e-05
0.0731157, 1.69188, -1.22405, -1.53805, -0.899582, -1.19178, 1.23005, -1.30255, 0.0160539, 0.00570678, -0.0173027, 0.0111234, -0.0165351, 0.0373718, 0.00269967, 0.0949785, 54.9045, 25.8143, 6.39465, 1.17847, 3.44668, -0.0420422, 0.001332, -0.00108838, -0.00115282, -0.00165519, -0.00262428, -3.6662e-05, -0.00812951, -0.0106374, 0.010051, 0.0215322, 0.0420868, -0.0278247, 0.470962, -0.543677, 0.335657, -2.08377, -2.16572, -0.129495, 0.46987, -0.542584, 0.337035, -2.08596, -2.16787, -0.128673, -0.00208844, -0.0130671, -0.0108805, 0.00861048, -0.00615232, -1.85046e-05
0.0741157, 1.6919, -1.22405, -1.53807, -0.899568, -1.19181, 1.23009, -1.30256, 0.0173977, 0.0038044, -0.0163, 0.0171671, -0.0170239, 0.0367327, 0.000833242, -0.0161054, 54.9045, 25.8143, 6.43433, 1.17206, 3.44668, -0.00999879, 0.00134025, -0.00107616, -0.0011589, -0.00167679, -0.00265755, -3.43523e-05, -0.00732621, -0.0101412, 0.0102525, 0.0243917, 0.0398507, -0.0300646, 0.47096, -0.54369, 0.335646, -2.08376, -2.16571, -0.129476, 0.46988, -0.542589, 0.337031, -2.08599, -2.16789, -0.128644, -0.00214551, -0.0134215, -0.0111846, 0.00809403, -0.00735111, -0.000233321
0.0751157, 1.69192, -1.22406, -1.53808, -0.899544, -1.19183, 1.23013, -1.30256, 0.0206873, 0.00170096, -0.0178959, 0.0180167, -0.0216834, 0.0367387, -0.000262656, -0.0914839, 54.9402, 25.7786, 6.35895, 1.16015, 3.43204, 0.0165515, 0.00134427, -0.00106695, -0.00116639, -0.00170853, -0.00268925, -2.12279e-05, -0.00747521, -0.0110947, 0.00865003, 0.0208141, 0.0418338, -0.029262, 0.470958, -0.543704, 0.335635, -2.08376, -2.16571, -0.129457, 0.469887, -0.542599, 0.337028, -2.08603, -2.1679, -0.128627, -0.00220301, -0.0137786, -0.0114914, 0.00892526, -0.00727546, -0.00212846
0.0761157, 1.69194, -1.22405, -1.5381, -0.899533, -1.19185, 1.23016, -1.30255, 0.019201, 0.00196912, -0.0178302, 0.0148707, -0.0257465, 0.0356844, 0.00116949, -0.131157, 54.9045, 25.7032, 6.43433, 1.16015, 3.44668, -0.0164075, 0.00135255, -0.00105595, -0.00117538, -0.0017328, -0.00272714, -1.14351e-05, -0.00749311, -0.0103834, 0.00863159, 0.0170815, 0.0452673, -0.0312529, 0.470956, -0.543717, 0.335624, -2.08375, -2.1657, -0.129438, 0.469896, -0.542606, 0.337026, -2.08607, -2.16792, -0.128595, -0.00226092, -0.014138, -0.0118008, 0.00815587, -0.0076435, -0.0024318
0.0771157, 1.69196, -1.22405, -1.53811, -0.899522, -1.19188, 1.2302, -1.30256, 0.0189343, 0.00391115, -0.0127789, 0.0118895, -0.028565, 0.0349783, 0.000363957, -0.206535, 54.7934, 25.6675, 6.54541, 1.16015, 3.46042, -0.00267457, 0.00136286, -0.00104465, -0.0011876, -0.0017556, -0.00276896, -8.90677e-06, -0.00942165, -0.0113676, 0.0113545, 0.0186183, 0.0492213, -0.0271577, 0.470954, -0.543731, 0.335612, -2.08375, -2.16569, -0.129418, 0.469905, -0.542611, 0.337028, -2.0861, -2.16794, -0.128558, -0.00231925, -0.0144999, -0.0121127, 0.00911098, -0.00647997, 0.00021393
0.0781157, 1.69197, -1.22404, -1.53813, -0.899503, -1.1919, 1.23023, -1.30255, 0.0158858, 0.00520585, -0.0142892, 0.0155709, -0.0260945, 0.030049, 0.00177039, -0.166862, 54.6823, 25.5921, 6.54541, 1.16015, 3.47507, -0.0420422, 0.00136917, -0.0010379, -0.00120124, -0.00178215, -0.00280932, 1.13072e-05, -0.0081904, -0.0079858, 0.0120724, 0.016766, 0.0458738, -0.0352379, 0.470951, -0.543746, 0.3356, -2.08374, -2.16569, -0.129398, 0.46991, -0.542621, 0.33703, -2.08615, -2.16794, -0.128524, -0.00237796, -0.014864, -0.0124272, 0.00574515, -0.00830841, 0.000520281
0.0791157, 1.692, -1.22403, -1.53816, -0.899487, -1.19193, 1.23026, -1.30255, 0.0197606, 0.00514098, -0.015955, 0.0140777, -0.0241263, 0.0311647, 0.00197851, -0.242241, 54.6109, 25.6675, 6.58508, 1.15375, 3.47507, -0.0621838, 0.00137787, -0.00102784, -0.00120837, -0.00179329, -0.00284922, 2.08993e-05, -0.0106835, -0.0106924, 0.0113902, 0.0161574, 0.045244, -0.0309749, 0.470949, -0.543761, 0.335587, -2.08374, -2.16568, -0.129377, 0.469917, -0.542628, 0.337026, -2.08619, -2.16795, -0.128474, -0.00243706, -0.0152304, -0.012744, 0.00827544, -0.00599768, -0.000166215
0.0801157, 1.69201, -1.22404, -1.53817, -0.899472, -1.19195, 1.23029, -1.30255, 0.0168676, 0.00259208, -0.0114874, 0.0131238, -0.0226771, 0.0318478, 0.00112085, -0.206535, 54.6466, 25.5167, 6.62079, 1.15375, 3.48239, -0.0557752, 0.00138598, -0.00101936, -0.00121719, -0.0018201, -0.00287991, 3.24742e-05, -0.0109968, -0.0104656, 0.0118165, 0.0213802, 0.0417047, -0.0299833, 0.470946, -0.543776, 0.335575, -2.08373, -2.16567, -0.129355, 0.469923, -0.542637, 0.337023, -2.08622, -2.16796, -0.12845, -0.00249652, -0.0155988, -0.0130633, 0.00799406, -0.00613164, -9.14412e-06
0.0811157, 1.69203, -1.22404, -1.53819, -0.899454, -1.19198, 1.23032, -1.30255, 0.016735, 0.00172804, -0.016209, 0.0154314, -0.0212161, 0.0283495, 0.000505368, -0.242241, 54.6466, 25.5564, 6.65649, 1.14093, 3.48239, -0.0484509, 0.00139343, -0.00101175, -0.00122267, -0.00183017, -0.00291489, 4.71403e-05, -0.0102482, -0.00865266, 0.00991705, 0.0162184, 0.0381666, -0.0338231, 0.470944, -0.543792, 0.335562, -2.08373, -2.16567, -0.129333, 0.469928, -0.542645, 0.337016, -2.08626, -2.16796, -0.128402, -0.00255634, -0.0159693, -0.0133848, 0.00608124, -0.00702316, -0.00226723
0.0821157, 1.69205, -1.22403, -1.53821, -0.899432, -1.19201, 1.23035, -1.30255, 0.0173284, 0.00375047, -0.0167423, 0.0178484, -0.0214857, 0.0263976, -0.00106519, -0.317619, 54.5355, 25.481, 6.65649, 1.16015, 3.46042, -0.00999879, 0.00140367, -0.00100103, -0.00123728, -0.00185369, -0.00296034, 5.38471e-05, -0.0104436, -0.00799205, 0.0113141, 0.0154389, 0.0394275, -0.0347002, 0.470941, -0.543808, 0.335548, -2.08372, -2.16566, -0.129311, 0.469937, -0.542653, 0.337018, -2.08629, -2.16798, -0.128358, -0.0026165, -0.0163418, -0.0137086, 0.00540558, -0.00744453, -0.00116124
0.0831157, 1.69208, -1.22402, -1.53823, -0.89942, -1.19204, 1.23037, -1.30255, 0.0201811, 0.00509876, -0.0159728, 0.0140071, -0.0246636, 0.0235144, -0.00167693, -0.357292, 54.4244, 25.481, 6.77154, 1.14093, 3.47507, 0.0165515, 0.00141615, -0.000990716, -0.00124586, -0.00185996, -0.00300047, 6.01138e-05, -0.0132301, -0.00974287, 0.0117069, 0.0102555, 0.0424697, -0.0291699, 0.470939, -0.543824, 0.335534, -2.08372, -2.16565, -0.129287, 0.469944, -0.542658, 0.337015, -2.08632, -2.16799, -0.128301, -0.00267698, -0.0167161, -0.0140346, 0.00700874, -0.0050566, -0.000720907
0.0841157, 1.6921, -1.22402, -1.53825, -0.899394, -1.19208, 1.2304, -1.30255, 0.020279, 0.00423438, -0.0171509, 0.018895, -0.028589, 0.0219162, -0.000393475, -0.317619, 54.3887, 25.4413, 6.69617, 1.16015, 3.47507, -0.00267457, 0.00142173, -0.000986149, -0.00125611, -0.00187559, -0.00303961, 8.3856e-05, -0.0113035, -0.00784531, 0.0115864, 0.00853833, 0.0438366, -0.0370492, 0.470936, -0.543841, 0.33552, -2.08371, -2.16564, -0.129264, 0.469946, -0.542671, 0.337011, -2.08637, -2.16799, -0.128252, -0.00273778, -0.0170921, -0.0143627, 0.00511747, -0.00739378, -0.00140886
0.0851157, 1.69212, -1.22401, -1.53827, -0.899374, -1.19211, 1.23042, -1.30256, 0.0244366, 0.00542137, -0.0194508, 0.0196873, -0.0303776, 0.0247451, -0.000965091, -0.317619, 54.2776, 25.4413, 6.73187, 1.15375, 3.48239, 0.0165515, 0.00143277, -0.000978277, -0.00126906, -0.00188794, -0.00308209, 9.46012e-05, -0.0123246, -0.00995713, 0.0118838, 0.00828307, 0.0482434, -0.0353393, 0.470933, -0.543858, 0.335506, -2.08371, -2.16563, -0.129239, 0.469952, -0.542679, 0.337011, -2.0864, -2.168, -0.128197, -0.00279888, -0.0174699, -0.0146928, 0.00714009, -0.0067227, -0.00135194
0.0861157, 1.69215, -1.22401, -1.53829, -0.899354, -1.19214, 1.23044, -1.30255, 0.02606, 0.00277903, -0.0190375, 0.0170341, -0.0320745, 0.022873, 0.00129636, -0.392998, 54.3134, 25.3699, 6.77154, 1.15375, 3.48239, -0.0356336, 0.00144523, -0.000967684, -0.00127607, -0.00189656, -0.00311684, 0.00010867, -0.0139476, -0.0111164, 0.0101306, 0.0047895, 0.0464842, -0.0345557, 0.470931, -0.543875, 0.335491, -2.0837, -2.16563, -0.129214, 0.469959, -0.542684, 0.337005, -2.08643, -2.168, -0.128145, -0.00286026, -0.0178492, -0.015025, 0.00811467, -0.00518264, -0.00319925
0.0871157, 1.69216, -1.22401, -1.53832, -0.899332, -1.19218, 1.23046, -1.30255, 0.0207489, 0.00435834, -0.0217905, 0.0223928, -0.0329454, 0.0217378, 0.00161546, -0.317619, 54.2062, 25.4056, 6.77154, 1.14093, 3.47507, -0.0557752, 0.0014506, -0.000966458, -0.00128591, -0.00190198, -0.00315909, 0.000141685, -0.00994448, -0.00618535, 0.0112821, 0.00478784, 0.0479225, -0.0470135, 0.470928, -0.543893, 0.335476, -2.0837, -2.16562, -0.129189, 0.469958, -0.542698, 0.337001, -2.08649, -2.16798, -0.128079, -0.00292192, -0.0182301, -0.0153591, 0.00331362, -0.0098944, -0.00286627
0.0881157, 1.69219, -1.22401, -1.53834, -0.89931, -1.19221, 1.23048, -1.30255, 0.0247252, 0.00383357, -0.0208567, 0.0223216, -0.033351, 0.0211312, 0.00080963, -0.43267, 54.1666, 25.3303, 6.80725, 1.12262, 3.46042, -0.0484509, 0.00146523, -0.000955523, -0.0012956, -0.0019109, -0.00319387, 0.000149819, -0.0122885, -0.00851662, 0.0113089, 0.0044973, 0.0476585, -0.0424574, 0.470925, -0.543911, 0.335461, -2.08369, -2.16561, -0.129163, 0.469966, -0.542703, 0.336997, -2.08651, -2.16799, -0.128027, -0.00298385, -0.0186124, -0.0156951, 0.0054975, -0.0078712, -0.00288398
0.0891157, 1.69221, -1.22399, -1.53836, -0.89928, -1.19225, 1.2305, -1.30255, 0.0215065, 0.00598939, -0.0226629, 0.0249262, -0.0344239, 0.0198203, 0.000305338, -0.43267, 54.0198, 25.2192, 6.73187, 1.12262, 3.46774, -0.0420422, 0.00147438, -0.000951445, -0.00131386, -0.00192456, -0.00324335, 0.000170718, -0.0102677, -0.00547682, 0.0126291, 0.00349658, 0.0499966, -0.0492451, 0.470922, -0.54393, 0.335445, -2.08368, -2.1656, -0.129136, 0.469967, -0.542715, 0.337, -2.08656, -2.16799, -0.127963, -0.00304602, -0.0189961, -0.016033, 0.00252028, -0.0105773, -0.00213849
0.0901157, 1.69224, -1.22399, -1.53838, -0.899257, -1.19229, 1.23051, -1.30255, 0.0208446, 0.00482814, -0.0228049, 0.0208196, -0.0394544, 0.0194054, 0.000443125, -0.508049, 53.9841, 25.1835, 6.77154, 1.11713, 3.46042, -0.0484509, 0.00148563, -0.000944726, -0.00132383, -0.0019277, -0.00328551, 0.000190716, -0.0105277, -0.00544565, 0.011604, -0.00097617, 0.0532715, -0.0487486, 0.470919, -0.543949, 0.335429, -2.08368, -2.16559, -0.129109, 0.469971, -0.542725, 0.336996, -2.0866, -2.16798, -0.127894, -0.00310843, -0.019381, -0.0163726, 0.00238014, -0.0105491, -0.00344921
0.0911157, 1.69226, -1.22398, -1.53841, -0.899232, -1.19234, 1.23052, -1.30255, 0.0178473, 0.00581722, -0.0205803, 0.0242062, -0.0438904, 0.0190939, -0.00139835, -0.468376, 53.873, 25.1835, 6.80725, 1.12262, 3.45309, -0.00267457, 0.00149368, -0.000943654, -0.00133641, -0.00192736, -0.00333172, 0.000213896, -0.00833811, -0.00288794, 0.0138574, 0.00109109, 0.057375, -0.0538374, 0.470916, -0.543968, 0.335413, -2.08367, -2.16558, -0.129081, 0.469969, -0.542738, 0.336993, -2.08664, -2.16797, -0.127816, -0.00317106, -0.0197671, -0.0167139, -7.57519e-05, -0.0135481, -0.00182653
0.0921157, 1.69228, -1.22399, -1.53843, -0.899206, -1.19238, 1.23054, -1.30255, 0.02139, 0.00304293, -0.0199674, 0.0236761, -0.0422296, 0.0187786, -0.00188043, -0.543754, 53.9087, 25.1081, 6.84296, 1.11713, 3.44668, 0.0229602, 0.00150423, -0.000937884, -0.00134296, -0.00193064, -0.00336539, 0.000231048, -0.0107263, -0.00535092, 0.0124388, 0.00140519, 0.0533793, -0.0490707, 0.470912, -0.543988, 0.335396, -2.08366, -2.16557, -0.129052, 0.469971, -0.542748, 0.336984, -2.08667, -2.16797, -0.127756, -0.00323391, -0.0201544, -0.0170569, 0.00218418, -0.0112585, -0.00327586
0.0931157, 1.69231, -1.22398, -1.53845, -0.899173, -1.19242, 1.23055, -1.30256, 0.0231197, 0.00546229, -0.0207032, 0.0281715, -0.0406457, 0.0148494, -0.00101533, -0.583427, 53.7619, 25.0724, 6.80725, 1.10431, 3.42471, 0.0165515, 0.00151351, -0.000935159, -0.00135982, -0.00193634, -0.00341617, 0.00025746, -0.0113974, -0.00466936, 0.0140702, 0.000477292, 0.0524288, -0.0526112, 0.470909, -0.544008, 0.335379, -2.08366, -2.16556, -0.129023, 0.469971, -0.542761, 0.336985, -2.08672, -2.16796, -0.127678, -0.00329695, -0.0205426, -0.0174015, 0.0014768, -0.0112629, -0.00188465
0.0941157, 1.69233, -1.22397, -1.53847, -0.899146, -1.19247, 1.23057, -1.30255, 0.0243116, 0.00364153, -0.0199571, 0.0256013, -0.0441725, 0.0110371, -0.000676186, -0.619133, 53.7619, 24.997, 6.88263, 1.09241, 3.42471, 0.0165515, 0.0015248, -0.000930021, -0.00137054, -0.00194051, -0.00345702, 0.000280596, -0.0128038, -0.00505244, 0.012793, -0.00506993, 0.0520065, -0.0509049, 0.470906, -0.544029, 0.335362, -2.08365, -2.16555, -0.128993, 0.469973, -0.542772, 0.33698, -2.08676, -2.16795, -0.127609, -0.00336018, -0.0209318, -0.0177477, 0.00169937, -0.0100514, -0.00328586
0.0951157, 1.69236, -1.22397, -1.5385, -0.899115, -1.19252, 1.23058, -1.30255, 0.0229207, 0.00242768, -0.0206891, 0.0287255, -0.0465191, 0.0127891, 0.000770436, -0.694511, 53.7619, 24.9573, 6.88263, 1.0741, 3.41739, -0.0164075, 0.00153452, -0.000926642, -0.00138033, -0.00194238, -0.00349624, 0.000308791, -0.0107798, -0.00359014, 0.0127714, -0.00336111, 0.0534961, -0.058165, 0.470903, -0.54405, 0.335344, -2.08364, -2.16554, -0.128963, 0.469973, -0.542785, 0.336973, -2.0868, -2.16793, -0.127538, -0.00342359, -0.0213219, -0.0180953, 0.000247309, -0.0124961, -0.00392372
0.0961157, 1.69238, -1.22397, -1.53853, -0.899081, -1.19256, 1.23059, -1.30255, 0.0201153, 0.00421691, -0.0239327, 0.031008, -0.0538194, 0.0138144, 0.00170081, -0.694511, 53.6508, 25.0327, 6.88263, 1.07959, 3.41739, -0.0484509, 0.00153972, -0.000929275, -0.00139111, -0.00193694, -0.00354266, 0.000354696, -0.00723634, -0.000334365, 0.0135211, -0.00671359, 0.0618749, -0.0684959, 0.470899, -0.544071, 0.335326, -2.08363, -2.16553, -0.128932, 0.469967, -0.542803, 0.336967, -2.08686, -2.1679, -0.127449, -0.00348715, -0.0217127, -0.0184443, -0.00291344, -0.0166338, -0.00398159
0.0971157, 1.69241, -1.22396, -1.53855, -0.899048, -1.19261, 1.2306, -1.30255, 0.020883, 0.00448171, -0.0217282, 0.031926, -0.0533083, 0.0145873, 0.000422092, -0.809562, 53.5794, 24.9216, 6.91833, 1.04938, 3.41739, -0.0292249, 0.00155299, -0.000923979, -0.00140671, -0.00194489, -0.00358612, 0.000375469, -0.00825217, -0.00120826, 0.0149029, -0.00321473, 0.062085, -0.0666284, 0.470896, -0.544093, 0.335307, -2.08363, -2.16552, -0.1289, 0.469969, -0.542814, 0.336966, -2.0869, -2.16789, -0.12738, -0.00355087, -0.0221042, -0.0187947, -0.00208937, -0.016199, -0.00283707
0.0981157, 1.69243, -1.22396, -1.53858, -0.899011, -1.19266, 1.23061, -1.30255, 0.0221353, 0.00391583, -0.025626, 0.033437, -0.0538693, 0.0155963, 0.000518975, -0.845268, 53.5397, 24.9216, 6.91833, 1.04938, 3.41006, -0.0356336, 0.00156024, -0.000923957, -0.00141871, -0.00194536, -0.00363202, 0.000412994, -0.00771499, -0.00108838, 0.0137151, -0.00519995, 0.062828, -0.0694649, 0.470892, -0.544115, 0.335289, -2.08362, -2.16551, -0.128868, 0.469966, -0.542831, 0.33696, -2.08696, -2.16787, -0.127298, -0.00361472, -0.0224964, -0.0191465, -0.00229718, -0.0169437, -0.00444133
0.0991157, 1.69246, -1.22396, -1.53859, -0.898971, -1.19272, 1.23061, -1.30255, 0.0220415, 0.00428099, -0.0230021, 0.034509, -0.0536317, 0.0161802, -0.000874554, -0.960319, 53.4683, 24.8105, 6.91833, 1.02466, 3.40365, -0.00267457, 0.0015722, -0.000920126, -0.00143537, -0.00195157, -0.00367852, 0.000438192, -0.00836665, -0.00145055, 0.0153567, -0.00140771, 0.0632066, -0.0683668, 0.470888, -0.544138, 0.335269, -2.08361, -2.1655, -0.128835, 0.469966, -0.542844, 0.336959, -2.08701, -2.16786, -0.127222, -0.00367869, -0.0228891, -0.0194995, -0.00196176, -0.0169306, -0.00308353
0.100116, 1.69248, -1.22395, -1.53862, -0.898935, -1.19277, 1.23063, -1.30255, 0.0232548, 0.00368921, -0.0237701, 0.0364879, -0.0494058, 0.0126296, 0.00316093, -0.996025, 53.4326, 24.8105, 6.99371, 1.01276, 3.38901, 0.0229602, 0.00158022, -0.000919502, -0.00144856, -0.00195633, -0.00372586, 0.000471029, -0.0097476, -0.00146023, 0.0149247, -0.0021532, 0.0575011, -0.0724881, 0.470885, -0.54416, 0.33525, -2.0836, -2.16549, -0.128801, 0.469964, -0.542861, 0.336954, -2.08706, -2.16784, -0.127142, -0.00374278, -0.0232822, -0.0198537, -0.00208093, -0.0158935, -0.00365057
0.101116, 1.69251, -1.22395, -1.53865, -0.898892, -1.19282, 1.23064, -1.30255, 0.0211864, 0.00245947, -0.0234212, 0.0338636, -0.0507864, 0.00966619, 0.00249849, -1.0357, 53.4326, 24.7748, 6.99371, 0.999938, 3.38168, 0.0229602, 0.00158718, -0.000920651, -0.00146127, -0.00195945, -0.00376924, 0.000512103, -0.0100368, -0.000342026, 0.0140997, -0.00577056, 0.0562808, -0.072458, 0.470881, -0.544184, 0.33523, -2.08359, -2.16547, -0.128767, 0.469959, -0.542879, 0.336948, -2.08712, -2.16781, -0.127063, -0.00380697, -0.0236758, -0.020209, -0.00330221, -0.0159204, -0.00474118
0.102116, 1.69254, -1.22395, -1.53867, -0.898852, -1.19288, 1.23065, -1.30256, 0.0214405, 0.0103532, -0.0219532, 0.0371692, -0.047104, 0.00744679, 0.00148434, -1.15075, 53.3215, 24.6995, 7.02942, 0.988036, 3.37436, 0.0357776, 0.00159955, -0.000916825, -0.0014797, -0.00196581, -0.00382223, 0.000541042, -0.0116381, 6.89833e-05, 0.0198028, -0.00216488, 0.0598492, -0.0728949, 0.470877, -0.544207, 0.33521, -2.08358, -2.16546, -0.128732, 0.469959, -0.542893, 0.336947, -2.08717, -2.1678, -0.126979, -0.00387125, -0.0240696, -0.0205654, -0.00362274, -0.0156268, 0.000794719
0.103116, 1.69256, -1.22395, -1.5387, -0.898809, -1.19294, 1.23065, -1.30255, 0.0226862, 0.000340709, -0.0238619, 0.0396488, -0.0483163, 0.00578434, 0.00263376, -1.18645, 53.3572, 24.7352, 7.06909, 0.963317, 3.36703, -0.00267457, 0.00160779, -0.000917062, -0.00149018, -0.0019658, -0.00386275, 0.000585012, -0.0104689, 0.000443943, 0.0136703, -0.00536143, 0.0501883, -0.0767545, 0.470873, -0.544231, 0.335189, -2.08357, -2.16545, -0.128697, 0.469955, -0.542911, 0.336938, -2.08723, -2.16776, -0.126897, -0.00393561, -0.0244637, -0.0209229, -0.00424623, -0.0162476, -0.00578782
0.104116, 1.69259, -1.22395, -1.53873, -0.898766, -1.19299, 1.23066, -1.30255, 0.0238101, 0.000924901, -0.0251854, 0.0415014, -0.0499672, 0.00426763, 0.00290422, -1.22613, 53.3215, 24.7748, 7.1048, 0.951415, 3.36703, -0.0292249, 0.00161492, -0.000918401, -0.00150195, -0.00196359, -0.00391076, 0.000630845, -0.0104726, 0.000866408, 0.0139075, -0.00750498, 0.0515318, -0.0793571, 0.470869, -0.544256, 0.335168, -2.08357, -2.16544, -0.128661, 0.46995, -0.54293, 0.33693, -2.08729, -2.16773, -0.126805, -0.00400003, -0.0248579, -0.0212814, -0.00472348, -0.0166918, -0.00589837
0.105116, 1.69262, -1.22395, -1.53875, -0.898722, -1.19306, 1.23067, -1.30255, 0.0247533, 0.00144153, -0.0226537, 0.0429405, -0.0513384, 0.00366227, 0.00134785, -1.26183, 53.2819, 24.6598, 7.14447, 0.938597, 3.3533, -0.00999879, 0.00162576, -0.000915129, -0.00151878, -0.001971, -0.00396442, 0.000663819, -0.0112796, 0.000421986, 0.0155037, -0.00553317, 0.05281, -0.0780001, 0.470865, -0.544281, 0.335147, -2.08356, -2.16543, -0.128624, 0.46995, -0.542947, 0.336927, -2.08735, -2.16771, -0.126719, -0.0040645, -0.0252522, -0.0216408, -0.00431327, -0.0165166, -0.00457038
0.106116, 1.69265, -1.22395, -1.53878, -0.898674, -1.19312, 1.23068, -1.30255, 0.0295921, -0.000879538, -0.0234122, 0.0450063, -0.0566506, 0.00750357, 0.00170348, -1.33721, 53.3572, 24.6598, 7.14447, 0.920287, 3.33865, -0.0292249, 0.00163356, -0.000915049, -0.00152681, -0.00197101, -0.00400273, 0.000708672, -0.0114303, -0.00191332, 0.0145484, -0.00494072, 0.0569694, -0.0781096, 0.470861, -0.544306, 0.335125, -2.08355, -2.16541, -0.128586, 0.469946, -0.542965, 0.336915, -2.0874, -2.16767, -0.126638, -0.00412902, -0.0256465, -0.022001, -0.00208588, -0.0165196, -0.00592331
0.107116, 1.69268, -1.22396, -1.5388, -0.898627, -1.19318, 1.23069, -1.30255, 0.0300427, -0.000644348, -0.0232117, 0.0455062, -0.0564657, 0.00607582, 0.0101062, -1.41259, 53.3572, 24.6241, 7.18018, 0.913878, 3.324, -0.0228162, 0.0016432, -0.000912968, -0.00154056, -0.00197408, -0.00405373, 0.000747855, -0.0121753, -0.00191293, 0.0149765, -0.00536669, 0.0565032, -0.0869786, 0.470857, -0.544332, 0.335103, -2.08354, -2.1654, -0.128548, 0.469944, -0.542984, 0.336908, -2.08746, -2.16765, -0.126547, -0.00419356, -0.0260407, -0.0223621, -0.00216098, -0.0162439, -0.00574625
0.108116, 1.69271, -1.22396, -1.53883, -0.898583, -1.19324, 1.2307, -1.30255, 0.0284538, -0.000473058, -0.0238931, 0.0451492, -0.0593675, 0.00468608, 0.00633053, -1.41259, 53.3572, 24.6241, 7.25555, 0.877257, 3.31759, 0.0101428, 0.001654, -0.000911966, -0.00155268, -0.00197191, -0.00410001, 0.00078303, -0.0114622, -0.000464744, 0.0150478, -0.00809094, 0.0586064, -0.0863952, 0.470853, -0.544358, 0.335081, -2.08353, -2.16539, -0.128509, 0.469941, -0.543001, 0.336899, -2.08751, -2.16762, -0.126455, -0.00425812, -0.0264347, -0.0227239, -0.00364326, -0.0174121, -0.00610322
0.109116, 1.69275, -1.22395, -1.53887, -0.898528, -1.1933, 1.2307, -1.30255, 0.0311955, 0.00141525, -0.0274351, 0.0476218, -0.0582183, 0.00880204, 0.00530538, -1.45226, 53.2819, 24.6241, 7.21588, 0.865355, 3.2883, -0.00267457, 0.00166142, -0.0009131, -0.00156864, -0.00197448, -0.00415398, 0.000834168, -0.0116327, -0.00174154, 0.0157716, -0.0058066, 0.0618982, -0.0868055, 0.470849, -0.544384, 0.335058, -2.08352, -2.16537, -0.12847, 0.469936, -0.543022, 0.336893, -2.08759, -2.16758, -0.126359, -0.00432269, -0.0268285, -0.0230865, -0.00241137, -0.0176965, -0.00576456
0.110116, 1.69278, -1.22396, -1.5389, -0.898475, -1.19337, 1.23071, -1.30255, 0.0328983, 0.000919034, -0.0268659, 0.0483575, -0.0570086, 0.00672113, 0.00304521, -1.45226, 53.2819, 24.6241, 7.21588, 0.840636, 3.28097, 0.0229602, 0.00166964, -0.000912954, -0.00158102, -0.00197669, -0.00420196, 0.000878339, -0.0131416, -0.00246589, 0.0158116, -0.00615708, 0.0595521, -0.083456, 0.470844, -0.544411, 0.335035, -2.08351, -2.16536, -0.12843, 0.469932, -0.543043, 0.336884, -2.08765, -2.16755, -0.126268, -0.00438725, -0.027222, -0.0234497, -0.00180425, -0.0165767, -0.00587715
0.111116, 1.69281, -1.22396, -1.53893, -0.898428, -1.19344, 1.23072, -1.30255, 0.0276907, -0.00200411, -0.0287982, 0.0439636, -0.0611155, 0.00515449, 0.00237344, -1.45226, 53.3929, 24.5884, 7.29126, 0.827819, 3.27456, 0.0229602, 0.00167892, -0.000911511, -0.00159026, -0.00197635, -0.00424882, 0.000920371, -0.0112362, 0.000439085, 0.0132339, -0.012307, 0.0598047, -0.0869775, 0.47084, -0.544438, 0.335012, -2.08349, -2.16534, -0.128389, 0.469929, -0.543062, 0.336871, -2.0877, -2.16752, -0.126174, -0.00445179, -0.0276151, -0.0238135, -0.00479751, -0.0185737, -0.00899086
0.112116, 1.69284, -1.22396, -1.53896, -0.898372, -1.1935, 1.23073, -1.30255, 0.0300583, 0.00124862, -0.0276445, 0.0455828, -0.0641711, 0.00325498, 0.00207713, -1.45226, 53.2819, 24.5884, 7.29126, 0.815917, 3.2883, 0.0165515, 0.00168719, -0.000913919, -0.0016073, -0.00197469, -0.00430505, 0.000972921, -0.0123987, -4.39105e-05, 0.0157943, -0.0133285, 0.0646823, -0.0869281, 0.470836, -0.544466, 0.334988, -2.08348, -2.16533, -0.128348, 0.469923, -0.543085, 0.336865, -2.08778, -2.16748, -0.126068, -0.00451631, -0.0280078, -0.0241779, -0.00432514, -0.0181922, -0.00666199
0.113116, 1.69288, -1.22396, -1.53899, -0.898317, -1.19358, 1.23074, -1.30255, 0.0309079, 0.000822091, -0.0270282, 0.0468175, -0.0673276, 0.0072199, -0.0073525, -1.41259, 53.2819, 24.5884, 7.29126, 0.822325, 3.27456, 0.00373412, 0.00169406, -0.000914268, -0.00162207, -0.00197731, -0.00436574, 0.00102583, -0.0119046, -0.000795452, 0.0165475, -0.0100533, 0.0689143, -0.0791304, 0.470831, -0.544494, 0.334964, -2.08347, -2.16531, -0.128305, 0.469918, -0.543108, 0.336857, -2.08785, -2.16744, -0.125962, -0.00458078, -0.0283999, -0.0245428, -0.0035928, -0.019157, -0.00638335
0.114116, 1.69292, -1.22396, -1.53903, -0.898255, -1.19365, 1.23075, -1.30255, 0.0367697, 0.00137554, -0.0328508, 0.0526174, -0.06842, 0.00940455, -0.00408253, -1.45226, 53.2462, 24.5884, 7.21588, 0.804015, 3.28097, -0.0356336, 0.00170291, -0.000913707, -0.00163515, -0.00197547, -0.00441842, 0.00108156, -0.0116263, -0.00209725, 0.0158138, -0.011473, 0.0717201, -0.0855067, 0.470826, -0.544522, 0.334939, -2.08346, -2.1653, -0.128263, 0.469914, -0.54313, 0.336846, -2.08793, -2.1674, -0.125858, -0.00464521, -0.0287914, -0.0249081, -0.00237405, -0.0196571, -0.00755723
0.115116, 1.69295, -1.22398, -1.53907, -0.898201, -1.19373, 1.23076, -1.30255, 0.0343323, -0.00252245, -0.0349127, 0.051047, -0.0697132, 0.0118011, -0.00343824, -1.33721, 53.3929, 24.6241, 7.25555, 0.791197, 3.26724, -0.0292249, 0.00170631, -0.000916717, -0.00164107, -0.00197286, -0.00446849, 0.00113854, -0.0101384, -0.00115095, 0.013218, -0.0121365, 0.0705123, -0.0891834, 0.470822, -0.544551, 0.334914, -2.08345, -2.16528, -0.128219, 0.469907, -0.543156, 0.336828, -2.088, -2.16735, -0.125755, -0.00470957, -0.0291822, -0.0252738, -0.00342693, -0.0211567, -0.0106871
0.116116, 1.69299, -1.22397, -1.53911, -0.898141, -1.1938, 1.23077, -1.30255, 0.0373504, -1.55541e-05, -0.0384898, 0.0540766, -0.0754105, 0.0139048, -0.00387226, -1.41259, 53.3215, 24.6241, 7.25555, 0.797606, 3.24527, 0.00373412, 0.00171576, -0.000913941, -0.00165592, -0.00197025, -0.00453465, 0.00118487, -0.00917075, -0.00129883, 0.0141883, -0.0145292, 0.0790129, -0.0927413, 0.470817, -0.54458, 0.334889, -2.08344, -2.16527, -0.128175, 0.469905, -0.543178, 0.336819, -2.08807, -2.16732, -0.125636, -0.00477385, -0.0295723, -0.0256399, -0.00327229, -0.0226451, -0.0102498
0.117116, 1.69303, -1.22398, -1.53914, -0.898079, -1.19388, 1.23078, -1.30255, 0.0373838, -0.00494625, -0.037507, 0.0583379, -0.0752752, 0.0148476, -0.00285105, -1.41259, 53.3929, 24.5884, 7.29126, 0.797606, 3.23886, 0.00373412, 0.00172341, -0.000913003, -0.00166542, -0.00197026, -0.00458615, 0.00123808, -0.00802303, -0.000881797, 0.0126158, -0.0108185, 0.0742513, -0.0975027, 0.470812, -0.54461, 0.334863, -2.08342, -2.16525, -0.12813, 0.469902, -0.543202, 0.336804, -2.08814, -2.16728, -0.125533, -0.00483806, -0.0299616, -0.0260062, -0.00377047, -0.0239428, -0.0123336
0.118116, 1.69307, -1.22398, -1.53919, -0.89801, -1.19396, 1.23079, -1.30255, 0.0359079, -0.00316431, -0.0408799, 0.0639414, -0.0798391, 0.0153187, -0.0030523, -1.33721, 53.2462, 24.5884, 7.21588, 0.791197, 3.23886, 0.0293689, 0.00172683, -0.000917966, -0.00168142, -0.00196854, -0.00465112, 0.00130337, -0.0046603, 0.00219396, 0.0136783, -0.0120721, 0.0799204, -0.107501, 0.470808, -0.54464, 0.334837, -2.08341, -2.16524, -0.128084, 0.469892, -0.543231, 0.336794, -2.08823, -2.16723, -0.125412, -0.00490216, -0.0303499, -0.0263728, -0.00674625, -0.0279402, -0.0120753
0.119116, 1.69311, -1.224, -1.53923, -0.897947, -1.19404, 1.23081, -1.30255, 0.0397196, -0.00833137, -0.0431387, 0.0594671, -0.078356, 0.01611, -0.000728424, -1.33721, 53.3572, 24.5884, 7.25555, 0.784789, 3.23153, -0.00999879, 0.00173224, -0.00091762, -0.00168538, -0.00196404, -0.00470081, 0.00136564, -0.00736096, -0.00103067, 0.0093951, -0.0154416, 0.0748513, -0.103293, 0.470803, -0.54467, 0.334811, -2.0834, -2.16522, -0.128038, 0.469888, -0.543257, 0.336772, -2.0883, -2.16717, -0.125304, -0.00496616, -0.0307373, -0.0267396, -0.00384621, -0.0248711, -0.0163546
0.120116, 1.69315, -1.224, -1.53927, -0.897882, -1.19412, 1.23082, -1.30255, 0.0417148, -0.00751949, -0.0455356, 0.0626098, -0.0774438, 0.0166882, 0.000587463, -1.30151, 53.2819, 24.513, 7.29126, 0.779296, 3.22421, -0.0420422, 0.00173863, -0.000917594, -0.00169831, -0.00196331, -0.00476632, 0.00142831, -0.00745148, -0.00128387, 0.00971649, -0.014973, 0.075386, -0.106905, 0.470798, -0.544701, 0.334784, -2.08339, -2.1652, -0.127991, 0.469883, -0.543283, 0.33676, -2.08839, -2.16712, -0.125183, -0.00503004, -0.0311236, -0.0271065, -0.00364799, -0.025207, -0.0163982
0.121116, 1.69319, -1.224, -1.53932, -0.897806, -1.19421, 1.23084, -1.30255, 0.0438681, -0.00546156, -0.0457104, 0.0676236, -0.0804172, 0.0172656, 6.89969e-05, -1.30151, 53.1351, 24.4733, 7.21588, 0.766478, 3.20956, -0.0356336, 0.00174133, -0.000919551, -0.00171406, -0.00196972, -0.0048363, 0.00149813, -0.00687311, -0.00113262, 0.0118128, -0.0134037, 0.0800394, -0.110422, 0.470793, -0.544732, 0.334757, -2.08337, -2.16519, -0.127943, 0.469877, -0.543314, 0.336748, -2.08849, -2.16707, -0.125064, -0.0050938, -0.0315088, -0.0274735, -0.003763, -0.0264914, -0.0147803
0.122116, 1.69323, -1.22401, -1.53937, -0.897738, -1.19429, 1.23086, -1.30255, 0.0418916, -0.00975351, -0.0477698, 0.0675882, -0.0839042, 0.0131324, -0.000492685, -1.26183, 53.0994, 24.513, 7.29126, 0.772887, 3.20224, -0.0228162, 0.00174324, -0.000923302, -0.00172209, -0.00196156, -0.00490174, 0.00156383, -0.00533698, 0.00133292, 0.0085991, -0.0201278, 0.0769026, -0.114531, 0.470788, -0.544764, 0.33473, -2.08336, -2.16517, -0.127895, 0.469868, -0.543345, 0.336729, -2.08858, -2.16702, -0.124934, -0.00515741, -0.0318928, -0.0278405, -0.00635468, -0.0279992, -0.0184805
0.123116, 1.69328, -1.22403, -1.53942, -0.897655, -1.19438, 1.23087, -1.30255, 0.0419896, -0.007615, -0.0484376, 0.0722566, -0.0867501, 0.013771, -0.00183449, -1.30151, 53.0994, 24.513, 7.18018, 0.779296, 3.20956, 0.0165515, 0.00174431, -0.000926248, -0.0017291, -0.00195955, -0.0049587, 0.0016371, -0.00386898, 0.0026252, 0.0106322, -0.0187202, 0.0815679, -0.119152, 0.470782, -0.544796, 0.334702, -2.08335, -2.16515, -0.127846, 0.46986, -0.543377, 0.336709, -2.08867, -2.16695, -0.124817, -0.00522087, -0.0322756, -0.0282076, -0.00757953, -0.0301965, -0.0170264
0.124116, 1.69332, -1.22404, -1.53947, -0.897586, -1.19447, 1.23089, -1.30256, 0.0450221, -0.00901797, -0.0478964, 0.0711219, -0.0879959, 0.0153631, -0.00197105, -1.33721, 53.0994, 24.4733, 7.25555, 0.766478, 3.18851, 0.0357776, 0.00174988, -0.000925219, -0.00173524, -0.00195369, -0.00501996, 0.00169838, -0.00555284, 0.000330772, 0.0101343, -0.0181856, 0.082391, -0.115817, 0.470777, -0.544828, 0.334674, -2.08333, -2.16513, -0.127796, 0.469856, -0.543405, 0.336687, -2.08875, -2.1669, -0.124692, -0.00528417, -0.032657, -0.0285745, -0.00542968, -0.028745, -0.017697
0.125116, 1.69337, -1.22404, -1.53952, -0.897508, -1.19456, 1.23091, -1.30255, 0.0463874, -0.00969148, -0.049967, 0.0720804, -0.0895909, 0.0152235, 8.31339e-05, -1.33721, 52.9526, 24.4019, 7.25555, 0.772887, 3.20224, -0.00267457, 0.00175374, -0.000926176, -0.00175124, -0.00195589, -0.00509689, 0.00177429, -0.00550906, 0.000271667, 0.00936593, -0.0202821, 0.0833086, -0.119544, 0.470772, -0.54486, 0.334645, -2.08332, -2.16511, -0.127746, 0.469851, -0.543436, 0.336675, -2.08885, -2.16685, -0.124558, -0.0053473, -0.0330371, -0.0289414, -0.0054608, -0.0290477, -0.0188312
0.126116, 1.69343, -1.22405, -1.53958, -0.897429, -1.19465, 1.23093, -1.30255, 0.0490663, -0.00983799, -0.0531763, 0.0761279, -0.0901507, 0.0162102, 0.000781169, -1.41259, 52.9169, 24.4019, 7.25555, 0.772887, 3.18851, -0.0228162, 0.00175852, -0.000923448, -0.00175822, -0.00195245, -0.00516392, 0.00184109, -0.0050333, 5.60015e-05, 0.00896557, -0.0206031, 0.0843106, -0.123531, 0.470766, -0.544894, 0.334616, -2.0833, -2.1651, -0.127694, 0.469848, -0.543465, 0.336654, -2.08894, -2.16679, -0.124428, -0.00541024, -0.0334157, -0.0293081, -0.00530618, -0.0298256, -0.0196738
0.127116, 1.69347, -1.22407, -1.53963, -0.897349, -1.19474, 1.23095, -1.30255, 0.0481121, -0.0108499, -0.0571606, 0.0760107, -0.0903568, 0.0169467, 0.00121768, -1.37688, 52.9169, 24.3265, 7.25555, 0.754576, 3.17386, -0.0420422, 0.00175865, -0.000926156, -0.0017656, -0.00195512, -0.00522896, 0.00192351, -0.00402545, 0.00107247, 0.00736809, -0.0231524, 0.0843474, -0.127438, 0.470761, -0.544927, 0.334587, -2.08329, -2.16508, -0.127643, 0.46984, -0.5435, 0.336632, -2.08905, -2.16673, -0.124304, -0.00547299, -0.0337927, -0.0296745, -0.00640827, -0.0309939, -0.0217414
0.128116, 1.69352, -1.22408, -1.53969, -0.897265, -1.19484, 1.23097, -1.30255, 0.0471645, -0.0104751, -0.0620061, 0.0799044, -0.0915647, 0.0211601, 0.0008004, -1.30151, 52.8772, 24.3265, 7.21588, 0.760985, 3.17386, -0.0420422, 0.00175767, -0.000931412, -0.00177327, -0.00194739, -0.00529831, 0.00200864, -0.0012251, 0.00264379, 0.00714977, -0.0218784, 0.0880151, -0.134767, 0.470756, -0.544961, 0.334557, -2.08327, -2.16506, -0.12759, 0.46983, -0.543536, 0.33661, -2.08915, -2.16665, -0.124163, -0.00553554, -0.0341681, -0.0300408, -0.00794844, -0.0341649, -0.0227068
0.129116, 1.69357, -1.22409, -1.53975, -0.897185, -1.19493, 1.23099, -1.30255, 0.0489467, -0.0102779, -0.0603529, 0.0800607, -0.0908747, 0.0211498, 5.0344e-05, -1.33721, 52.8415, 24.2512, 7.29126, 0.748168, 3.14548, -0.0292249, 0.00176175, -0.000929974, -0.00178214, -0.00194869, -0.00536838, 0.00207896, -0.0028987, 0.00125302, 0.0080881, -0.0199127, 0.0878419, -0.132038, 0.47075, -0.544995, 0.334527, -2.08326, -2.16504, -0.127537, 0.469826, -0.543567, 0.336589, -2.08925, -2.1666, -0.124033, -0.00559787, -0.0345419, -0.0304067, -0.00664544, -0.0329734, -0.0219313
0.130116, 1.69362, -1.22409, -1.53981, -0.897096, -1.19502, 1.23102, -1.30255, 0.0494072, -0.00927713, -0.0587524, 0.0805431, -0.0962826, 0.0200288, -0.000956185, -1.33721, 52.7701, 24.1401, 7.21588, 0.748168, 3.14548, -0.00267457, 0.00176214, -0.000931551, -0.00179414, -0.00195471, -0.00544405, 0.00215855, -0.00286264, 0.00159572, 0.00950107, -0.0213736, 0.0928478, -0.132732, 0.470744, -0.545029, 0.334497, -2.08324, -2.16502, -0.127483, 0.46982, -0.543603, 0.336571, -2.08936, -2.16654, -0.1239, -0.00565998, -0.0349139, -0.0307722, -0.00699448, -0.033612, -0.0208962
0.131116, 1.69367, -1.2241, -1.53988, -0.897013, -1.19512, 1.23105, -1.30255, 0.0485992, -0.00865694, -0.063362, 0.082308, -0.0955934, 0.0233609, -0.00111698, -1.30151, 52.6947, 24.1401, 7.21588, 0.741759, 3.1528, 0.0101428, 0.00176328, -0.000933808, -0.00180382, -0.00194916, -0.00552217, 0.00223884, -0.00128908, 0.00252192, 0.00912868, -0.0207801, 0.0949562, -0.137575, 0.470739, -0.545064, 0.334466, -2.08323, -2.165, -0.127428, 0.469812, -0.543639, 0.33655, -2.08946, -2.16647, -0.123752, -0.00572185, -0.0352841, -0.0311374, -0.00793912, -0.0355164, -0.0218431
0.132116, 1.69372, -1.22411, -1.53995, -0.896923, -1.19521, 1.23107, -1.30256, 0.0458648, -0.0107431, -0.0666389, 0.0836343, -0.0949025, 0.0266073, -0.00169769, -1.30151, 52.7304, 24.1401, 7.21588, 0.741759, 3.13815, 0.0357776, 0.00176326, -0.000934587, -0.00180986, -0.00194925, -0.00559354, 0.00231997, 0.000984551, 0.00416199, 0.00766349, -0.019246, 0.0942179, -0.142826, 0.470733, -0.5451, 0.334435, -2.08321, -2.16498, -0.127372, 0.469806, -0.543675, 0.336525, -2.08957, -2.16641, -0.123615, -0.00578347, -0.0356524, -0.0315021, -0.00961318, -0.0379717, -0.0239539
0.133116, 1.69378, -1.22412, -1.54001, -0.896829, -1.1953, 1.2311, -1.30255, 0.0488774, -0.009714, -0.0664646, 0.0886339, -0.0939179, 0.024259, -0.000422418, -1.37688, 52.659, 24.029, 7.18018, 0.723448, 3.13815, 0.0165515, 0.00176774, -0.000931075, -0.0018222, -0.00195695, -0.00566975, 0.0023993, 0.000133456, 0.00383944, 0.00896987, -0.0182697, 0.0931937, -0.145785, 0.470727, -0.545135, 0.334403, -2.08319, -2.16496, -0.127316, 0.469804, -0.543708, 0.336506, -2.08968, -2.16635, -0.123482, -0.00584484, -0.0360188, -0.0318663, -0.00933254, -0.0376851, -0.0229065
0.134116, 1.69384, -1.22413, -1.54008, -0.896742, -1.19539, 1.23113, -1.30255, 0.0479652, -0.0106319, -0.0697718, 0.0897767, -0.0935022, 0.0273695, 0.00117442, -1.33721, 52.659, 24.0647, 7.25555, 0.729857, 3.1235, -0.0228162, 0.00176821, -0.000931861, -0.00182782, -0.00195318, -0.0057449, 0.00248798, 0.00148115, 0.00449911, 0.00805099, -0.0172618, 0.0938566, -0.151383, 0.470721, -0.545171, 0.334371, -2.08318, -2.16494, -0.127259, 0.469798, -0.543744, 0.33648, -2.08979, -2.16627, -0.123335, -0.00590595, -0.0363832, -0.0322299, -0.0100392, -0.0392659, -0.0243648
0.135116, 1.69389, -1.22414, -1.54015, -0.89665, -1.19549, 1.23116, -1.30255, 0.0469062, -0.0121051, -0.0700847, 0.0884185, -0.0882782, 0.0290533, 0.00173087, -1.26183, 52.6947, 24.029, 7.29126, 0.717955, 3.1235, -0.0484509, 0.00176722, -0.000934462, -0.00183795, -0.0019617, -0.00582017, 0.00257674, 0.000484698, 0.00385917, 0.00739171, -0.0138484, 0.0893406, -0.150837, 0.470716, -0.545208, 0.334339, -2.08316, -2.16492, -0.127202, 0.46979, -0.543783, 0.336458, -2.08991, -2.1662, -0.123201, -0.00596678, -0.0367455, -0.032593, -0.00952114, -0.0385169, -0.0252449
0.136116, 1.69395, -1.22414, -1.54022, -0.896549, -1.19558, 1.2312, -1.30255, 0.0520025, -0.00651833, -0.0684805, 0.0936537, -0.0895108, 0.0297094, 0.000440694, -1.30151, 52.5836, 24.029, 7.18018, 0.705138, 3.13815, -0.0292249, 0.00176966, -0.000932989, -0.00185183, -0.00197172, -0.00589986, 0.00266302, -0.00120205, 0.00196047, 0.0120844, -0.00985506, 0.0961193, -0.149516, 0.47071, -0.545245, 0.334306, -2.08314, -2.16489, -0.127143, 0.469786, -0.54382, 0.336439, -2.09003, -2.16614, -0.123064, -0.00602732, -0.0371056, -0.0329554, -0.0075656, -0.0378544, -0.0207737
0.137116, 1.694, -1.22414, -1.54029, -0.896455, -1.19567, 1.23123, -1.30255, 0.0481684, -0.00570009, -0.073567, 0.0935024, -0.0906933, 0.0311415, -0.000181777, -1.15075, 52.4725, 24.029, 7.25555, 0.711547, 3.13083, -0.0164075, 0.00176837, -0.000936179, -0.00186638, -0.00198323, -0.00598459, 0.00275258, 0.00141452, 0.00480791, 0.0113824, -0.0126263, 0.0991426, -0.156076, 0.470704, -0.545282, 0.334273, -2.08313, -2.16487, -0.127084, 0.469777, -0.543861, 0.33642, -2.09016, -2.16607, -0.122922, -0.00608756, -0.0374636, -0.0333171, -0.0104028, -0.0408045, -0.0221416
0.138116, 1.69406, -1.22416, -1.54037, -0.896349, -1.19576, 1.23127, -1.30256, 0.0511359, -0.0080865, -0.0734058, 0.0960849, -0.0865868, 0.0318931, -0.00110517, -1.11108, 52.6193, 23.9893, 7.21588, 0.705138, 3.13083, 0.0101428, 0.00176695, -0.000935709, -0.00187289, -0.00199936, -0.00605216, 0.002842, -8.59914e-05, 0.00298691, 0.0106095, -0.00895078, 0.093928, -0.153658, 0.470697, -0.545319, 0.33424, -2.08311, -2.16485, -0.127025, 0.469772, -0.5439, 0.336393, -2.09028, -2.166, -0.122802, -0.0061475, -0.0378192, -0.0336781, -0.00872658, -0.0394854, -0.0230922
0.139116, 1.69412, -1.22416, -1.54044, -0.896249, -1.19584, 1.23131, -1.30256, 0.0556582, -0.00259691, -0.0761335, 0.0993967, -0.0878274, 0.0363531, -0.00144934, -1.0357, 52.4725, 23.9536, 7.25555, 0.705138, 3.14548, 0.0293689, 0.00176919, -0.000935225, -0.00188961, -0.00201416, -0.00613694, 0.00293213, -0.000768254, 0.00104688, 0.0138162, -0.00626921, 0.102957, -0.154241, 0.470691, -0.545357, 0.334206, -2.08309, -2.16483, -0.126964, 0.469767, -0.543939, 0.336377, -2.09041, -2.16593, -0.122663, -0.00620712, -0.0381726, -0.0340383, -0.00674939, -0.0395778, -0.0202432
0.140116, 1.69418, -1.22417, -1.54052, -0.896139, -1.19593, 1.23135, -1.30255, 0.0577211, -0.00564463, -0.0775866, 0.10451, -0.0894347, 0.036255, 0.000491476, -1.0357, 52.6193, 24.029, 7.18018, 0.711547, 3.13815, -0.00999879, 0.0017671, -0.000934137, -0.00189461, -0.00202813, -0.00620743, 0.0030312, 0.000328466, 0.00137779, 0.0124103, -0.00611599, 0.101201, -0.16048, 0.470685, -0.545395, 0.334172, -2.08307, -2.1648, -0.126903, 0.469762, -0.54398, 0.336347, -2.09054, -2.16585, -0.122535, -0.00626642, -0.0385235, -0.0343977, -0.00715359, -0.0408092, -0.0221498
0.141116, 1.69424, -1.22417, -1.5406, -0.896028, -1.19602, 1.2314, -1.30255, 0.0577274, -0.00563039, -0.0770366, 0.105634, -0.0908493, 0.0400265, 0.00032738, -0.960319, 52.5479, 24.029, 7.21588, 0.717955, 3.13815, -0.00999879, 0.00176517, -0.000934312, -0.00191193, -0.00205099, -0.00629809, 0.0031308, 0.000813777, 0.000948965, 0.013414, -0.00207696, 0.104412, -0.162173, 0.470679, -0.545434, 0.334138, -2.08305, -2.16478, -0.126841, 0.469757, -0.544023, 0.33633, -2.09068, -2.16578, -0.122396, -0.00632538, -0.038872, -0.0347562, -0.00672783, -0.0417732, -0.0216063
0.142116, 1.69431, -1.22418, -1.54069, -0.895913, -1.19611, 1.23144, -1.30255, 0.0615391, -0.0068867, -0.0819728, 0.107601, -0.0906561, 0.0427316, 0.00191347, -0.920646, 52.659, 24.1401, 7.21588, 0.699645, 3.14548, -0.0557752, 0.0017623, -0.000934426, -0.00192025, -0.00206794, -0.00637385, 0.00323766, 0.000698363, -0.000478465, 0.011555, -0.00329446, 0.104936, -0.16467, 0.470673, -0.545473, 0.334103, -2.08303, -2.16476, -0.126778, 0.469751, -0.544066, 0.336303, -2.09082, -2.16569, -0.122263, -0.006384, -0.0392179, -0.0351138, -0.00543603, -0.0416613, -0.0238281
0.143116, 1.69437, -1.22419, -1.54076, -0.895798, -1.1962, 1.23148, -1.30255, 0.0635339, -0.00582734, -0.0815169, 0.1088, -0.0915557, 0.0439931, 0.000292152, -0.845268, 52.6947, 24.0647, 7.21588, 0.705138, 3.17386, -0.0292249, 0.00176035, -0.000935363, -0.00193774, -0.00209607, -0.00645884, 0.00333986, -0.000116075, -0.00157118, 0.0128254, -0.0014532, 0.107592, -0.162906, 0.470666, -0.545512, 0.334068, -2.08301, -2.16473, -0.126715, 0.469744, -0.544109, 0.336285, -2.09097, -2.16562, -0.122134, -0.00644226, -0.0395612, -0.0354704, -0.00438232, -0.0413506, -0.02284
0.144116, 1.69443, -1.22419, -1.54086, -0.895681, -1.19629, 1.23153, -1.30255, 0.062751, -0.00418564, -0.0843869, 0.109948, -0.0908812, 0.0454063, -0.000517423, -0.809562, 52.6947, 24.2512, 7.21588, 0.686827, 3.18851, -0.00999879, 0.00175724, -0.000935387, -0.00194887, -0.00210798, -0.00654823, 0.00344474, 0.000634943, -0.000721458, 0.0134118, -0.00120242, 0.109762, -0.165731, 0.47066, -0.545551, 0.334033, -2.08299, -2.16471, -0.126651, 0.469739, -0.544154, 0.33626, -2.09111, -2.16554, -0.121981, -0.00650015, -0.0399019, -0.035826, -0.00523881, -0.0425575, -0.0227052
0.145116, 1.69449, -1.2242, -1.54094, -0.895557, -1.19638, 1.23158, -1.30255, 0.0606677, -0.00728487, -0.0859846, 0.114619, -0.0914341, 0.0461315, -0.000616302, -0.694511, 52.8772, 24.2908, 7.18018, 0.686827, 3.21689, -0.00267457, 0.00175057, -0.000938485, -0.00195944, -0.00213777, -0.00662318, 0.0035577, 0.00336872, 0.00160199, 0.0121439, 0.000442382, 0.107436, -0.173354, 0.470653, -0.545591, 0.333997, -2.08297, -2.16469, -0.126586, 0.46973, -0.544202, 0.336233, -2.09127, -2.16544, -0.121861, -0.00655767, -0.0402399, -0.0361806, -0.00756803, -0.0454951, -0.0246588
0.146116, 1.69456, -1.2242, -1.54102, -0.895435, -1.19648, 1.23163, -1.30255, 0.0590607, -0.00502575, -0.0846068, 0.117289, -0.0925661, 0.0468321, 9.76943e-05, -0.583427, 52.8772, 24.3622, 7.18018, 0.693236, 3.23886, -0.0164075, 0.00174598, -0.000938995, -0.00197818, -0.00216811, -0.00672133, 0.00366933, 0.00427871, 0.00286071, 0.0147849, 0.0038545, 0.110897, -0.178431, 0.470647, -0.545631, 0.333961, -2.08295, -2.16466, -0.12652, 0.469724, -0.54425, 0.336215, -2.09143, -2.16537, -0.121718, -0.00661481, -0.0405751, -0.036534, -0.0087469, -0.0471855, -0.022504
0.147116, 1.69463, -1.22422, -1.5411, -0.895311, -1.19657, 1.23167, -1.30255, 0.0629862, -0.0100828, -0.0808764, 0.116289, -0.0923783, 0.0519572, -0.00115562, -0.543754, 53.024, 24.3265, 7.18018, 0.699645, 3.25259, 0.0165515, 0.00174553, -0.000936015, -0.00199147, -0.00219893, -0.00680021, 0.00376689, 0.00205583, -0.0013369, 0.0135396, 0.0105507, 0.108532, -0.171141, 0.47064, -0.545672, 0.333924, -2.08293, -2.16464, -0.126454, 0.469721, -0.544293, 0.336191, -2.09157, -2.16529, -0.121595, -0.00667155, -0.0409074, -0.0368864, -0.00473814, -0.04496, -0.0238797
0.148116, 1.6947, -1.22422, -1.54118, -0.895178, -1.19667, 1.23172, -1.30256, 0.06974, -0.00800932, -0.0865914, 0.119193, -0.0922235, 0.055864, -0.00100781, -0.543754, 53.0637, 24.3622, 7.14447, 0.693236, 3.26724, 0.0229602, 0.00174314, -0.000933793, -0.00200869, -0.00223328, -0.00688779, 0.00387215, 0.000903159, -0.00421646, 0.013456, 0.00997352, 0.113088, -0.17056, 0.470633, -0.545713, 0.333887, -2.08291, -2.16461, -0.126387, 0.469717, -0.544338, 0.336171, -2.09172, -2.16522, -0.121466, -0.00672789, -0.0412368, -0.0372375, -0.00196225, -0.0440204, -0.0242299
0.149116, 1.69478, -1.22423, -1.54127, -0.89505, -1.19677, 1.23178, -1.30256, 0.0718617, -0.00727958, -0.0877836, 0.122244, -0.0929259, 0.0547132, 0.000277536, -0.543754, 53.1351, 24.4019, 7.18018, 0.693236, 3.27456, -0.00267457, 0.00174133, -0.000929176, -0.00202364, -0.00226569, -0.00698004, 0.00397938, 0.000682948, -0.00425813, 0.0139826, 0.00921757, 0.114028, -0.173924, 0.470627, -0.545754, 0.33385, -2.08289, -2.16458, -0.126319, 0.469716, -0.544384, 0.336148, -2.09188, -2.16514, -0.121329, -0.00678382, -0.0415633, -0.0375874, -0.00196312, -0.0442084, -0.0240274
0.150116, 1.69486, -1.22423, -1.54135, -0.894914, -1.19687, 1.23183, -1.30255, 0.0740381, -0.00505526, -0.0885506, 0.126152, -0.0938892, 0.0541304, 0.00140571, -0.583427, 53.1351, 24.4376, 7.18018, 0.717955, 3.27456, -0.0356336, 0.00173961, -0.000925471, -0.00204121, -0.00229566, -0.00707555, 0.00409542, 0.000573501, -0.00425521, 0.0157083, 0.0097373, 0.116852, -0.177738, 0.47062, -0.545796, 0.333812, -2.08287, -2.16456, -0.126251, 0.469714, -0.544429, 0.336128, -2.09204, -2.16506, -0.121185, -0.00683932, -0.0418868, -0.0379361, -0.00195736, -0.0446886, -0.0226552
0.151116, 1.69493, -1.22424, -1.54145, -0.894773, -1.19697, 1.23188, -1.30255, 0.0757497, -0.00528506, -0.090903, 0.128976, -0.0935165, 0.0565374, 0.00168311, -0.508049, 53.2104, 24.5487, 7.18018, 0.711547, 3.31027, -0.0557752, 0.00173237, -0.000926918, -0.00205483, -0.00232497, -0.00716505, 0.00421805, 0.000966503, -0.00470021, 0.0155637, 0.0114255, 0.117817, -0.180471, 0.470613, -0.545838, 0.333774, -2.08285, -2.16453, -0.126182, 0.469706, -0.544481, 0.336102, -2.09221, -2.16496, -0.121044, -0.0068944, -0.0422071, -0.0382834, -0.00155889, -0.0453564, -0.0232212
0.152116, 1.69501, -1.22425, -1.54154, -0.894627, -1.19706, 1.23193, -1.30255, 0.0793905, -0.00447233, -0.0891785, 0.136296, -0.0976457, 0.0546481, 0.000138716, -0.508049, 53.2462, 24.5487, 7.1048, 0.717955, 3.33133, -0.0292249, 0.00172807, -0.000925023, -0.00207151, -0.00236167, -0.00725398, 0.00433569, 0.00132561, -0.00461863, 0.0176195, 0.0127739, 0.12076, -0.182998, 0.470606, -0.54588, 0.333736, -2.08282, -2.1645, -0.126112, 0.469702, -0.54453, 0.33608, -2.09238, -2.16487, -0.120912, -0.00694903, -0.0425243, -0.0386293, -0.00160102, -0.0463468, -0.0215904
0.153116, 1.69509, -1.22426, -1.54163, -0.89448, -1.19716, 1.23199, -1.30255, 0.0800863, -0.00566531, -0.0913131, 0.140209, -0.0968099, 0.0544181, -0.00014489, -0.43267, 53.3572, 24.5487, 7.06909, 0.729857, 3.324, -0.0228162, 0.00172119, -0.000923135, -0.00208415, -0.002402, -0.00734024, 0.00445722, 0.00217909, -0.00387365, 0.0169475, 0.0131619, 0.118941, -0.186856, 0.470599, -0.545922, 0.333697, -2.0828, -2.16448, -0.126041, 0.469698, -0.544581, 0.336052, -2.09255, -2.16478, -0.120786, -0.00700322, -0.0428383, -0.0389739, -0.00239422, -0.0474308, -0.0227062
0.154116, 1.69517, -1.22427, -1.54172, -0.894329, -1.19727, 1.23205, -1.30255, 0.0785468, -0.00384085, -0.0904307, 0.146078, -0.0957252, 0.0545988, -0.0013173, -0.392998, 53.3572, 24.5487, 7.02942, 0.717955, 3.30295, 0.0101428, 0.00171363, -0.000921591, -0.00210015, -0.00244263, -0.00743556, 0.00457932, 0.0036828, -0.00200017, 0.0195423, 0.0181928, 0.119677, -0.192272, 0.470592, -0.545965, 0.333659, -2.08278, -2.16445, -0.12597, 0.469694, -0.544633, 0.336028, -2.09272, -2.16469, -0.120649, -0.00705695, -0.0431491, -0.039317, -0.00416285, -0.0497009, -0.0206579
0.155116, 1.69526, -1.22429, -1.54181, -0.894179, -1.19737, 1.2321, -1.30255, 0.0828332, -0.00661548, -0.0910352, 0.143888, -0.090813, 0.0533946, -0.00111557, -0.468376, 53.3929, 24.4733, 7.02942, 0.729857, 3.31759, 0.0165515, 0.00171206, -0.000914089, -0.00211509, -0.00248119, -0.00752728, 0.00469134, 6.78895e-05, -0.00524075, 0.017355, 0.0174069, 0.11302, -0.185593, 0.470585, -0.546008, 0.333619, -2.08275, -2.16442, -0.125898, 0.469695, -0.54468, 0.336003, -2.09289, -2.16461, -0.120515, -0.00711021, -0.0434565, -0.0396587, -0.00119273, -0.0459707, -0.0227079
0.156116, 1.69534, -1.2243, -1.5419, -0.89402, -1.19747, 1.23216, -1.30255, 0.0803049, -0.00888558, -0.0933931, 0.150074, -0.0871812, 0.0576144, 0.000951707, -0.317619, 53.4326, 24.4733, 6.95801, 0.736266, 3.31027, -0.0292249, 0.0017003, -0.000916858, -0.0021303, -0.00252314, -0.00762067, 0.00483065, 0.00309783, -0.00327356, 0.0168368, 0.0242455, 0.109766, -0.196116, 0.470578, -0.546052, 0.33358, -2.08273, -2.16439, -0.125825, 0.469686, -0.544738, 0.335977, -2.09308, -2.1645, -0.120379, -0.007163, -0.0437605, -0.0399988, -0.00312209, -0.0492673, -0.0239632
0.157116, 1.69543, -1.22431, -1.542, -0.893864, -1.19758, 1.23222, -1.30255, 0.0841268, -0.00958873, -0.0981308, 0.149205, -0.0931821, 0.0604646, 0.000871828, -0.392998, 53.4326, 24.4733, 6.99371, 0.748168, 3.31027, -0.0356336, 0.0016962, -0.000910306, -0.00214189, -0.00255608, -0.00771463, 0.00495346, 0.00332754, -0.00468354, 0.0149954, 0.0191489, 0.11628, -0.196437, 0.470571, -0.546096, 0.33354, -2.08271, -2.16437, -0.125751, 0.469686, -0.544787, 0.335947, -2.09325, -2.16441, -0.120233, -0.0072153, -0.0440611, -0.0403373, -0.00182981, -0.0494543, -0.0262029
0.158116, 1.69551, -1.22432, -1.54211, -0.893697, -1.19768, 1.23228, -1.30254, 0.0793734, -0.00840719, -0.103703, 0.158113, -0.0970659, 0.0586002, 0.00180192, -0.242241, 53.3572, 24.4376, 6.88263, 0.729857, 3.30295, -0.0685925, 0.00168326, -0.00091449, -0.00215897, -0.0025954, -0.00781344, 0.00510285, 0.00934753, 0.00175325, 0.0153379, 0.0163164, 0.119514, -0.214547, 0.470564, -0.54614, 0.333499, -2.08268, -2.16434, -0.125677, 0.469676, -0.544846, 0.335922, -2.09345, -2.16429, -0.120086, -0.0072671, -0.0443582, -0.0406742, -0.00808204, -0.0560116, -0.0269179
0.159116, 1.69561, -1.22433, -1.54222, -0.893537, -1.19779, 1.23234, -1.30255, 0.0816559, -0.00634359, -0.103096, 0.157421, -0.0966996, 0.057099, -1.9425e-05, -0.242241, 53.3572, 24.4376, 6.95801, 0.741759, 3.29562, -0.0356336, 0.00167586, -0.000910187, -0.00216952, -0.00262651, -0.00791163, 0.00522894, 0.00723072, 0.000438226, 0.0167219, 0.0156518, 0.120982, -0.210169, 0.470556, -0.546184, 0.333458, -2.08266, -2.16431, -0.125602, 0.469674, -0.5449, 0.335891, -2.09363, -2.16419, -0.119932, -0.00731841, -0.0446518, -0.0410095, -0.0068394, -0.0543734, -0.0256031
0.160116, 1.69571, -1.22434, -1.54234, -0.893371, -1.19789, 1.23239, -1.30255, 0.0850617, -0.005339, -0.105168, 0.158811, -0.0954233, 0.0503229, -0.00218309, -0.317619, 53.2462, 24.4376, 6.95801, 0.748168, 3.324, 0.0229602, 0.00167031, -0.000905645, -0.00218072, -0.00265039, -0.00800924, 0.00535297, 0.00516464, 0.000269034, 0.0162946, 0.00921285, 0.118076, -0.207138, 0.470549, -0.546229, 0.333417, -2.08263, -2.16428, -0.125526, 0.469672, -0.544951, 0.33586, -2.0938, -2.16409, -0.119771, -0.0073692, -0.0449417, -0.0413431, -0.00681017, -0.0525508, -0.0260445
0.161116, 1.6958, -1.22435, -1.54245, -0.893193, -1.198, 1.23246, -1.30255, 0.0872501, -0.00656553, -0.105487, 0.166668, -0.0944392, 0.0510429, 0.000477386, -0.242241, 53.2104, 24.3622, 6.91833, 0.736266, 3.31759, -0.0292249, 0.00165661, -0.000906741, -0.0021909, -0.00268735, -0.00810319, 0.00550676, 0.00624142, 0.000564307, 0.0167911, 0.0137389, 0.116172, -0.214994, 0.470542, -0.546274, 0.333376, -2.08261, -2.16425, -0.12545, 0.469664, -0.545011, 0.335826, -2.094, -2.16397, -0.119623, -0.00741948, -0.0452279, -0.0416749, -0.00709653, -0.0539884, -0.0260427
0.162116, 1.6959, -1.22436, -1.54258, -0.893021, -1.1981, 1.23251, -1.30255, 0.0936837, -0.00734574, -0.109253, 0.167953, -0.0943882, 0.0510157, -0.00137716, -0.242241, 53.1747, 24.3265, 6.95801, 0.741759, 3.324, 0.0165515, 0.00164798, -0.0009039, -0.0021992, -0.00271283, -0.00819776, 0.00564014, 0.00427506, -0.00216125, 0.0151471, 0.0104389, 0.116079, -0.210356, 0.470534, -0.546319, 0.333334, -2.08258, -2.16422, -0.125373, 0.469661, -0.545066, 0.335791, -2.09418, -2.16386, -0.119464, -0.00746922, -0.0455105, -0.042005, -0.00455831, -0.0519654, -0.0277839
0.163116, 1.696, -1.22437, -1.5427, -0.892839, -1.1982, 1.23258, -1.30255, 0.0947911, -0.00928143, -0.112717, 0.17239, -0.0982513, 0.051529, 0.000777311, -0.206535, 53.0637, 24.2908, 6.99371, 0.729857, 3.31759, -0.0292249, 0.00163659, -0.000903632, -0.00221096, -0.00275097, -0.00828991, 0.00578957, 0.00648736, -0.000900539, 0.0136832, 0.00824926, 0.117831, -0.218894, 0.470527, -0.546364, 0.333292, -2.08255, -2.16419, -0.125295, 0.469655, -0.545125, 0.335759, -2.09438, -2.16373, -0.119319, -0.00751843, -0.0457892, -0.0423333, -0.00584555, -0.0542556, -0.0298573
0.164116, 1.6961, -1.22438, -1.54282, -0.892647, -1.1983, 1.23264, -1.30255, 0.0968067, -0.0102414, -0.117315, 0.177342, -0.0967783, 0.0555676, 0.000518207, -0.206535, 52.9169, 24.2154, 6.95801, 0.717955, 3.324, -0.0292249, 0.00162609, -0.000900384, -0.00222533, -0.00279558, -0.00838548, 0.00593651, 0.00791019, -0.00106274, 0.0127294, 0.010806, 0.118013, -0.223335, 0.470519, -0.54641, 0.33325, -2.08253, -2.16416, -0.125216, 0.469651, -0.545183, 0.33573, -2.09458, -2.16362, -0.119177, -0.00756709, -0.0460641, -0.0426597, -0.00571912, -0.0557823, -0.0313512
0.165116, 1.69621, -1.2244, -1.54295, -0.892458, -1.1984, 1.2327, -1.30255, 0.100302, -0.0136121, -0.121556, 0.180971, -0.0999283, 0.054277, 0.00105755, -0.166862, 52.8772, 24.1758, 6.91833, 0.717955, 3.33133, -0.0484509, 0.00161626, -0.000896084, -0.00223404, -0.00283146, -0.00847674, 0.00608718, 0.00879977, -0.000973896, 0.00974632, 0.00582429, 0.117073, -0.2273, 0.470512, -0.546456, 0.333207, -2.0825, -2.16412, -0.125137, 0.469649, -0.54524, 0.335694, -2.09477, -2.16349, -0.119028, -0.0076152, -0.0463352, -0.0429842, -0.00594281, -0.0564778, -0.0347559
0.166116, 1.69632, -1.22441, -1.54308, -0.89226, -1.1985, 1.23277, -1.30254, 0.100441, -0.0152131, -0.123719, 0.184003, -0.0984507, 0.0539926, 0.00121366, -0.0161054, 52.8058, 24.1401, 6.84296, 0.723448, 3.324, -0.0621838, 0.00160111, -0.000896317, -0.00224482, -0.00287505, -0.00857058, 0.00624876, 0.00959784, -0.000165801, 0.00871082, 0.00607831, 0.114409, -0.231157, 0.470504, -0.546503, 0.333164, -2.08247, -2.16409, -0.125057, 0.469642, -0.545303, 0.335659, -2.09499, -2.16335, -0.118884, -0.00766275, -0.0466022, -0.0433068, -0.00680993, -0.0574072, -0.0361969
0.167116, 1.69644, -1.22442, -1.54321, -0.892071, -1.1986, 1.23283, -1.30255, 0.104854, -0.0122947, -0.126847, 0.18886, -0.0972483, 0.0621515, -0.000648957, -0.0557783, 52.6947, 24.1044, 6.88263, 0.723448, 3.31759, -0.0228162, 0.00159743, -0.000884337, -0.00225321, -0.00290663, -0.00866689, 0.00637833, 0.00974565, -0.00259638, 0.0108035, 0.0133145, 0.120723, -0.230988, 0.470496, -0.546549, 0.333121, -2.08245, -2.16406, -0.124976, 0.469647, -0.545354, 0.335623, -2.09516, -2.16325, -0.118726, -0.00770973, -0.0468653, -0.0436274, -0.00434022, -0.0580372, -0.0345571
0.168116, 1.69655, -1.22444, -1.54333, -0.89187, -1.1987, 1.2329, -1.30256, 0.104877, -0.011969, -0.127199, 0.192632, -0.0962192, 0.0638426, -0.00260278, 0.170357, 52.659, 23.9893, 6.84296, 0.729857, 3.31759, 0.0357776, 0.00158543, -0.000882543, -0.00226314, -0.0029532, -0.00875051, 0.00652693, 0.0105559, -0.00214047, 0.0118292, 0.0171944, 0.121138, -0.232813, 0.470489, -0.546596, 0.333077, -2.08242, -2.16403, -0.124894, 0.469642, -0.545414, 0.335588, -2.09536, -2.16312, -0.118596, -0.00775613, -0.0471243, -0.043946, -0.00477143, -0.0592721, -0.0339729
0.169116, 1.69667, -1.22444, -1.54347, -0.891667, -1.19879, 1.23296, -1.30255, 0.109852, -0.0089932, -0.128243, 0.195154, -0.0909131, 0.0650061, -0.00102311, 0.21003, 52.5122, 24.029, 6.80725, 0.729857, 3.31759, 0.0165515, 0.00157823, -0.000875172, -0.00227653, -0.00299267, -0.00884772, 0.00667656, 0.0077932, -0.00497441, 0.0137062, 0.0209381, 0.120754, -0.231133, 0.470481, -0.546643, 0.333034, -2.08239, -2.164, -0.124812, 0.469643, -0.54547, 0.335556, -2.09556, -2.163, -0.118442, -0.00780194, -0.0473792, -0.0442625, -0.00200865, -0.0569706, -0.032106
0.170116, 1.69679, -1.22447, -1.5436, -0.891457, -1.19889, 1.23302, -1.30255, 0.113513, -0.0143609, -0.129808, 0.204563, -0.0911449, 0.0661394, -0.000207354, 0.360787, 52.5479, 23.9893, 6.73187, 0.736266, 3.31027, 0.00373412, 0.00156608, -0.000871093, -0.0022825, -0.00303547, -0.00892952, 0.00683548, 0.00964609, -0.00494909, 0.0114801, 0.02429, 0.115969, -0.237966, 0.470473, -0.546691, 0.332989, -2.08236, -2.16396, -0.124729, 0.46964, -0.54553, 0.335515, -2.09576, -2.16286, -0.118307, -0.00784715, -0.04763, -0.044577, -0.00210251, -0.0587105, -0.0349045
0.171116, 1.69692, -1.22447, -1.54374, -0.891241, -1.19899, 1.23308, -1.30255, 0.120734, -0.0107647, -0.134288, 0.20618, -0.092615, 0.0619368, 0.00179454, 0.400459, 52.4011, 23.9893, 6.73187, 0.766478, 3.324, -0.0484509, 0.00155785, -0.000863407, -0.0022942, -0.00307346, -0.00902455, 0.00699182, 0.00705811, -0.00688656, 0.0118061, 0.0165007, 0.119488, -0.237636, 0.470465, -0.546738, 0.332945, -2.08233, -2.16393, -0.124645, 0.469641, -0.545587, 0.335481, -2.09597, -2.16273, -0.118152, -0.00789177, -0.0478765, -0.0448893, -0.000289842, -0.0563721, -0.0345616
0.172116, 1.69704, -1.22449, -1.54388, -0.891019, -1.19909, 1.23315, -1.30255, 0.12032, -0.011734, -0.134008, 0.2097, -0.098049, 0.0638745, 0.00194235, 0.626595, 52.4011, 23.9536, 6.65649, 0.772887, 3.31759, -0.0685925, 0.00154251, -0.000861735, -0.00230345, -0.00311969, -0.00911321, 0.00716227, 0.00929557, -0.00568275, 0.0123021, 0.0179638, 0.123999, -0.243603, 0.470457, -0.546786, 0.3329, -2.0823, -2.16389, -0.124561, 0.469636, -0.545652, 0.335443, -2.09618, -2.16258, -0.11801, -0.00793577, -0.0481188, -0.0451995, -0.00143617, -0.0589489, -0.0346872
0.173116, 1.69717, -1.2245, -1.54403, -0.890793, -1.19918, 1.2332, -1.30255, 0.124211, -0.0104182, -0.137548, 0.214311, -0.102453, 0.0602762, 0.000820181, 0.701973, 52.3257, 23.9179, 6.62079, 0.804015, 3.33133, -0.0557752, 0.0015326, -0.000856181, -0.00231121, -0.00315242, -0.00919907, 0.00732558, 0.0097428, -0.00504799, 0.0122457, 0.011841, 0.127517, -0.246549, 0.470449, -0.546834, 0.332855, -2.08227, -2.16386, -0.124476, 0.469634, -0.545711, 0.335403, -2.09639, -2.16243, -0.117856, -0.00797915, -0.0483568, -0.0455074, -0.00209909, -0.0596458, -0.0350985
0.174116, 1.69731, -1.22452, -1.54418, -0.89056, -1.19928, 1.23326, -1.30255, 0.129755, -0.00817672, -0.139442, 0.219298, -0.0988363, 0.0536403, -0.000436557, 0.777352, 52.3257, 23.8425, 6.5097, 0.772887, 3.33865, -0.0292249, 0.00152218, -0.000849765, -0.00232045, -0.00319772, -0.00928041, 0.00748786, 0.00724126, -0.00589219, 0.0130018, 0.00829372, 0.123793, -0.244611, 0.470441, -0.546883, 0.332809, -2.08224, -2.16383, -0.12439, 0.469633, -0.54577, 0.335365, -2.09659, -2.16228, -0.117721, -0.00802191, -0.0485903, -0.0458132, -0.00135557, -0.0574906, -0.0343003
0.175116, 1.69744, -1.22453, -1.54433, -0.890326, -1.19937, 1.23333, -1.30255, 0.132537, -0.0118853, -0.143991, 0.221593, -0.0975464, 0.0529702, -0.0017491, 0.888436, 52.29, 23.9179, 6.47003, 0.791197, 3.34598, 0.0101428, 0.00151073, -0.000843414, -0.00232836, -0.00323232, -0.00937201, 0.00765109, 0.0073784, -0.00626484, 0.0096005, 0.00509687, 0.119361, -0.244898, 0.470433, -0.546931, 0.332763, -2.08221, -2.16379, -0.124304, 0.469633, -0.545831, 0.335325, -2.0968, -2.16214, -0.117562, -0.00806403, -0.0488195, -0.0461166, -0.00115806, -0.0573184, -0.0379966
0.176116, 1.69758, -1.22454, -1.54449, -0.890082, -1.19946, 1.23338, -1.30255, 0.132024, -0.011333, -0.146328, 0.227976, -0.0969213, 0.0529186, -0.00140343, 1.00349, 52.2543, 23.9536, 6.35895, 0.809508, 3.33865, 0.0165515, 0.00149578, -0.000842353, -0.00233757, -0.00327123, -0.00945594, 0.00783033, 0.00952002, -0.00418427, 0.0102871, 0.00689348, 0.11939, -0.252927, 0.470425, -0.54698, 0.332717, -2.08218, -2.16375, -0.124217, 0.469627, -0.545896, 0.335286, -2.09702, -2.16197, -0.117413, -0.00810551, -0.0490442, -0.0464177, -0.003173, -0.0598483, -0.0378793
0.177116, 1.69772, -1.22455, -1.54464, -0.889836, -1.19956, 1.23344, -1.30255, 0.137213, -0.0134898, -0.14727, 0.234247, -0.0916684, 0.053041, -0.000460899, 1.15424, 52.3257, 23.9536, 6.32324, 0.815917, 3.324, 0.00373412, 0.00148229, -0.000838117, -0.00234517, -0.00331332, -0.0095381, 0.00800714, 0.0081727, -0.00620927, 0.00956495, 0.011069, 0.113129, -0.25355, 0.470417, -0.547029, 0.332671, -2.08215, -2.16372, -0.124129, 0.469624, -0.54596, 0.335245, -2.09724, -2.16181, -0.117269, -0.00814634, -0.0492643, -0.0467165, -0.001268, -0.0585442, -0.0387536
0.178116, 1.69786, -1.22456, -1.54479, -0.889584, -1.19965, 1.23349, -1.30255, 0.138849, -0.0132753, -0.145793, 0.242097, -0.0956544, 0.0524453, 0.000676078, 1.26533, 52.3257, 23.8782, 6.28357, 0.809508, 3.33133, -0.0228162, 0.00147093, -0.000832976, -0.00235652, -0.00335716, -0.00962071, 0.00818158, 0.00989, -0.00506009, 0.0114421, 0.0139155, 0.115992, -0.261245, 0.470409, -0.547078, 0.332624, -2.08211, -2.16368, -0.12404, 0.469622, -0.546022, 0.335207, -2.09746, -2.16165, -0.117126, -0.00818651, -0.0494799, -0.0470129, -0.00231781, -0.0607902, -0.0374226
0.179116, 1.69801, -1.22457, -1.54495, -0.889329, -1.19975, 1.23355, -1.30255, 0.141907, -0.00996307, -0.152229, 0.242532, -0.0951142, 0.0474799, 0.000688078, 1.305, 52.3257, 23.9536, 6.32324, 0.815917, 3.34598, -0.0292249, 0.00145874, -0.000828524, -0.00236608, -0.00339248, -0.0097064, 0.00835968, 0.00879522, -0.00465907, 0.010882, 0.00474057, 0.11735, -0.262254, 0.470401, -0.547128, 0.332577, -2.08208, -2.16365, -0.123951, 0.469619, -0.546084, 0.335168, -2.09767, -2.16149, -0.11697, -0.00822601, -0.0496909, -0.0473069, -0.00281845, -0.0598508, -0.0380866
0.180116, 1.69816, -1.22459, -1.5451, -0.889068, -1.19985, 1.23359, -1.30255, 0.145818, -0.0100751, -0.150907, 0.249534, -0.0944806, 0.0480927, 0.0011708, 1.38038, 52.4368, 23.9179, 6.24786, 0.809508, 3.36062, -0.0484509, 0.001448, -0.000822523, -0.0023749, -0.0034352, -0.00978107, 0.00854106, 0.00853928, -0.00571122, 0.0123791, 0.00989, 0.116883, -0.264819, 0.470393, -0.547178, 0.33253, -2.08205, -2.16361, -0.123861, 0.469618, -0.546146, 0.335127, -2.09789, -2.16131, -0.116832, -0.00826484, -0.0498971, -0.0475984, -0.00175348, -0.0599904, -0.0368977
0.181116, 1.69832, -1.22461, -1.54526, -0.888796, -1.19994, 1.23364, -1.30255, 0.143956, -0.0122578, -0.155023, 0.254547, -0.0946126, 0.0485186, 0.00078053, 1.41608, 52.5122, 23.9536, 6.17248, 0.827819, 3.37436, -0.0484509, 0.00143407, -0.000819156, -0.00238438, -0.00347495, -0.00986014, 0.00872903, 0.0117276, -0.00291604, 0.0107314, 0.00948413, 0.115273, -0.273288, 0.470384, -0.547228, 0.332482, -2.08201, -2.16357, -0.12377, 0.469614, -0.546211, 0.335087, -2.09812, -2.16113, -0.116684, -0.00830299, -0.0500987, -0.0478874, -0.00453729, -0.0632023, -0.0392089
0.182116, 1.69846, -1.22461, -1.54542, -0.888526, -1.20004, 1.23368, -1.30255, 0.146744, -0.0111143, -0.155466, 0.258996, -0.0949422, 0.0445416, 4.56355e-05, 1.53114, 52.4725, 24.029, 6.20819, 0.840636, 3.38901, -0.0356336, 0.00141975, -0.000819437, -0.00239739, -0.00351153, -0.00994279, 0.00891904, 0.0111833, -0.0026291, 0.0116455, 0.00773724, 0.114883, -0.27471, 0.470376, -0.547278, 0.332434, -2.08198, -2.16353, -0.123678, 0.469607, -0.546277, 0.33505, -2.09835, -2.16095, -0.116529, -0.00834046, -0.0502955, -0.0481739, -0.00484203, -0.0630134, -0.0384988
0.183116, 1.69863, -1.22463, -1.54558, -0.888248, -1.20013, 1.23373, -1.30255, 0.148968, -0.0099834, -0.156119, 0.267199, -0.0987198, 0.0418271, 0.000267783, 1.49146, 52.5479, 23.9893, 6.17248, 0.846129, 3.39633, -0.0420422, 0.00140796, -0.000814118, -0.00240567, -0.00355058, -0.0100158, 0.00910542, 0.0128577, -0.00096552, 0.0131398, 0.00714393, 0.117596, -0.282188, 0.470368, -0.547328, 0.332386, -2.08195, -2.1635, -0.123586, 0.469605, -0.54634, 0.335008, -2.09857, -2.16077, -0.116386, -0.00837722, -0.0504874, -0.0484579, -0.0064185, -0.0651559, -0.0375077
0.184116, 1.69877, -1.22464, -1.54575, -0.887962, -1.20023, 1.23377, -1.30255, 0.149309, -0.00809879, -0.16191, 0.271175, -0.0924372, 0.0354825, -0.0015169, 1.64619, 52.5836, 24.1044, 6.20819, 0.846129, 3.40365, 0.00373412, 0.0013862, -0.000820687, -0.00241531, -0.0035881, -0.0100926, 0.00930821, 0.0127638, 0.00123524, 0.0124463, 0.00197261, 0.111722, -0.284933, 0.470359, -0.547378, 0.332338, -2.08191, -2.16346, -0.123493, 0.469591, -0.546414, 0.334966, -2.0988, -2.16057, -0.116234, -0.00841329, -0.0506745, -0.0487392, -0.00868308, -0.0652345, -0.0383814
