alisrour97/Franka_experiments/Real_Robot_scripts/servo-franka/Data2/log_dyn_PI2_8.csv
Time,q1,q2,q3,q4,q5,q6,q7,dq1,dq2,dq3,dq4,dq5,dq6,dq7,t1,t2,t3,t4,t5,t6,t7,ex1,ex2,ex3,ex4,ex5,ex6,ev1,ev2,ev3,ev4,ev5,ev6,xd,yd,zd,uxd,uyd,uzd,x,y,z,ux,uy,uz,vxd,vyd,vzd,vx,vy,vz
7.32422e-07, 1.69112, -1.22925, -1.54023, -0.900492, -1.19196, 1.22785, -1.30262, 0.0104713, 0.0105641, 0.010474, -0.00177372, 0.0068439, 0.0120717, -0.00120745, -0.43267, 65.5844, 32.4793, 7.62848, 1.94568, 3.89071, -0.160145, 0.000196772, -0.00207545, 0.00314444, 0.00329167, 0.00324774, 0.000902968, -0.00850631, -0.010932, 0.0102332, 0.0212779, 0.0107028, 0.0201201, 0.471008, -0.543389, 0.335894, -2.08385, -2.16584, -0.129887, 0.468799, -0.542809, 0.332863, -2.08139, -2.16173, -0.129414, -1.41255e-05, -9.11997e-05, -6.59526e-05, 0.0109689, 0.0071787, 0.0110293
0.0121636, 1.69121, -1.2292, -1.54015, -0.900503, -1.1919, 1.22791, -1.30263, 0.00845348, 0.00778556, 0.00808679, -0.000136394, 0.00387441, 0.00929527, -0.00253956, -0.619133, 65.9177, 32.4793, 7.59277, 1.88434, 3.86966, -0.166554, 0.000267113, -0.00198805, 0.00308902, 0.00315751, 0.00321181, 0.000738746, -0.00612892, -0.00822631, 0.00787265, 0.0162808, 0.00894502, 0.0158863, 0.471008, -0.543389, 0.335894, -2.08385, -2.16584, -0.129887, 0.468902, -0.542732, 0.332945, -2.0813, -2.16202, -0.129563, -2.13283e-05, -0.000136675, -0.000102379, 0.00825938, 0.00503882, 0.00837456
0.0131636, 1.69121, -1.2292, -1.54015, -0.900503, -1.1919, 1.22791, -1.30263, 0.00845348, 0.00778556, 0.00808679, -0.000136394, 0.00387441, 0.00929527, -0.00253956, -0.619133, 65.9177, 32.4793, 7.59277, 1.88434, 3.86966, -0.166554, 0.000267125, -0.00198805, 0.00308902, 0.0031575, 0.00321181, 0.000738745, -0.0061838, -0.00823499, 0.00790459, 0.0163092, 0.00895464, 0.0158255, 0.471008, -0.543389, 0.335894, -2.08385, -2.16584, -0.129887, 0.468902, -0.542732, 0.332945, -2.0813, -2.16202, -0.129563, -2.91898e-05, -0.000186294, -0.000142179, 0.00825938, 0.00503882, 0.00837456
0.0141636, 1.69121, -1.2292, -1.54015, -0.900503, -1.1919, 1.22791, -1.30263, 0.00845348, 0.00778556, 0.00808679, -0.000136394, 0.00387441, 0.00929527, -0.00253956, -0.619133, 65.9177, 32.4793, 7.59277, 1.88434, 3.86966, -0.166554, 0.000267156, -0.00198804, 0.003089, 0.00315747, 0.00321182, 0.00073874, -0.00624343, -0.00824443, 0.00793935, 0.0163402, 0.00896525, 0.0157593, 0.471008, -0.543389, 0.335894, -2.08385, -2.16584, -0.129887, 0.468902, -0.542732, 0.332945, -2.0813, -2.16202, -0.129563, -3.77325e-05, -0.000240197, -0.00018547, 0.00825938, 0.00503882, 0.00837456
0.0151636, 1.69121, -1.2292, -1.54015, -0.900503, -1.1919, 1.22791, -1.30263, 0.00845348, 0.00778556, 0.00808679, -0.000136394, 0.00387441, 0.00929527, -0.00253956, -0.619133, 65.9177, 32.4793, 7.59277, 1.88434, 3.86966, -0.166554, 0.000267216, -0.00198803, 0.00308897, 0.00315742, 0.00321183, 0.000738732, -0.00630796, -0.00825463, 0.00797702, 0.016374, 0.0089769, 0.0156875, 0.471008, -0.543389, 0.335894, -2.08385, -2.16584, -0.129887, 0.468902, -0.542732, 0.332945, -2.0813, -2.16202, -0.129563, -4.69786e-05, -0.000298522, -0.00023237, 0.00825938, 0.00503882, 0.00837456
0.0161636, 1.69121, -1.2292, -1.54015, -0.900503, -1.1919, 1.22791, -1.30263, 0.00845348, 0.00778556, 0.00808679, -0.000136394, 0.00387441, 0.00929527, -0.00253956, -0.619133, 65.9177, 32.4793, 7.59277, 1.88434, 3.86966, -0.166554, 0.000267314, -0.00198802, 0.00308891, 0.00315734, 0.00321185, 0.000738719, -0.00637754, -0.00826564, 0.00801769, 0.0164105, 0.00898964, 0.0156099, 0.471008, -0.54339, 0.335894, -2.08385, -2.16584, -0.129887, 0.468902, -0.542732, 0.332945, -2.0813, -2.16202, -0.129563, -5.69498e-05, -0.000361405, -0.000282992, 0.00825938, 0.00503882, 0.00837456
0.0171636, 1.69121, -1.2292, -1.54015, -0.900503, -1.1919, 1.22791, -1.30263, 0.00845348, 0.00778556, 0.00808679, -0.000136394, 0.00387441, 0.00929527, -0.00253956, -0.619133, 65.9177, 32.4793, 7.59277, 1.88434, 3.86966, -0.166554, 0.00026746, -0.00198799, 0.00308882, 0.00315722, 0.00321188, 0.000738699, -0.00645232, -0.00827746, 0.00806145, 0.0164499, 0.0090035, 0.0155262, 0.471008, -0.54339, 0.335894, -2.08385, -2.16584, -0.129886, 0.468902, -0.542732, 0.332945, -2.0813, -2.16202, -0.129563, -6.7667e-05, -0.000428975, -0.000337449, 0.00825938, 0.00503882, 0.00837456
0.0181636, 1.69121, -1.2292, -1.54015, -0.900503, -1.1919, 1.22791, -1.30263, 0.00845348, 0.00778556, 0.00808679, -0.000136394, 0.00387441, 0.00929527, -0.00253956, -0.619133, 65.9177, 32.4793, 7.59277, 1.88434, 3.86966, -0.166554, 0.000267663, -0.00198796, 0.00308871, 0.00315704, 0.00321193, 0.000738672, -0.00653243, -0.00829013, 0.00810839, 0.0164922, 0.00901853, 0.0154365, 0.471008, -0.54339, 0.335893, -2.08385, -2.16584, -0.129886, 0.468902, -0.542732, 0.332945, -2.0813, -2.16202, -0.129563, -7.91509e-05, -0.000501362, -0.000395848, 0.00825938, 0.00503882, 0.00837456
0.0191636, 1.69121, -1.2292, -1.54015, -0.900503, -1.1919, 1.22791, -1.30263, 0.00845348, 0.00778556, 0.00808679, -0.000136394, 0.00387441, 0.00929527, -0.00253956, -0.619133, 65.9177, 32.4793, 7.59277, 1.88434, 3.86966, -0.166554, 0.000267931, -0.00198792, 0.00308855, 0.00315682, 0.00321198, 0.000738636, -0.00661802, -0.00830367, 0.00815859, 0.0165377, 0.00903478, 0.0153404, 0.471008, -0.54339, 0.335893, -2.08385, -2.16584, -0.129886, 0.468902, -0.542732, 0.332945, -2.0813, -2.16202, -0.129563, -9.14213e-05, -0.000578688, -0.000458296, 0.00825938, 0.00503882, 0.00837456
0.0201636, 1.69129, -1.22917, -1.54009, -0.900519, -1.19189, 1.22798, -1.30263, 0.012163, 0.00559764, 0.00344517, -0.00261448, 0.000938492, 0.0088581, 0.000809777, -0.845268, 66.3223, 32.7015, 7.73956, 1.87793, 3.77627, -0.180287, 0.000316894, -0.00191697, 0.00304783, 0.00305852, 0.00314823, 0.000616768, -0.00739255, -0.00976026, 0.00470273, 0.00883155, 0.00969613, 0.0145519, 0.471008, -0.54339, 0.335893, -2.08385, -2.16584, -0.129885, 0.468972, -0.542687, 0.33299, -2.08126, -2.16222, -0.12962, -0.000104498, -0.000661074, -0.000524897, 0.00954858, 0.00631258, 0.00497187
0.0211636, 1.69131, -1.22917, -1.54009, -0.900522, -1.19189, 1.22799, -1.30263, 0.0147618, 0.00359188, 0.0018812, -0.00190669, 0.000900644, 0.00741345, 0.000992738, -0.960319, 66.358, 32.7372, 7.73956, 1.87244, 3.7543, -0.193104, 0.000324376, -0.00190613, 0.00304628, 0.00305207, 0.0031423, 0.000603338, -0.00806669, -0.0105669, 0.00286146, 0.00600313, 0.00715422, 0.0154797, 0.471008, -0.543391, 0.335893, -2.08385, -2.16584, -0.129885, 0.468983, -0.54268, 0.332992, -2.08125, -2.16224, -0.129622, -0.000118398, -0.000748633, -0.000595748, 0.0102497, 0.00720695, 0.00316321
0.0221636, 1.69131, -1.22917, -1.54009, -0.900529, -1.19189, 1.228, -1.30263, 0.0162187, -0.00230769, -0.00662843, -0.00489092, -0.0069257, 0.00624287, -0.00179596, -0.920646, 66.1755, 32.5547, 7.73956, 1.82941, 3.73324, -0.127186, 0.000327925, -0.00190144, 0.00304993, 0.00305204, 0.00314569, 0.000586709, -0.00596712, -0.00957259, -0.00415813, -0.0081863, 0.00797583, 0.0156129, 0.471008, -0.543391, 0.335892, -2.08385, -2.16584, -0.129884, 0.468987, -0.542676, 0.332989, -2.08123, -2.16226, -0.129626, -0.000133141, -0.000841478, -0.000670947, 0.00906363, 0.00608109, -0.00413918
0.0231636, 1.69132, -1.22918, -1.5401, -0.900532, -1.19189, 1.228, -1.30264, 0.0169924, -0.00670104, -0.00674608, -0.00447196, -0.00167924, 0.00668866, 0.0061745, -0.996025, 65.5844, 32.2175, 7.62848, 1.73053, 3.67557, -0.0750012, 0.00033246, -0.00189373, 0.00305592, 0.00305492, 0.00314891, 0.000572755, -0.00685653, -0.0106614, -0.00665999, -0.00569778, -0.00044833, 0.0096948, 0.471008, -0.543392, 0.335892, -2.08385, -2.16584, -0.129884, 0.468994, -0.542671, 0.332983, -2.08121, -2.16227, -0.129627, -0.000148743, -0.000939713, -0.000750586, 0.0100133, 0.00729053, -0.006584
0.0241636, 1.69134, -1.22918, -1.54012, -0.900546, -1.19189, 1.22801, -1.30263, 0.019105, -0.00712543, -0.0121484, -0.00864896, 0.00128737, -0.00257066, 0.00610423, -1.15075, 64.8108, 31.8088, 7.5531, 1.65088, 3.62521, -0.10796, 0.000340768, -0.00188196, 0.00307017, 0.00308169, 0.00314996, 0.000555427, -0.00954368, -0.0104892, -0.0102535, -0.0193731, -0.00708056, 0.013789, 0.471008, -0.543393, 0.335891, -2.08385, -2.16584, -0.129883, 0.469005, -0.542661, 0.332969, -2.08118, -2.16227, -0.129599, -0.00016522, -0.00104344, -0.000834754, 0.00959905, 0.0103857, -0.00979429
0.0251636, 1.69136, -1.22919, -1.54015, -0.900551, -1.19189, 1.22801, -1.30263, 0.0171577, -0.00280781, -0.0167574, -0.00852815, 0.00316355, -0.000937318, 0.00440753, -1.15075, 63.9261, 31.4002, 7.33093, 1.57764, 3.58951, -0.101552, 0.000341092, -0.00187874, 0.00308481, 0.00311087, 0.0031495, 0.000553366, -0.00840975, -0.00900735, -0.00901837, -0.0203185, -0.00326115, 0.0116514, 0.471007, -0.543393, 0.335891, -2.08385, -2.16584, -0.129882, 0.469008, -0.542659, 0.332954, -2.08116, -2.16227, -0.129566, -0.000182589, -0.00115275, -0.000923534, 0.00818687, 0.0089062, -0.00879479
0.0261636, 1.69138, -1.2292, -1.54019, -0.900565, -1.19189, 1.22801, -1.30263, 0.0223027, -0.00697661, -0.021411, -0.0104808, 0.00295639, -0.000525732, 0.00360726, -1.30151, 63.1921, 31.0273, 7.18018, 1.54651, 3.57577, -0.10796, 0.000347102, -0.00186806, 0.00311019, 0.00315565, 0.00315779, 0.000536542, -0.00996649, -0.0116543, -0.0135493, -0.0261392, -0.00638377, 0.0168696, 0.471007, -0.543394, 0.33589, -2.08385, -2.16584, -0.129881, 0.469017, -0.542649, 0.332929, -2.08112, -2.16226, -0.129525, -0.000200863, -0.00126774, -0.00101701, 0.0105929, 0.0111337, -0.0132004
0.0271636, 1.6914, -1.22922, -1.54023, -0.900585, -1.1919, 1.22801, -1.30264, 0.0202206, -0.00909009, -0.0256199, -0.0137399, 0.00197914, -0.00038633, 0.000287092, -1.33721, 62.5296, 30.6901, 7.1048, 1.5401, 3.56845, -0.0420422, 0.000350763, -0.00186094, 0.00313795, 0.00320708, 0.00316522, 0.000515645, -0.00886918, -0.0104432, -0.0165354, -0.0314744, -0.00710954, 0.0185288, 0.471007, -0.543395, 0.335889, -2.08384, -2.16584, -0.129879, 0.469023, -0.542642, 0.332901, -2.08106, -2.16226, -0.129476, -0.000220057, -0.00138849, -0.00111525, 0.0092956, 0.0103397, -0.016381
0.0281636, 1.69142, -1.22925, -1.54028, -0.900604, -1.19191, 1.22802, -1.30263, 0.0219052, -0.0167261, -0.0339278, -0.0117498, -0.00092085, 0.00269951, 0.000942766, -1.37688, 62.1249, 30.3925, 6.99371, 1.59595, 3.48239, -0.0557752, 0.000351075, -0.0018521, 0.00317743, 0.00326072, 0.00318152, 0.000508537, -0.00584593, -0.00987298, -0.0234334, -0.0372951, -0.0103704, 0.0128167, 0.471007, -0.543396, 0.335888, -2.08384, -2.16584, -0.129878, 0.46903, -0.542636, 0.332861, -2.08102, -2.16224, -0.129433, -0.000240182, -0.00151507, -0.00121833, 0.00856503, 0.00826686, -0.0237473
0.0291636, 1.69143, -1.22927, -1.54033, -0.900623, -1.19191, 1.22804, -1.30263, 0.019673, -0.0153763, -0.0366507, -0.0136451, -0.00209913, 0.00562812, 0.00298071, -1.26183, 61.5695, 29.9839, 6.88263, 1.63257, 3.37436, -0.114369, 0.000349927, -0.00184618, 0.00320331, 0.0033006, 0.00317851, 0.000507447, -0.00458701, -0.00896391, -0.0234098, -0.038041, -0.00630835, 0.00834033, 0.471007, -0.543398, 0.335887, -2.08384, -2.16584, -0.129876, 0.469035, -0.542635, 0.332834, -2.081, -2.16222, -0.129384, -0.000261251, -0.00164757, -0.00132632, 0.0076819, 0.00685069, -0.024
0.0301636, 1.69145, -1.22931, -1.54038, -0.900643, -1.19192, 1.22805, -1.30263, 0.0183668, -0.0230424, -0.0416543, -0.0184568, -0.00658806, 0.00786107, 0.00164897, -1.15075, 61.387, 29.6863, 6.77154, 1.64447, 3.25992, -0.101552, 0.000347263, -0.00183843, 0.00324633, 0.00334839, 0.0031994, 0.000500961, -0.00272563, -0.0084837, -0.030004, -0.0452045, -0.0084359, 0.00866442, 0.471007, -0.543399, 0.335886, -2.08384, -2.16584, -0.129874, 0.469041, -0.542632, 0.33279, -2.08096, -2.1622, -0.129351, -0.000283275, -0.00178604, -0.00143928, 0.00700873, 0.00586988, -0.0308987
0.0311636, 1.69147, -1.22933, -1.54043, -0.900666, -1.19193, 1.22807, -1.30263, 0.012223, -0.0204494, -0.0402011, -0.0204752, -0.00979761, 0.0128364, -0.00076497, -1.07537, 61.0181, 29.3134, 6.73187, 1.65088, 3.18118, -0.0484509, 0.000350753, -0.00182755, 0.00327827, 0.0033935, 0.00320659, 0.000478598, -0.000145424, -0.00627073, -0.0273937, -0.0407921, -0.000846057, 0.00617409, 0.471006, -0.543401, 0.335885, -2.08384, -2.16584, -0.129872, 0.46905, -0.542624, 0.332757, -2.0809, -2.1622, -0.129308, -0.000306264, -0.00193055, -0.00155726, 0.00496208, 0.0026858, -0.0287729
0.0321636, 1.6915, -1.22936, -1.54048, -0.900677, -1.19193, 1.22808, -1.30263, 0.0175691, -0.0202427, -0.0427022, -0.0186899, -0.00635363, 0.0162789, -0.000907892, -1.15075, 60.7245, 29.0912, 6.54541, 1.62616, 3.10977, -0.0356336, 0.000353155, -0.00181463, 0.00331226, 0.00344048, 0.00321288, 0.000465321, -0.00197878, -0.00947044, -0.0277947, -0.0382632, -0.00154594, 0.00978344, 0.471006, -0.543402, 0.335883, -2.08384, -2.16584, -0.12987, 0.469062, -0.542618, 0.332722, -2.08086, -2.16219, -0.129262, -0.000330225, -0.00208114, -0.00168032, 0.00805362, 0.00453776, -0.0291038
0.0331636, 1.69152, -1.22938, -1.54053, -0.900699, -1.19193, 1.2281, -1.30263, 0.024013, -0.0224624, -0.0471025, -0.0208546, -0.00740185, 0.0175458, 0.00114776, -1.07537, 60.538, 28.8691, 6.5097, 1.57123, 3.07315, -0.0814099, 0.000356994, -0.00180218, 0.0033471, 0.00348468, 0.00322422, 0.000452222, -0.00419982, -0.0129711, -0.0310866, -0.0436307, -0.00155422, 0.013365, 0.471006, -0.543404, 0.335882, -2.08384, -2.16584, -0.129868, 0.469072, -0.54261, 0.332687, -2.08082, -2.16218, -0.129223, -0.000355167, -0.00223786, -0.0018085, 0.0113265, 0.00722359, -0.0322434
0.0341636, 1.69154, -1.2294, -1.54058, -0.90072, -1.19194, 1.22811, -1.30263, 0.0225836, -0.0229099, -0.0463073, -0.0187204, -0.00907811, 0.0173889, 0.00104574, -0.996025, 60.3198, 28.7183, 6.47003, 1.53461, 3.07315, -0.0878186, 0.000360987, -0.00179092, 0.00337747, 0.00353128, 0.00322725, 0.000437289, -0.00292225, -0.0116516, -0.0306039, -0.0425533, -0.000947089, 0.00981097, 0.471005, -0.543406, 0.33588, -2.08384, -2.16584, -0.129865, 0.469082, -0.542603, 0.332655, -2.08077, -2.16218, -0.129174, -0.000381096, -0.00240075, -0.00194184, 0.0100458, 0.00567114, -0.0320586
0.0351636, 1.69157, -1.22942, -1.54062, -0.900751, -1.19194, 1.22813, -1.30263, 0.0243613, -0.0215897, -0.0453205, -0.0205198, -0.00589224, 0.0231991, -0.00120322, -0.884941, 60.173, 28.5715, 6.58508, 1.50348, 3.04477, -0.0356336, 0.000370018, -0.00177396, 0.00340557, 0.00357257, 0.00322489, 0.000405383, -0.00478354, -0.014653, -0.029203, -0.036068, 0.0008193, 0.0166856, 0.471005, -0.543408, 0.335878, -2.08384, -2.16584, -0.129862, 0.469097, -0.542592, 0.332627, -2.08072, -2.1622, -0.129126, -0.000408018, -0.00256985, -0.00208038, 0.0130004, 0.00724673, -0.0306155
0.0361636, 1.69159, -1.22943, -1.54067, -0.900773, -1.19195, 1.22815, -1.30264, 0.022294, -0.0172873, -0.0459736, -0.0197095, -0.00307925, 0.0205278, -0.00223591, -0.76989, 60.0223, 28.4961, 6.62079, 1.46045, 3.08047, 0.00373412, 0.000374783, -0.00176355, 0.00342905, 0.00361693, 0.00321585, 0.000383675, -0.00491702, -0.0129773, -0.0268014, -0.0364695, 0.00142706, 0.0152895, 0.471005, -0.543411, 0.335877, -2.08384, -2.16583, -0.129859, 0.469106, -0.542585, 0.332602, -2.08068, -2.16221, -0.129066, -0.000435936, -0.00274516, -0.00222414, 0.0113809, 0.006765, -0.0283167
0.0371636, 1.69162, -1.22944, -1.54072, -0.900799, -1.19196, 1.22816, -1.30263, 0.0247931, -0.0159398, -0.0447627, -0.0243872, -0.00659351, 0.0181158, 0.000969029, -0.694511, 60.0977, 28.4961, 6.73187, 1.44214, 3.13083, -0.0621838, 0.000382837, -0.00174812, 0.00345584, 0.00366276, 0.0032092, 0.000366031, -0.00754756, -0.0148057, -0.0264498, -0.0415357, 0.00491435, 0.0178019, 0.471004, -0.543413, 0.335874, -2.08384, -2.16583, -0.129855, 0.46912, -0.542575, 0.332574, -2.08064, -2.16221, -0.129007, -0.000464854, -0.00292672, -0.00237315, 0.0130965, 0.00920107, -0.0277655
0.0381636, 1.69163, -1.22945, -1.54076, -0.900828, -1.19197, 1.22818, -1.30263, 0.0224435, -0.00900741, -0.0414735, -0.025855, -0.00476216, 0.0200368, 0.000659689, -0.43267, 60.2087, 28.5319, 6.91833, 1.43024, 3.21689, -0.0621838, 0.000387526, -0.00173869, 0.00347801, 0.0037046, 0.00319716, 0.000349518, -0.00862998, -0.0148625, -0.0209962, -0.0357639, 0.0111578, 0.0188952, 0.471004, -0.543416, 0.335872, -2.08384, -2.16583, -0.129852, 0.469128, -0.542569, 0.33255, -2.0806, -2.16222, -0.128947, -0.000494774, -0.00311453, -0.00252743, 0.0132815, 0.00924482, -0.0223686
0.0391636, 1.69165, -1.22946, -1.54081, -0.90086, -1.19198, 1.2282, -1.30263, 0.0194449, -0.0121762, -0.0403985, -0.0310609, -0.0091388, 0.0210098, -0.000770658, -0.242241, 60.4309, 28.6429, 7.14447, 1.44855, 3.31759, -0.0292249, 0.000393535, -0.0017268, 0.00350039, 0.00374585, 0.0031817, 0.000328527, -0.00802406, -0.014306, -0.0228284, -0.0381595, 0.0123996, 0.0207931, 0.471003, -0.543419, 0.33587, -2.08384, -2.16583, -0.129848, 0.469138, -0.542563, 0.332527, -2.08057, -2.16223, -0.128884, -0.000525695, -0.00330858, -0.00268698, 0.0126503, 0.00871179, -0.0244146
0.0401636, 1.69166, -1.22946, -1.54085, -0.900883, -1.19199, 1.22822, -1.30263, 0.0187857, -0.00923253, -0.0426479, -0.02767, -0.0124425, 0.0183355, -0.0022015, 0.0196001, 60.5777, 28.9048, 7.21588, 1.47327, 3.38901, 0.0165515, 0.000394592, -0.00171993, 0.00351889, 0.00378589, 0.00315782, 0.000318726, -0.00637761, -0.0119017, -0.0214928, -0.0419054, 0.0165938, 0.0161086, 0.471003, -0.543422, 0.335867, -2.08384, -2.16583, -0.129843, 0.469144, -0.542562, 0.332506, -2.08055, -2.16224, -0.128812, -0.000557617, -0.00350887, -0.00285182, 0.0103242, 0.00658214, -0.0234436
0.0411636, 1.69167, -1.22946, -1.54089, -0.900913, -1.192, 1.22825, -1.30263, 0.0170833, -0.00673577, -0.0412373, -0.028025, -0.0146582, 0.0177789, -0.000241199, 0.21003, 60.7245, 29.0555, 7.40631, 1.49158, 3.42471, -0.0164075, 0.000400502, -0.00170799, 0.00353031, 0.00380893, 0.00312885, 0.000304107, -0.00609809, -0.0109145, -0.0193963, -0.0417529, 0.0205632, 0.0124038, 0.471002, -0.543426, 0.335864, -2.08384, -2.16583, -0.129839, 0.469155, -0.542557, 0.332492, -2.08053, -2.16226, -0.128754, -0.000590537, -0.00371538, -0.00302192, 0.00939103, 0.00573659, -0.0215572
0.0421636, 1.69169, -1.22946, -1.54093, -0.90094, -1.19201, 1.22828, -1.30263, 0.014261, -0.00155646, -0.0403198, -0.0263254, -0.015376, 0.0225682, 0.000792962, 0.325081, 60.8713, 29.3531, 7.51739, 1.49158, 3.43936, -0.0420422, 0.000405104, -0.00169555, 0.0035436, 0.003833, 0.00309844, 0.000291642, -0.00460137, -0.00985476, -0.0150848, -0.0353064, 0.0284405, 0.00692092, 0.471002, -0.543429, 0.335861, -2.08384, -2.16583, -0.129834, 0.469166, -0.542553, 0.332476, -2.08052, -2.16228, -0.128693, -0.000624453, -0.00392809, -0.0031973, 0.00850799, 0.00333934, -0.0176757
0.0431636, 1.6917, -1.22947, -1.54096, -0.900964, -1.19203, 1.22832, -1.30263, 0.0159957, -0.00910974, -0.0344392, -0.0241715, -0.0126039, 0.0309016, -0.000417551, 0.400459, 61.2402, 29.5752, 7.59277, 1.52179, 3.45309, -0.0164075, 0.000408708, -0.00168153, 0.00356112, 0.00384829, 0.00307719, 0.000272031, -0.00517882, -0.0134004, -0.0163596, -0.0213671, 0.0223111, 0.0115634, 0.471001, -0.543433, 0.335858, -2.08384, -2.16582, -0.129829, 0.469178, -0.54255, 0.332456, -2.0805, -2.16231, -0.128651, -0.000659358, -0.00414696, -0.00337792, 0.0119474, 0.00403179, -0.0191325
0.0441636, 1.69172, -1.22947, -1.54099, -0.900985, -1.19205, 1.22835, -1.30263, 0.0151711, -0.00512299, -0.0308563, -0.0217416, -0.0149095, 0.0321521, -0.000513293, 0.436165, 61.3513, 29.8371, 7.62848, 1.54651, 3.47507, -0.00999879, 0.000412605, -0.00166953, 0.00356679, 0.00385921, 0.00303789, 0.000259081, -0.00486306, -0.0129671, -0.0121064, -0.0164608, 0.0283823, 0.00929987, 0.471, -0.543437, 0.335855, -2.08383, -2.16582, -0.129823, 0.469189, -0.542549, 0.332447, -2.0805, -2.16234, -0.128595, -0.000695248, -0.00437195, -0.00356376, 0.0116436, 0.00282274, -0.0151546
0.0451636, 1.69173, -1.22949, -1.54102, -0.900999, -1.19207, 1.22839, -1.30263, 0.0202276, -0.0123062, -0.0279319, -0.0167569, -0.0161595, 0.0319151, 0.00461255, 0.360787, 61.756, 30.095, 7.51739, 1.55932, 3.52542, -0.0164075, 0.000414414, -0.00165576, 0.00358301, 0.00386961, 0.00301509, 0.000249235, -0.00560831, -0.0151948, -0.0147328, -0.01358, 0.0217469, 0.00562351, 0.471, -0.543442, 0.335851, -2.08383, -2.16582, -0.129818, 0.469202, -0.542549, 0.332428, -2.0805, -2.16236, -0.128556, -0.000732114, -0.004603, -0.00375481, 0.0137101, 0.00382275, -0.0178906
0.0461636, 1.69174, -1.22949, -1.54104, -0.901013, -1.19209, 1.22842, -1.30263, 0.0185901, -0.010642, -0.0265781, -0.0141632, -0.0121773, 0.0305057, 0.00370672, 0.360787, 62.0139, 30.3925, 7.44202, 1.56482, 3.61148, -0.0228162, 0.00041383, -0.00164796, 0.0035929, 0.00387954, 0.0029851, 0.000251371, -0.0057436, -0.0141395, -0.0127921, -0.00998285, 0.0191429, 0.00427905, 0.470999, -0.543446, 0.335848, -2.08383, -2.16582, -0.129812, 0.469209, -0.542552, 0.332414, -2.08051, -2.16236, -0.128508, -0.000769946, -0.00484006, -0.003951, 0.0126835, 0.0033774, -0.0161178
0.0471636, 1.69176, -1.2295, -1.54107, -0.901028, -1.19211, 1.22845, -1.30263, 0.020782, -0.0102096, -0.0269389, -0.00985408, -0.0148668, 0.0291798, 0.00324161, 0.21003, 62.3074, 30.6186, 7.40631, 1.59595, 3.71127, -0.0356336, 0.000418082, -0.00163538, 0.0036036, 0.00389257, 0.00295757, 0.000238812, -0.00527852, -0.0138334, -0.0121373, -0.0108106, 0.0209077, 0.00173824, 0.470998, -0.543451, 0.335844, -2.08383, -2.16582, -0.129805, 0.46922, -0.542551, 0.3324, -2.0805, -2.16239, -0.128461, -0.000808735, -0.00508306, -0.00415231, 0.0123793, 0.00256194, -0.0157355
0.0481636, 1.69177, -1.22952, -1.54109, -0.90104, -1.19214, 1.22849, -1.30263, 0.0203436, -0.0142844, -0.02715, -0.0100509, -0.0158289, 0.029774, 0.00214553, 0.134651, 62.7875, 30.8408, 7.36664, 1.60144, 3.76895, -0.0292249, 0.000417055, -0.00162535, 0.00361859, 0.00389783, 0.00293545, 0.000234112, -0.00474926, -0.0137111, -0.0143933, -0.0111307, 0.018013, 0.00190515, 0.470997, -0.543456, 0.33584, -2.08383, -2.16582, -0.129798, 0.469228, -0.542554, 0.33238, -2.0805, -2.1624, -0.128426, -0.000848468, -0.00533191, -0.00435868, 0.0121547, 0.00213277, -0.0182481
0.0491636, 1.69178, -1.22953, -1.54111, -0.901049, -1.19217, 1.22852, -1.30264, 0.016753, -0.0150697, -0.0265168, -0.00769166, -0.0169246, 0.0305312, -0.000336069, 0.059273, 63.1921, 31.0273, 7.36664, 1.61426, 3.8193, 0.0229602, 0.000414272, -0.00161747, 0.00363054, 0.00389638, 0.00291166, 0.000229798, -0.0025017, -0.0113566, -0.0138779, -0.00864503, 0.0182084, -0.00160424, 0.470997, -0.543461, 0.335835, -2.08383, -2.16581, -0.129791, 0.469235, -0.54256, 0.332364, -2.08051, -2.16242, -0.128397, -0.000889131, -0.00558652, -0.00457004, 0.00986142, -0.000516378, -0.0182282
0.0501636, 1.6918, -1.22955, -1.54113, -0.901056, -1.1922, 1.22856, -1.30264, 0.018915, -0.0138003, -0.0250759, -0.00587105, -0.0181767, 0.033232, -0.000336636, -0.0914839, 63.5214, 31.1741, 7.36664, 1.63898, 3.81198, 0.0293689, 0.000414647, -0.00160482, 0.00363874, 0.00389118, 0.0028788, 0.0002243, -0.00309575, -0.0127953, -0.012072, -0.00481974, 0.0217271, -0.00115656, 0.470996, -0.543467, 0.335831, -2.08383, -2.16581, -0.129784, 0.469247, -0.542563, 0.332351, -2.08052, -2.16244, -0.128363, -0.00093071, -0.0058468, -0.00478633, 0.0113007, -0.000409278, -0.0166127
0.0511636, 1.69181, -1.22957, -1.54115, -0.901071, -1.19223, 1.2286, -1.30263, 0.0163666, -0.0146223, -0.0260633, -0.00799797, -0.0176369, 0.0341189, 0.00227665, -0.206535, 63.9261, 31.4002, 7.51739, 1.62616, 3.82663, -0.0356336, 0.000412988, -0.00159493, 0.00365363, 0.00389595, 0.00285075, 0.000232366, -0.00262632, -0.0119495, -0.0128103, -0.00516887, 0.0211504, -0.00504921, 0.470995, -0.543473, 0.335826, -2.08383, -2.16581, -0.129776, 0.469255, -0.542568, 0.332331, -2.08054, -2.16244, -0.12832, -0.000973186, -0.00611264, -0.00500747, 0.0104036, -0.00105955, -0.0176102
0.0521636, 1.69182, -1.22958, -1.54117, -0.901078, -1.19226, 1.22865, -1.30262, 0.0152365, -0.0148472, -0.0241706, -0.00751331, -0.0229749, 0.0404812, 0.00206267, -0.357292, 64.184, 31.5113, 7.59277, 1.64447, 3.8193, -0.0484509, 0.000411711, -0.00158365, 0.00365974, 0.00388932, 0.00281033, 0.00023448, -0.000933856, -0.0121582, -0.0114083, 9.40183e-05, 0.0283239, -0.00760033, 0.470994, -0.543479, 0.335821, -2.08382, -2.16581, -0.129768, 0.469265, -0.542574, 0.332319, -2.08057, -2.16246, -0.128278, -0.00101654, -0.00638391, -0.00523338, 0.0106798, -0.00320892, -0.0167208
0.0531636, 1.69182, -1.22958, -1.54117, -0.901078, -1.19226, 1.22865, -1.30262, 0.0152365, -0.0148472, -0.0241706, -0.00751331, -0.0229749, 0.0404812, 0.00206267, -0.357292, 64.184, 31.5113, 7.59277, 1.64447, 3.8193, -0.0484509, 0.000418788, -0.00158251, 0.00365554, 0.00388287, 0.00281169, 0.000233525, -0.00124113, -0.0122068, -0.0112215, 0.000276849, 0.0284032, -0.00796699, 0.470993, -0.543485, 0.335816, -2.08382, -2.1658, -0.129759, 0.469265, -0.542574, 0.332319, -2.08057, -2.16246, -0.128278, -0.00106076, -0.00666049, -0.00546395, 0.0106798, -0.00320892, -0.0167208
0.0541636, 1.69182, -1.22958, -1.54117, -0.901078, -1.19226, 1.22865, -1.30262, 0.0152365, -0.0148472, -0.0241706, -0.00751331, -0.0229749, 0.0404812, 0.00206267, -0.357292, 64.184, 31.5113, 7.59277, 1.64447, 3.8193, -0.0484509, 0.000426177, -0.00158132, 0.00365114, 0.00387612, 0.00281311, 0.000232529, -0.00155419, -0.0122563, -0.011031, 0.000463839, 0.0284848, -0.00834134, 0.470992, -0.543492, 0.33581, -2.08382, -2.1658, -0.12975, 0.469265, -0.542574, 0.332319, -2.08057, -2.16246, -0.128278, -0.00110581, -0.00694224, -0.0056991, 0.0106798, -0.00320892, -0.0167208
0.0551636, 1.69186, -1.22962, -1.54121, -0.901103, -1.19237, 1.22877, -1.30263, 0.0155366, -0.0103811, -0.0240818, -0.00198798, -0.0290032, 0.0441981, 6.88273e-05, -0.809562, 65.0687, 31.7335, 7.9657, 1.57123, 3.86966, 0.00373412, 0.000411034, -0.00154882, 0.00367906, 0.00386498, 0.00269733, 0.000222299, 0.000785944, -0.0111803, -0.00710692, 0.00410081, 0.0393201, -0.0133206, 0.470991, -0.543499, 0.335805, -2.08382, -2.1658, -0.12974, 0.469296, -0.54259, 0.332282, -2.08062, -2.16254, -0.128165, -0.00115168, -0.007229, -0.00593872, 0.00978495, -0.00645387, -0.0134163
0.0561636, 1.69188, -1.22963, -1.54122, -0.90111, -1.19241, 1.22882, -1.30262, 0.0152338, -0.00891305, -0.0205236, -0.0043208, -0.0348634, 0.0415779, 0.00152615, -0.996025, 65.3265, 31.7335, 8.11249, 1.5401, 3.90536, -0.0356336, 0.000413421, -0.00153365, 0.00368492, 0.00385626, 0.00265643, 0.000218931, -8.20044e-05, -0.0110452, -0.00531874, 0.00146182, 0.0443412, -0.0136926, 0.47099, -0.543506, 0.335799, -2.08382, -2.16579, -0.129731, 0.46931, -0.542594, 0.332271, -2.08064, -2.16257, -0.128124, -0.00119834, -0.00752062, -0.00618267, 0.00963699, -0.00616933, -0.0117559
0.0571636, 1.69189, -1.22965, -1.54123, -0.90112, -1.19245, 1.22886, -1.30263, 0.0149961, -0.0119777, -0.0167361, -0.00607835, -0.0337105, 0.0445556, 8.46543e-05, -1.18645, 65.6241, 31.8088, 8.26324, 1.48517, 3.93374, -0.00999879, 0.00041709, -0.00151733, 0.00369213, 0.0038477, 0.00261833, 0.000205728, -0.00124953, -0.0127566, -0.00554655, 0.00704971, 0.0418022, -0.0090805, 0.470988, -0.543514, 0.335793, -2.08381, -2.16579, -0.12972, 0.469324, -0.542596, 0.332257, -2.08065, -2.1626, -0.128086, -0.00124576, -0.00781692, -0.00643084, 0.0112488, -0.00520794, -0.0120997
0.0581636, 1.69191, -1.22967, -1.54124, -0.901122, -1.19249, 1.22891, -1.30263, 0.0143889, -0.0123958, -0.0153145, -0.00380574, -0.0338379, 0.041916, -0.00115178, -1.22613, 65.8423, 31.8088, 8.26324, 1.45404, 3.96945, 0.0229602, 0.000415428, -0.00150601, 0.0036966, 0.00382751, 0.00258081, 0.000204486, -0.00114627, -0.0117232, -0.00496592, 0.0072813, 0.0399657, -0.0101883, 0.470987, -0.543521, 0.335786, -2.08381, -2.16579, -0.12971, 0.469334, -0.542604, 0.332246, -2.08067, -2.16263, -0.128059, -0.00129392, -0.00811772, -0.00668309, 0.0101932, -0.00574232, -0.0117635
0.0591636, 1.69192, -1.2297, -1.54126, -0.901133, -1.19253, 1.22895, -1.30263, 0.0170315, -0.0181377, -0.015563, -0.00587877, -0.0386475, 0.0452449, -0.000283765, -1.26183, 66.2866, 31.9953, 8.414, 1.42383, 3.9841, 0.0101428, 0.000413815, -0.00149391, 0.00371542, 0.00382812, 0.00255459, 0.000204299, -0.0013985, -0.013849, -0.00835914, 0.00604158, 0.0402083, -0.00865028, 0.470986, -0.54353, 0.335779, -2.08381, -2.16578, -0.129699, 0.469344, -0.54261, 0.33222, -2.08068, -2.16264, -0.128021, -0.00134278, -0.00842284, -0.00693927, 0.0121354, -0.00518931, -0.0153955
0.0601636, 1.69194, -1.22972, -1.54126, -0.901136, -1.19258, 1.229, -1.30263, 0.0149169, -0.0168059, -0.00935586, -0.00461574, -0.0427451, 0.0430626, 0.000563835, -1.37688, 66.5048, 31.9199, 8.44971, 1.41742, 3.99783, -0.00999879, 0.00041723, -0.00147622, 0.00371705, 0.00380383, 0.00251066, 0.000197624, -0.00125334, -0.0126488, -0.0050655, 0.00891629, 0.0433337, -0.0115197, 0.470984, -0.543538, 0.335772, -2.08381, -2.16578, -0.129687, 0.469361, -0.542614, 0.332212, -2.08071, -2.16268, -0.127993, -0.00139231, -0.00873205, -0.00719924, 0.0110117, -0.00619777, -0.0123896
0.0611636, 1.69195, -1.22973, -1.54127, -0.901142, -1.19262, 1.22905, -1.30263, 0.00967007, -0.0169435, -0.01173, -0.00380839, -0.040944, 0.0467064, 0.000855878, -1.33721, 66.7627, 31.9953, 8.48541, 1.39911, 3.99783, -0.0228162, 0.00041569, -0.00146461, 0.00372435, 0.00379202, 0.00246781, 0.000201107, 0.00149503, -0.0100322, -0.00507005, 0.0122506, 0.0435358, -0.0186561, 0.470983, -0.543547, 0.335765, -2.0838, -2.16578, -0.129675, 0.46937, -0.542623, 0.332197, -2.08074, -2.1627, -0.12795, -0.00144249, -0.00904515, -0.00746282, 0.00844635, -0.00933054, -0.013005
0.0621636, 1.69197, -1.22976, -1.54128, -0.901146, -1.19267, 1.2291, -1.30262, 0.0142058, -0.0180364, -0.0125747, -0.00246094, -0.0398554, 0.0446193, 9.98194e-05, -1.37688, 67.0602, 32.031, 8.48541, 1.38721, 3.99783, -0.00999879, 0.000417801, -0.00144837, 0.00373145, 0.0037773, 0.00242724, 0.000197713, -0.000629804, -0.0119429, -0.00602875, 0.0102609, 0.0407054, -0.0150518, 0.470982, -0.543556, 0.335758, -2.0838, -2.16577, -0.129663, 0.469385, -0.542628, 0.332182, -2.08076, -2.16273, -0.127913, -0.00149327, -0.00936199, -0.00772991, 0.010193, -0.00732397, -0.013947
0.0631636, 1.69198, -1.22978, -1.54129, -0.901155, -1.19271, 1.22915, -1.30263, 0.0132212, -0.0195623, -0.0180571, -0.00334537, -0.0434855, 0.0434441, -0.00162591, -1.22613, 67.3895, 32.1421, 8.56079, 1.3689, 3.9841, 0.0357776, 0.000414816, -0.00143831, 0.00374012, 0.00375938, 0.00238945, 0.000195273, 0.00105857, -0.0100767, -0.00882564, 0.00257772, 0.042077, -0.0177639, 0.47098, -0.543565, 0.33575, -2.0838, -2.16577, -0.12965, 0.469393, -0.542639, 0.332165, -2.08079, -2.16276, -0.127882, -0.00154466, -0.00968246, -0.00800043, 0.00823668, -0.00895727, -0.0171848
0.0641636, 1.69199, -1.22978, -1.54131, -0.901158, -1.19276, 1.22921, -1.30263, 0.0121441, -0.0137534, -0.0149121, -0.00561119, -0.0410383, 0.0427715, 0.000613704, -1.18645, 67.4252, 32.2175, 8.56079, 1.33777, 3.96213, -0.00999879, 0.000416146, -0.00142434, 0.00373634, 0.00373769, 0.00232976, 0.000200837, -0.00123479, -0.0106394, -0.00438586, 0.00569156, 0.0455932, -0.0173086, 0.470979, -0.543575, 0.335742, -2.0838, -2.16576, -0.129636, 0.469406, -0.542647, 0.33216, -2.08083, -2.16279, -0.127832, -0.00159663, -0.0100065, -0.00827433, 0.00882568, -0.00767733, -0.012736
0.0651636, 1.69201, -1.2298, -1.54132, -0.901159, -1.1928, 1.22926, -1.30262, 0.0106556, -0.0151085, -0.0165446, -0.00399329, -0.0391503, 0.0411688, 0.00112288, -1.11108, 67.6831, 32.3285, 8.56079, 1.30115, 3.96945, -0.0292249, 0.000414899, -0.00141236, 0.00374389, 0.00372016, 0.00229168, 0.000207997, -0.000536935, -0.0091551, -0.00537399, 0.00486248, 0.0419289, -0.0212781, 0.470977, -0.543585, 0.335734, -2.08379, -2.16576, -0.129623, 0.469416, -0.542657, 0.332144, -2.08086, -2.1628, -0.127798, -0.00164918, -0.0103339, -0.00855153, 0.00727983, -0.00860245, -0.0140523
0.0661636, 1.69202, -1.22979, -1.54133, -0.901161, -1.19284, 1.22931, -1.30262, 0.0137437, -0.00749725, -0.0160161, -0.00619801, -0.0428958, 0.0452223, 0.000275119, -1.07537, 67.576, 32.3682, 8.56079, 1.28284, 3.96213, -0.0164075, 0.000417702, -0.00139895, 0.00373298, 0.00369534, 0.00222266, 0.000211428, -0.00257384, -0.0117152, -0.000596246, 0.00644643, 0.0549498, -0.01704, 0.470975, -0.543595, 0.335725, -2.08379, -2.16576, -0.129608, 0.469428, -0.542666, 0.332146, -2.08091, -2.16285, -0.127741, -0.00170228, -0.0106648, -0.00883197, 0.00988409, -0.00755276, -0.00937685
0.0671636, 1.69204, -1.2298, -1.54135, -0.901158, -1.19289, 1.22936, -1.30262, 0.0151448, -0.00837978, -0.0172671, -0.00371769, -0.0409738, 0.0470666, -0.000561634, -0.996025, 67.7228, 32.4793, 8.52509, 1.25812, 3.9841, 0.00373412, 0.000415491, -0.00138869, 0.00373219, 0.00367407, 0.00216882, 0.000221958, -0.00267981, -0.0123554, -0.000897377, 0.008968, 0.0534292, -0.0173935, 0.470974, -0.543606, 0.335716, -2.08379, -2.16575, -0.129594, 0.469436, -0.542678, 0.332138, -2.08096, -2.16287, -0.127694, -0.00175593, -0.0109989, -0.0091156, 0.0104551, -0.00770971, -0.00996095
0.0681636, 1.69206, -1.2298, -1.54137, -0.901154, -1.19293, 1.22942, -1.30262, 0.0158173, -0.00554747, -0.0173797, 0.00520426, -0.0445949, 0.0490509, -0.000136361, -1.0357, 67.7228, 32.5547, 8.48541, 1.2453, 3.99783, -0.00267457, 0.000419608, -0.00137176, 0.00372637, 0.00365126, 0.00210608, 0.000223081, -1.66376e-05, -0.0106861, 0.00233599, 0.0135018, 0.0595733, -0.0267504, 0.470972, -0.543617, 0.335707, -2.08378, -2.16575, -0.129578, 0.469452, -0.542685, 0.332134, -2.081, -2.16291, -0.127641, -0.0018101, -0.0113362, -0.00940234, 0.00894637, -0.011242, -0.00741762
0.0691636, 1.69208, -1.2298, -1.54139, -0.901152, -1.19297, 1.22948, -1.30262, 0.0150462, -0.00190579, -0.0191045, 0.00382195, -0.0432668, 0.051589, 0.000892965, -1.0357, 67.6474, 32.7015, 8.48541, 1.25171, 3.9841, -0.0292249, 0.000421946, -0.0013577, 0.00371871, 0.00363115, 0.00203715, 0.000231692, -0.000438508, -0.0108649, 0.0041725, 0.0148299, 0.0636926, -0.0282515, 0.47097, -0.543628, 0.335698, -2.08378, -2.16574, -0.129563, 0.469464, -0.542695, 0.332133, -2.08105, -2.16294, -0.127577, -0.00186479, -0.0116765, -0.00969213, 0.0091219, -0.0114411, -0.0058341
0.0701636, 1.6921, -1.2298, -1.5414, -0.901154, -1.19302, 1.22954, -1.30263, 0.0127703, -0.00208378, -0.0169522, 0.00188428, -0.0415039, 0.0583719, -0.000116371, -0.960319, 67.6831, 32.7015, 8.52509, 1.2453, 3.96945, -0.00999879, 0.000426199, -0.00134049, 0.00371246, 0.00359996, 0.00197526, 0.000224575, -0.000457537, -0.0119054, 0.00551325, 0.0230994, 0.0654967, -0.026642, 0.470968, -0.54364, 0.335688, -2.08378, -2.16574, -0.129546, 0.469479, -0.542703, 0.332129, -2.08109, -2.16299, -0.127533, -0.00191999, -0.0120199, -0.00998491, 0.010154, -0.0119294, -0.0048318
0.0711636, 1.69212, -1.2298, -1.54142, -0.901139, -1.19306, 1.2296, -1.30262, 0.0161229, -0.00230073, -0.0202765, 0.00581613, -0.0412733, 0.058603, 0.000397434, -0.960319, 67.7228, 32.7768, 8.33862, 1.26453, 3.94839, -0.0228162, 0.000425855, -0.00132611, 0.0037061, 0.00356777, 0.00191269, 0.000240971, -0.000477729, -0.0124537, 0.00483622, 0.0220658, 0.0653115, -0.0292832, 0.470966, -0.543652, 0.335678, -2.08377, -2.16573, -0.12953, 0.469492, -0.542716, 0.332125, -2.08115, -2.16301, -0.127487, -0.00197567, -0.0123662, -0.0102806, 0.0106207, -0.0121291, -0.00580971
0.0721636, 1.69215, -1.22982, -1.54144, -0.901128, -1.19311, 1.22966, -1.30263, 0.019354, -0.00579036, -0.0214526, 0.00662456, -0.0408899, 0.0582228, -0.00143024, -0.996025, 67.9053, 32.9236, 8.22754, 1.27643, 3.94107, 0.0229602, 0.000425906, -0.00131017, 0.00370867, 0.00354354, 0.00185943, 0.00024605, -0.00161452, -0.0139759, 0.00251939, 0.0207219, 0.0615636, -0.0258273, 0.470964, -0.543664, 0.335668, -2.08377, -2.16572, -0.129512, 0.469506, -0.542727, 0.332112, -2.0812, -2.16304, -0.127442, -0.00203183, -0.0127153, -0.0105792, 0.0119599, -0.0109372, -0.00826607
0.0731636, 1.69217, -1.22981, -1.54146, -0.901117, -1.19315, 1.22972, -1.30263, 0.0217536, -0.00218054, -0.0186806, 0.0106726, -0.0407075, 0.0578081, -0.000953328, -1.0357, 67.8339, 32.9236, 8.11249, 1.29474, 3.94107, 0.0229602, 0.000431203, -0.00129086, 0.00369808, 0.00351176, 0.00178822, 0.00024873, -0.00285412, -0.014851, 0.00627245, 0.0249731, 0.0644803, -0.0266531, 0.470962, -0.543677, 0.335657, -2.08377, -2.16572, -0.129495, 0.469523, -0.542735, 0.332112, -2.08125, -2.16308, -0.127387, -0.00208844, -0.0130671, -0.0108805, 0.0128696, -0.0106068, -0.00469609
0.0741636, 1.6922, -1.22982, -1.54149, -0.901104, -1.1932, 1.22978, -1.30262, 0.0218671, -0.00311718, -0.0228295, 0.0127392, -0.0355348, 0.0577178, 0.000822635, -0.996025, 67.9053, 33.0387, 8.03711, 1.30755, 3.93374, -0.0164075, 0.00043026, -0.00127677, 0.00369769, 0.00348731, 0.00172872, 0.000267951, -0.0027741, -0.0143639, 0.00476973, 0.0248131, 0.0594884, -0.0308722, 0.47096, -0.54369, 0.335646, -2.08376, -2.16571, -0.129476, 0.469535, -0.542749, 0.332101, -2.08131, -2.1631, -0.127334, -0.00214551, -0.0134215, -0.0111846, 0.0122743, -0.0108289, -0.00648182
0.0751636, 1.69223, -1.22982, -1.54151, -0.901087, -1.19324, 1.22985, -1.30262, 0.023707, -0.00207291, -0.022056, 0.0116606, -0.0366338, 0.0576856, 0.00126059, -1.0357, 67.9053, 32.999, 7.92602, 1.32587, 3.92642, -0.0356336, 0.000433767, -0.00125864, 0.00368879, 0.00345068, 0.00166323, 0.000277783, -0.00435186, -0.015688, 0.00566128, 0.0245003, 0.0616474, -0.029063, 0.470958, -0.543704, 0.335635, -2.08376, -2.16571, -0.129457, 0.469551, -0.542759, 0.332098, -2.08137, -2.16314, -0.127288, -0.00220301, -0.0137786, -0.0114914, 0.0135153, -0.00971128, -0.00570404
0.0761636, 1.69225, -1.22983, -1.54153, -0.90107, -1.19329, 1.22991, -1.30262, 0.0230539, -0.00890146, -0.0234207, 0.0151118, -0.0373336, 0.0584556, -0.000617596, -0.996025, 68.0917, 33.0387, 7.77924, 1.34418, 3.89804, 0.00373412, 0.000433519, -0.00124198, 0.00368975, 0.00341821, 0.00160851, 0.000286354, -0.00231145, -0.0145578, 0.00199236, 0.025073, 0.0556987, -0.0321152, 0.470956, -0.543717, 0.335624, -2.08375, -2.1657, -0.129438, 0.469566, -0.542773, 0.332085, -2.08142, -2.16316, -0.127248, -0.00226092, -0.014138, -0.0118008, 0.012268, -0.011567, -0.00991855
0.0771636, 1.69229, -1.22985, -1.54156, -0.901059, -1.19333, 1.22998, -1.30263, 0.0254138, -0.0104637, -0.0213423, 0.0141846, -0.0419509, 0.0629032, -0.00112375, -1.07537, 68.2742, 33.0744, 7.77924, 1.34418, 3.88339, 0.0229602, 0.000438918, -0.00122043, 0.00369292, 0.00339409, 0.00155498, 0.00028537, -0.00294974, -0.0168433, 0.00220242, 0.0279328, 0.0602827, -0.0294848, 0.470954, -0.543731, 0.335612, -2.08375, -2.16569, -0.129418, 0.469584, -0.54278, 0.332071, -2.08145, -2.1632, -0.127201, -0.00231925, -0.0144999, -0.0121127, 0.014477, -0.0112375, -0.00999396
0.0781636, 1.69232, -1.22985, -1.54159, -0.901039, -1.19338, 1.23005, -1.30262, 0.0259941, -0.00717124, -0.0239775, 0.0154179, -0.044687, 0.0675229, 0.000471573, -1.11108, 68.2742, 33.1498, 7.70386, 1.33777, 3.85501, -0.00999879, 0.000441235, -0.00120141, 0.00368858, 0.00336332, 0.00148719, 0.000300958, -0.00198031, -0.0169689, 0.0040056, 0.0294045, 0.0683151, -0.0343366, 0.470951, -0.543746, 0.3356, -2.08374, -2.16569, -0.129398, 0.469601, -0.542792, 0.332063, -2.08152, -2.16322, -0.127145, -0.00237796, -0.014864, -0.0124272, 0.0146442, -0.0128309, -0.00868237
0.0791636, 1.69236, -1.22987, -1.54162, -0.901016, -1.19343, 1.23011, -1.30262, 0.0263561, -0.00919628, -0.0278917, 0.0163219, -0.0429532, 0.064807, 0.00150121, -1.15075, 68.4567, 33.1855, 7.62848, 1.34418, 3.84768, -0.0420422, 0.000442094, -0.00118221, 0.00369284, 0.00333745, 0.00143138, 0.000318427, -0.00191202, -0.0160756, 0.0015534, 0.0248982, 0.063864, -0.0375801, 0.470949, -0.543761, 0.335587, -2.08374, -2.16568, -0.129377, 0.469618, -0.542805, 0.332046, -2.08157, -2.16324, -0.127094, -0.00243706, -0.0152304, -0.012744, 0.013606, -0.012924, -0.0114042
0.0801636, 1.69239, -1.22987, -1.54165, -0.900998, -1.19348, 1.23018, -1.30262, 0.0280528, -0.00716879, -0.0285895, 0.0187619, -0.050651, 0.0620759, -0.000457235, -1.11108, 68.4964, 33.1101, 7.62848, 1.33136, 3.86233, -0.00267457, 0.000444465, -0.00116335, 0.00368985, 0.00330471, 0.00136668, 0.000325713, -0.00115476, -0.0150198, 0.00277223, 0.0196615, 0.0708729, -0.0395415, 0.470946, -0.543776, 0.335575, -2.08373, -2.16567, -0.129355, 0.469634, -0.542817, 0.332036, -2.08162, -2.16328, -0.127042, -0.00249652, -0.0155988, -0.0130633, 0.0125636, -0.0142707, -0.0106054
0.0811636, 1.69243, -1.22989, -1.54169, -0.900981, -1.19353, 1.23025, -1.30262, 0.0303502, -0.0082953, -0.0325157, 0.0165531, -0.0519015, 0.0650184, -0.0014916, -1.11108, 68.6432, 33.1855, 7.66418, 1.32587, 3.86966, 0.0293689, 0.000447258, -0.0011428, 0.00369621, 0.0032892, 0.00130565, 0.000335438, -0.00177569, -0.0165903, 0.000809828, 0.0169793, 0.0728955, -0.0371031, 0.470944, -0.543792, 0.335562, -2.08373, -2.16567, -0.129333, 0.469652, -0.542828, 0.332016, -2.08167, -2.1633, -0.126975, -0.00255634, -0.0159693, -0.0133848, 0.0139785, -0.0136621, -0.0128166
0.0821636, 1.69247, -1.2299, -1.54173, -0.900966, -1.19358, 1.23032, -1.30262, 0.0322568, -0.00726247, -0.0347534, 0.0165462, -0.0480282, 0.0671438, -0.00075703, -1.11108, 68.7146, 33.2212, 7.77924, 1.31946, 3.88339, 0.0229602, 0.000449741, -0.00112189, 0.00369894, 0.0032711, 0.00123354, 0.000345164, -0.00321729, -0.0181376, 0.000973527, 0.0187423, 0.0721583, -0.0362841, 0.470941, -0.543808, 0.335548, -2.08372, -2.16566, -0.129311, 0.46967, -0.542841, 0.332, -2.08172, -2.16333, -0.126898, -0.0026165, -0.0163418, -0.0137086, 0.0154181, -0.0125731, -0.0128028
0.0831636, 1.69251, -1.22991, -1.54178, -0.900941, -1.19364, 1.23039, -1.30262, 0.033527, -0.0106395, -0.0394881, 0.0228783, -0.0499151, 0.0685454, 0.00119074, -1.11108, 68.8257, 33.2609, 7.77924, 1.31305, 3.90536, -0.0228162, 0.000449594, -0.00110317, 0.00370521, 0.00325471, 0.00116941, 0.000369225, -0.000509743, -0.0167685, -0.00149357, 0.0177304, 0.0709926, -0.0458943, 0.470939, -0.543824, 0.335534, -2.08372, -2.16565, -0.129287, 0.469686, -0.542855, 0.331979, -2.08178, -2.16334, -0.126826, -0.00267698, -0.0167161, -0.0140346, 0.0139968, -0.015297, -0.0159432
0.0841636, 1.69255, -1.22993, -1.54182, -0.900921, -1.1937, 1.23046, -1.30262, 0.0337359, -0.014919, -0.0402401, 0.0224044, -0.0564583, 0.0654437, -0.000426867, -1.07537, 69.0121, 33.1855, 7.85065, 1.32587, 3.91269, 0.0101428, 0.000449808, -0.00108441, 0.00371321, 0.00324019, 0.00110579, 0.000382261, 0.000354138, -0.0156962, -0.00435605, 0.0109924, 0.0708074, -0.0466477, 0.470936, -0.543841, 0.33552, -2.08371, -2.16564, -0.129264, 0.469701, -0.54287, 0.331957, -2.08183, -2.16336, -0.126752, -0.00273778, -0.0170921, -0.0143627, 0.0127913, -0.0161295, -0.0191993
0.0851636, 1.69259, -1.22994, -1.54187, -0.900906, -1.19376, 1.23053, -1.30262, 0.0379114, -0.0135591, -0.0434719, 0.0160743, -0.0560665, 0.067401, -0.000284573, -1.07537, 69.0121, 33.2212, 8.03711, 1.31305, 3.92642, 0.0101428, 0.000453225, -0.00106325, 0.00371928, 0.00323544, 0.00103036, 0.000394032, -0.0031339, -0.0193252, -0.00535626, 0.00680752, 0.0738569, -0.0391029, 0.470933, -0.543858, 0.335506, -2.08371, -2.16563, -0.129239, 0.469719, -0.542882, 0.331936, -2.08188, -2.16338, -0.126655, -0.00279888, -0.0174699, -0.0146928, 0.0161933, -0.0127614, -0.0200875
0.0861636, 1.69264, -1.22994, -1.54194, -0.900891, -1.19382, 1.23059, -1.30263, 0.0379447, -0.00966522, -0.0510075, 0.0151288, -0.0614846, 0.0637894, -0.000901788, -1.07537, 69.0121, 33.3362, 8.22754, 1.32587, 3.95572, 0.0293689, 0.000454883, -0.00104483, 0.00372843, 0.00324476, 0.000952128, 0.000409722, -0.00195362, -0.0169435, -0.00591274, -0.00528551, 0.0811246, -0.0436537, 0.470931, -0.543875, 0.335491, -2.0837, -2.16563, -0.129214, 0.469734, -0.542896, 0.331912, -2.08192, -2.1634, -0.126539, -0.00286026, -0.0178492, -0.015025, 0.013775, -0.0143179, -0.0210796
0.0871636, 1.69268, -1.22996, -1.54199, -0.900875, -1.19389, 1.23066, -1.30262, 0.0411048, -0.0109073, -0.0507191, 0.0190244, -0.0606115, 0.0650352, 0.00156895, -1.07537, 69.0479, 33.2212, 8.37433, 1.33777, 4.00516, -0.0292249, 0.000458953, -0.00102332, 0.00373664, 0.00324451, 0.000878366, 0.000427817, -0.00261621, -0.0183139, -0.00578322, -0.00200261, 0.0797016, -0.0465192, 0.470928, -0.543893, 0.335476, -2.0837, -2.16562, -0.129189, 0.469752, -0.542907, 0.331889, -2.08198, -2.16341, -0.126437, -0.00292192, -0.0182301, -0.0153591, 0.0150629, -0.0140085, -0.0212255
0.0881636, 1.69273, -1.22997, -1.54205, -0.900857, -1.19395, 1.23073, -1.30262, 0.0403957, -0.0118677, -0.0541936, 0.0158932, -0.0583745, 0.0662918, 6.26247e-05, -1.07537, 69.0836, 33.2212, 8.48541, 1.31305, 4.05551, -0.00267457, 0.000460835, -0.00100355, 0.00374747, 0.0032466, 0.000806325, 0.000442804, -0.00316448, -0.0185656, -0.0075924, -0.00406231, 0.0781689, -0.0444234, 0.470925, -0.543911, 0.335461, -2.08369, -2.16561, -0.129163, 0.469769, -0.542921, 0.331863, -2.08202, -2.16343, -0.126334, -0.00298385, -0.0186124, -0.0156951, 0.0151664, -0.013561, -0.023271
0.0891636, 1.69277, -1.22997, -1.54212, -0.90084, -1.19401, 1.23079, -1.30263, 0.043061, -0.0100156, -0.0581075, 0.0159209, -0.0622743, 0.0626488, -0.00189103, -1.07537, 69.0121, 33.2966, 8.63617, 1.30115, 4.09854, 0.0495105, 0.000461876, -0.000986213, 0.00375857, 0.00326488, 0.000724541, 0.000460021, -0.00373704, -0.0182883, -0.00806518, -0.0124167, 0.0819136, -0.0436262, 0.470922, -0.54393, 0.335445, -2.08368, -2.1656, -0.129136, 0.469783, -0.542936, 0.331836, -2.08207, -2.16344, -0.126203, -0.00304602, -0.0189961, -0.016033, 0.0147894, -0.013318, -0.0239788
0.0901636, 1.69281, -1.22999, -1.54219, -0.900819, -1.19408, 1.23086, -1.30263, 0.0438622, -0.00968672, -0.0618126, 0.017924, -0.0646357, 0.0602776, -0.00126068, -1.0357, 68.9725, 33.2609, 8.71155, 1.27643, 4.12692, 0.0495105, 0.000459282, -0.000972626, 0.00377037, 0.00327706, 0.00064784, 0.000494252, -0.00297162, -0.0169941, -0.00887689, -0.0176692, 0.0832718, -0.0483491, 0.470919, -0.543949, 0.335429, -2.08368, -2.16559, -0.129109, 0.469793, -0.542956, 0.331807, -2.08213, -2.16343, -0.126081, -0.00310843, -0.019381, -0.0163726, 0.0134318, -0.0143868, -0.0251992
0.0911636, 1.69286, -1.22999, -1.54226, -0.900795, -1.19415, 1.23092, -1.30263, 0.0447055, -0.00388356, -0.058492, 0.0209518, -0.066232, 0.0586695, -9.44701e-05, -0.996025, 68.8257, 33.1101, 8.71155, 1.2453, 4.15622, 0.0293689, 0.000458866, -0.000959003, 0.00377527, 0.00328605, 0.000564992, 0.000524603, -0.00394841, -0.016866, -0.00376305, -0.0148032, 0.0892904, -0.0509588, 0.470916, -0.543968, 0.335413, -2.08367, -2.16558, -0.129081, 0.469803, -0.542974, 0.331786, -2.08219, -2.16343, -0.125956, -0.00317106, -0.0197671, -0.0167139, 0.0133938, -0.0146002, -0.020336
0.0921636, 1.69291, -1.23, -1.54234, -0.900783, -1.19422, 1.23098, -1.30262, 0.0471838, -0.00955212, -0.0601297, 0.0221977, -0.067401, 0.0581136, 0.00163244, -1.0357, 68.8257, 33.1101, 8.89801, 1.21509, 4.16995, -0.0164075, 0.000461917, -0.000939951, 0.00379359, 0.0033179, 0.000486524, 0.000547381, -0.00408427, -0.0176254, -0.0074035, -0.0172346, 0.0845861, -0.0529633, 0.470912, -0.543988, 0.335396, -2.08366, -2.16557, -0.129052, 0.469818, -0.542987, 0.331751, -2.08223, -2.16343, -0.12581, -0.00323391, -0.0201544, -0.0170569, 0.0139508, -0.0142625, -0.0242763
0.0931636, 1.69295, -1.23001, -1.54242, -0.900765, -1.19429, 1.23104, -1.30262, 0.0450125, -0.00780049, -0.0633496, 0.0224245, -0.0685139, 0.0574352, 0.00132565, -1.0357, 68.7146, 33.0744, 8.97339, 1.18396, 4.1846, -0.0228162, 0.000462325, -0.000926541, 0.00380494, 0.00334413, 0.00040462, 0.000577157, -0.00283054, -0.0155698, -0.00714312, -0.0202571, 0.0872067, -0.0575173, 0.470909, -0.544008, 0.335379, -2.08366, -2.16556, -0.129023, 0.469828, -0.543005, 0.331722, -2.08228, -2.16342, -0.125666, -0.00329695, -0.0205426, -0.0174015, 0.011889, -0.0160127, -0.0244953
0.0941636, 1.693, -1.23001, -1.5425, -0.900747, -1.19436, 1.23109, -1.30262, 0.0449091, -0.00605858, -0.0692844, 0.0200734, -0.0705949, 0.0520393, -0.000574292, -1.11108, 68.5678, 33.0387, 9.00909, 1.19037, 4.20657, 0.0165515, 0.000465081, -0.000910573, 0.00381739, 0.00337971, 0.000317804, 0.000601627, -0.00299993, -0.0137973, -0.00872739, -0.0317455, 0.0887447, -0.0578015, 0.470906, -0.544029, 0.335362, -2.08365, -2.16555, -0.128993, 0.46984, -0.54302, 0.331692, -2.08233, -2.16342, -0.125506, -0.00336018, -0.0209318, -0.0177477, 0.0099911, -0.0160636, -0.0263253
0.0951636, 1.69305, -1.23001, -1.54258, -0.900731, -1.19443, 1.23115, -1.30262, 0.0441006, -0.00339909, -0.0725284, 0.0206422, -0.0750725, 0.0531241, -0.00184092, -1.15075, 68.4964, 32.9633, 9.08447, 1.15375, 4.21298, 0.0559192, 0.000466544, -0.000897469, 0.00383119, 0.00341502, 0.000236669, 0.000627406, -0.00148075, -0.012353, -0.00780624, -0.0347939, 0.0959209, -0.0615007, 0.470903, -0.54405, 0.335344, -2.08364, -2.16554, -0.128963, 0.469849, -0.543037, 0.331661, -2.08237, -2.16342, -0.125352, -0.00342359, -0.0213219, -0.0180953, 0.00857312, -0.0181542, -0.0259547
0.0961636, 1.6931, -1.23002, -1.54267, -0.900711, -1.19451, 1.2312, -1.30262, 0.043183, -0.00526767, -0.0735706, 0.0219666, -0.0739946, 0.0546762, 0.000468139, -1.18645, 68.4567, 32.8126, 9.12018, 1.14093, 4.20657, 0.0101428, 0.000466603, -0.000885223, 0.0038458, 0.00345168, 0.000154103, 0.000662757, -0.000783312, -0.0118633, -0.00861964, -0.0329263, 0.0940584, -0.0665648, 0.470899, -0.544071, 0.335326, -2.08363, -2.16553, -0.128932, 0.469857, -0.543055, 0.331628, -2.08242, -2.1634, -0.125193, -0.00348715, -0.0217127, -0.0184443, 0.00801525, -0.0191286, -0.0272003
0.0971636, 1.69314, -1.23002, -1.54276, -0.900694, -1.19458, 1.23125, -1.30262, 0.0393954, -0.00325231, -0.0790244, 0.02291, -0.072451, 0.0608042, 0.0015328, -1.22613, 68.2742, 32.7372, 9.15985, 1.09241, 4.1846, -0.0228162, 0.000467472, -0.000874815, 0.00385803, 0.0034949, 6.70785e-05, 0.000700792, 0.00202049, -0.00988369, -0.0082126, -0.0301285, 0.0981766, -0.0749149, 0.470896, -0.544093, 0.335307, -2.08363, -2.16552, -0.1289, 0.469863, -0.543074, 0.331597, -2.08248, -2.16338, -0.125021, -0.00355087, -0.0221042, -0.0187947, 0.00608929, -0.0224318, -0.0275227
0.0981636, 1.69319, -1.23001, -1.54287, -0.900672, -1.19465, 1.2313, -1.30262, 0.0427262, 0.00213278, -0.08601, 0.0244101, -0.0769531, 0.0557, 3.85199e-05, -1.26183, 68.0521, 32.7768, 9.15985, 1.06769, 4.16354, 0.00373412, 0.00046639, -0.000866778, 0.00386992, 0.00354551, -2.5951e-05, 0.000743603, 0.00186136, -0.00870481, -0.00763528, -0.0418042, 0.105336, -0.0769816, 0.470892, -0.544115, 0.335289, -2.08362, -2.16551, -0.128868, 0.469867, -0.543095, 0.331566, -2.08253, -2.16336, -0.124834, -0.00361472, -0.0224964, -0.0191465, 0.0048635, -0.0228039, -0.0272435
0.0991636, 1.69323, -1.23001, -1.54296, -0.900652, -1.19472, 1.23136, -1.30263, 0.0409633, -0.000736428, -0.0883924, 0.0256266, -0.0758113, 0.052578, -0.00143238, -1.37688, 67.9807, 32.5904, 9.15985, 1.04297, 4.12692, 0.0431018, 0.000467225, -0.000856384, 0.00388299, 0.00358778, -0.000111179, 0.00077402, 0.00276945, -0.00669576, -0.00988867, -0.045141, 0.100183, -0.0796198, 0.470888, -0.544138, 0.335269, -2.08361, -2.1655, -0.128835, 0.469873, -0.543114, 0.331534, -2.08258, -2.16335, -0.124665, -0.00367869, -0.0228891, -0.0194995, 0.00274215, -0.023829, -0.0299003
0.100164, 1.69328, -1.23, -1.54306, -0.900635, -1.19479, 1.23141, -1.30262, 0.0415984, 0.00134048, -0.0917664, 0.0255082, -0.0795701, 0.0537691, 0.000503141, -1.45226, 67.8696, 32.4396, 9.19556, 1.01825, 4.12051, 0.00373412, 0.000468834, -0.000847225, 0.00389398, 0.0036373, -0.000203382, 0.000818258, 0.00338813, -0.00630239, -0.00950964, -0.0484599, 0.106376, -0.0843207, 0.470885, -0.54416, 0.33525, -2.0836, -2.16549, -0.128801, 0.469878, -0.543134, 0.331504, -2.08264, -2.16332, -0.124478, -0.00374278, -0.0232822, -0.0198537, 0.00232098, -0.0249073, -0.0299642
0.101164, 1.69333, -1.22999, -1.54317, -0.900619, -1.19486, 1.23145, -1.30262, 0.0458184, 0.0055153, -0.0978091, 0.0244439, -0.0829619, 0.049986, 0.00108141, -1.56335, 67.6474, 32.4396, 9.27094, 1.00635, 4.11319, -0.0164075, 0.000470744, -0.000839634, 0.0039037, 0.00369773, -0.000303057, 0.000858538, 0.00190298, -0.00675181, -0.00959203, -0.059087, 0.112273, -0.0844986, 0.470881, -0.544184, 0.33523, -2.08359, -2.16547, -0.128767, 0.469881, -0.543153, 0.331474, -2.08269, -2.1633, -0.124272, -0.00380697, -0.0236758, -0.020209, 0.00264937, -0.0238036, -0.0301847
0.102164, 1.69338, -1.22998, -1.54327, -0.900595, -1.19493, 1.2315, -1.30262, 0.0500978, 0.00408064, -0.0959595, 0.026242, -0.0751537, 0.0471107, 0.000483583, -1.7141, 67.6117, 32.2928, 9.23523, 0.969725, 4.10586, -0.00999879, 0.000473637, -0.000830305, 0.00391475, 0.0037453, -0.000387445, 0.000896123, -0.00200395, -0.00952782, -0.00971097, -0.0559228, 0.103084, -0.07836, 0.470877, -0.544207, 0.33521, -2.08358, -2.16546, -0.128732, 0.469886, -0.543172, 0.331443, -2.08274, -2.16328, -0.124095, -0.00387125, -0.0240696, -0.0205654, 0.00521351, -0.0202085, -0.0301392
0.103164, 1.69342, -1.22998, -1.54336, -0.900577, -1.195, 1.23154, -1.30262, 0.0472889, 0.00323206, -0.09429, 0.0251042, -0.0709935, 0.0445775, -0.0016443, -1.75378, 67.576, 32.1421, 9.30664, 0.975218, 4.10586, 0.0431018, 0.000474095, -0.000824691, 0.0039245, 0.0037922, -0.000477324, 0.000936113, -0.00289156, -0.00858775, -0.00955377, -0.0545582, 0.0976681, -0.0764243, 0.470873, -0.544231, 0.335189, -2.08357, -2.16545, -0.128697, 0.469888, -0.543194, 0.331413, -2.08279, -2.16326, -0.123912, -0.00393561, -0.0244637, -0.0209229, 0.00418424, -0.0197889, -0.0301749
0.104164, 1.69346, -1.22997, -1.54347, -0.900558, -1.19507, 1.23158, -1.30262, 0.0497499, 0.00451047, -0.100156, 0.0206763, -0.0719378, 0.0431939, -0.000824933, -1.86486, 67.4649, 32.1421, 9.38202, 0.963317, 4.10586, 0.0357776, 0.000475302, -0.000820051, 0.00393738, 0.00385286, -0.000564542, 0.000983422, -0.00460279, -0.00960091, -0.0114432, -0.0633595, 0.100087, -0.074684, 0.470869, -0.544256, 0.335168, -2.08357, -2.16544, -0.128661, 0.469888, -0.543215, 0.33138, -2.08285, -2.16322, -0.123716, -0.00400003, -0.0248579, -0.0212814, 0.00500043, -0.0181618, -0.0321655
0.105164, 1.6935, -1.22995, -1.54357, -0.90054, -1.19513, 1.23163, -1.30262, 0.0509883, 0.00885709, -0.101301, 0.0209464, -0.0677218, 0.0471325, 0.00114547, -1.94024, 67.207, 32.031, 9.4574, 0.951415, 4.09122, -0.00999879, 0.000480781, -0.000812562, 0.00394027, 0.00389848, -0.000658769, 0.00102401, -0.00609725, -0.0112155, -0.00867064, -0.0583176, 0.103215, -0.0755154, 0.470865, -0.544281, 0.335147, -2.08356, -2.16543, -0.128624, 0.469891, -0.543234, 0.331356, -2.0829, -2.1632, -0.123529, -0.0040645, -0.0252522, -0.0216408, 0.00659755, -0.0174408, -0.029606
0.106164, 1.69355, -1.22994, -1.54368, -0.900521, -1.19519, 1.23167, -1.30262, 0.0506775, 0.00836667, -0.101619, 0.0211769, -0.0729647, 0.0493783, 0.001001, -2.091, 67.0959, 31.9953, 9.53278, 0.932189, 4.09122, -0.0164075, 0.000485953, -0.000804163, 0.00395066, 0.00394953, -0.00074297, 0.00106201, -0.00495219, -0.0108275, -0.00852228, -0.0586296, 0.10834, -0.0783728, 0.470861, -0.544306, 0.335125, -2.08355, -2.16541, -0.128586, 0.469894, -0.543252, 0.331325, -2.08295, -2.16317, -0.123345, -0.00412902, -0.0256465, -0.022001, 0.00619161, -0.0190043, -0.0299856
0.107164, 1.69359, -1.22994, -1.54378, -0.900508, -1.19526, 1.23171, -1.30263, 0.0485006, 0.00631061, -0.0999343, 0.0198086, -0.0694352, 0.0467901, -0.00126544, -2.16637, 67.0602, 31.9199, 9.67957, 0.951415, 4.08389, 0.0357776, 0.000491731, -0.000798069, 0.00396331, 0.00400541, -0.000820259, 0.00109297, -0.00596412, -0.0102378, -0.00913818, -0.0578946, 0.102259, -0.0756632, 0.470857, -0.544332, 0.335103, -2.08354, -2.1654, -0.128548, 0.469896, -0.54327, 0.331291, -2.08298, -2.16315, -0.123164, -0.00419356, -0.0260407, -0.0223621, 0.00547901, -0.0183289, -0.0307799
0.108164, 1.69363, -1.22992, -1.54388, -0.900489, -1.19532, 1.23174, -1.30263, 0.0470393, 0.0142349, -0.0998844, 0.0205115, -0.0657794, 0.0439394, -0.00158961, -2.24175, 66.7627, 31.8842, 9.75494, 0.938597, 4.09854, 0.0559192, 0.000497926, -0.000794459, 0.00396246, 0.00405315, -0.000913188, 0.00113703, -0.00729811, -0.00907826, -0.0042218, -0.0570295, 0.105846, -0.076951, 0.470853, -0.544358, 0.335081, -2.08353, -2.16539, -0.128509, 0.469895, -0.54329, 0.33127, -2.08304, -2.16312, -0.122974, -0.00425812, -0.0264347, -0.0227239, 0.00439131, -0.0182091, -0.0260446
0.109164, 1.69367, -1.22991, -1.54397, -0.900469, -1.19538, 1.23178, -1.30263, 0.0469193, 0.0144094, -0.0986882, 0.0210243, -0.0639703, 0.0460723, -0.000585025, -2.3568, 66.6913, 31.8088, 9.83032, 0.951415, 4.12051, 0.0431018, 0.000506298, -0.000787131, 0.00396836, 0.00409664, -0.000989904, 0.00117224, -0.00793434, -0.00976604, -0.00312712, -0.0526536, 0.105686, -0.0779804, 0.470849, -0.544384, 0.335058, -2.08352, -2.16537, -0.12847, 0.469897, -0.543307, 0.331243, -2.08308, -2.1631, -0.122804, -0.00432269, -0.0268285, -0.0230865, 0.00503155, -0.0181149, -0.0252494
0.110164, 1.6937, -1.22989, -1.54406, -0.900448, -1.19544, 1.23182, -1.30262, 0.0450189, 0.0184904, -0.0974431, 0.0214479, -0.0614884, 0.0447306, 0.00228875, -2.39648, 66.4691, 31.6977, 9.9057, 0.938597, 4.10586, -0.0292249, 0.000511983, -0.000783985, 0.00396612, 0.00413169, -0.00107854, 0.00122387, -0.00866486, -0.0088495, 6.53412e-05, -0.0503661, 0.107095, -0.0823994, 0.470844, -0.544411, 0.335035, -2.08351, -2.16536, -0.12843, 0.469896, -0.543328, 0.331223, -2.08315, -2.16306, -0.12263, -0.00438725, -0.027222, -0.0234497, 0.00414436, -0.0183153, -0.0223188
0.111164, 1.69374, -1.22987, -1.54415, -0.900425, -1.1955, 1.23185, -1.30262, 0.0453408, 0.0171745, -0.0978514, 0.0226423, -0.0610164, 0.0421142, 0.00128847, -2.50756, 66.2866, 31.6581, 9.94141, 0.956908, 4.12692, -0.0228162, 0.000519967, -0.000779673, 0.00396605, 0.00417337, -0.0011616, 0.00126461, -0.00905689, -0.00835481, -0.000628417, -0.0520172, 0.104259, -0.0827779, 0.47084, -0.544438, 0.335012, -2.08349, -2.16534, -0.128389, 0.469895, -0.543347, 0.331201, -2.08321, -2.16304, -0.122455, -0.00445179, -0.0276151, -0.0238135, 0.00354602, -0.018235, -0.0232917
0.112164, 1.69378, -1.22985, -1.54425, -0.900405, -1.19555, 1.23188, -1.30263, 0.0449949, 0.0162453, -0.0986246, 0.0225327, -0.0598087, 0.0407859, -0.00181978, -2.58294, 66.1002, 31.6581, 10.0168, 0.956908, 4.14157, 0.0495105, 0.000528958, -0.000775913, 0.00396588, 0.00421587, -0.00124233, 0.00130075, -0.00950994, -0.00802336, -0.00125739, -0.0530039, 0.101953, -0.0805032, 0.470836, -0.544466, 0.334988, -2.08348, -2.16533, -0.128348, 0.469894, -0.543366, 0.331178, -2.08325, -2.16301, -0.122281, -0.00451631, -0.0280078, -0.0241779, 0.00311091, -0.0180972, -0.0241969
0.113164, 1.69382, -1.22984, -1.54434, -0.900385, -1.19561, 1.23192, -1.30262, 0.042165, 0.0145894, -0.0963224, 0.0225136, -0.0551972, 0.0393029, 0.000719591, -2.69799, 65.9534, 31.6581, 10.0922, 0.981627, 4.16354, -0.00267457, 0.000538736, -0.000770262, 0.00396597, 0.0042572, -0.00132567, 0.00134319, -0.0100919, -0.00719198, -0.00109847, -0.0494734, 0.0957747, -0.0838, 0.470831, -0.544494, 0.334964, -2.08347, -2.16531, -0.128305, 0.469895, -0.543384, 0.331155, -2.08331, -2.16298, -0.122104, -0.00458078, -0.0283999, -0.0245428, 0.00220137, -0.0179732, -0.0242889
0.114164, 1.69385, -1.22983, -1.54443, -0.900362, -1.19567, 1.23195, -1.30262, 0.0380741, 0.0117336, -0.0933555, 0.0268206, -0.055164, 0.0393625, 0.000479728, -2.7337, 65.878, 31.5867, 10.1279, 0.993529, 4.16354, -0.00267457, 0.000544435, -0.00076946, 0.0039669, 0.00429028, -0.00140061, 0.00139028, -0.00779032, -0.00459028, -0.000607252, -0.0440246, 0.0924595, -0.0905316, 0.470826, -0.544522, 0.334939, -2.08346, -2.1653, -0.128263, 0.469891, -0.543407, 0.331131, -2.08336, -2.16295, -0.121944, -0.00464521, -0.0287914, -0.0249081, -0.000361029, -0.020819, -0.0244445
0.115164, 1.69389, -1.22982, -1.54452, -0.900336, -1.19573, 1.23199, -1.30262, 0.0379354, 0.0105111, -0.089617, 0.0239539, -0.0606272, 0.0395474, 8.24594e-05, -2.88445, 65.7709, 31.4716, 10.1279, 1.00635, 4.14889, 0.00373412, 0.000554779, -0.000763603, 0.0039649, 0.0043195, -0.0014774, 0.00143239, -0.00858489, -0.00532436, -6.52154e-05, -0.0442088, 0.0960381, -0.0883947, 0.470822, -0.544551, 0.334914, -2.08345, -2.16528, -0.128219, 0.469891, -0.543425, 0.331109, -2.08342, -2.16292, -0.121786, -0.00470957, -0.0291822, -0.0252738, 0.000299701, -0.0204786, -0.0241751
0.116164, 1.69393, -1.2298, -1.54461, -0.900309, -1.19578, 1.23202, -1.30262, 0.0399536, 0.0105784, -0.0891385, 0.0251569, -0.061113, 0.0392061, -0.000182386, -2.9995, 65.6241, 31.4359, 10.1279, 1.04938, 4.14889, 0.0101428, 0.000563889, -0.000761004, 0.00396139, 0.00435365, -0.00155675, 0.00147516, -0.00960896, -0.00622112, 0.000485955, -0.0436807, 0.0965023, -0.0877711, 0.470817, -0.54458, 0.334889, -2.08344, -2.16527, -0.128175, 0.469889, -0.543446, 0.331089, -2.08348, -2.16289, -0.121619, -0.00477385, -0.0295723, -0.0256399, 0.00111518, -0.0199056, -0.0238667
0.117164, 1.69396, -1.22979, -1.5447, -0.900283, -1.19584, 1.23206, -1.30263, 0.037239, 0.00891849, -0.0899333, 0.0287896, -0.0602041, 0.035441, -0.00157965, -3.07488, 65.5487, 31.4716, 10.1675, 1.06128, 4.11319, 0.0495105, 0.000571826, -0.000758363, 0.00396143, 0.0043846, -0.0016314, 0.00151678, -0.00801844, -0.0032503, -0.000150178, -0.0448643, 0.0921246, -0.0929396, 0.470812, -0.54461, 0.334863, -2.08342, -2.16525, -0.12813, 0.469886, -0.543468, 0.331064, -2.08353, -2.16286, -0.12146, -0.00483806, -0.0299616, -0.0260062, -0.00188305, -0.021889, -0.0250143
0.118164, 1.69399, -1.22977, -1.54478, -0.900246, -1.1959, 1.23209, -1.30262, 0.0354836, 0.011666, -0.0852091, 0.0347832, -0.0551997, 0.0373359, -0.000307117, -3.15026, 65.4376, 31.4002, 10.0565, 1.086, 4.07748, 0.0293689, 0.000577256, -0.000758422, 0.00395282, 0.0043979, -0.00171057, 0.00157719, -0.00791532, -0.00268826, 0.0045397, -0.0330311, 0.0910528, -0.0979941, 0.470808, -0.54464, 0.334837, -2.08341, -2.16524, -0.128084, 0.469881, -0.543494, 0.331048, -2.08361, -2.16282, -0.121313, -0.00490216, -0.0303499, -0.0263728, -0.00232895, -0.0231227, -0.0207484
0.119164, 1.69403, -1.22976, -1.54486, -0.900218, -1.19596, 1.23213, -1.30262, 0.036945, 0.00975941, -0.08533, 0.0354057, -0.0555598, 0.0380036, 0.000744691, -3.33672, 65.3662, 31.3605, 10.0922, 1.09241, 4.05551, 0.00373412, 0.000589763, -0.000751021, 0.00394922, 0.0044189, -0.00178464, 0.00161909, -0.00847867, -0.00353103, 0.00375089, -0.0324448, 0.0900291, -0.098936, 0.470803, -0.54467, 0.334811, -2.0834, -2.16522, -0.128038, 0.469883, -0.543512, 0.331027, -2.08367, -2.16279, -0.121164, -0.00496616, -0.0307373, -0.0267396, -0.00160075, -0.0227981, -0.0218335
0.120164, 1.69406, -1.22976, -1.54493, -0.900179, -1.19602, 1.23217, -1.30262, 0.0328538, 0.010836, -0.0806019, 0.0349958, -0.061911, 0.0388798, 2.1743e-05, -3.45177, 65.3265, 31.2494, 10.0168, 1.13544, 4.02713, 0.0165515, 0.000595193, -0.000750435, 0.00394205, 0.00443169, -0.00186307, 0.00167055, -0.00694819, -0.00165258, 0.00660875, -0.0295992, 0.0965695, -0.102409, 0.470798, -0.544701, 0.334784, -2.08339, -2.1652, -0.127991, 0.469879, -0.543538, 0.331008, -2.08375, -2.16276, -0.121018, -0.00503004, -0.0311236, -0.0271065, -0.0033786, -0.0252114, -0.0195565
0.121164, 1.6941, -1.22974, -1.54501, -0.900147, -1.19608, 1.2322, -1.30262, 0.0336548, 0.0142194, -0.0789189, 0.036498, -0.0598971, 0.0385315, -0.00120621, -3.60253, 65.1797, 31.2137, 10.0168, 1.12262, 4.0198, 0.0495105, 0.000606184, -0.000746056, 0.00393239, 0.00445085, -0.0019476, 0.00171456, -0.00838267, -0.00223066, 0.00964698, -0.0262289, 0.0981467, -0.100964, 0.470793, -0.544732, 0.334757, -2.08337, -2.16519, -0.127943, 0.469878, -0.54356, 0.330992, -2.08381, -2.16273, -0.120859, -0.0050938, -0.0315088, -0.0274735, -0.00280155, -0.0246234, -0.0167196
0.122164, 1.69413, -1.22974, -1.54509, -0.900111, -1.19615, 1.23224, -1.30263, 0.0303796, 0.0122143, -0.0787092, 0.0367595, -0.0639662, 0.0345128, -5.81533e-05, -3.71758, 65.2155, 31.2137, 10.0565, 1.12903, 3.99783, 0.0293689, 0.000614203, -0.000743391, 0.00392824, 0.00446506, -0.00202008, 0.00176473, -0.00675917, 0.000724974, 0.0087065, -0.0306, 0.0976015, -0.107444, 0.470788, -0.544764, 0.33473, -2.08336, -2.16517, -0.127895, 0.469875, -0.543584, 0.33097, -2.08388, -2.1627, -0.120716, -0.00515741, -0.0318928, -0.0278405, -0.00579409, -0.0265867, -0.0181733
0.123164, 1.69417, -1.22972, -1.54516, -0.900073, -1.19621, 1.23228, -1.30262, 0.0340583, 0.0131024, -0.0751035, 0.0371381, -0.0667788, 0.0358921, 0.00189401, -3.82867, 65.033, 31.2137, 10.0922, 1.13544, 3.97677, -0.0228162, 0.000623514, -0.000740085, 0.00391354, 0.00447355, -0.00211147, 0.00182101, -0.00884263, -0.00188197, 0.0108049, -0.0274797, 0.101585, -0.105978, 0.470782, -0.544796, 0.334702, -2.08335, -2.16515, -0.127846, 0.469874, -0.543609, 0.330958, -2.08397, -2.16267, -0.120559, -0.00522087, -0.0322756, -0.0282076, -0.00324876, -0.025128, -0.0162283
0.124164, 1.69421, -1.22971, -1.54524, -0.900029, -1.19629, 1.23232, -1.30262, 0.0377388, 0.00841767, -0.0736068, 0.0348255, -0.0640537, 0.0370868, 0.00027933, -3.97942, 65.0687, 31.2494, 10.0922, 1.13544, 3.95572, 0.00373412, 0.000629012, -0.000737818, 0.00390752, 0.00448425, -0.00219315, 0.00187527, -0.0118979, -0.00541357, 0.0084718, -0.0255407, 0.095751, -0.0976419, 0.470777, -0.544828, 0.334674, -2.08333, -2.16513, -0.127796, 0.469871, -0.543637, 0.330936, -2.08405, -2.16264, -0.120409, -0.00528417, -0.032657, -0.0285745, 1.8647e-05, -0.02199, -0.018538
0.125164, 1.69424, -1.2297, -1.54531, -0.899975, -1.19636, 1.23235, -1.30263, 0.0355111, 0.0107094, -0.0731672, 0.0457118, -0.0708252, 0.0378394, -0.0015092, -4.0548, 64.9973, 31.2137, 9.98108, 1.12262, 3.93374, 0.0495105, 0.000634436, -0.000737453, 0.00389208, 0.00448145, -0.00227744, 0.0019334, -0.00698559, -0.00119411, 0.011991, -0.0215994, 0.10318, -0.110344, 0.470772, -0.54486, 0.334645, -2.08332, -2.16511, -0.127746, 0.469866, -0.543667, 0.330924, -2.08414, -2.1626, -0.12027, -0.0053473, -0.0330371, -0.0289414, -0.00395037, -0.0279331, -0.016057
0.126164, 1.69428, -1.22969, -1.54537, -0.899923, -1.19643, 1.2324, -1.30263, 0.0350152, 0.0125967, -0.0690144, 0.0480014, -0.0717194, 0.0381554, -0.00100613, -4.16985, 64.9219, 31.1384, 9.98108, 1.11713, 3.9191, 0.0495105, 0.000641536, -0.000734232, 0.00387469, 0.00447345, -0.00236748, 0.00199178, -0.0073356, -0.00112603, 0.0152599, -0.0163934, 0.105721, -0.11236, 0.470766, -0.544894, 0.334616, -2.0833, -2.1651, -0.127694, 0.469864, -0.543695, 0.330913, -2.08424, -2.16258, -0.12013, -0.00541024, -0.0334157, -0.0293081, -0.00396966, -0.0284709, -0.0131396
0.127164, 1.69432, -1.22968, -1.54544, -0.899873, -1.19651, 1.23244, -1.30262, 0.0366839, 0.0122404, -0.0683934, 0.0478904, -0.0727582, 0.0386888, 0.00153329, -4.24523, 64.9219, 31.1741, 10.0565, 1.11713, 3.89071, -0.00999879, 0.000648764, -0.000729186, 0.00386195, 0.00446877, -0.00245574, 0.00205511, -0.00837343, -0.00224932, 0.0155269, -0.0158168, 0.106777, -0.113857, 0.470761, -0.544927, 0.334587, -2.08329, -2.16508, -0.127643, 0.469864, -0.543723, 0.330897, -2.08434, -2.16254, -0.119987, -0.00547299, -0.0337927, -0.0296745, -0.00293674, -0.0278182, -0.0131177
0.128164, 1.69436, -1.22968, -1.5455, -0.899819, -1.19659, 1.23249, -1.30262, 0.0376014, 0.00632929, -0.0649389, 0.0489819, -0.0729448, 0.0483359, 0.00125955, -4.28094, 65.033, 31.2137, 10.0922, 1.10431, 3.87607, -0.0164075, 0.000652478, -0.000726135, 0.00385168, 0.00445993, -0.00254109, 0.0021192, -0.00802186, -0.0050545, 0.0145203, -0.00424848, 0.105794, -0.112567, 0.470756, -0.544961, 0.334557, -2.08327, -2.16506, -0.12759, 0.469861, -0.543755, 0.330878, -2.08444, -2.16251, -0.119851, -0.00553554, -0.0341681, -0.0300408, -0.000222833, -0.0282711, -0.014622
0.129164, 1.6944, -1.22968, -1.54557, -0.899765, -1.19668, 1.23254, -1.30262, 0.0424237, 0.0070836, -0.0661014, 0.0489801, -0.0781493, 0.0504611, 0.00107706, -4.35632, 65.0687, 31.2891, 10.1675, 1.0979, 3.86966, -0.0228162, 0.0006593, -0.00071864, 0.00383906, 0.00444911, -0.00263399, 0.0021768, -0.00916784, -0.00740816, 0.014807, -0.00613303, 0.112379, -0.110573, 0.47075, -0.544995, 0.334527, -2.08326, -2.16504, -0.127537, 0.469863, -0.543784, 0.330861, -2.08454, -2.16248, -0.11971, -0.00559787, -0.0345419, -0.0304067, 0.00203613, -0.027461, -0.0146028
0.130164, 1.6944, -1.22968, -1.54557, -0.899765, -1.19668, 1.23254, -1.30262, 0.0424237, 0.0070836, -0.0661014, 0.0489801, -0.0781493, 0.0504611, 0.00107706, -4.35632, 65.0687, 31.2891, 10.1675, 1.0979, 3.86966, -0.0228162, 0.000697938, -0.000712442, 0.00381415, 0.00440515, -0.00262927, 0.00217173, -0.00958951, -0.00747302, 0.0151136, -0.00573282, 0.112645, -0.111245, 0.470744, -0.545029, 0.334497, -2.08324, -2.16502, -0.127483, 0.469863, -0.543784, 0.330861, -2.08454, -2.16248, -0.11971, -0.00565998, -0.0349139, -0.0307722, 0.00203613, -0.027461, -0.0146028
0.131164, 1.69449, -1.22968, -1.54568, -0.899641, -1.19685, 1.23264, -1.30263, 0.0450564, 0.00208697, -0.0649339, 0.0530654, -0.0754636, 0.0529129, -0.000323805, -4.35632, 65.144, 31.2891, 10.1279, 1.06128, 3.86966, 0.0229602, 0.000669864, -0.000706042, 0.00380724, 0.00440528, -0.00281875, 0.00229609, -0.0100337, -0.00915122, 0.0135356, 0.000148088, 0.106622, -0.109936, 0.470739, -0.545064, 0.334466, -2.08323, -2.165, -0.127428, 0.469865, -0.543847, 0.330833, -2.08475, -2.16244, -0.11945, -0.00572185, -0.0352841, -0.0311374, 0.00357513, -0.0270815, -0.0165115
0.132164, 1.69453, -1.22968, -1.54574, -0.899577, -1.19694, 1.2327, -1.30262, 0.0452407, 0.00261578, -0.0621678, 0.0526782, -0.0835564, 0.0589231, 0.00147955, -4.32061, 65.1083, 31.3248, 10.1675, 1.05578, 3.86966, -0.0228162, 0.000673246, -0.000700955, 0.00378946, 0.00438233, -0.00291919, 0.00236894, -0.00904485, -0.0100705, 0.0156098, 0.00424996, 0.116899, -0.113238, 0.470733, -0.5451, 0.334435, -2.08321, -2.16498, -0.127372, 0.469865, -0.543882, 0.33082, -2.08487, -2.1624, -0.11931, -0.00578347, -0.0356524, -0.0315021, 0.00454623, -0.0287068, -0.0150113
0.133164, 1.69458, -1.22968, -1.54579, -0.899504, -1.19703, 1.23276, -1.30262, 0.0468743, 0.0020358, -0.0582232, 0.0616232, -0.0849925, 0.0628411, -0.000234336, -4.35632, 65.1083, 31.2891, 10.0922, 1.01825, 3.87607, 0.0101428, 0.000678964, -0.00069087, 0.0037716, 0.00434908, -0.00301523, 0.00242854, -0.00760427, -0.010312, 0.0184781, 0.0147517, 0.118746, -0.117003, 0.470727, -0.545135, 0.334403, -2.08319, -2.16496, -0.127316, 0.46987, -0.543914, 0.330806, -2.08498, -2.16239, -0.119187, -0.00584484, -0.0360188, -0.0318663, 0.00488729, -0.0309259, -0.0127748
0.134164, 1.69462, -1.22969, -1.54585, -0.899435, -1.19713, 1.23282, -1.30262, 0.0451007, -0.00498972, -0.0594679, 0.066876, -0.092098, 0.0606602, -0.00110566, -4.24523, 65.2551, 31.2891, 10.0922, 1.01276, 3.89071, 0.0357776, 0.000679585, -0.000685685, 0.00376078, 0.00432013, -0.00310438, 0.00250061, -0.003601, -0.00690569, 0.0148351, 0.0109775, 0.116351, -0.125963, 0.470721, -0.545171, 0.334371, -2.08318, -2.16494, -0.127259, 0.469869, -0.543951, 0.330785, -2.0851, -2.16235, -0.119065, -0.00590595, -0.0363832, -0.0322299, 0.00142848, -0.0348227, -0.0172464
0.135164, 1.69468, -1.22971, -1.54592, -0.899368, -1.19722, 1.23288, -1.30263, 0.0456956, -0.00685695, -0.0628335, 0.0690255, -0.0967515, 0.0597658, -0.00100837, -4.20556, 65.4019, 31.4002, 10.1675, 0.993529, 3.89071, 0.0431018, 0.000682797, -0.000677825, 0.0037537, 0.00430378, -0.00319509, 0.00256502, -0.0019481, -0.00556358, 0.0130444, 0.00623682, 0.118215, -0.131137, 0.470716, -0.545208, 0.334339, -2.08316, -2.16492, -0.127202, 0.469871, -0.543985, 0.33076, -2.08521, -2.16232, -0.118926, -0.00596678, -0.0367455, -0.032593, 1.83563e-05, -0.0365969, -0.0195906
0.136164, 1.69473, -1.22971, -1.54597, -0.899295, -1.19732, 1.23294, -1.30262, 0.0503143, -0.00631434, -0.0610097, 0.0736949, -0.0994437, 0.0590594, 0.00129444, -4.20556, 65.4733, 31.3248, 10.1279, 0.963317, 3.89071, -0.00999879, 0.000689261, -0.000665661, 0.00373749, 0.00427047, -0.0032937, 0.00263216, -0.00299451, -0.00705377, 0.0146727, 0.00791163, 0.120545, -0.133682, 0.47071, -0.545245, 0.334306, -2.08314, -2.16489, -0.127143, 0.469877, -0.544018, 0.330744, -2.08533, -2.16229, -0.118798, -0.00602732, -0.0371056, -0.0329554, 0.00147173, -0.0361127, -0.0182316
0.137164, 1.69479, -1.22973, -1.54603, -0.899212, -1.19742, 1.233, -1.30262, 0.0482235, -0.0086257, -0.0614697, 0.0750486, -0.102293, 0.0582047, 0.00157504, -4.13018, 65.6598, 31.3248, 10.0168, 0.956908, 3.89804, -0.0292249, 0.000691168, -0.000655659, 0.00372612, 0.00423496, -0.00338609, 0.00270617, -0.00129392, -0.00511556, 0.0136764, 0.00659355, 0.120292, -0.139002, 0.470704, -0.545282, 0.334273, -2.08313, -2.16487, -0.127084, 0.469882, -0.544054, 0.330723, -2.08546, -2.16226, -0.118677, -0.00608756, -0.0374636, -0.0333171, -0.000501173, -0.038076, -0.0197781
0.138164, 1.69484, -1.22974, -1.54609, -0.899139, -1.19752, 1.23307, -1.30262, 0.0526099, -0.00838976, -0.0617852, 0.0788193, -0.103352, 0.0579582, 0.000337947, -4.0191, 65.7709, 31.3248, 10.0565, 0.920287, 3.89804, -0.00999879, 0.000695119, -0.000645261, 0.00371415, 0.00420828, -0.00348628, 0.00277154, -0.00230359, -0.0065691, 0.014291, 0.00713719, 0.121416, -0.137922, 0.470697, -0.545319, 0.33424, -2.08311, -2.16485, -0.127025, 0.469886, -0.544089, 0.330701, -2.08557, -2.16223, -0.118538, -0.0061475, -0.0378192, -0.0336781, 0.000878842, -0.0374695, -0.0194233
0.139164, 1.6949, -1.22976, -1.54615, -0.899052, -1.19763, 1.23313, -1.30262, 0.0530292, -0.00905748, -0.0594922, 0.0790922, -0.101449, 0.0571902, 0.000225298, -3.90404, 65.9177, 31.2137, 9.94141, 0.926695, 3.90536, -0.00999879, 0.000695278, -0.000638217, 0.0037013, 0.00417236, -0.00357992, 0.00285043, -0.00368413, -0.00729681, 0.014963, 0.00977963, 0.118943, -0.136574, 0.470691, -0.545357, 0.334206, -2.08309, -2.16483, -0.126964, 0.469887, -0.544128, 0.33068, -2.08571, -2.16219, -0.118414, -0.00620712, -0.0381726, -0.0340383, 0.00152347, -0.0365331, -0.0189301
0.140164, 1.69496, -1.22977, -1.54623, -0.898975, -1.19773, 1.23319, -1.30263, 0.0581693, -0.00949496, -0.0635035, 0.0787847, -0.0991986, 0.0640903, -0.00181649, -3.86834, 66.0645, 31.3248, 9.98108, 0.908385, 3.87607, 0.0431018, 0.000698743, -0.000626206, 0.00369475, 0.00415413, -0.00368102, 0.00291422, -0.00531792, -0.0111256, 0.013888, 0.0127421, 0.120854, -0.131001, 0.470685, -0.545395, 0.334172, -2.08307, -2.1648, -0.126903, 0.469893, -0.544164, 0.330653, -2.08582, -2.16216, -0.118264, -0.00626642, -0.0385235, -0.0343977, 0.00518916, -0.0349489, -0.0202228
0.141164, 1.69501, -1.22978, -1.54629, -0.898896, -1.19783, 1.23326, -1.30263, 0.0592182, -0.0111794, -0.0687345, 0.0789577, -0.0970914, 0.0619509, -0.000939726, -3.71758, 66.1359, 31.2891, 10.0168, 0.883666, 3.88339, 0.0357776, 0.000701473, -0.000616814, 0.00368282, 0.00412386, -0.00378025, 0.00298842, -0.00553614, -0.0106808, 0.011128, 0.00746713, 0.117069, -0.133436, 0.470679, -0.545434, 0.334138, -2.08305, -2.16478, -0.126841, 0.469896, -0.544201, 0.33063, -2.08594, -2.16213, -0.118127, -0.00632538, -0.038872, -0.0347562, 0.00457281, -0.0346764, -0.0232589
0.142164, 1.69508, -1.2298, -1.54636, -0.898816, -1.19794, 1.23333, -1.30262, 0.0632727, -0.0135785, -0.0673636, 0.0790821, -0.095599, 0.0608435, 0.00154366, -3.67791, 66.2469, 31.2891, 10.0565, 0.865355, 3.87607, -0.0228162, 0.000705511, -0.000604312, 0.00367471, 0.00409593, -0.0038774, 0.0030649, -0.00817651, -0.0132476, 0.010213, 0.00804643, 0.113256, -0.131503, 0.470673, -0.545473, 0.334103, -2.08303, -2.16476, -0.126778, 0.469902, -0.544237, 0.330604, -2.08607, -2.16209, -0.117988, -0.006384, -0.0392179, -0.0351138, 0.00694913, -0.0321698, -0.0241954
0.143164, 1.69514, -1.22981, -1.54643, -0.898724, -1.19804, 1.23339, -1.30262, 0.0609107, -0.0118583, -0.0651648, 0.0854376, -0.0990161, 0.0650325, 0.00174118, -3.56683, 66.2112, 31.2494, 9.98108, 0.846129, 3.86233, -0.0420422, 0.000708803, -0.000593958, 0.00365817, 0.00405903, -0.00397934, 0.00314527, -0.0051322, -0.0112839, 0.0136894, 0.015935, 0.119384, -0.140396, 0.470666, -0.545512, 0.334068, -2.08301, -2.16473, -0.126715, 0.469907, -0.544275, 0.330585, -2.0862, -2.16205, -0.117854, -0.00644226, -0.0395612, -0.0354704, 0.00517253, -0.0361327, -0.0215274
0.144164, 1.6952, -1.22983, -1.5465, -0.898635, -1.19814, 1.23346, -1.30263, 0.0660501, -0.0143846, -0.0678225, 0.0882681, -0.0973925, 0.0626112, -0.00124671, -3.45177, 66.3223, 31.2494, 9.98108, 0.834227, 3.86966, 0.0229602, 0.000711056, -0.00058361, 0.00365039, 0.00402847, -0.00407156, 0.00321555, -0.00676339, -0.0129113, 0.0114762, 0.0129914, 0.114761, -0.136176, 0.47066, -0.545551, 0.334033, -2.08299, -2.16471, -0.126651, 0.469911, -0.544313, 0.330557, -2.08632, -2.16202, -0.117723, -0.00650015, -0.0399019, -0.035826, 0.00659718, -0.0344564, -0.0238696
0.145164, 1.69527, -1.22983, -1.54658, -0.898544, -1.19823, 1.23352, -1.30263, 0.0631033, -0.0157015, -0.0715709, 0.0867308, -0.0911039, 0.0654766, -0.0010685, -3.33672, 66.2866, 31.3248, 9.98108, 0.809508, 3.86966, 0.0293689, 0.000714693, -0.000574083, 0.00363945, 0.0040023, -0.00416685, 0.00329497, -0.00634658, -0.0122459, 0.00985668, 0.0151579, 0.110313, -0.138263, 0.470653, -0.545591, 0.333997, -2.08297, -2.16469, -0.126586, 0.469914, -0.544351, 0.330533, -2.08645, -2.16197, -0.117582, -0.00655767, -0.0402399, -0.0361806, 0.00582787, -0.0349845, -0.0258668
0.146164, 1.69533, -1.22985, -1.54665, -0.898448, -1.19833, 1.23358, -1.30262, 0.0623622, -0.0156515, -0.0702909, 0.0875585, -0.090399, 0.0677178, 0.000237103, -3.30102, 66.3223, 31.2137, 9.9057, 0.779296, 3.87607, 0.00373412, 0.000719958, -0.000561968, 0.00363004, 0.00396969, -0.00425414, 0.00337397, -0.00633233, -0.0124133, 0.0109918, 0.0194822, 0.111033, -0.140856, 0.470647, -0.545631, 0.333961, -2.08295, -2.16466, -0.12652, 0.469919, -0.544387, 0.330506, -2.08657, -2.16192, -0.117456, -0.00661481, -0.0405751, -0.036534, 0.005983, -0.035501, -0.0251079
0.147164, 1.6954, -1.22987, -1.54673, -0.898357, -1.19843, 1.23364, -1.30262, 0.0634711, -0.012346, -0.0740102, 0.0880379, -0.0860982, 0.0646742, 0.00137877, -3.18597, 66.358, 31.1741, 9.98108, 0.760985, 3.88339, -0.0292249, 0.00072303, -0.000553262, 0.00362371, 0.0039435, -0.00434014, 0.00345847, -0.00776088, -0.012186, 0.0116713, 0.0163612, 0.109863, -0.142432, 0.47064, -0.545672, 0.333924, -2.08293, -2.16464, -0.126454, 0.469921, -0.544425, 0.330476, -2.0867, -2.16187, -0.117322, -0.00667155, -0.0409074, -0.0368864, 0.00567562, -0.0345364, -0.0245613
0.148164, 1.69546, -1.22987, -1.54682, -0.898254, -1.19852, 1.23371, -1.30262, 0.0630533, -0.008771, -0.0785811, 0.0913151, -0.0920424, 0.0635041, -0.000301522, -3.15026, 66.2112, 31.2137, 9.94141, 0.741759, 3.88339, 0.00373412, 0.000724454, -0.000545066, 0.00361093, 0.00391395, -0.00443935, 0.00354478, -0.0053061, -0.009494, 0.0128535, 0.0109023, 0.118056, -0.14894, 0.470633, -0.545713, 0.333887, -2.08291, -2.16461, -0.126387, 0.469923, -0.544466, 0.330452, -2.08683, -2.16182, -0.117178, -0.00672789, -0.0412368, -0.0372375, 0.00306459, -0.0375811, -0.0240373
0.149164, 1.69553, -1.22989, -1.5469, -0.89815, -1.19862, 1.23377, -1.30262, 0.0599389, -0.0130377, -0.0775671, 0.09701, -0.0927594, 0.0611187, 3.63442e-05, -2.9995, 66.2112, 31.063, 9.9057, 0.748168, 3.89804, -0.00267457, 0.000723895, -0.000539782, 0.003601, 0.00388067, -0.00452771, 0.00364226, -0.00253991, -0.00625732, 0.0117311, 0.0125799, 0.112875, -0.1577, 0.470627, -0.545754, 0.33385, -2.08289, -2.16458, -0.126319, 0.469922, -0.544509, 0.330424, -2.08698, -2.16175, -0.117047, -0.00678382, -0.0415633, -0.0375874, -0.000168494, -0.0405991, -0.0258174
0.150164, 1.69559, -1.2299, -1.547, -0.898051, -1.19871, 1.23384, -1.30263, 0.0625867, -0.0142991, -0.0877443, 0.0958383, -0.0913663, 0.0609337, -0.00116257, -2.92413, 66.1359, 31.1027, 9.94141, 0.723448, 3.88339, 0.0293689, 0.000724655, -0.000532277, 0.00359697, 0.00386075, -0.0046172, 0.00372728, -0.00251283, -0.00639617, 0.0073702, 0.00349954, 0.111603, -0.157894, 0.47062, -0.545796, 0.333812, -2.08287, -2.16456, -0.126251, 0.469922, -0.54455, 0.330391, -2.0871, -2.16169, -0.116901, -0.00683932, -0.0418868, -0.0379361, -0.000253715, -0.0402743, -0.0304812
0.151164, 1.69566, -1.22991, -1.54709, -0.897944, -1.1988, 1.23389, -1.30262, 0.0637996, -0.0105462, -0.087179, 0.0998048, -0.0965346, 0.0637854, 0.00115774, -2.80907, 65.9891, 31.063, 9.9057, 0.729857, 3.90536, -0.0228162, 0.000725512, -0.0005282, 0.00358595, 0.00383708, -0.00470748, 0.00382901, -0.00138277, -0.00619903, 0.0108388, 0.00650259, 0.120997, -0.164686, 0.470613, -0.545838, 0.333774, -2.08285, -2.16453, -0.126182, 0.46992, -0.544593, 0.330363, -2.08725, -2.16161, -0.116756, -0.0068944, -0.0422071, -0.0382834, -0.000329804, -0.0422506, -0.0275725
0.152164, 1.69573, -1.22992, -1.54718, -0.897837, -1.19889, 1.23395, -1.30262, 0.0673273, -0.00980386, -0.0861375, 0.101721, -0.0915853, 0.0710491, 0.00100918, -2.80907, 65.9177, 30.9876, 9.94141, 0.736266, 3.91269, -0.0292249, 0.000727943, -0.000520463, 0.00357804, 0.00381329, -0.00479637, 0.00392151, -0.00325182, -0.00986288, 0.0126653, 0.0168915, 0.121508, -0.161277, 0.470606, -0.54588, 0.333736, -2.08282, -2.1645, -0.126112, 0.469921, -0.544634, 0.330333, -2.08738, -2.16155, -0.116612, -0.00694903, -0.0425243, -0.0386293, 0.00328019, -0.0408524, -0.0259475
0.153164, 1.6958, -1.22992, -1.54728, -0.897724, -1.19898, 1.23402, -1.30262, 0.0679056, -0.00806474, -0.0914634, 0.104851, -0.0876247, 0.0678371, 0.00043543, -2.7337, 65.6598, 30.9162, 9.9057, 0.741759, 3.90536, -0.0228162, 0.000728058, -0.000515697, 0.00356409, 0.00378629, -0.00489516, 0.00402563, -0.00311533, -0.00840965, 0.012229, 0.0132516, 0.118857, -0.164834, 0.470599, -0.545922, 0.333697, -2.0828, -2.16448, -0.126041, 0.469919, -0.544678, 0.330308, -2.08753, -2.16148, -0.11646, -0.00700322, -0.0428383, -0.0389739, 0.00176329, -0.0412937, -0.0266963
0.154164, 1.69587, -1.22994, -1.54739, -0.897615, -1.19907, 1.23407, -1.30262, 0.0693816, -0.0123237, -0.0990899, 0.102034, -0.0891985, 0.0695519, -0.00238848, -2.69799, 65.6241, 30.8408, 9.94141, 0.748168, 3.9191, 0.0495105, 0.000728095, -0.000511195, 0.00356303, 0.00376981, -0.004973, 0.00411769, -0.00251678, -0.00878091, 0.00699694, 0.00580599, 0.117914, -0.162805, 0.470592, -0.545965, 0.333659, -2.08278, -2.16445, -0.12597, 0.469916, -0.544721, 0.33027, -2.08765, -2.1614, -0.116319, -0.00705695, -0.0431491, -0.039317, 0.00189703, -0.0413774, -0.0323111
0.155164, 1.69594, -1.22995, -1.5475, -0.897501, -1.19915, 1.23413, -1.30262, 0.0672624, -0.00767234, -0.101097, 0.107398, -0.0898957, 0.0654862, -0.000134257, -2.65832, 65.4019, 30.7654, 9.94141, 0.748168, 3.94107, 0.0101428, 0.000728329, -0.000508475, 0.00355398, 0.00375355, -0.0050633, 0.00422348, -0.000629826, -0.00515357, 0.00983551, 0.00389011, 0.121057, -0.17384, 0.470585, -0.546008, 0.333619, -2.08275, -2.16442, -0.125898, 0.469912, -0.544765, 0.33024, -2.0878, -2.16132, -0.116162, -0.00711021, -0.0434565, -0.0396587, -0.00159982, -0.044132, -0.0300216
0.156164, 1.69601, -1.22996, -1.54761, -0.897386, -1.19924, 1.23418, -1.30262, 0.0689934, -0.00619572, -0.10699, 0.108481, -0.090276, 0.0634339, 0.00136856, -2.62261, 65.2551, 30.7297, 9.9057, 0.741759, 3.94107, -0.0292249, 0.000726929, -0.000507965, 0.00355146, 0.00374889, -0.00514664, 0.00433592, -0.000484311, -0.00443062, 0.0088075, -0.00242143, 0.122549, -0.178229, 0.470578, -0.546052, 0.33358, -2.08273, -2.16439, -0.125825, 0.469905, -0.54481, 0.330202, -2.08793, -2.16122, -0.115998, -0.007163, -0.0437605, -0.0399988, -0.00240924, -0.0444516, -0.0313755
0.157164, 1.69608, -1.22996, -1.54773, -0.897269, -1.19932, 1.23424, -1.30262, 0.0669039, -0.0024679, -0.110262, 0.109762, -0.0921539, 0.0617263, 0.000912372, -2.58294, 64.9973, 30.6544, 9.87, 0.766478, 3.94107, -0.0292249, 0.000726003, -0.000506937, 0.00354251, 0.00373651, -0.00523983, 0.0044454, 0.00100878, -0.00182615, 0.0102931, -0.00596123, 0.127348, -0.183901, 0.470571, -0.546096, 0.33354, -2.08271, -2.16437, -0.125751, 0.469899, -0.544856, 0.330171, -2.08808, -2.16113, -0.115832, -0.0072153, -0.0440611, -0.0403373, -0.00495047, -0.046561, -0.0303914
0.158164, 1.69615, -1.22997, -1.54785, -0.897155, -1.19941, 1.23429, -1.30262, 0.0683735, -0.00423927, -0.111888, 0.108816, -0.0930134, 0.0602658, -0.000849814, -2.54723, 64.9219, 30.5433, 9.9057, 0.779296, 3.96945, 0.0101428, 0.000725166, -0.000507123, 0.00353963, 0.00372989, -0.00532052, 0.0045503, 0.000240716, -0.002291, 0.00863399, -0.0094559, 0.126163, -0.181554, 0.470564, -0.54614, 0.333499, -2.08268, -2.16434, -0.125677, 0.469892, -0.544902, 0.330133, -2.08821, -2.16103, -0.115672, -0.0072671, -0.0443582, -0.0406742, -0.00463009, -0.0458261, -0.0322633
0.159164, 1.69622, -1.22997, -1.54797, -0.897039, -1.19949, 1.23434, -1.30263, 0.0663477, -0.00292814, -0.114954, 0.108485, -0.0928085, 0.0545658, -0.00151598, -2.50756, 64.7394, 30.5036, 9.94141, 0.766478, 3.97677, 0.0357776, 0.000724999, -0.000507991, 0.00353481, 0.00372712, -0.00540502, 0.00465853, 0.000581271, 0.000325107, 0.00817901, -0.0162905, 0.124996, -0.184712, 0.470556, -0.546184, 0.333458, -2.08266, -2.16431, -0.125602, 0.469884, -0.544947, 0.330098, -2.08834, -2.16094, -0.115503, -0.00731841, -0.0446518, -0.0410095, -0.00729922, -0.0464934, -0.0330128
0.160164, 1.69629, -1.22997, -1.54809, -0.896916, -1.19957, 1.23438, -1.30263, 0.0667974, -0.0027147, -0.116034, 0.110038, -0.0883469, 0.0499409, -0.000773293, -2.43218, 64.5926, 30.3925, 9.9057, 0.766478, 3.99142, 0.0293689, 0.000725296, -0.000508524, 0.00352691, 0.00371708, -0.00548801, 0.00477178, -0.000656502, 0.000915638, 0.00799875, -0.0180444, 0.119576, -0.18611, 0.470549, -0.546229, 0.333417, -2.08263, -2.16428, -0.125526, 0.469876, -0.544993, 0.330064, -2.08849, -2.16084, -0.115342, -0.0073692, -0.0449417, -0.0413431, -0.00799009, -0.0455578, -0.0333129
0.161164, 1.69637, -1.22998, -1.54822, -0.896795, -1.19965, 1.23443, -1.30262, 0.0685942, -0.00350367, -0.117027, 0.113692, -0.084679, 0.0465865, 0.000942533, -2.39648, 64.4815, 30.3211, 9.9057, 0.760985, 4.00516, -0.00999879, 0.000725879, -0.000508114, 0.00352334, 0.00371702, -0.0055721, 0.00488794, -0.00150479, 0.0010439, 0.007591, -0.0182935, 0.114307, -0.189191, 0.470542, -0.546274, 0.333376, -2.08261, -2.16425, -0.12545, 0.469869, -0.545038, 0.330027, -2.08862, -2.16073, -0.115168, -0.00741948, -0.0452279, -0.0416749, -0.00821407, -0.0449492, -0.0339117
0.162164, 1.69644, -1.22999, -1.54834, -0.89667, -1.19973, 1.23447, -1.30262, 0.0710344, -0.00755015, -0.122927, 0.113733, -0.082874, 0.0440633, 0.000628355, -2.28143, 64.5172, 30.3211, 9.87, 0.779296, 4.0198, -0.00999879, 0.000722719, -0.000512237, 0.00352455, 0.00371796, -0.00564392, 0.00500919, -0.0019451, 0.000866551, 0.00305923, -0.0250932, 0.108407, -0.189306, 0.470534, -0.546319, 0.333334, -2.08258, -2.16422, -0.125373, 0.469857, -0.545086, 0.329984, -2.08876, -2.16061, -0.115004, -0.00746922, -0.0455105, -0.042005, -0.00828177, -0.0440947, -0.0386541
0.163164, 1.69651, -1.22999, -1.54847, -0.896543, -1.19982, 1.23451, -1.30262, 0.069625, -0.0035403, -0.122161, 0.119577, -0.0811547, 0.0422024, 0.000147636, -2.16637, 64.4061, 30.2457, 9.87, 0.784789, 4.02713, -0.00267457, 0.000720971, -0.000517088, 0.00351608, 0.00371336, -0.00572856, 0.00513022, -0.000964803, 0.00302829, 0.00671401, -0.0214657, 0.109832, -0.19519, 0.470527, -0.546364, 0.333292, -2.08255, -2.16419, -0.125295, 0.469845, -0.545135, 0.32995, -2.08891, -2.1605, -0.114832, -0.00751843, -0.0457892, -0.0423333, -0.0103094, -0.0459905, -0.0354522
0.164164, 1.69659, -1.22999, -1.5486, -0.89641, -1.1999, 1.23456, -1.30262, 0.0679494, -0.000590739, -0.123147, 0.123413, -0.0798988, 0.040657, -0.000138935, -2.13067, 64.295, 30.206, 9.75494, 0.791197, 4.04086, 0.00373412, 0.000720391, -0.000519489, 0.00350743, 0.00371141, -0.00581664, 0.00525426, 0.000123957, 0.00517512, 0.00888419, -0.0203149, 0.111026, -0.200727, 0.470519, -0.54641, 0.33325, -2.08253, -2.16416, -0.125216, 0.469835, -0.545183, 0.329916, -2.08906, -2.16039, -0.114653, -0.00756709, -0.0460641, -0.0426597, -0.0123764, -0.0477612, -0.0337313
0.165164, 1.69667, -1.23, -1.54872, -0.896277, -1.19998, 1.2346, -1.30263, 0.0685488, -0.00101557, -0.122507, 0.123522, -0.082958, 0.0352856, -0.00127942, -2.05529, 64.295, 30.1346, 9.75494, 0.779296, 4.04086, 0.0357776, 0.000720167, -0.000522114, 0.00350222, 0.0037071, -0.00589306, 0.00536923, -0.000482839, 0.00603006, 0.00866623, -0.0254847, 0.110784, -0.200475, 0.470512, -0.546456, 0.333207, -2.0825, -2.16412, -0.125137, 0.469825, -0.54523, 0.329879, -2.08919, -2.16028, -0.114489, -0.0076152, -0.0463352, -0.0429842, -0.0133078, -0.0474348, -0.0341477
0.166164, 1.69674, -1.22999, -1.54886, -0.896136, -1.20007, 1.23463, -1.30262, 0.0671446, 0.00229032, -0.127435, 0.127939, -0.0813227, 0.0358314, 0.00131719, -1.90453, 64.1483, 30.1346, 9.71924, 0.797606, 4.04819, -0.0228162, 0.000716496, -0.000530663, 0.00349118, 0.00370896, -0.00598138, 0.0055094, 0.0015926, 0.00844457, 0.00990397, -0.0255206, 0.113306, -0.21089, 0.470504, -0.546503, 0.333164, -2.08247, -2.16409, -0.125057, 0.469809, -0.545282, 0.329846, -2.08936, -2.16015, -0.114303, -0.00766275, -0.0466022, -0.0433068, -0.015643, -0.0500399, -0.0334867
0.167164, 1.69682, -1.22999, -1.54899, -0.895997, -1.20015, 1.23467, -1.30262, 0.0688681, 0.00284758, -0.131884, 0.131443, -0.0839276, 0.0368155, 0.000878129, -1.86486, 64.0768, 30.0593, 9.67957, 0.791197, 4.03445, -0.0228162, 0.000718235, -0.000532806, 0.0034823, 0.00370873, -0.00606376, 0.00563076, 0.00304044, 0.0091511, 0.00944175, -0.0279043, 0.116943, -0.215482, 0.470496, -0.546549, 0.333121, -2.08245, -2.16406, -0.124976, 0.469799, -0.545328, 0.329812, -2.0895, -2.16003, -0.114126, -0.00770973, -0.0468653, -0.0436274, -0.0163622, -0.0516905, -0.034463
0.168164, 1.69682, -1.22999, -1.54899, -0.895997, -1.20015, 1.23467, -1.30262, 0.0688681, 0.00284758, -0.131884, 0.131443, -0.0839276, 0.0368155, 0.000878129, -1.86486, 64.0768, 30.0593, 9.67957, 0.791197, 4.03445, -0.0228162, 0.000771002, -0.000524435, 0.00344613, 0.00363884, -0.00606025, 0.00562401, 0.00273714, 0.00910567, 0.00971782, -0.0274465, 0.117308, -0.216156, 0.470489, -0.546596, 0.333077, -2.08242, -2.16403, -0.124894, 0.469799, -0.545328, 0.329812, -2.0895, -2.16003, -0.114126, -0.00775613, -0.0471243, -0.043946, -0.0163622, -0.0516905, -0.034463
0.169164, 1.69682, -1.22999, -1.54899, -0.895997, -1.20015, 1.23467, -1.30262, 0.0688681, 0.00284758, -0.131884, 0.131443, -0.0839276, 0.0368155, 0.000878129, -1.86486, 64.0768, 30.0593, 9.67957, 0.791197, 4.03445, -0.0228162, 0.000824073, -0.000516022, 0.00340968, 0.00356824, -0.00605682, 0.00561722, 0.00243819, 0.00906097, 0.00999248, -0.0269875, 0.117676, -0.21683, 0.470481, -0.546643, 0.333034, -2.08239, -2.164, -0.124812, 0.469799, -0.545328, 0.329812, -2.0895, -2.16003, -0.114126, -0.00780194, -0.0473792, -0.0442625, -0.0163622, -0.0516905, -0.034463
0.170164, 1.69682, -1.22999, -1.54899, -0.895997, -1.20015, 1.23467, -1.30262, 0.0688681, 0.00284758, -0.131884, 0.131443, -0.0839276, 0.0368155, 0.000878129, -1.86486, 64.0768, 30.0593, 9.67957, 0.791197, 4.03445, -0.0228162, 0.000877442, -0.000507567, 0.00337296, 0.00349692, -0.00605346, 0.0056104, 0.00214365, 0.00901702, 0.0102657, -0.0265274, 0.118046, -0.217502, 0.470473, -0.546691, 0.332989, -2.08236, -2.16396, -0.124729, 0.469799, -0.545328, 0.329812, -2.0895, -2.16003, -0.114126, -0.00784715, -0.04763, -0.044577, -0.0163622, -0.0516905, -0.034463
0.171164, 1.69682, -1.22999, -1.54899, -0.895997, -1.20015, 1.23467, -1.30262, 0.0688681, 0.00284758, -0.131884, 0.131443, -0.0839276, 0.0368155, 0.000878129, -1.86486, 64.0768, 30.0593, 9.67957, 0.791197, 4.03445, -0.0228162, 0.000931105, -0.000499071, 0.00333596, 0.00342487, -0.00605019, 0.00560354, 0.00185358, 0.00897382, 0.0105374, -0.0260662, 0.118419, -0.218173, 0.470465, -0.546738, 0.332945, -2.08233, -2.16393, -0.124645, 0.469799, -0.545328, 0.329812, -2.0895, -2.16003, -0.114126, -0.00789177, -0.0478765, -0.0448893, -0.0163622, -0.0516905, -0.034463
0.172164, 1.69724, -1.22998, -1.54973, -0.895246, -1.20057, 1.23482, -1.30263, 0.0782149, 0.00179204, -0.148079, 0.151949, -0.0907453, 0.0260797, -0.000877753, -1.41259, 63.9658, 30.1346, 9.4574, 0.822325, 3.96945, 0.0229602, 0.00069387, -0.000580275, 0.00345577, 0.00377494, -0.00648529, 0.0063358, 0.00713045, 0.0139677, 0.00597298, -0.0442455, 0.117838, -0.235817, 0.470457, -0.546786, 0.3329, -2.0823, -2.16389, -0.124561, 0.469714, -0.545595, 0.329615, -2.09027, -2.15932, -0.113135, -0.00793577, -0.0481188, -0.0451995, -0.0213904, -0.0566482, -0.0399235
0.173164, 1.69733, -1.22997, -1.54987, -0.895081, -1.20065, 1.23485, -1.30263, 0.0844997, 0.00206047, -0.147017, 0.157595, -0.0861982, 0.0288238, -0.00105989, -1.41259, 63.9261, 30.0593, 9.34631, 0.815917, 3.96945, 0.0357776, 0.00069188, -0.000587426, 0.00344633, 0.00378017, -0.0065651, 0.00647698, 0.00487023, 0.0104676, 0.00749249, -0.0366246, 0.11582, -0.233046, 0.470449, -0.546834, 0.332855, -2.08227, -2.16386, -0.124476, 0.469699, -0.545647, 0.329579, -2.09043, -2.15918, -0.112948, -0.00797915, -0.0483568, -0.0455074, -0.0179566, -0.0547438, -0.0385014
0.174164, 1.69742, -1.22997, -1.55002, -0.894921, -1.20073, 1.23487, -1.30263, 0.0848402, 0.00216218, -0.14905, 0.160173, -0.082567, 0.0261384, -0.000469232, -1.37688, 63.8904, 30.0593, 9.42169, 0.797606, 3.97677, 0.0293689, 0.000689835, -0.00059575, 0.0034412, 0.00379269, -0.0066401, 0.00661997, 0.00461484, 0.0112737, 0.0072148, -0.0374094, 0.111953, -0.236013, 0.470441, -0.546883, 0.332809, -2.08224, -2.16383, -0.12439, 0.469683, -0.545699, 0.329539, -2.09058, -2.15903, -0.112757, -0.00802191, -0.0485903, -0.0458132, -0.018824, -0.0547157, -0.0390131
0.175164, 1.69751, -1.22997, -1.55017, -0.894747, -1.20082, 1.2349, -1.30262, 0.0869834, 0.00224166, -0.152801, 0.160635, -0.0857414, 0.0245175, 0.00185732, -1.33721, 63.8547, 30.0593, 9.30664, 0.804015, 3.96945, -0.0292249, 0.000684001, -0.000606698, 0.00343053, 0.00379942, -0.00672512, 0.00678116, 0.00474502, 0.0114731, 0.00603973, -0.0432265, 0.114547, -0.240129, 0.470433, -0.546931, 0.332763, -2.08221, -2.16379, -0.124304, 0.469664, -0.545755, 0.329503, -2.09076, -2.15887, -0.11256, -0.00806403, -0.0488195, -0.0461166, -0.0191079, -0.0549015, -0.0404891
0.176164, 1.6976, -1.22997, -1.55033, -0.894567, -1.20091, 1.23492, -1.30262, 0.0896611, 0.00463365, -0.151455, 0.166438, -0.082869, 0.023815, -0.00021985, -1.30151, 63.8547, 30.1346, 9.23523, 0.822325, 3.95572, 0.0101428, 0.000674476, -0.000620085, 0.00342404, 0.0038067, -0.00680505, 0.00693958, 0.00386822, 0.0108602, 0.00881834, -0.0383164, 0.114142, -0.23964, 0.470425, -0.54698, 0.332717, -2.08218, -2.16375, -0.124217, 0.469643, -0.545815, 0.329462, -2.09093, -2.1587, -0.112367, -0.00810551, -0.0490442, -0.0464177, -0.0184546, -0.0546612, -0.0379316
0.177164, 1.6977, -1.22997, -1.55046, -0.894392, -1.20099, 1.23494, -1.30262, 0.0945364, 0.00333319, -0.1446, 0.169614, -0.0852079, 0.0227656, -0.000621285, -1.37688, 63.8547, 29.9839, 9.23523, 0.815917, 3.94839, 0.0229602, 0.000674225, -0.000626321, 0.00341152, 0.0038003, -0.00687833, 0.00708453, 0.00142364, 0.00800671, 0.0108493, -0.033221, 0.114079, -0.235362, 0.470417, -0.547029, 0.332671, -2.08215, -2.16372, -0.124129, 0.469629, -0.545866, 0.329429, -2.09109, -2.15856, -0.112196, -0.00814634, -0.0492643, -0.0467165, -0.0156487, -0.0526618, -0.0359456
0.178164, 1.69779, -1.22996, -1.55061, -0.894207, -1.20108, 1.23496, -1.30263, 0.0942753, 0.00500366, -0.14905, 0.173014, -0.0884008, 0.0178191, -0.00116018, -1.30151, 63.7436, 30.0593, 9.19556, 0.846129, 3.92642, 0.0431018, 0.000664632, -0.000641764, 0.00339913, 0.00380664, -0.00696549, 0.00724808, 0.00316388, 0.010999, 0.0106039, -0.0406589, 0.116331, -0.241956, 0.470409, -0.547078, 0.332624, -2.08211, -2.16368, -0.12404, 0.469606, -0.545928, 0.329393, -2.09127, -2.15839, -0.111995, -0.00818651, -0.0494799, -0.0470129, -0.0186247, -0.0546809, -0.0366484
0.179164, 1.69788, -1.22996, -1.55076, -0.894018, -1.20116, 1.23498, -1.30262, 0.0947486, 0.00263786, -0.148537, 0.174556, -0.0852917, 0.0172512, 0.000921971, -1.22613, 63.7793, 30.0236, 9.19556, 0.858946, 3.94839, -0.00267457, 0.000657068, -0.000654629, 0.00338881, 0.0038072, -0.00704219, 0.0074159, 0.00258325, 0.0106673, 0.00978795, -0.0383456, 0.111418, -0.244262, 0.470401, -0.547128, 0.332577, -2.08208, -2.16365, -0.123951, 0.469585, -0.545987, 0.329356, -2.09145, -2.15822, -0.111809, -0.00822601, -0.0496909, -0.0473069, -0.018386, -0.0541799, -0.0376689
0.180164, 1.69799, -1.22996, -1.55092, -0.893824, -1.20125, 1.23501, -1.30262, 0.102441, 0.000933528, -0.153416, 0.181017, -0.0877765, 0.0188088, 0.00136063, -1.33721, 63.819, 30.0593, 9.12018, 0.877257, 3.9191, -0.0228162, 0.000651452, -0.000662497, 0.0033814, 0.00381051, -0.00712029, 0.00757756, 0.0026364, 0.00860439, 0.007984, -0.040264, 0.113047, -0.246529, 0.470393, -0.547178, 0.33253, -2.08205, -2.16361, -0.123861, 0.469569, -0.546044, 0.329315, -2.09163, -2.15805, -0.111619, -0.00826484, -0.0498971, -0.0475984, -0.0164363, -0.0540774, -0.0398213
0.181164, 1.69809, -1.22997, -1.55107, -0.893629, -1.20134, 1.23503, -1.30262, 0.101029, -0.00097085, -0.152848, 0.183565, -0.0903415, 0.018947, 0.00043237, -1.30151, 63.8904, 30.0593, 9.12018, 0.908385, 3.91269, -0.00999879, 0.000643438, -0.000673231, 0.0033759, 0.00381379, -0.00719427, 0.00774152, 0.00434046, 0.0100855, 0.00776387, -0.0391598, 0.113438, -0.25042, 0.470384, -0.547228, 0.332482, -2.08201, -2.16357, -0.12377, 0.469551, -0.546103, 0.329272, -2.0918, -2.15788, -0.111432, -0.00830299, -0.0500987, -0.0478874, -0.0179019, -0.0559886, -0.0405386
0.182164, 1.6982, -1.22997, -1.55123, -0.893432, -1.20143, 1.23505, -1.30263, 0.102697, 0.00108113, -0.15217, 0.190321, -0.091072, 0.0231433, -0.00116982, -1.26183, 63.819, 30.0236, 9.08447, 0.926695, 3.92642, 0.0293689, 0.00063644, -0.000685259, 0.00336453, 0.00381619, -0.00727393, 0.00790409, 0.00561388, 0.00989518, 0.0107166, -0.0316985, 0.118035, -0.253711, 0.470376, -0.547278, 0.332434, -2.08198, -2.16353, -0.123678, 0.469531, -0.546162, 0.329235, -2.09198, -2.15771, -0.111239, -0.00834046, -0.0502955, -0.0481739, -0.0175822, -0.0578873, -0.0381126
0.183164, 1.69831, -1.22996, -1.55138, -0.893219, -1.20151, 1.23507, -1.30263, 0.105117, 0.00169221, -0.154122, 0.196391, -0.0877267, 0.0225203, -0.00101724, -1.22613, 63.7793, 29.9839, 9.00909, 0.951415, 3.91269, 0.0357776, 0.000629073, -0.000695173, 0.00334934, 0.00380828, -0.00735619, 0.00807466, 0.00571922, 0.0099818, 0.0113209, -0.0293754, 0.115741, -0.257303, 0.470368, -0.547328, 0.332386, -2.08195, -2.1635, -0.123586, 0.469513, -0.546222, 0.329201, -2.09217, -2.15754, -0.111054, -0.00837722, -0.0504874, -0.0484579, -0.017676, -0.0582794, -0.0378124
0.184164, 1.69843, -1.22997, -1.55154, -0.893008, -1.20161, 1.23509, -1.30262, 0.111299, -0.000602512, -0.152242, 0.201525, -0.0891695, 0.0257428, 0.00149198, -1.26183, 63.8547, 29.9482, 9.04877, 0.963317, 3.92642, -0.0228162, 0.000626233, -0.000699124, 0.00334165, 0.00381006, -0.00743046, 0.00824115, 0.00469434, 0.00682972, 0.0115775, -0.0238758, 0.116349, -0.258383, 0.470359, -0.547378, 0.332338, -2.08191, -2.16346, -0.123493, 0.469501, -0.546277, 0.32916, -2.09235, -2.15736, -0.110866, -0.00841329, -0.0506745, -0.0487392, -0.0145891, -0.0573643, -0.0377927
0.185164, 1.69854, -1.22997, -1.5517, -0.892793, -1.2017, 1.23511, -1.30262, 0.112331, -0.00204767, -0.15459, 0.20302, -0.0909254, 0.0288229, 0.00123201, -1.15075, 63.9261, 30.0593, 9.04877, 0.988036, 3.92642, -0.0292249, 0.000615622, -0.000711535, 0.00333647, 0.00381309, -0.00750274, 0.0084196, 0.00572977, 0.0066006, 0.0105865, -0.0232167, 0.118407, -0.260713, 0.470351, -0.547429, 0.332289, -2.08188, -2.16342, -0.1234, 0.469481, -0.546339, 0.329115, -2.09253, -2.15717, -0.110677, -0.00844864, -0.0508567, -0.0490179, -0.0143994, -0.0584075, -0.0392176
