alisrour97/Franka_experiments/Real_Robot_scripts/servo-franka/Data2/log_dyn_PI2_0.csv
Time,q1,q2,q3,q4,q5,q6,q7,dq1,dq2,dq3,dq4,dq5,dq6,dq7,t1,t2,t3,t4,t5,t6,t7,ex1,ex2,ex3,ex4,ex5,ex6,ev1,ev2,ev3,ev4,ev5,ev6,xd,yd,zd,uxd,uyd,uzd,x,y,z,ux,uy,uz,vxd,vyd,vzd,vx,vy,vz
4.88281e-07, 1.69133, -1.22472, -1.53715, -0.899815, -1.19177, 1.22861, -1.30255, -0.00401549, -0.00201739, -0.00095362, 0.00538183, 0.00217132, 0.000583272, -0.0047461, -0.392998, 55.6027, 25.8143, 6.09711, 1.65729, 2.94406, -0.330433, 0.00111305, -0.0014862, -0.000755585, -0.000817821, -0.00124177, -9.83776e-05, 0.00330243, 0.00321866, -0.000460111, 0.00372971, -0.00403431, -0.00371204, 0.471008, -0.543389, 0.335894, -2.08385, -2.16584, -0.129887, 0.469522, -0.542457, 0.336859, -2.0848, -2.16699, -0.12954, -1.41255e-05, -9.11997e-05, -6.59526e-05, -0.00312715, -0.00341233, -0.000935811
0.0131155, 1.69131, -1.22474, -1.53718, -0.899795, -1.19177, 1.22862, -1.30255, -0.00103255, -0.00150641, -0.00707181, 0.0015508, 0.000177578, -0.000106012, -0.00176715, -0.43267, 55.7495, 26.0404, 6.0614, 1.65729, 2.95138, -0.27184, 0.00108784, -0.00150943, -0.000739469, -0.000804405, -0.00122614, -4.34686e-05, 0.00234372, 0.00211376, -0.00304932, -0.00535863, -0.001403, -0.00407854, 0.471008, -0.543389, 0.335894, -2.08385, -2.16584, -0.129887, 0.469488, -0.542491, 0.336838, -2.08487, -2.16689, -0.12954, -2.13283e-05, -0.000136675, -0.000102379, -0.00215862, -0.00206761, -0.0034134
0.0141155, 1.69131, -1.22474, -1.53718, -0.899795, -1.19177, 1.22862, -1.30255, -0.00103255, -0.00150641, -0.00707181, 0.0015508, 0.000177578, -0.000106012, -0.00176715, -0.43267, 55.7495, 26.0404, 6.0614, 1.65729, 2.95138, -0.27184, 0.00108785, -0.00150943, -0.000739475, -0.000804414, -0.00122613, -4.34702e-05, 0.00228884, 0.00210507, -0.00301738, -0.00533037, -0.00139325, -0.00413938, 0.471008, -0.543389, 0.335894, -2.08385, -2.16584, -0.129887, 0.469488, -0.542491, 0.336838, -2.08487, -2.16689, -0.12954, -2.91898e-05, -0.000186294, -0.000142179, -0.00215862, -0.00206761, -0.0034134
0.0151155, 1.69131, -1.22474, -1.53718, -0.899795, -1.19177, 1.22862, -1.30255, -0.00103255, -0.00150641, -0.00707181, 0.0015508, 0.000177578, -0.000106012, -0.00176715, -0.43267, 55.7495, 26.0404, 6.0614, 1.65729, 2.95138, -0.27184, 0.00108788, -0.00150942, -0.000739493, -0.00080444, -0.00122613, -4.34743e-05, 0.00222921, 0.00209564, -0.00298262, -0.00529951, -0.00138249, -0.00420564, 0.471008, -0.543389, 0.335894, -2.08385, -2.16584, -0.129887, 0.469488, -0.542491, 0.336838, -2.08487, -2.16689, -0.12954, -3.77325e-05, -0.000240197, -0.00018547, -0.00215862, -0.00206761, -0.0034134
0.0161155, 1.69131, -1.22474, -1.53718, -0.899795, -1.19177, 1.22862, -1.30255, -0.00103255, -0.00150641, -0.00707181, 0.0015508, 0.000177578, -0.000106012, -0.00176715, -0.43267, 55.7495, 26.0404, 6.0614, 1.65729, 2.95138, -0.27184, 0.00108794, -0.00150941, -0.000739528, -0.00080449, -0.00122611, -4.34822e-05, 0.00216468, 0.00208543, -0.00294495, -0.00526597, -0.00137068, -0.00427752, 0.471008, -0.543389, 0.335894, -2.08385, -2.16584, -0.129887, 0.469488, -0.542491, 0.336838, -2.08487, -2.16689, -0.12954, -4.69786e-05, -0.000298522, -0.00023237, -0.00215862, -0.00206761, -0.0034134
0.0171155, 1.69131, -1.22474, -1.53718, -0.899795, -1.19177, 1.22862, -1.30255, -0.00103255, -0.00150641, -0.00707181, 0.0015508, 0.000177578, -0.000106012, -0.00176715, -0.43267, 55.7495, 26.0404, 6.0614, 1.65729, 2.95138, -0.27184, 0.00108804, -0.0015094, -0.000739585, -0.000804573, -0.00122609, -4.34953e-05, 0.0020951, 0.00207443, -0.00290429, -0.00522964, -0.00135778, -0.0043552, 0.471008, -0.54339, 0.335894, -2.08385, -2.16584, -0.129887, 0.469488, -0.542491, 0.336838, -2.08487, -2.16689, -0.12954, -5.69498e-05, -0.000361405, -0.000282992, -0.00215862, -0.00206761, -0.0034134
0.0181155, 1.69131, -1.22474, -1.53718, -0.899795, -1.19177, 1.22862, -1.30255, -0.00103255, -0.00150641, -0.00707181, 0.0015508, 0.000177578, -0.000106012, -0.00176715, -0.43267, 55.7495, 26.0404, 6.0614, 1.65729, 2.95138, -0.27184, 0.00108818, -0.00150938, -0.00073967, -0.000804696, -0.00122606, -4.35147e-05, 0.00202033, 0.0020626, -0.00286053, -0.00519043, -0.00134374, -0.00443886, 0.471008, -0.54339, 0.335894, -2.08385, -2.16584, -0.129886, 0.469488, -0.542491, 0.336838, -2.08487, -2.16689, -0.12954, -6.7667e-05, -0.000428975, -0.000337449, -0.00215862, -0.00206761, -0.0034134
0.0191155, 1.69131, -1.22474, -1.53718, -0.899795, -1.19177, 1.22862, -1.30255, -0.00103255, -0.00150641, -0.00707181, 0.0015508, 0.000177578, -0.000106012, -0.00176715, -0.43267, 55.7495, 26.0404, 6.0614, 1.65729, 2.95138, -0.27184, 0.00108839, -0.00150934, -0.000739787, -0.000804867, -0.00122602, -4.35416e-05, 0.00194021, 0.00204993, -0.00281359, -0.00514826, -0.00132852, -0.00452868, 0.471008, -0.54339, 0.335893, -2.08385, -2.16584, -0.129886, 0.469488, -0.542491, 0.336838, -2.08487, -2.16689, -0.12954, -7.91509e-05, -0.000501362, -0.000395848, -0.00215862, -0.00206761, -0.0034134
0.0201155, 1.69131, -1.22474, -1.53718, -0.899795, -1.19177, 1.22862, -1.30255, -0.00103255, -0.00150641, -0.00707181, 0.0015508, 0.000177578, -0.000106012, -0.00176715, -0.43267, 55.7495, 26.0404, 6.0614, 1.65729, 2.95138, -0.27184, 0.00108865, -0.0015093, -0.000739944, -0.000805095, -0.00122596, -4.35773e-05, 0.00185462, 0.00203639, -0.00276339, -0.00510303, -0.00131206, -0.00462483, 0.471008, -0.54339, 0.335893, -2.08385, -2.16584, -0.129886, 0.469488, -0.542491, 0.336838, -2.08487, -2.16689, -0.12954, -9.14213e-05, -0.000578688, -0.000458296, -0.00215862, -0.00206761, -0.0034134
0.0211155, 1.69131, -1.22474, -1.53718, -0.899795, -1.19177, 1.22862, -1.30255, -0.00103255, -0.00150641, -0.00707181, 0.0015508, 0.000177578, -0.000106012, -0.00176715, -0.43267, 55.7495, 26.0404, 6.0614, 1.65729, 2.95138, -0.27184, 0.001089, -0.00150925, -0.000740143, -0.000805386, -0.00122589, -4.3623e-05, 0.00176342, 0.00202197, -0.00270983, -0.00505465, -0.00129433, -0.00472749, 0.471008, -0.54339, 0.335893, -2.08385, -2.16584, -0.129885, 0.469488, -0.542491, 0.336838, -2.08487, -2.16689, -0.12954, -0.000104498, -0.000661074, -0.000524897, -0.00215862, -0.00206761, -0.0034134
0.0221155, 1.69131, -1.22474, -1.53718, -0.899795, -1.19177, 1.22862, -1.30255, -0.00103255, -0.00150641, -0.00707181, 0.0015508, 0.000177578, -0.000106012, -0.00176715, -0.43267, 55.7495, 26.0404, 6.0614, 1.65729, 2.95138, -0.27184, 0.00108943, -0.00150918, -0.000740392, -0.000805749, -0.0012258, -4.36798e-05, 0.00166648, 0.00200664, -0.00265285, -0.00500304, -0.00127529, -0.0048368, 0.471008, -0.543391, 0.335893, -2.08385, -2.16584, -0.129885, 0.469488, -0.542491, 0.336838, -2.08487, -2.16689, -0.12954, -0.000118398, -0.000748633, -0.000595748, -0.00215862, -0.00206761, -0.0034134
0.0231155, 1.69131, -1.22474, -1.53718, -0.899795, -1.19177, 1.22862, -1.30255, -0.00103255, -0.00150641, -0.00707181, 0.0015508, 0.000177578, -0.000106012, -0.00176715, -0.43267, 55.7495, 26.0404, 6.0614, 1.65729, 2.95138, -0.27184, 0.00108994, -0.0015091, -0.000740695, -0.000806191, -0.00122569, -4.37488e-05, 0.00156367, 0.00199038, -0.00259235, -0.00494812, -0.00125489, -0.00495294, 0.471008, -0.543391, 0.335892, -2.08385, -2.16584, -0.129884, 0.469488, -0.542491, 0.336838, -2.08487, -2.16689, -0.12954, -0.000133141, -0.000841478, -0.000670947, -0.00215862, -0.00206761, -0.0034134
0.0241155, 1.6913, -1.22479, -1.53724, -0.89979, -1.19177, 1.22862, -1.30255, -8.87271e-05, -0.00657049, -0.00507815, 0.00104607, 0.000518698, -0.000200402, -0.00123285, -0.392998, 56.3763, 26.2983, 5.98602, 1.64447, 2.94406, -0.27184, 0.00107208, -0.00151984, -0.000692116, -0.000755422, -0.00117759, -1.64596e-05, 0.00087875, 0.000868048, -0.00492215, -0.0038784, -0.00666138, -0.00307455, 0.471008, -0.543392, 0.335892, -2.08385, -2.16584, -0.129884, 0.469476, -0.542502, 0.336787, -2.08484, -2.16681, -0.129529, -0.000148743, -0.000939713, -0.000750586, -0.00116193, -0.00108516, -0.00572106
0.0251155, 1.6913, -1.2248, -1.53724, -0.899795, -1.19177, 1.22862, -1.30256, -6.92655e-05, -0.00757637, -0.00516578, -3.67234e-05, 0.00170244, -0.000133552, -0.00228123, -0.392998, 56.3763, 26.2229, 6.02173, 1.60785, 2.94406, -0.232472, 0.0010722, -0.00151958, -0.000685817, -0.000751793, -0.00116894, -1.95335e-05, 0.000321823, 0.000448551, -0.00562157, -0.00388692, -0.00847417, -0.000817106, 0.471008, -0.543393, 0.335891, -2.08385, -2.16584, -0.129883, 0.469476, -0.542502, 0.336781, -2.08483, -2.16681, -0.129533, -0.00016522, -0.00104344, -0.000834754, -0.000804615, -0.000514259, -0.00642206
0.0261155, 1.69131, -1.2248, -1.53725, -0.899795, -1.19177, 1.22861, -1.30255, -5.37625e-05, -0.00501475, -0.00719077, 0.000886571, -0.00212105, -0.00117407, -0.0020304, -0.392998, 56.2296, 26.2229, 5.98602, 1.55932, 2.97336, -0.218739, 0.00107229, -0.00151956, -0.000679409, -0.000739764, -0.00116436, -1.5912e-05, 0.00129299, 0.00164954, -0.00472818, -0.00762475, -0.00323136, -0.00430327, 0.471007, -0.543393, 0.335891, -2.08385, -2.16584, -0.129882, 0.469476, -0.542501, 0.336774, -2.08483, -2.1668, -0.129523, -0.000182589, -0.00115275, -0.000923534, -0.00195445, -0.00176898, -0.00574321
0.0271155, 1.69132, -1.22481, -1.53726, -0.899798, -1.19177, 1.22861, -1.30256, 0.0057954, -0.00302952, -0.00544965, -0.00243708, -3.92635e-06, -0.00264765, 0.000475302, -0.508049, 56.1938, 26.2229, 5.98602, 1.50989, 3.02371, -0.140919, 0.0010747, -0.00151518, -0.000670437, -0.000727965, -0.00115939, -2.64678e-05, -0.0035435, -0.00263272, -0.00377077, -0.0086506, -0.00333464, 0.00324693, 0.471007, -0.543394, 0.33589, -2.08385, -2.16584, -0.129881, 0.46948, -0.542498, 0.336764, -2.08481, -2.1668, -0.129515, -0.000200863, -0.00126774, -0.00101701, 0.00216563, 0.00291861, -0.00426977
0.0281155, 1.69131, -1.22483, -1.53726, -0.899801, -1.19178, 1.22861, -1.30255, 0.00235823, -0.00408129, -0.00328974, -0.00267437, -0.00455445, -0.00335877, 0.00020036, -0.43267, 56.2653, 26.1872, 6.02173, 1.48517, 3.06674, -0.127186, 0.00107396, -0.00151552, -0.000663585, -0.000726816, -0.0011492, -2.04607e-05, -0.00174438, -0.000534214, -0.00345744, -0.00909661, -0.00120175, -0.000287596, 0.471007, -0.543395, 0.335889, -2.08384, -2.16584, -0.129879, 0.469479, -0.542499, 0.336757, -2.08481, -2.16679, -0.129522, -0.000220057, -0.00138849, -0.00111525, 0.000126279, 0.00088763, -0.00427459
0.0291155, 1.69131, -1.22483, -1.53727, -0.899799, -1.19178, 1.22862, -1.30255, 0.00390629, -0.00654071, 0.00128195, -0.00110851, -0.00346503, -0.00329033, 0.00066502, -0.392998, 56.416, 26.2983, 5.98602, 1.47876, 3.09512, -0.133595, 0.00107038, -0.00151739, -0.000658969, -0.000725729, -0.00114835, -9.20534e-06, -0.00303508, -0.00205666, -0.00305575, -0.00415717, -0.00486913, 0.00185878, 0.471007, -0.543396, 0.335888, -2.08384, -2.16584, -0.129878, 0.469477, -0.542503, 0.336751, -2.08482, -2.16677, -0.129519, -0.000240182, -0.00151507, -0.00121833, 0.00159498, 0.00203573, -0.00382661
0.0301155, 1.69132, -1.22485, -1.53727, -0.899805, -1.19179, 1.22863, -1.30254, 0.003933, -0.0114479, 0.00256639, -0.00262286, -0.00348775, -0.00192227, 0.000189195, -0.43267, 56.7096, 26.3736, 6.0614, 1.49707, 3.0878, -0.120778, 0.00107203, -0.00151245, -0.000650379, -0.000724489, -0.00114284, -1.42241e-05, -0.00329298, -0.00299547, -0.00548471, -0.00290984, -0.00898079, 0.0042136, 0.471007, -0.543398, 0.335887, -2.08384, -2.16584, -0.129876, 0.469481, -0.542501, 0.336741, -2.08481, -2.16677, -0.129522, -0.000261251, -0.00164757, -0.00132632, 0.0024146, 0.0025701, -0.00632129
0.0311155, 1.69131, -1.22485, -1.53727, -0.89981, -1.19179, 1.22864, -1.30254, 0.00432856, -0.00807877, 0.000410742, -0.00360227, -0.0029372, -0.000738972, 0.000766273, -0.357292, 56.8564, 26.449, 6.13678, 1.50348, 3.07315, -0.133595, 0.00107075, -0.00151217, -0.000649402, -0.000730246, -0.00114807, -1.35453e-05, -0.00377178, -0.0032994, -0.00423281, -0.00367114, -0.00521923, 0.00379704, 0.471007, -0.543399, 0.335886, -2.08384, -2.16584, -0.129874, 0.469482, -0.542504, 0.336739, -2.08482, -2.16678, -0.129521, -0.000283275, -0.00178604, -0.00143928, 0.00272418, 0.00272407, -0.00513295
0.0321155, 1.69131, -1.22486, -1.53727, -0.899813, -1.1918, 1.22864, -1.30255, 0.00244723, -0.00784542, -0.00281256, -0.00330458, -0.00179833, -0.00103518, -7.71602e-05, -0.317619, 56.9675, 26.5958, 6.17248, 1.49158, 3.0878, -0.114369, 0.0010719, -0.00151018, -0.000646262, -0.000730206, -0.00114735, -1.84489e-05, -0.00261382, -0.00170734, -0.0050291, -0.00567491, -0.00590452, 0.00116314, 0.471006, -0.543401, 0.335885, -2.08384, -2.16584, -0.129872, 0.469483, -0.542504, 0.336735, -2.08481, -2.16678, -0.12952, -0.000306264, -0.00193055, -0.00155726, 0.00112383, 0.0014938, -0.00616894
0.0331155, 1.69132, -1.22486, -1.53727, -0.89981, -1.1918, 1.22865, -1.30255, 0.00199864, -0.00512612, 0.000679927, -0.00141872, -0.00140964, 0.00314543, -0.000941733, -0.317619, 56.9675, 26.6355, 6.13678, 1.49158, 3.10977, -0.0878186, 0.00107286, -0.00150871, -0.000648555, -0.000737243, -0.00115169, -2.06128e-05, -0.00265547, -0.0024316, -0.00144148, 0.00247668, -0.00181568, 0.00151246, 0.471006, -0.543402, 0.335883, -2.08384, -2.16584, -0.12987, 0.469484, -0.542505, 0.336736, -2.08481, -2.16679, -0.129522, -0.000330225, -0.00208114, -0.00168032, 0.00195124, 0.000861778, -0.00276486
0.0341155, 1.69132, -1.22486, -1.53727, -0.899812, -1.1918, 1.22865, -1.30255, 0.00160779, -0.00250407, -0.00168128, -0.000983976, 5.50602e-05, 0.00559755, 0.000425311, -0.317619, 56.9318, 26.7466, 6.13678, 1.46045, 3.1528, -0.114369, 0.00107527, -0.00150651, -0.0006484, -0.000737294, -0.00115481, -2.00536e-05, -0.00232061, -0.00229399, -0.000338883, 0.00380958, 0.000950362, -0.00151083, 0.471006, -0.543404, 0.335882, -2.08384, -2.16584, -0.129868, 0.469486, -0.542504, 0.336734, -2.08481, -2.16679, -0.129516, -0.000355167, -0.00223786, -0.0018085, 0.00184065, 0.000199139, -0.00185213
0.0351155, 1.69133, -1.22487, -1.53727, -0.899821, -1.1918, 1.22865, -1.30255, 0.00536939, -0.00411644, 0.000155088, -0.00642996, 0.000358967, 0.00282083, -0.000376195, -0.357292, 57.0389, 26.7069, 6.24786, 1.44855, 3.19583, -0.0951428, 0.0010833, -0.00149866, -0.000645578, -0.000738305, -0.00115015, -3.66361e-05, -0.00636324, -0.00552766, -0.00172647, -6.74056e-05, -0.00176321, 0.00857576, 0.471005, -0.543406, 0.33588, -2.08384, -2.16584, -0.129865, 0.469493, -0.542497, 0.336731, -2.08479, -2.1668, -0.129521, -0.000381096, -0.00240075, -0.00194184, 0.00484957, 0.00437312, -0.00282573
0.0361155, 1.69132, -1.22487, -1.53726, -0.899816, -1.19181, 1.22866, -1.30255, 0.00528907, -0.00270035, 0.00203477, -0.00280711, 0.000828568, 0.00642528, 2.58183e-05, -0.281914, 57.0389, 26.6355, 6.17248, 1.43024, 3.21689, -0.101552, 0.00108323, -0.0014987, -0.000649613, -0.000750644, -0.00115391, -3.03255e-05, -0.00568815, -0.00571837, 0.000708189, 0.00688684, 0.000642904, 0.00574939, 0.471005, -0.543408, 0.335878, -2.08384, -2.16584, -0.129862, 0.469493, -0.5425, 0.336733, -2.08481, -2.1668, -0.129527, -0.000408018, -0.00256985, -0.00208038, 0.00512516, 0.00317064, -0.000670761
0.0371155, 1.69133, -1.22486, -1.53726, -0.899818, -1.19181, 1.22867, -1.30254, 0.00409442, -0.00176728, 0.00155222, -0.00291941, -0.00400118, 0.00425485, 0.000521372, -0.281914, 57.0389, 26.6355, 6.20819, 1.41192, 3.23886, -0.114369, 0.00108802, -0.00149376, -0.000652212, -0.000755359, -0.0011614, -3.55409e-05, -0.00464361, -0.00406178, 0.00105727, 0.00264801, 0.004503, 0.00207508, 0.471005, -0.543411, 0.335877, -2.08384, -2.16583, -0.129859, 0.469498, -0.542498, 0.336734, -2.08481, -2.16681, -0.129522, -0.000435936, -0.00274516, -0.00222414, 0.00349275, 0.00184262, -0.000582
0.0381155, 1.69133, -1.22487, -1.53727, -0.899823, -1.19181, 1.22867, -1.30254, 0.00478617, -0.00375192, -0.000488846, -0.00303388, -0.001995, 0.00318805, 0.000132304, -0.206535, 57.15, 26.7069, 6.24786, 1.3808, 3.24527, -0.10796, 0.0010909, -0.00149038, -0.000646294, -0.000754009, -0.00115626, -4.10656e-05, -0.00507735, -0.00421636, -0.000857601, 0.000657498, 0.000564224, 0.00273779, 0.471004, -0.543413, 0.335874, -2.08384, -2.16583, -0.129855, 0.4695, -0.542497, 0.336727, -2.0848, -2.16682, -0.129523, -0.000464854, -0.00292672, -0.00237315, 0.00353355, 0.00239031, -0.00255917
0.0391155, 1.69133, -1.22488, -1.53726, -0.899824, -1.19181, 1.22868, -1.30254, 0.00823887, -0.00591642, 0.00145462, -0.00214228, -0.00101216, 0.00229574, -0.000132595, -0.131157, 57.2968, 26.6355, 6.24786, 1.36249, 3.25259, -0.101552, 0.00109347, -0.00148758, -0.000642992, -0.000760321, -0.00114936, -4.18709e-05, -0.0070401, -0.00631478, -0.00145154, 0.00186519, -0.00289222, 0.00669428, 0.471004, -0.543416, 0.335872, -2.08384, -2.16583, -0.129852, 0.469502, -0.542496, 0.336722, -2.0848, -2.16681, -0.129534, -0.000494774, -0.00311453, -0.00252743, 0.00550772, 0.00431746, -0.00305862
0.0401155, 1.69134, -1.22488, -1.53726, -0.899824, -1.19181, 1.22869, -1.30254, 0.00867828, -0.0004967, 0.000217093, -0.00151795, -2.94892e-05, 0.00627635, 0.000161383, -0.0914839, 57.15, 26.6712, 6.24786, 1.33777, 3.25992, -0.10796, 0.00109992, -0.00148077, -0.000650525, -0.000771657, -0.00116379, -4.83688e-05, -0.0073083, -0.0069783, 0.00183449, 0.00550345, 0.00375888, 0.00568039, 0.471003, -0.543419, 0.33587, -2.08384, -2.16583, -0.129848, 0.469509, -0.542494, 0.336727, -2.0848, -2.16683, -0.129528, -0.000525695, -0.00330858, -0.00268698, 0.00624856, 0.00390958, 4.81155e-05
0.0411155, 1.69135, -1.22488, -1.53727, -0.899821, -1.19182, 1.2287, -1.30254, 0.0104971, -0.00375438, -0.000628567, -0.000151273, -0.000222342, 0.00377198, -0.00086644, 0.0196001, 57.2968, 26.7069, 6.20819, 1.33777, 3.2883, -0.0814099, 0.00110039, -0.00147782, -0.000647162, -0.000776814, -0.00116582, -4.92208e-05, -0.0076659, -0.00715994, -0.000371244, 0.00272167, -0.000526938, 0.00663197, 0.471003, -0.543422, 0.335867, -2.08384, -2.16583, -0.129843, 0.469511, -0.542496, 0.336722, -2.08481, -2.16683, -0.129528, -0.000557617, -0.00350887, -0.00285182, 0.00630559, 0.00440924, -0.00224472
0.0421155, 1.69135, -1.22488, -1.53727, -0.899819, -1.19182, 1.2287, -1.30255, 0.00968127, -0.0024951, -0.000372603, 0.00151909, 0.000140569, 0.00714828, -0.0020287, 0.0949785, 57.2968, 26.7069, 6.13678, 1.32587, 3.30295, -0.0420422, 0.00110533, -0.00147376, -0.000652215, -0.000787156, -0.00117149, -5.69185e-05, -0.00693298, -0.00704525, 0.00116894, 0.00720489, 0.00196567, 0.00548488, 0.471002, -0.543426, 0.335864, -2.08384, -2.16583, -0.129839, 0.469514, -0.542495, 0.336724, -2.08481, -2.16685, -0.12953, -0.000590537, -0.00371538, -0.00302192, 0.00623998, 0.00323743, -0.00100432
0.0431155, 1.69136, -1.22488, -1.53727, -0.899819, -1.19183, 1.22871, -1.30255, 0.00911553, -0.00165753, -0.00114159, 0.000974858, -0.000901915, 0.011005, -0.00110987, 0.170357, 57.2968, 26.7466, 6.13678, 1.34967, 3.28097, -0.0484509, 0.00110835, -0.001469, -0.000652853, -0.000790695, -0.00118371, -5.85197e-05, -0.0063918, -0.00732438, 0.00182444, 0.0094332, 0.00569699, 0.00347363, 0.471002, -0.543429, 0.335861, -2.08384, -2.16583, -0.129834, 0.469519, -0.542496, 0.336722, -2.08481, -2.16686, -0.129516, -0.000624453, -0.00392809, -0.0031973, 0.00652787, 0.00240099, -0.000624868
0.0441155, 1.69137, -1.22489, -1.53727, -0.899822, -1.19184, 1.22872, -1.30254, 0.0125496, -0.00286386, -0.000734937, -0.000213715, -0.000245974, 0.0085267, -0.00144806, 0.21003, 57.3721, 26.7466, 6.17248, 1.33777, 3.27456, -0.0292249, 0.00111423, -0.00146209, -0.00065195, -0.00079789, -0.00118618, -6.6311e-05, -0.00886869, -0.00926887, 0.000841715, 0.00688109, 0.00297183, 0.00839473, 0.471001, -0.543433, 0.335858, -2.08384, -2.16582, -0.129829, 0.469525, -0.542493, 0.336719, -2.08481, -2.16687, -0.129518, -0.000659358, -0.00414696, -0.00337792, 0.00831089, 0.00485819, -0.00145019
0.0451155, 1.69138, -1.22489, -1.53727, -0.899822, -1.19185, 1.22874, -1.30254, 0.0129188, -0.00190594, -0.000470365, -0.000163779, -0.00564848, 0.0119061, -0.000250349, 0.21003, 57.3721, 26.7466, 6.17248, 1.34418, 3.25259, -0.0484509, 0.00112073, -0.00145289, -0.000655169, -0.000808843, -0.00120031, -7.25826e-05, -0.00799431, -0.00954281, 0.00193457, 0.00772521, 0.0100694, 0.00552199, 0.471, -0.543437, 0.335855, -2.08383, -2.16582, -0.129823, 0.469533, -0.542491, 0.33672, -2.08481, -2.16689, -0.129511, -0.000695248, -0.00437195, -0.00356376, 0.00861935, 0.00361299, -0.000700925
0.0461155, 1.69138, -1.22489, -1.53727, -0.899815, -1.19186, 1.22875, -1.30254, 0.00816404, -0.00126815, 0.00146436, 0.00163808, -0.00468648, 0.00832182, 0.00129337, 0.285408, 57.3721, 26.6712, 6.09711, 1.35608, 3.26724, -0.0878186, 0.00112333, -0.00144895, -0.00066166, -0.000826179, -0.00121305, -6.6081e-05, -0.00663295, -0.00629386, 0.00333329, 0.00854259, 0.00778094, -0.00135112, 0.471, -0.543442, 0.335851, -2.08383, -2.16582, -0.129818, 0.469536, -0.542494, 0.336723, -2.08483, -2.16689, -0.129511, -0.000732114, -0.004603, -0.00375481, 0.00543697, 0.00168978, 0.000375914
0.0471155, 1.69139, -1.22489, -1.53727, -0.899809, -1.19187, 1.22877, -1.30254, 0.00550073, -0.0016788, 0.00015204, 0.00284331, -0.00395905, 0.00988339, 0.000626548, 0.325081, 57.4078, 26.7069, 6.02173, 1.3689, 3.29562, -0.0814099, 0.00112703, -0.00144212, -0.000662556, -0.000836537, -0.00122342, -6.8495e-05, -0.00502425, -0.00471675, 0.00323109, 0.010195, 0.0075122, -0.00505934, 0.470999, -0.543446, 0.335848, -2.08383, -2.16582, -0.129812, 0.469542, -0.542495, 0.33672, -2.08484, -2.1669, -0.129506, -0.000769946, -0.00484006, -0.003951, 0.0038779, -0.000184235, -0.000123259
0.0481155, 1.69141, -1.22489, -1.53727, -0.899814, -1.19188, 1.22878, -1.30254, 0.00987193, -0.00111781, 0.000109626, 0.000123312, -0.00748003, 0.00695878, 0.00116493, 0.360787, 57.4078, 26.7069, 6.09711, 1.34967, 3.31027, -0.101552, 0.00113519, -0.00143286, -0.000666465, -0.000844404, -0.00124003, -7.83198e-05, -0.00769371, -0.00687065, 0.00284262, 0.0042093, 0.00994789, -0.000433457, 0.470998, -0.543451, 0.335844, -2.08383, -2.16582, -0.129805, 0.469551, -0.542491, 0.336721, -2.08484, -2.16692, -0.129492, -0.000808735, -0.00508306, -0.00415231, 0.00588077, 0.00235607, -0.000358966
0.0491155, 1.69142, -1.22489, -1.53727, -0.899806, -1.19189, 1.2288, -1.30254, 0.009921, -0.00074416, -0.000848737, 0.00267392, -0.0106871, 0.00972708, -0.000443152, 0.400459, 57.4078, 26.7466, 5.98602, 1.34967, 3.31759, -0.0685925, 0.0011389, -0.00142574, -0.000671016, -0.000857282, -0.00125895, -8.20361e-05, -0.00614907, -0.00634207, 0.00348576, 0.00568301, 0.0142224, -0.00287997, 0.470997, -0.543456, 0.33584, -2.08383, -2.16582, -0.129798, 0.469557, -0.542493, 0.336722, -2.08485, -2.16694, -0.129481, -0.000848468, -0.00533191, -0.00435868, 0.00539163, 0.000461689, -0.000154056
0.0501155, 1.69143, -1.22489, -1.53727, -0.899806, -1.19191, 1.22881, -1.30254, 0.00592621, 0.00117511, 0.000366845, 0.000942343, -0.0130168, 0.00687888, -0.00127808, 0.475838, 57.3364, 26.7069, 6.02173, 1.34418, 3.33133, -0.0420422, 0.00114514, -0.0014181, -0.000679566, -0.000872656, -0.0012827, -9.08977e-05, -0.00544356, -0.00392765, 0.00493306, 0.00330208, 0.0166612, -0.00504021, 0.470997, -0.543461, 0.335835, -2.08383, -2.16581, -0.129791, 0.469564, -0.542493, 0.336727, -2.08486, -2.16697, -0.129468, -0.000889131, -0.00558652, -0.00457004, 0.00301726, -0.000810933, 0.00102708
0.0511155, 1.69143, -1.22489, -1.53727, -0.899806, -1.19192, 1.22884, -1.30254, 0.00825983, -5.12226e-05, -0.00151519, 0.000624437, -0.0149089, 0.0104228, -0.00108889, 0.586922, 57.3721, 26.7823, 6.02173, 1.34418, 3.31759, -0.0356336, 0.00114657, -0.00141248, -0.000680628, -0.000886746, -0.00130091, -8.64062e-05, -0.00560994, -0.00548083, 0.00386741, 0.00341278, 0.0190333, -0.00451028, 0.470996, -0.543467, 0.335831, -2.08383, -2.16581, -0.129784, 0.469569, -0.542498, 0.336723, -2.08488, -2.16697, -0.129457, -0.00093071, -0.0058468, -0.00478633, 0.00448239, -0.000679405, -0.000262591
0.0521155, 1.69144, -1.22489, -1.53726, -0.899803, -1.19194, 1.22886, -1.30254, 0.00886234, -3.3708e-05, 0.00242616, 0.00124867, -0.0213184, 0.0128159, 0.00302571, 0.626595, 57.3721, 26.6355, 5.98602, 1.33777, 3.31027, -0.00999879, 0.00115153, -0.00140365, -0.00068908, -0.000913055, -0.0013242, -9.2747e-05, -0.00529519, -0.00613261, 0.00572125, 0.00633501, 0.0252631, -0.00918017, 0.470995, -0.543473, 0.335826, -2.08383, -2.16581, -0.129776, 0.469577, -0.542499, 0.336728, -2.0849, -2.167, -0.129455, -0.000973186, -0.00611264, -0.00500747, 0.00516919, -0.0015146, 0.00127822
0.0531155, 1.69145, -1.22489, -1.53727, -0.899803, -1.19195, 1.22888, -1.30254, 0.00848098, -0.00155979, 0.000784186, -4.9066e-06, -0.0153418, 0.00960722, 0.00288388, 0.701973, 57.2968, 26.6712, 6.02173, 1.31946, 3.31027, -0.0228162, 0.00115669, -0.00139667, -0.000695808, -0.000928922, -0.00134715, -9.38097e-05, -0.00682583, -0.00607257, 0.00398809, 0.00440621, 0.0175466, -0.00743546, 0.470994, -0.543479, 0.335821, -2.08382, -2.16581, -0.129768, 0.469583, -0.542501, 0.33673, -2.08492, -2.16702, -0.129441, -0.00101654, -0.00638391, -0.00523338, 0.00494849, -1.04892e-05, -0.000419762
0.0541155, 1.69145, -1.22489, -1.53727, -0.8998, -1.19197, 1.22891, -1.30254, 0.00907962, -0.00224271, 0.000524262, 0.000830347, -0.0176731, 0.0160802, 0.00316604, 0.737679, 57.3364, 26.6712, 5.98602, 1.34418, 3.324, -0.0484509, 0.00115897, -0.00138993, -0.000699514, -0.000945581, -0.00137129, -8.90539e-05, -0.00589767, -0.00715807, 0.00433846, 0.00915106, 0.0220161, -0.00911843, 0.470993, -0.543485, 0.335816, -2.08382, -2.1658, -0.129759, 0.469589, -0.542506, 0.336728, -2.08494, -2.16703, -0.129426, -0.00106076, -0.00666049, -0.00546395, 0.00603426, -0.00121289, -0.000481264
0.0551155, 1.69146, -1.22489, -1.53727, -0.899795, -1.19199, 1.22893, -1.30254, 0.00924466, -0.00170126, 0.00118583, 0.00138758, -0.0177282, 0.0163723, 0.00209384, 0.777352, 57.3364, 26.6355, 5.95032, 1.32587, 3.33865, -0.0420422, 0.00116366, -0.00138202, -0.000706678, -0.000967183, -0.00139444, -9.0855e-05, -0.00626782, -0.00732879, 0.00517596, 0.0104278, 0.0227409, -0.00845384, 0.470992, -0.543492, 0.33581, -2.08382, -2.1658, -0.12975, 0.469596, -0.542508, 0.33673, -2.08496, -2.16705, -0.129418, -0.00110581, -0.00694224, -0.0056991, 0.00617682, -0.0012511, 0.000162778
0.0561155, 1.69148, -1.22489, -1.53727, -0.899794, -1.19201, 1.22896, -1.30253, 0.0120505, 0.00130969, 0.00079138, 0.000924156, -0.0189064, 0.0208471, 0.00254462, 0.701973, 57.2253, 26.6355, 5.95032, 1.33777, 3.36062, -0.0685925, 0.00117182, -0.00136953, -0.000717501, -0.000987644, -0.00143164, -9.6614e-05, -0.0074791, -0.00961794, 0.00718147, 0.013212, 0.0291524, -0.00674532, 0.470991, -0.543499, 0.335805, -2.08382, -2.1658, -0.12974, 0.469607, -0.542508, 0.336736, -2.08498, -2.16708, -0.129394, -0.00115168, -0.007229, -0.00593872, 0.00844648, -0.000557, 0.00202212
0.0571155, 1.69148, -1.22489, -1.53727, -0.899787, -1.19203, 1.22898, -1.30254, 0.00648975, -7.80316e-05, 0.000528207, 0.00237867, -0.0132542, 0.0240903, 0.00036239, 0.813057, 57.261, 26.6355, 5.87494, 1.31305, 3.38901, -0.0292249, 0.00117229, -0.00136582, -0.000724047, -0.00101323, -0.00145328, -9.19525e-05, -0.00549561, -0.00743262, 0.00725161, 0.0200606, 0.0245564, -0.00991963, 0.47099, -0.543506, 0.335799, -2.08382, -2.16579, -0.129731, 0.46961, -0.542516, 0.336737, -2.08501, -2.1671, -0.12939, -0.00119834, -0.00752062, -0.00618267, 0.00629082, -0.00290699, 0.00160567
0.0581155, 1.69149, -1.22488, -1.53727, -0.899788, -1.19205, 1.22901, -1.30253, 0.0121178, 0.00245948, 0.000352604, 0.00393902, -0.0206887, 0.0277178, 0.00155532, 0.777352, 57.15, 26.6355, 5.91064, 1.31946, 3.38901, -0.0621838, 0.00117984, -0.00135529, -0.000733743, -0.00103041, -0.00148946, -9.50679e-05, -0.00622119, -0.0100423, 0.00912279, 0.0198837, 0.0350951, -0.00993989, 0.470988, -0.543514, 0.335793, -2.08381, -2.16579, -0.12972, 0.469619, -0.542517, 0.336741, -2.08503, -2.16713, -0.129362, -0.00124576, -0.00781692, -0.00643084, 0.00889161, -0.00266813, 0.00323871
0.0591155, 1.69151, -1.22488, -1.53726, -0.899781, -1.19207, 1.22904, -1.30253, 0.0131678, 0.00240965, 0.00116344, 0.00683589, -0.025756, 0.0252836, 0.00110665, 0.737679, 57.1143, 26.5958, 5.87494, 1.31305, 3.39633, -0.0621838, 0.00118559, -0.00134432, -0.000745103, -0.00105638, -0.00152752, -9.70041e-05, -0.00557771, -0.00916421, 0.00971884, 0.017532, 0.0378057, -0.0127039, 0.470987, -0.543521, 0.335786, -2.08381, -2.16579, -0.12971, 0.469629, -0.542521, 0.336746, -2.08506, -2.16716, -0.129342, -0.00129392, -0.00811772, -0.00668309, 0.00801115, -0.00373183, 0.00350166
0.0601155, 1.69152, -1.22488, -1.53727, -0.89978, -1.1921, 1.22907, -1.30253, 0.0137575, 0.00239274, -0.000152133, 0.00418018, -0.025001, 0.0285699, 0.000552738, 0.701973, 57.0786, 26.6355, 5.91064, 1.32587, 3.39633, -0.0557752, 0.00119043, -0.00133383, -0.000751636, -0.00107524, -0.00156491, -9.62189e-05, -0.0064982, -0.0105976, 0.00934117, 0.0184396, 0.0392272, -0.0100323, 0.470986, -0.54353, 0.335779, -2.08381, -2.16578, -0.129699, 0.469638, -0.542525, 0.336747, -2.08509, -2.16718, -0.129314, -0.00134278, -0.00842284, -0.00693927, 0.00934729, -0.00301142, 0.0029719
0.0611155, 1.69153, -1.22488, -1.53726, -0.899775, -1.19213, 1.22911, -1.30253, 0.0115493, 0.00155847, 0.00166201, 0.00313039, -0.0293313, 0.0305956, -0.000812965, 0.777352, 57.0786, 26.5601, 5.91064, 1.33136, 3.40365, -0.0228162, 0.001192, -0.00132693, -0.000763482, -0.00110793, -0.00160468, -8.92927e-05, -0.00540358, -0.00986357, 0.00985615, 0.01975, 0.0429496, -0.0109107, 0.470984, -0.543538, 0.335772, -2.08381, -2.16578, -0.129687, 0.469644, -0.542533, 0.336751, -2.08513, -2.1672, -0.129298, -0.00139231, -0.00873205, -0.00719924, 0.00862258, -0.00451054, 0.00307271
0.0621155, 1.69154, -1.22487, -1.53726, -0.899773, -1.19216, 1.22915, -1.30254, 0.0105202, 0.00444514, 0.00194337, 0.0014166, -0.0278429, 0.0321426, -0.0019706, 0.701973, 56.9318, 26.5244, 5.95032, 1.34967, 3.41006, 0.0165515, 0.00119946, -0.00131368, -0.000777841, -0.00113585, -0.00165489, -0.000101258, -0.00627295, -0.0101709, 0.0118177, 0.0218296, 0.0455738, -0.00910518, 0.470983, -0.543547, 0.335765, -2.0838, -2.16578, -0.129675, 0.469656, -0.542536, 0.336759, -2.08516, -2.16725, -0.129267, -0.00144249, -0.00904515, -0.00746282, 0.00891945, -0.0042546, 0.00487149
0.0631155, 1.69155, -1.22488, -1.53727, -0.899768, -1.19219, 1.22918, -1.30254, 0.00999452, 0.00127236, -0.000374743, 0.00113768, -0.0316127, 0.028596, -0.0010543, 0.737679, 57.0032, 26.5958, 5.95032, 1.36249, 3.41739, 0.0101428, 0.00119936, -0.00130668, -0.000781308, -0.00116024, -0.00168856, -9.21621e-05, -0.00530785, -0.0085729, 0.00902672, 0.0148672, 0.044006, -0.0130563, 0.470982, -0.543556, 0.335758, -2.0838, -2.16577, -0.129663, 0.469662, -0.542545, 0.336755, -2.0852, -2.16727, -0.129247, -0.00149327, -0.00936199, -0.00772991, 0.00720616, -0.00516011, 0.00174709
0.0641155, 1.69156, -1.22487, -1.53726, -0.899762, -1.19222, 1.22922, -1.30253, 0.0115192, 0.00426644, 0.00142069, 0.00310807, -0.0275971, 0.0307923, 0.000297034, 0.701973, 56.8564, 26.5244, 5.98602, 1.33136, 3.41739, -0.0164075, 0.00120568, -0.00129455, -0.000797523, -0.00119229, -0.00174054, -9.05021e-05, -0.00698723, -0.0101573, 0.0120281, 0.0213884, 0.0446437, -0.012897, 0.47098, -0.543565, 0.33575, -2.0838, -2.16577, -0.12965, 0.469673, -0.542551, 0.336764, -2.08524, -2.1673, -0.129216, -0.00154466, -0.00968246, -0.00800043, 0.00878603, -0.00421961, 0.00465266
0.0651155, 1.69157, -1.22486, -1.53727, -0.89976, -1.19225, 1.22926, -1.30253, 0.008579, 0.00459592, -0.00312481, 0.00377404, -0.031078, 0.0315563, 0.00115988, 0.701973, 56.781, 26.5601, 6.0614, 1.33136, 3.44668, -0.0420422, 0.00120849, -0.00128714, -0.000807936, -0.00121228, -0.00178922, -8.15442e-05, -0.004158, -0.00736046, 0.0111486, 0.0174824, 0.0484539, -0.0210515, 0.470979, -0.543575, 0.335742, -2.0838, -2.16576, -0.129636, 0.469679, -0.542559, 0.336766, -2.08528, -2.16732, -0.129175, -0.00159663, -0.0100065, -0.00827433, 0.00601019, -0.00731582, 0.00315608
0.0661155, 1.69158, -1.22486, -1.53727, -0.899749, -1.19229, 1.2293, -1.30253, 0.0106073, 0.00472568, -0.00151767, 0.00931848, -0.0282834, 0.0326533, 0.00129119, 0.6623, 56.7096, 26.5244, 6.0614, 1.32587, 3.46042, -0.0557752, 0.0012121, -0.00127651, -0.000822365, -0.00124538, -0.00184091, -7.4425e-05, -0.0045674, -0.00811056, 0.0127801, 0.0237049, 0.0464106, -0.0227671, 0.470977, -0.543585, 0.335734, -2.08379, -2.16576, -0.129623, 0.469689, -0.542567, 0.336773, -2.08533, -2.16735, -0.129145, -0.00164918, -0.0103339, -0.00855153, 0.00675147, -0.00745944, 0.00453054
0.0671155, 1.6916, -1.22485, -1.53726, -0.899742, -1.19233, 1.22934, -1.30253, 0.0119, 0.00397914, 0.000549194, 0.00941651, -0.0309022, 0.0332068, 0.000867778, 0.626595, 56.6739, 26.449, 6.09711, 1.30755, 3.48239, -0.0557752, 0.00121697, -0.00126517, -0.000836425, -0.00128059, -0.00188987, -7.21856e-05, -0.0052653, -0.00905412, 0.0132984, 0.0247883, 0.0480904, -0.0214764, 0.470975, -0.543595, 0.335725, -2.08379, -2.16576, -0.129608, 0.469699, -0.542574, 0.336778, -2.08537, -2.16739, -0.12912, -0.00170228, -0.0106648, -0.00883197, 0.00763472, -0.00714237, 0.00484134
0.0681155, 1.69161, -1.22484, -1.53726, -0.899735, -1.19237, 1.22938, -1.30253, 0.0136937, 0.00617434, -0.00288873, 0.00945658, -0.0392182, 0.0337744, 7.51314e-05, 0.551216, 56.5231, 26.449, 6.13678, 1.31946, 3.50345, -0.0420422, 0.00122111, -0.00125435, -0.000851514, -0.001307, -0.00195114, -6.85174e-05, -0.00421027, -0.00863468, 0.0135634, 0.018565, 0.057754, -0.0238916, 0.470974, -0.543606, 0.335716, -2.08379, -2.16575, -0.129594, 0.469708, -0.542583, 0.336785, -2.08542, -2.16743, -0.129072, -0.00175593, -0.0109989, -0.0091156, 0.00720965, -0.00857594, 0.00466836
0.0691155, 1.69163, -1.22485, -1.53726, -0.899726, -1.19241, 1.22942, -1.30254, 0.0149346, 0.00411255, -0.000534955, 0.00968807, -0.0445053, 0.0342659, -0.0016414, 0.475838, 56.5231, 26.3736, 6.17248, 1.30755, 3.5181, 0.00373412, 0.00122598, -0.00124296, -0.000863967, -0.0013386, -0.00200019, -7.02617e-05, -0.0042648, -0.00928323, 0.0134329, 0.0185702, 0.0602512, -0.0222225, 0.470972, -0.543617, 0.335707, -2.08378, -2.16575, -0.129578, 0.469718, -0.54259, 0.336788, -2.08546, -2.16746, -0.129042, -0.0018101, -0.0113362, -0.00940234, 0.00779665, -0.00881273, 0.00424141
0.0701155, 1.69164, -1.22484, -1.53727, -0.899716, -1.19245, 1.22946, -1.30254, 0.0158217, 0.00440938, -0.00239915, 0.00662552, -0.0386002, 0.0397504, -0.00132868, 0.400459, 56.4517, 26.449, 6.20819, 1.30755, 3.5181, 0.0101428, 0.00122819, -0.00123344, -0.000875951, -0.00136321, -0.00205873, -6.04206e-05, -0.00618495, -0.0118603, 0.0131949, 0.0231291, 0.058958, -0.0183655, 0.47097, -0.543628, 0.335698, -2.08378, -2.16574, -0.129563, 0.469726, -0.542601, 0.336791, -2.08551, -2.16749, -0.128993, -0.00186479, -0.0116765, -0.00969213, 0.0102386, -0.00711535, 0.00393608
0.0711155, 1.69165, -1.22484, -1.53726, -0.899711, -1.19249, 1.2295, -1.30254, 0.0139521, 0.00293752, 0.000789563, 0.00247727, -0.0380551, 0.0394162, -0.000883578, 0.436165, 56.4517, 26.3379, 6.32324, 1.27002, 3.5181, 0.0101428, 0.00123269, -0.00122196, -0.000889174, -0.00140401, -0.00210815, -5.76076e-05, -0.00763421, -0.0123851, 0.0131927, 0.0243151, 0.0571025, -0.0157583, 0.470968, -0.54364, 0.335688, -2.08378, -2.16574, -0.129546, 0.469736, -0.54261, 0.336794, -2.08555, -2.16752, -0.128972, -0.00191999, -0.0120199, -0.00998491, 0.0106559, -0.0060061, 0.00384993
0.0721155, 1.69167, -1.22484, -1.53726, -0.89969, -1.19254, 1.22955, -1.30253, 0.0160859, 0.00279202, 0.000369281, 0.0080243, -0.045136, 0.0397798, 0.000158591, 0.325081, 56.416, 26.3379, 6.20819, 1.29474, 3.49612, -0.00999879, 0.00123346, -0.00121146, -0.000904259, -0.00144143, -0.00216942, -3.69933e-05, -0.00578249, -0.0116007, 0.0138922, 0.023514, 0.062657, -0.0226052, 0.470966, -0.543652, 0.335678, -2.08377, -2.16573, -0.12953, 0.469745, -0.542623, 0.336799, -2.08562, -2.16755, -0.128932, -0.00197567, -0.0123662, -0.0102806, 0.00990853, -0.00832013, 0.00398128
0.0731155, 1.69169, -1.22484, -1.53726, -0.899684, -1.19259, 1.22959, -1.30253, 0.0177082, 0.00445864, 0.000128367, 0.00645258, -0.0491989, 0.0390269, 0.00105641, 0.21003, 56.3049, 26.3379, 6.32324, 1.28833, 3.50345, -0.0356336, 0.00123923, -0.00119825, -0.000918672, -0.00146552, -0.00223711, -3.29683e-05, -0.00674262, -0.0122557, 0.0146608, 0.0201511, 0.0675985, -0.0225197, 0.470964, -0.543664, 0.335668, -2.08377, -2.16572, -0.129512, 0.469757, -0.542631, 0.336804, -2.08567, -2.16758, -0.128872, -0.00203183, -0.0127153, -0.0105792, 0.0105004, -0.00781275, 0.00457054
0.0741155, 1.6917, -1.22483, -1.53726, -0.899675, -1.19265, 1.22963, -1.30253, 0.0137674, 0.00144172, 0.00352369, 0.00741445, -0.0469449, 0.0429712, 0.00117992, 0.170357, 56.2296, 26.1872, 6.35895, 1.28284, 3.51077, -0.0484509, 0.00124363, -0.00118747, -0.000935683, -0.00150069, -0.00229998, -2.22822e-05, -0.0055546, -0.0115158, 0.0150285, 0.0286628, 0.0643996, -0.0254228, 0.470962, -0.543677, 0.335657, -2.08377, -2.16572, -0.129495, 0.469766, -0.542642, 0.33681, -2.08573, -2.16762, -0.128829, -0.00208844, -0.0130671, -0.0108805, 0.00976086, -0.00942423, 0.00447027
0.0751155, 1.69172, -1.22484, -1.53727, -0.89966, -1.1927, 1.22968, -1.30253, 0.0148873, 0.00152129, -0.000315604, 0.00895657, -0.044886, 0.0472783, -0.000908108, 0.0949785, 56.1938, 26.2983, 6.35895, 1.27002, 3.48971, -0.00267457, 0.00124568, -0.00117651, -0.000944036, -0.0015259, -0.00235665, -1.36278e-05, -0.00515642, -0.0122059, 0.0144989, 0.0308314, 0.0651997, -0.0252306, 0.47096, -0.54369, 0.335646, -2.08376, -2.16571, -0.129476, 0.469775, -0.542654, 0.336808, -2.08578, -2.16764, -0.12878, -0.00214551, -0.0134215, -0.0111846, 0.0103881, -0.010062, 0.0035603
0.0761155, 1.69174, -1.22484, -1.53726, -0.899647, -1.19275, 1.22972, -1.30253, 0.0116059, -0.00060309, 0.00233835, 0.0122436, -0.0491562, 0.0493889, 0.000615822, 0.059273, 56.1185, 26.1872, 6.39465, 1.26453, 3.49612, -0.0356336, 0.00124947, -0.00116579, -0.000959026, -0.00155961, -0.00241775, 1.35562e-07, -0.00240759, -0.0101005, 0.0152602, 0.0351504, 0.067192, -0.0334918, 0.470958, -0.543704, 0.335635, -2.08376, -2.16571, -0.129457, 0.469784, -0.542665, 0.336811, -2.08584, -2.16767, -0.128735, -0.00220301, -0.0137786, -0.0114914, 0.0083541, -0.013336, 0.00364272
0.0771155, 1.69176, -1.22484, -1.53726, -0.899637, -1.1928, 1.22977, -1.30253, 0.0144156, -0.00138087, 0.00328486, 0.0107022, -0.0515132, 0.046867, 0.000410942, -0.0557783, 56.0074, 26.1118, 6.47003, 1.23981, 3.48239, -0.0356336, 0.00125767, -0.00114995, -0.000974963, -0.00159343, -0.0024823, 6.14434e-07, -0.00443284, -0.0115389, 0.0148083, 0.0317207, 0.0673918, -0.0299933, 0.470956, -0.543717, 0.335624, -2.08375, -2.1657, -0.129438, 0.469798, -0.542673, 0.336817, -2.08588, -2.16771, -0.128688, -0.00226092, -0.014138, -0.0118008, 0.00964409, -0.0115677, 0.00315735
0.0781155, 1.69177, -1.22483, -1.53725, -0.899618, -1.19286, 1.22981, -1.30253, 0.0100108, -0.000291982, 0.00383238, 0.0122962, -0.0546126, 0.0451581, -0.000200462, 0.0949785, 55.8249, 26.0404, 6.43433, 1.2453, 3.46774, -0.0228162, 0.00125558, -0.00114734, -0.000995253, -0.00162866, -0.00255235, 2.65094e-05, -0.00218925, -0.00818769, 0.0161999, 0.0310627, 0.0699988, -0.0364353, 0.470954, -0.543731, 0.335612, -2.08375, -2.16569, -0.129418, 0.469799, -0.542692, 0.336824, -2.08596, -2.16773, -0.128633, -0.00231925, -0.0144999, -0.0121127, 0.00637001, -0.0144956, 0.0039734
0.0791155, 1.69179, -1.22483, -1.53725, -0.899608, -1.19292, 1.22985, -1.30253, 0.0181971, -4.78637e-05, 0.00346197, 0.010783, -0.0559675, 0.0434332, 0.000341298, -0.0914839, 55.7892, 26.0007, 6.5097, 1.2334, 3.46042, -0.0356336, 0.00126415, -0.00113013, -0.00100645, -0.0016526, -0.00261788, 2.75569e-05, -0.00653986, -0.012647, 0.0156777, 0.0269207, 0.0710375, -0.028722, 0.470951, -0.543746, 0.3356, -2.08374, -2.16569, -0.129398, 0.469814, -0.542699, 0.336824, -2.086, -2.16777, -0.128573, -0.00237796, -0.014864, -0.0124272, 0.0105907, -0.0103018, 0.00368203
0.0801155, 1.69181, -1.22483, -1.53725, -0.899592, -1.19299, 1.22989, -1.30253, 0.0205535, -0.0010832, 0.00177757, 0.0105799, -0.0567399, 0.0423014, -0.00123036, -0.131157, 55.6781, 25.8896, 6.54541, 1.2215, 3.45309, 0.00373412, 0.00126868, -0.00111964, -0.00102302, -0.00168205, -0.00268574, 3.55597e-05, -0.00756963, -0.013509, 0.0144805, 0.0238296, 0.0704186, -0.02622, 0.470949, -0.543761, 0.335587, -2.08374, -2.16568, -0.129377, 0.469823, -0.542712, 0.336828, -2.08606, -2.1678, -0.128515, -0.00243706, -0.0152304, -0.012744, 0.0113123, -0.00943202, 0.00231629
0.0811155, 1.69183, -1.22483, -1.53725, -0.899579, -1.19305, 1.22993, -1.30253, 0.01919, -0.00100193, 0.000913823, 0.0126595, -0.0580503, 0.0405814, -0.00105748, -0.166862, 55.5313, 25.8896, 6.62079, 1.21509, 3.46774, 0.0101428, 0.00127408, -0.00111074, -0.00103899, -0.0017017, -0.00275369, 4.77966e-05, -0.00650494, -0.011728, 0.0146923, 0.0224505, 0.0706968, -0.030944, 0.470946, -0.543776, 0.335575, -2.08373, -2.16567, -0.129355, 0.46983, -0.542723, 0.336832, -2.08611, -2.16783, -0.128445, -0.00249652, -0.0155988, -0.0130633, 0.0095201, -0.010957, 0.00209516
0.0821155, 1.69185, -1.22483, -1.53725, -0.899557, -1.19311, 1.22996, -1.30253, 0.018211, -0.00377991, -0.000242973, 0.0137165, -0.0636109, 0.0400065, 0.000753171, -0.206535, 55.4916, 25.7786, 6.58508, 1.19678, 3.46042, -0.0292249, 0.00127895, -0.00109958, -0.00105362, -0.00173128, -0.00281648, 6.27411e-05, -0.0046205, -0.0101241, 0.0130634, 0.0190522, 0.0722951, -0.0375541, 0.470944, -0.543792, 0.335562, -2.08373, -2.16567, -0.129333, 0.469839, -0.542736, 0.336834, -2.08617, -2.16785, -0.12839, -0.00255634, -0.0159693, -0.0133848, 0.00786656, -0.0130029, -7.83561e-05
0.0831155, 1.69188, -1.22483, -1.53725, -0.89954, -1.19318, 1.23, -1.30253, 0.0183229, -0.00168063, 0.00117809, 0.0159039, -0.0637058, 0.0346734, 0.000976902, -0.281914, 55.4202, 25.7032, 6.62079, 1.20318, 3.46042, -0.0420422, 0.00128513, -0.00108866, -0.00106846, -0.00175339, -0.00288353, 7.46479e-05, -0.00547106, -0.00898726, 0.0148913, 0.0170949, 0.0716918, -0.0395049, 0.470941, -0.543808, 0.335548, -2.08372, -2.16566, -0.129311, 0.469847, -0.542748, 0.336836, -2.08622, -2.16788, -0.128323, -0.0026165, -0.0163418, -0.0137086, 0.00670767, -0.0128632, 0.00156928
0.0841155, 1.6919, -1.22483, -1.53724, -0.899519, -1.19324, 1.23004, -1.30253, 0.0196264, -0.00231327, 0.000684329, 0.0183859, -0.0617672, 0.0306856, 0.000888679, -0.281914, 55.3091, 25.5564, 6.62079, 1.16015, 3.46042, -0.0484509, 0.00129096, -0.00107835, -0.00108604, -0.00178568, -0.00294743, 9.2524e-05, -0.00636618, -0.00864329, 0.0145341, 0.0153101, 0.0675033, -0.0404216, 0.470939, -0.543824, 0.335534, -2.08372, -2.16565, -0.129287, 0.469855, -0.542761, 0.33684, -2.08629, -2.1679, -0.128269, -0.00267698, -0.0167161, -0.0140346, 0.00625893, -0.0123129, 0.0010398
0.0851155, 1.69192, -1.22482, -1.53725, -0.899501, -1.19331, 1.23007, -1.30253, 0.0184001, 0.00292322, -0.00407781, 0.0232846, -0.0616769, 0.033562, 0.000355133, -0.317619, 55.087, 25.5921, 6.62079, 1.14734, 3.43204, -0.0420422, 0.00129606, -0.00106906, -0.00110486, -0.00180507, -0.00302749, 0.000110243, -0.0040167, -0.00652821, 0.017191, 0.0169319, 0.0740629, -0.0482792, 0.470936, -0.543841, 0.33552, -2.08371, -2.16564, -0.129264, 0.469863, -0.542775, 0.336845, -2.08635, -2.16793, -0.128183, -0.00273778, -0.0170921, -0.0143627, 0.0042671, -0.0155036, 0.00303529
0.0861155, 1.69195, -1.22484, -1.53725, -0.899481, -1.19338, 1.23011, -1.30253, 0.0174706, -0.00263224, -0.00160097, 0.023847, -0.0618437, 0.0342943, -0.00169599, -0.357292, 55.1266, 25.5167, 6.62079, 1.14093, 3.43936, 0.0101428, 0.00130245, -0.00105729, -0.00111476, -0.00182625, -0.00308578, 0.000117046, -0.00373326, -0.00659822, 0.015268, 0.0198862, 0.0689435, -0.0469565, 0.470933, -0.543858, 0.335506, -2.08371, -2.16563, -0.129239, 0.469872, -0.542787, 0.336841, -2.08639, -2.16795, -0.128123, -0.00279888, -0.0174699, -0.0146928, 0.00421601, -0.0158625, 0.000760144
0.0871155, 1.69197, -1.22484, -1.53725, -0.899466, -1.19345, 1.23014, -1.30253, 0.0161593, -0.00383472, 0.000211679, 0.0185686, -0.0613021, 0.0345974, -0.000893282, -0.357292, 55.0513, 25.4413, 6.73187, 1.12262, 3.45309, 0.00373412, 0.00130988, -0.00104691, -0.00112914, -0.00184242, -0.00315565, 0.000129548, -0.00547876, -0.00756622, 0.0148402, 0.0198722, 0.0679181, -0.043912, 0.470931, -0.543875, 0.335491, -2.0837, -2.16563, -0.129214, 0.46988, -0.542799, 0.336841, -2.08645, -2.16798, -0.128043, -0.00286026, -0.0178492, -0.015025, 0.0050437, -0.0144131, 0.000246433
0.0881155, 1.692, -1.22483, -1.53725, -0.899442, -1.19353, 1.23017, -1.30253, 0.0191465, 0.000945365, 0.00237639, 0.0213491, -0.0666815, 0.0305589, -0.000832864, -0.392998, 54.8688, 25.3303, 6.69617, 1.11713, 3.45309, 0.0101428, 0.00131778, -0.0010365, -0.00115109, -0.00186498, -0.00323369, 0.000144646, -0.00667432, -0.00763346, 0.0185644, 0.0173101, 0.0749492, -0.0448622, 0.470928, -0.543893, 0.335476, -2.0837, -2.16562, -0.129189, 0.469888, -0.542812, 0.336849, -2.08651, -2.16801, -0.127962, -0.00292192, -0.0182301, -0.0153591, 0.00514322, -0.0141836, 0.00377287
0.0891155, 1.69202, -1.22483, -1.53725, -0.899419, -1.1936, 1.2302, -1.30253, 0.0224008, -0.000402026, 0.00214709, 0.0192522, -0.0694146, 0.0317808, 0.000665473, -0.468376, 54.7577, 25.2945, 6.69617, 1.0741, 3.46774, -0.0228162, 0.0013261, -0.00102589, -0.00116682, -0.00187979, -0.00330349, 0.00016266, -0.00832537, -0.00989657, 0.0176162, 0.0155918, 0.0769073, -0.0428758, 0.470925, -0.543911, 0.335461, -2.08369, -2.16561, -0.129163, 0.469896, -0.542824, 0.33685, -2.08656, -2.16802, -0.12788, -0.00298385, -0.0186124, -0.0156951, 0.00724817, -0.0126974, 0.00268701
0.0901155, 1.69205, -1.22483, -1.53725, -0.899397, -1.19369, 1.23023, -1.30253, 0.0219304, 0.00247957, -0.0002076, 0.0199981, -0.0725053, 0.0333542, 0.000918376, -0.43267, 54.6109, 25.2192, 6.73187, 1.06128, 3.46774, -0.0356336, 0.00133108, -0.00101777, -0.00118602, -0.00189537, -0.00338817, 0.000185419, -0.00733473, -0.00900548, 0.0190223, 0.014433, 0.0833257, -0.0470292, 0.470922, -0.54393, 0.335445, -2.08368, -2.1656, -0.129136, 0.469901, -0.54284, 0.336854, -2.08663, -2.16804, -0.127782, -0.00304602, -0.0189961, -0.016033, 0.00638334, -0.0143117, 0.00361105
0.0911155, 1.69208, -1.22483, -1.53725, -0.899378, -1.19377, 1.23026, -1.30253, 0.0236073, -0.000268734, -0.00392561, 0.0196879, -0.0748105, 0.0344258, 0.000612258, -0.468376, 54.5355, 25.2192, 6.80725, 1.04938, 3.46774, -0.0356336, 0.00133774, -0.00100858, -0.00120091, -0.00190613, -0.00346464, 0.000203422, -0.0069946, -0.00941925, 0.0163348, 0.0107092, 0.0834937, -0.0478789, 0.470919, -0.543949, 0.335429, -2.08368, -2.16559, -0.129109, 0.469908, -0.542854, 0.336853, -2.08669, -2.16806, -0.127687, -0.00310843, -0.019381, -0.0163726, 0.00664812, -0.0146021, 0.000552056
0.0921155, 1.6921, -1.22483, -1.53724, -0.899355, -1.19386, 1.23029, -1.30253, 0.0269539, -0.00233306, 0.000221192, 0.0226656, -0.0762789, 0.0308867, 0.000645536, -0.468376, 54.4641, 25.0724, 6.88263, 1.03656, 3.46042, -0.0420422, 0.00134602, -0.000998662, -0.00121983, -0.00192286, -0.00354261, 0.000219907, -0.00877599, -0.0106511, 0.0167977, 0.0116099, 0.0806221, -0.0462538, 0.470916, -0.543968, 0.335413, -2.08367, -2.16558, -0.129081, 0.469915, -0.542868, 0.336857, -2.08675, -2.16809, -0.127597, -0.00317106, -0.0197671, -0.0167139, 0.00776949, -0.0132503, 0.000905974
0.0931155, 1.69213, -1.22483, -1.53724, -0.899324, -1.19395, 1.23031, -1.30253, 0.0273268, -0.000544246, 0.000628924, 0.0284473, -0.0777171, 0.0325592, -4.43566e-05, -0.508049, 54.3887, 25.0327, 6.80725, 1.04297, 3.46042, -0.0292249, 0.00135104, -0.000990976, -0.00123792, -0.00193839, -0.00362155, 0.000244333, -0.00745995, -0.00981408, 0.0192078, 0.0158985, 0.0840525, -0.05115, 0.470912, -0.543988, 0.335396, -2.08366, -2.16557, -0.129052, 0.46992, -0.542885, 0.336858, -2.08682, -2.1681, -0.127503, -0.00323391, -0.0201544, -0.0170569, 0.00700661, -0.0153415, 0.00276419
0.0941155, 1.69216, -1.22484, -1.53724, -0.899298, -1.19403, 1.23034, -1.30253, 0.0256129, -9.16972e-05, -0.00136462, 0.0268558, -0.0782914, 0.0254658, -2.95681e-05, -0.468376, 54.353, 24.9573, 6.84296, 1.02466, 3.43204, -0.0292249, 0.00135702, -0.000983395, -0.00125628, -0.00195491, -0.00370047, 0.000267292, -0.00785421, -0.00755744, 0.0182914, 0.00757986, 0.0818609, -0.0532129, 0.470909, -0.544008, 0.335379, -2.08366, -2.16556, -0.129023, 0.469925, -0.542902, 0.33686, -2.08688, -2.16812, -0.127409, -0.00329695, -0.0205426, -0.0174015, 0.0046426, -0.0152919, 0.00164509
0.0951155, 1.69219, -1.22484, -1.53724, -0.899269, -1.19413, 1.23036, -1.30253, 0.0296302, 0.00127904, 0.000241813, 0.0274255, -0.0852505, 0.0190085, 0.00452343, -0.508049, 54.2776, 24.8859, 6.80725, 1.04297, 3.43204, -0.0228162, 0.00136376, -0.000975689, -0.00127511, -0.00196089, -0.0037863, 0.000290311, -0.00966755, -0.00804495, 0.0192519, 0.000226756, 0.085868, -0.0564757, 0.470906, -0.544029, 0.335362, -2.08365, -2.16555, -0.128993, 0.46993, -0.542919, 0.336862, -2.08695, -2.16813, -0.127297, -0.00336018, -0.0209318, -0.0177477, 0.00503732, -0.0140185, 0.00251329
0.0961155, 1.69222, -1.22483, -1.53724, -0.899239, -1.19422, 1.23038, -1.30253, 0.0261434, 0.00220583, 0.000700073, 0.0269063, -0.0895223, 0.019166, 0.003414, -0.543754, 54.2062, 24.8462, 6.80725, 1.03107, 3.42471, -0.0228162, 0.00137171, -0.00096794, -0.00129444, -0.00196917, -0.00386727, 0.000313777, -0.00803178, -0.00588171, 0.020373, -0.000542634, 0.0904591, -0.0601739, 0.470903, -0.54405, 0.335344, -2.08364, -2.16554, -0.128963, 0.469935, -0.542934, 0.336865, -2.08701, -2.16815, -0.127191, -0.00342359, -0.0213219, -0.0180953, 0.00291358, -0.0162842, 0.00308553
0.0971155, 1.69225, -1.22483, -1.53725, -0.899213, -1.19432, 1.23041, -1.30253, 0.0288773, 0.00383104, -0.000753171, 0.0278758, -0.0876862, 0.0195418, 0.00159144, -0.543754, 54.0952, 24.8859, 6.88263, 1.02466, 3.41006, 0.00373412, 0.00137722, -0.000962011, -0.00131383, -0.00197063, -0.00396104, 0.000338859, -0.00957516, -0.0072576, 0.0211261, -0.00013619, 0.0910345, -0.0572023, 0.470899, -0.544071, 0.335326, -2.08363, -2.16553, -0.128932, 0.469938, -0.542953, 0.336866, -2.08708, -2.16816, -0.127063, -0.00348715, -0.0217127, -0.0184443, 0.0041973, -0.0152108, 0.00367679
0.0981155, 1.69228, -1.22484, -1.53725, -0.899181, -1.19443, 1.23043, -1.30253, 0.031891, 0.000155433, -0.000721014, 0.0283222, -0.0964736, 0.0192587, 0.00179367, -0.583427, 54.0555, 24.8859, 6.84296, 1.03107, 3.41006, -0.00999879, 0.00138245, -0.000956028, -0.00132959, -0.00197311, -0.00404398, 0.000370014, -0.00916536, -0.00795018, 0.0191514, -0.00468063, 0.0946607, -0.0582857, 0.470896, -0.544093, 0.335307, -2.08363, -2.16552, -0.1289, 0.469941, -0.542972, 0.336864, -2.08715, -2.16817, -0.126947, -0.00355087, -0.0221042, -0.0187947, 0.00476765, -0.0156748, 0.0012913
0.0991155, 1.69231, -1.22483, -1.53725, -0.89915, -1.19453, 1.23045, -1.30253, 0.0321729, 0.00314109, -0.00210284, 0.0296435, -0.0981703, 0.0193166, 0.00061786, -0.543754, 53.9087, 24.8105, 6.88263, 1.02466, 3.40365, 0.0101428, 0.00138913, -0.000950946, -0.00135278, -0.00198002, -0.00413585, 0.000397207, -0.00899577, -0.00740159, 0.0208829, -0.00546885, 0.0992222, -0.059873, 0.470892, -0.544115, 0.335289, -2.08362, -2.16551, -0.128868, 0.469943, -0.54299, 0.336869, -2.08722, -2.16818, -0.126826, -0.00361472, -0.0224964, -0.0191465, 0.00422632, -0.0165229, 0.00263973
0.100115, 1.69234, -1.22483, -1.53724, -0.899113, -1.19463, 1.23047, -1.30253, 0.0284839, -0.000542086, 0.00173301, 0.0333282, -0.0936249, 0.0190873, 0.00101267, -0.583427, 53.873, 24.6598, 6.80725, 1.00635, 3.40365, -0.00267457, 0.00139569, -0.000945818, -0.00137392, -0.00199123, -0.00421723, 0.000429406, -0.00807388, -0.00578285, 0.0210496, 0.00213315, 0.0912132, -0.0643097, 0.470888, -0.544138, 0.335269, -2.08361, -2.1655, -0.128835, 0.469945, -0.54301, 0.336872, -2.08729, -2.16819, -0.12672, -0.00367869, -0.0228891, -0.0194995, 0.00258531, -0.0179175, 0.00235827
0.101115, 1.69237, -1.22483, -1.53724, -0.899081, -1.19473, 1.23048, -1.30253, 0.0283411, -0.00226728, -0.00142629, 0.0335272, -0.101163, 0.0237692, 0.00199036, -0.619133, 53.7976, 24.6241, 6.84296, 0.999938, 3.40365, -0.0356336, 0.00140361, -0.000939057, -0.00139328, -0.00199406, -0.00430489, 0.000460398, -0.00558954, -0.00521088, 0.0196649, 0.000233819, 0.0983593, -0.0702216, 0.470885, -0.54416, 0.33525, -2.0836, -2.16549, -0.128801, 0.469948, -0.543027, 0.336872, -2.08736, -2.16819, -0.126597, -0.00374278, -0.0232822, -0.0198537, 0.00198801, -0.0205738, 0.000269098
0.102115, 1.69241, -1.22483, -1.53725, -0.899039, -1.19484, 1.2305, -1.30253, 0.0291136, 0.00129147, -0.00466426, 0.0330075, -0.106973, 0.022496, 0.00139781, -0.694511, 53.6508, 24.6241, 6.77154, 0.999938, 3.40365, -0.0356336, 0.00141005, -0.000933829, -0.00141594, -0.00199581, -0.00439888, 0.000495506, -0.00517759, -0.00430773, 0.0206831, -0.00614107, 0.10651, -0.07259, 0.470881, -0.544184, 0.33523, -2.08359, -2.16547, -0.128767, 0.46995, -0.543048, 0.336876, -2.08744, -2.1682, -0.126466, -0.00380697, -0.0236758, -0.020209, 0.0010747, -0.0215674, 0.000883145
0.103115, 1.69244, -1.22483, -1.53725, -0.899011, -1.19495, 1.23052, -1.30253, 0.0278421, 0.00298643, -0.00518327, 0.0274118, -0.105915, 0.0173972, 0.000747689, -0.694511, 53.5397, 24.5487, 6.91833, 0.988036, 3.38901, -0.0292249, 0.0014182, -0.000928509, -0.00143777, -0.00199605, -0.00449411, 0.000522696, -0.00750701, -0.00398149, 0.0206296, -0.0125171, 0.105501, -0.0688393, 0.470877, -0.544207, 0.33521, -2.08358, -2.16546, -0.128732, 0.469953, -0.543066, 0.336878, -2.08751, -2.16821, -0.126332, -0.00387125, -0.0240696, -0.0205654, 0.000600192, -0.0196665, 0.000845028
0.104115, 1.69247, -1.22483, -1.53725, -0.898964, -1.19507, 1.23053, -1.30253, 0.0308516, 0.00163619, -0.00671387, 0.031038, -0.105244, 0.0135336, 0.000300983, -0.734184, 53.5397, 24.513, 6.88263, 0.981627, 3.37436, -0.0228162, 0.00142162, -0.000926226, -0.00145654, -0.00199841, -0.00458004, 0.000564438, -0.00829663, -0.00405331, 0.019592, -0.0154179, 0.101761, -0.0697043, 0.470873, -0.544231, 0.335189, -2.08357, -2.16545, -0.128697, 0.469952, -0.54309, 0.336877, -2.08759, -2.1682, -0.126207, -0.00393561, -0.0244637, -0.0209229, 0.000541621, -0.0191185, -0.000416982
0.105115, 1.6925, -1.22483, -1.53725, -0.898924, -1.19518, 1.23054, -1.30253, 0.0290383, 0.000162416, -0.0043821, 0.0350755, -0.105148, 0.014986, -0.000515418, -0.734184, 53.4326, 24.4733, 6.91833, 0.993529, 3.36703, -0.00267457, 0.00142587, -0.000924984, -0.00147859, -0.00199894, -0.00467396, 0.000603693, -0.00695005, -0.00290911, 0.0206324, -0.0096663, 0.100565, -0.073654, 0.470869, -0.544256, 0.335168, -2.08357, -2.16544, -0.128661, 0.46995, -0.543113, 0.336878, -2.08767, -2.1682, -0.126072, -0.00400003, -0.0248579, -0.0212814, -0.000578395, -0.0210488, 7.85436e-05
0.106115, 1.69254, -1.22484, -1.53725, -0.898875, -1.19529, 1.23056, -1.30253, 0.0336252, -0.00176, -0.00187662, 0.0407309, -0.1038, 0.01575, 0.000899525, -0.845268, 53.3572, 24.4019, 6.84296, 0.969725, 3.36703, -0.0356336, 0.00143271, -0.000919542, -0.00149852, -0.00200608, -0.00475669, 0.000645081, -0.00828185, -0.00505067, 0.0212992, -0.00401836, 0.0975934, -0.0744224, 0.470865, -0.544281, 0.335147, -2.08356, -2.16543, -0.128624, 0.469952, -0.543134, 0.336877, -2.08775, -2.16819, -0.125955, -0.0040645, -0.0252522, -0.0216408, 0.00147373, -0.020143, 0.000517219
0.107115, 1.69257, -1.22484, -1.53726, -0.898834, -1.19541, 1.23057, -1.30253, 0.0280729, -0.00331223, -0.00565622, 0.0371594, -0.109563, 0.0174957, -0.00107891, -0.845268, 53.2819, 24.4376, 6.95801, 0.981627, 3.33865, 0.0101428, 0.00143512, -0.000920453, -0.00151545, -0.00199703, -0.00484786, 0.000686546, -0.00505565, -0.00183753, 0.019301, -0.00912879, 0.102238, -0.0791463, 0.470861, -0.544306, 0.335125, -2.08355, -2.16541, -0.128586, 0.469947, -0.54316, 0.336873, -2.08783, -2.16818, -0.12581, -0.00412902, -0.0256465, -0.022001, -0.00175819, -0.0235466, -0.00221627
0.108115, 1.69261, -1.22485, -1.53726, -0.898789, -1.19552, 1.23058, -1.30253, 0.0267262, -0.00210589, -0.00178268, 0.0397697, -0.112893, 0.0171264, -0.000231938, -0.960319, 53.2462, 24.3265, 6.99371, 0.969725, 3.3533, -0.00267457, 0.00144488, -0.000913219, -0.00153561, -0.00200109, -0.00493226, 0.000719924, -0.0044312, -0.000775609, 0.0220842, -0.00571739, 0.105661, -0.0835163, 0.470857, -0.544332, 0.335103, -2.08354, -2.1654, -0.128548, 0.469951, -0.543179, 0.336872, -2.0879, -2.16819, -0.125687, -0.00419356, -0.0260407, -0.0223621, -0.00275709, -0.0250284, 0.000106997
0.109115, 1.69265, -1.22485, -1.53726, -0.898736, -1.19564, 1.23059, -1.30253, 0.0311279, -0.000741393, -0.00491055, 0.0403244, -0.110897, 0.0128085, 0.000838183, -1.0357, 53.0637, 24.3265, 6.95801, 0.975218, 3.3533, -0.0292249, 0.00144856, -0.000913118, -0.00155818, -0.00199977, -0.00502605, 0.000772778, -0.00698842, -0.00205356, 0.0215424, -0.0112171, 0.103749, -0.0822184, 0.470853, -0.544358, 0.335081, -2.08353, -2.16539, -0.128509, 0.469947, -0.543205, 0.336873, -2.08799, -2.16817, -0.125546, -0.00425812, -0.0264347, -0.0227239, -0.00165592, -0.0227621, -0.000433318
0.110115, 1.69268, -1.22485, -1.53726, -0.89869, -1.19575, 1.2306, -1.30253, 0.0301008, -0.00173828, -0.00212579, 0.0411873, -0.108489, 0.00958219, -0.00014619, -1.07537, 52.9526, 24.2512, 7.02942, 0.963317, 3.3533, -0.00999879, 0.00145461, -0.000912081, -0.0015803, -0.0020019, -0.00511426, 0.000814135, -0.00801626, -0.00153889, 0.0221287, -0.00963429, 0.0991074, -0.0814803, 0.470849, -0.544384, 0.335058, -2.08352, -2.16537, -0.12847, 0.469945, -0.543228, 0.336873, -2.08807, -2.16816, -0.125415, -0.00432269, -0.0268285, -0.0230865, -0.0022486, -0.0222522, -4.16961e-05
0.111115, 1.69272, -1.22486, -1.53727, -0.89864, -1.19586, 1.23061, -1.30253, 0.0343858, -0.0025964, -0.00104348, 0.0459132, -0.111648, 0.0121351, -0.000363403, -1.18645, 52.8415, 24.2154, 7.06909, 0.956908, 3.34598, -0.00267457, 0.00146287, -0.000907259, -0.00159905, -0.00200282, -0.00519692, 0.000853129, -0.00821741, -0.00326815, 0.0229702, -0.00607215, 0.101953, -0.0823271, 0.470844, -0.544411, 0.335035, -2.08351, -2.16536, -0.12843, 0.469946, -0.54325, 0.336869, -2.08814, -2.16815, -0.125288, -0.00438725, -0.027222, -0.0234497, -0.000561312, -0.0225055, 0.000403068
0.112115, 1.69275, -1.22486, -1.53727, -0.898586, -1.19598, 1.23062, -1.30253, 0.0325414, -0.00409227, -0.00250752, 0.0494399, -0.114778, 0.0145695, 0.000745068, -1.22613, 52.7701, 24.1401, 7.1048, 0.951415, 3.324, -0.0292249, 0.0014672, -0.000906373, -0.00161989, -0.00200743, -0.00528453, 0.00090534, -0.00547377, -0.0013708, 0.0226775, -0.00451004, 0.104171, -0.0907085, 0.47084, -0.544438, 0.335012, -2.08349, -2.16534, -0.128389, 0.469943, -0.543276, 0.336867, -2.08824, -2.16813, -0.125158, -0.00445179, -0.0276151, -0.0238135, -0.00243311, -0.0256399, -0.000615773
0.113115, 1.69279, -1.22488, -1.53728, -0.898532, -1.1961, 1.23063, -1.30252, 0.0321378, -0.00904873, -0.00543844, 0.0520923, -0.116922, 0.0201357, 0.000737065, -1.30151, 52.7304, 24.1401, 7.14447, 0.945006, 3.324, -0.0356336, 0.00147073, -0.000906781, -0.00163538, -0.00200023, -0.0053681, 0.000961062, -0.0028604, -0.000970687, 0.0199116, -0.00198119, 0.103907, -0.0960938, 0.470836, -0.544466, 0.334988, -2.08348, -2.16533, -0.128348, 0.469939, -0.543302, 0.336859, -2.08832, -2.1681, -0.125018, -0.00451631, -0.0280078, -0.0241779, -0.00290651, -0.0282039, -0.00410387
0.114115, 1.69283, -1.22488, -1.53729, -0.898475, -1.19622, 1.23064, -1.30253, 0.0340489, -0.00780864, -0.00590167, 0.0541543, -0.112863, 0.0155504, 0.000256264, -1.33721, 52.6193, 24.0647, 7.18018, 0.920287, 3.31027, -0.0292249, 0.00147528, -0.000905634, -0.0016576, -0.00200768, -0.00545756, 0.0010093, -0.00484254, -0.00116342, 0.020556, -0.0033318, 0.0996766, -0.0950645, 0.470831, -0.544494, 0.334964, -2.08347, -2.16531, -0.128305, 0.469936, -0.543329, 0.336857, -2.08841, -2.16809, -0.124888, -0.00458078, -0.0283999, -0.0245428, -0.00282435, -0.0267301, -0.00353135
0.115115, 1.69287, -1.22489, -1.53729, -0.89841, -1.19634, 1.23065, -1.30253, 0.0373159, -0.0077617, -0.00930062, 0.0573215, -0.114605, 0.0121229, -0.00053955, -1.45226, 52.5479, 23.9893, 7.14447, 0.889159, 3.29562, -0.00999879, 0.00147851, -0.000905211, -0.00167667, -0.00201196, -0.0055417, 0.0010621, -0.00510413, -0.000935483, 0.0196492, -0.00872831, 0.09972, -0.0966855, 0.470826, -0.544522, 0.334939, -2.08346, -2.1653, -0.128263, 0.469932, -0.543357, 0.336852, -2.0885, -2.16807, -0.124759, -0.00464521, -0.0287914, -0.0249081, -0.00315887, -0.0267332, -0.00474444
0.116115, 1.69291, -1.22491, -1.5373, -0.898359, -1.19646, 1.23066, -1.30253, 0.0372283, -0.0117709, -0.00968973, 0.052226, -0.116393, 0.00899204, -0.00157914, -1.45226, 52.5122, 23.9536, 7.29126, 0.883666, 3.29562, 0.0229602, 0.00148314, -0.000905012, -0.00169291, -0.00200596, -0.00562912, 0.00110865, -0.00652085, -0.00133185, 0.0164806, -0.0150059, 0.0963499, -0.0926392, 0.470822, -0.544551, 0.334914, -2.08345, -2.16528, -0.128219, 0.469929, -0.543384, 0.336844, -2.08858, -2.16805, -0.124615, -0.00470957, -0.0291822, -0.0252738, -0.00299556, -0.0252221, -0.00803181
0.117115, 1.69295, -1.22492, -1.53731, -0.898291, -1.19659, 1.23067, -1.30253, 0.0422043, -0.0146355, -0.00819514, 0.0568498, -0.122985, 0.00694853, -0.000102376, -1.52764, 52.4725, 23.8425, 7.21588, 0.865355, 3.2883, -0.00267457, 0.00148522, -0.00090529, -0.00171153, -0.00201225, -0.00571353, 0.00117099, -0.00674818, -0.00235471, 0.0158344, -0.0169854, 0.0977475, -0.0953503, 0.470817, -0.54458, 0.334889, -2.08344, -2.16527, -0.128175, 0.469924, -0.543414, 0.336838, -2.08868, -2.16802, -0.124485, -0.00477385, -0.0295723, -0.0256399, -0.00207001, -0.0252465, -0.00903304
0.118115, 1.69299, -1.22493, -1.53731, -0.898228, -1.19672, 1.23068, -1.30253, 0.0450698, -0.0142276, -0.00722349, 0.0607345, -0.123024, 0.00592417, -0.000304899, -1.56335, 52.3257, 23.7314, 7.25555, 0.858946, 3.26724, 0.00373412, 0.00148904, -0.00090545, -0.00173412, -0.00201528, -0.00580831, 0.00122698, -0.00765169, -0.00312877, 0.0170217, -0.0152377, 0.0975843, -0.0959289, 0.470812, -0.54461, 0.334863, -2.08342, -2.16525, -0.12813, 0.46992, -0.543443, 0.336835, -2.08878, -2.168, -0.124342, -0.00483806, -0.0299616, -0.0260062, -0.00134828, -0.0248944, -0.00811147
0.119115, 1.69303, -1.22495, -1.53732, -0.898166, -1.19685, 1.23069, -1.30252, 0.046868, -0.0197673, -0.00915992, 0.0596685, -0.122146, 0.00406213, 0.00125533, -1.60302, 52.29, 23.7314, 7.33093, 0.822325, 3.27456, -0.0356336, 0.00149147, -0.000906529, -0.0017478, -0.00200727, -0.00589383, 0.00129372, -0.00863585, -0.00397043, 0.0129747, -0.0190204, 0.0909389, -0.0959733, 0.470808, -0.54464, 0.334837, -2.08341, -2.16524, -0.128084, 0.469915, -0.543473, 0.336823, -2.08887, -2.16795, -0.124193, -0.00490216, -0.0303499, -0.0263728, -0.000757927, -0.0236547, -0.0123484
0.120115, 1.69307, -1.22496, -1.53734, -0.89809, -1.19698, 1.23069, -1.30253, 0.0451253, -0.0158084, -0.0111304, 0.0623766, -0.122933, 0.00821529, 0.001312, -1.63873, 52.179, 23.7671, 7.25555, 0.822325, 3.25992, -0.0484509, 0.00149034, -0.000910215, -0.00176579, -0.00200537, -0.00598468, 0.00136446, -0.00688051, -0.00269624, 0.0157485, -0.0152447, 0.0976532, -0.102052, 0.470803, -0.54467, 0.334811, -2.0834, -2.16522, -0.128038, 0.469907, -0.543507, 0.336814, -2.08898, -2.16791, -0.124045, -0.00496616, -0.0307373, -0.0267396, -0.00192738, -0.0262533, -0.0102082
0.121115, 1.69311, -1.22497, -1.53734, -0.89803, -1.19712, 1.23071, -1.30253, 0.0471996, -0.0152069, -0.0092292, 0.0621325, -0.123235, 0.0126279, -0.000311826, -1.6784, 52.0322, 23.6561, 7.40631, 0.815917, 3.20956, -0.0164075, 0.00149542, -0.000907502, -0.00178579, -0.00200656, -0.00608362, 0.00141373, -0.00824962, -0.00507484, 0.0173348, -0.00989967, 0.100884, -0.0980134, 0.470798, -0.544701, 0.334784, -2.08339, -2.1652, -0.127991, 0.469905, -0.543536, 0.336808, -2.08907, -2.1679, -0.123894, -0.00503004, -0.0311236, -0.0271065, 0.000395658, -0.0254342, -0.00887199
0.122115, 1.69316, -1.22499, -1.53735, -0.897945, -1.19726, 1.23072, -1.30253, 0.0445641, -0.0164734, -0.00788934, 0.0684726, -0.12325, 0.00953417, -0.000716285, -1.6784, 51.9568, 23.545, 7.29126, 0.804015, 3.20224, -0.00267457, 0.00149387, -0.000910683, -0.00180721, -0.00201887, -0.00617315, 0.00148621, -0.00611159, -0.00192467, 0.0181066, -0.00775638, 0.0976032, -0.105774, 0.470793, -0.544732, 0.334757, -2.08337, -2.16519, -0.127943, 0.469898, -0.543572, 0.336802, -2.08919, -2.16786, -0.123761, -0.0050938, -0.0315088, -0.0274735, -0.00270829, -0.0281776, -0.0087087
0.123115, 1.6932, -1.22501, -1.53736, -0.897876, -1.1974, 1.23073, -1.30253, 0.0429532, -0.0207517, -0.0127313, 0.065326, -0.122582, 0.0118797, -0.000952073, -1.6784, 51.8854, 23.545, 7.36664, 0.779296, 3.19583, 0.0101428, 0.00149571, -0.00091072, -0.00182137, -0.0020134, -0.00626441, 0.00154828, -0.00523, -0.00152935, 0.0140377, -0.0108818, 0.0947578, -0.107051, 0.470788, -0.544764, 0.33473, -2.08336, -2.16517, -0.127895, 0.469893, -0.543604, 0.336789, -2.08928, -2.16783, -0.123607, -0.00515741, -0.0318928, -0.0278405, -0.00328775, -0.0288231, -0.0132177
0.124115, 1.69325, -1.22503, -1.53737, -0.897797, -1.19754, 1.23074, -1.30253, 0.0432809, -0.0192314, -0.0113344, 0.0711505, -0.129033, 0.00905372, 0.000111396, -1.75378, 51.8854, 23.4696, 7.36664, 0.791197, 3.18851, -0.00999879, 0.00149605, -0.000910394, -0.00183417, -0.00201113, -0.00635343, 0.00161825, -0.0035396, 0.000561461, 0.0162762, -0.0119008, 0.0997921, -0.115087, 0.470782, -0.544796, 0.334702, -2.08335, -2.16515, -0.127846, 0.469889, -0.543638, 0.336774, -2.08939, -2.16778, -0.123458, -0.00522087, -0.0322756, -0.0282076, -0.0052942, -0.0313041, -0.01157
0.125115, 1.69331, -1.22505, -1.53739, -0.897718, -1.19768, 1.23075, -1.30253, 0.0483678, -0.0208523, -0.0131035, 0.0752606, -0.132711, 0.0121917, 0.00149851, -1.78948, 51.7386, 23.5093, 7.36664, 0.779296, 3.16653, -0.0484509, 0.00149847, -0.000909479, -0.00185377, -0.00201245, -0.00645109, 0.00168988, -0.0034385, -0.00131612, 0.0155905, -0.0110177, 0.102896, -0.117763, 0.470777, -0.544828, 0.334674, -2.08333, -2.16513, -0.127796, 0.469886, -0.54367, 0.336765, -2.0895, -2.16774, -0.123303, -0.00528417, -0.032657, -0.0285745, -0.00350404, -0.031603, -0.0126893
0.126115, 1.69335, -1.22507, -1.5374, -0.897636, -1.19783, 1.23076, -1.30253, 0.043774, -0.0232932, -0.0106238, 0.0792865, -0.135803, 0.0184747, 0.000524362, -1.7141, 51.7743, 23.3942, 7.33093, 0.772887, 3.16653, -0.0356336, 0.00149631, -0.000912545, -0.00186668, -0.00201584, -0.00653522, 0.00176357, 0.000345286, 0.000830777, 0.0166926, -0.00206169, 0.105687, -0.125313, 0.470772, -0.54486, 0.334645, -2.08332, -2.16511, -0.127746, 0.469878, -0.543707, 0.336749, -2.08961, -2.1677, -0.123163, -0.0053473, -0.0330371, -0.0289414, -0.00553441, -0.0359758, -0.012486
0.127115, 1.69341, -1.2251, -1.53741, -0.897549, -1.19797, 1.23077, -1.30253, 0.0497609, -0.0222171, -0.0107247, 0.0800809, -0.138508, 0.01846, 0.000349628, -1.75378, 51.6989, 23.3585, 7.25555, 0.779296, 3.16653, -0.0356336, 0.00149705, -0.000911184, -0.00188244, -0.0020195, -0.0066277, 0.00183513, -0.00206057, -0.00207213, 0.0173998, -0.00348156, 0.109341, -0.121564, 0.470766, -0.544894, 0.334616, -2.0833, -2.1651, -0.127694, 0.469874, -0.543742, 0.336736, -2.08972, -2.16765, -0.123014, -0.00541024, -0.0334157, -0.0293081, -0.00275645, -0.0339688, -0.0118741
0.128115, 1.69347, -1.22512, -1.53742, -0.897466, -1.19811, 1.23078, -1.30253, 0.0504785, -0.0215639, -0.0130803, 0.081101, -0.134639, 0.013783, -4.23366e-06, -1.78948, 51.6275, 23.2831, 7.29126, 0.772887, 3.16653, -0.0292249, 0.00150331, -0.000906061, -0.00190024, -0.00202631, -0.00671671, 0.00189481, -0.0033281, -0.00146706, 0.0169408, -0.00699086, 0.104853, -0.121917, 0.470761, -0.544927, 0.334587, -2.08329, -2.16508, -0.127643, 0.469875, -0.543772, 0.336725, -2.08982, -2.16763, -0.122873, -0.00547299, -0.0337927, -0.0296745, -0.00348513, -0.0330486, -0.0124782
0.129115, 1.69352, -1.22515, -1.53744, -0.897378, -1.19825, 1.2308, -1.30253, 0.0493502, -0.0227132, -0.0101469, 0.0837295, -0.136508, 0.0105672, -2.79242e-06, -1.75378, 51.6275, 23.2831, 7.25555, 0.772887, 3.15921, -0.0292249, 0.0015033, -0.000905997, -0.00191349, -0.00203403, -0.00680003, 0.00196921, -0.00294076, -4.01861e-05, 0.0177447, -0.0063888, 0.103436, -0.125217, 0.470756, -0.544961, 0.334557, -2.08327, -2.16506, -0.12759, 0.46987, -0.543808, 0.336708, -2.08993, -2.16758, -0.122737, -0.00553554, -0.0341681, -0.0300408, -0.00492768, -0.0339882, -0.0120652
0.130115, 1.69357, -1.22517, -1.53745, -0.897292, -1.19839, 1.23081, -1.30252, 0.0509183, -0.020911, -0.0142565, 0.083776, -0.138205, 0.013341, 0.00023552, -1.6784, 51.5164, 23.2831, 7.29126, 0.754576, 3.13815, -0.0356336, 0.00150441, -0.000905844, -0.00193237, -0.0020435, -0.00689469, 0.00204701, -0.00274266, -0.000533146, 0.0178341, -0.00803746, 0.108577, -0.127184, 0.47075, -0.544995, 0.334527, -2.08326, -2.16504, -0.127537, 0.469865, -0.543843, 0.336697, -2.09005, -2.16753, -0.122589, -0.00559787, -0.0345419, -0.0304067, -0.00448651, -0.034551, -0.0123893
0.131115, 1.69363, -1.22519, -1.53746, -0.897201, -1.19853, 1.23083, -1.30253, 0.0515963, -0.0222972, -0.0114986, 0.0882586, -0.134882, 0.0141267, 0.00015703, -1.7141, 51.5164, 23.1721, 7.25555, 0.754576, 3.1528, -0.0356336, 0.00150772, -0.00090198, -0.00194908, -0.00206107, -0.0069786, 0.00211373, -0.00315764, -0.000994483, 0.0189483, -0.00110836, 0.104558, -0.128573, 0.470744, -0.545029, 0.334497, -2.08324, -2.16502, -0.127483, 0.469864, -0.543877, 0.336684, -2.09015, -2.16749, -0.122462, -0.00565998, -0.0349139, -0.0307722, -0.00405955, -0.0346653, -0.0116053
0.132115, 1.69369, -1.22523, -1.53748, -0.897104, -1.19867, 1.23084, -1.30253, 0.0544496, -0.0249922, -0.0138482, 0.093098, -0.132852, 0.0108459, -0.00135336, -1.7141, 51.5878, 23.2474, 7.18018, 0.766478, 3.14548, 0.00373412, 0.00150756, -0.000900299, -0.00195969, -0.00207142, -0.00705803, 0.00218604, -0.00340782, -0.000841478, 0.0170597, -0.00306332, 0.0986641, -0.129563, 0.470739, -0.545064, 0.334466, -2.08323, -2.165, -0.127428, 0.469861, -0.543914, 0.336663, -2.09026, -2.16745, -0.122331, -0.00572185, -0.0352841, -0.0311374, -0.00435404, -0.0345047, -0.0137916
0.133115, 1.69374, -1.22525, -1.5375, -0.897014, -1.19881, 1.23086, -1.30253, 0.058025, -0.0265289, -0.014642, 0.0915628, -0.130633, 0.013072, -0.000902232, -1.63873, 51.5164, 23.2831, 7.18018, 0.766478, 3.13815, 0.00373412, 0.00151031, -0.000898433, -0.00197652, -0.00208004, -0.00714848, 0.00225928, -0.0057667, -0.00380654, 0.0159799, -0.001798, 0.0969942, -0.125413, 0.470733, -0.5451, 0.334435, -2.08321, -2.16498, -0.127372, 0.469857, -0.543949, 0.336649, -2.09037, -2.1674, -0.122185, -0.00578347, -0.0356524, -0.0315021, -0.00157871, -0.0322568, -0.0149524
0.134115, 1.6938, -1.22528, -1.5375, -0.896922, -1.19895, 1.23088, -1.30253, 0.0585883, -0.029364, -0.011688, 0.0928671, -0.133623, 0.019404, -0.000364122, -1.60302, 51.5164, 23.1721, 7.21588, 0.748168, 3.13083, -0.00267457, 0.00151645, -0.000893203, -0.00199465, -0.0021017, -0.00722955, 0.00232559, -0.00514433, -0.00527954, 0.0163777, 0.00557534, 0.0997253, -0.126736, 0.470727, -0.545135, 0.334403, -2.08319, -2.16496, -0.127316, 0.469857, -0.543981, 0.336636, -2.09048, -2.16736, -0.122064, -0.00584484, -0.0360188, -0.0318663, -0.000131068, -0.0332382, -0.0150679
0.135115, 1.69386, -1.22531, -1.53752, -0.896818, -1.19909, 1.2309, -1.30253, 0.0580011, -0.030162, -0.016156, 0.0962667, -0.137522, 0.0191907, 0.000265884, -1.52764, 51.5878, 23.2078, 7.14447, 0.772887, 3.13083, -0.0164075, 0.00151464, -0.000891968, -0.00200803, -0.00212046, -0.00731402, 0.00241102, -0.00253623, -0.00299609, 0.0151154, 0.00168404, 0.102267, -0.135039, 0.470721, -0.545171, 0.334371, -2.08318, -2.16494, -0.127259, 0.469854, -0.544021, 0.336617, -2.0906, -2.16731, -0.121933, -0.00590595, -0.0363832, -0.0322299, -0.0024273, -0.0360772, -0.0170085
0.136115, 1.69392, -1.22533, -1.53754, -0.896721, -1.19924, 1.23091, -1.30253, 0.057975, -0.0272304, -0.0205818, 0.0940349, -0.139266, 0.0143572, 0.000889337, -1.45226, 51.5164, 23.2831, 7.14447, 0.779296, 3.13083, -0.0356336, 0.00151672, -0.000891544, -0.00202722, -0.0021289, -0.00740887, 0.00249277, -0.00311647, -0.00163248, 0.0148494, -0.00759735, 0.104998, -0.137182, 0.470716, -0.545208, 0.334339, -2.08316, -2.16492, -0.127202, 0.469849, -0.544058, 0.336604, -2.09073, -2.16725, -0.121779, -0.00596678, -0.0367455, -0.032593, -0.00387992, -0.0358815, -0.0175005
0.137115, 1.69398, -1.22536, -1.53756, -0.896621, -1.19938, 1.23093, -1.30252, 0.058252, -0.0308551, -0.0195183, 0.094759, -0.141273, 0.0147917, 0.00106761, -1.37688, 51.5521, 23.3228, 7.18018, 0.791197, 3.14548, -0.0484509, 0.00151847, -0.000888893, -0.0020423, -0.00214624, -0.00749392, 0.0025759, -0.0028691, -0.00179295, 0.0135199, -0.00684247, 0.103398, -0.138498, 0.47071, -0.545245, 0.334306, -2.08314, -2.16489, -0.127143, 0.469846, -0.544095, 0.336587, -2.09085, -2.1672, -0.121645, -0.00602732, -0.0371056, -0.0329554, -0.00382156, -0.0362751, -0.0192194
0.138115, 1.69405, -1.22539, -1.53758, -0.896509, -1.19952, 1.23094, -1.30253, 0.0620859, -0.0311427, -0.0230963, 0.100859, -0.141733, 0.015809, 0.000237026, -1.33721, 51.6275, 23.2831, 7.1048, 0.772887, 3.14548, -0.0356336, 0.00152068, -0.000885971, -0.0020599, -0.00217383, -0.00757132, 0.00265373, -0.00220739, -0.00214533, 0.0131222, -0.00663338, 0.104085, -0.141767, 0.470704, -0.545282, 0.334273, -2.08313, -2.16487, -0.127084, 0.469844, -0.544133, 0.336572, -2.09097, -2.16715, -0.12153, -0.00608756, -0.0374636, -0.0333171, -0.00352099, -0.0372108, -0.0200877
0.139115, 1.69411, -1.22542, -1.53759, -0.896403, -1.19966, 1.23097, -1.30253, 0.0627478, -0.0313085, -0.0241139, 0.103765, -0.143115, 0.0168426, -0.000316699, -1.33721, 51.6989, 23.2831, 7.1048, 0.784789, 3.13815, -0.0228162, 0.00152432, -0.000879255, -0.00207454, -0.00219618, -0.00765611, 0.0027303, -0.00144061, -0.0017772, 0.0134278, -0.00561506, 0.105676, -0.144733, 0.470697, -0.545319, 0.33424, -2.08311, -2.16485, -0.127025, 0.469845, -0.544169, 0.336553, -2.09109, -2.1671, -0.1214, -0.0061475, -0.0378192, -0.0336781, -0.00390899, -0.0383854, -0.0202539
0.140115, 1.69418, -1.22546, -1.53762, -0.896288, -1.1998, 1.23099, -1.30253, 0.0641004, -0.0312177, -0.0222599, 0.107812, -0.137545, 0.0167731, -0.00166919, -1.26183, 51.7743, 23.3228, 7.02942, 0.760985, 3.1528, 0.0165515, 0.00152358, -0.000878864, -0.00208907, -0.00222086, -0.00773228, 0.00281304, -0.00275248, -0.00262182, 0.0149134, 0.000652543, 0.10101, -0.143516, 0.470691, -0.545357, 0.334206, -2.08309, -2.16483, -0.126964, 0.46984, -0.544209, 0.336534, -2.09121, -2.16704, -0.121281, -0.00620712, -0.0381726, -0.0340383, -0.00311398, -0.0376368, -0.0189716
0.141115, 1.69425, -1.22549, -1.53763, -0.896174, -1.19994, 1.23101, -1.30253, 0.0655358, -0.0302822, -0.0207039, 0.109163, -0.138918, 0.017027, -0.000638077, -1.18645, 51.81, 23.3585, 7.02942, 0.754576, 3.15921, 0.00373412, 0.00152499, -0.000874538, -0.00210479, -0.00224608, -0.0078173, 0.00289734, -0.0035105, -0.00332573, 0.0164543, 0.00250472, 0.103297, -0.144728, 0.470685, -0.545395, 0.334172, -2.08307, -2.1648, -0.126903, 0.469839, -0.544248, 0.336515, -2.09133, -2.16699, -0.121152, -0.00626642, -0.0385235, -0.0343977, -0.00243722, -0.0374469, -0.0177152
0.142115, 1.69431, -1.22552, -1.53765, -0.89606, -1.20009, 1.23103, -1.30253, 0.0666258, -0.0269731, -0.0187505, 0.109047, -0.135811, 0.0178734, 0.000795319, -1.11108, 51.7386, 23.3585, 7.06909, 0.760985, 3.1528, -0.0292249, 0.00152721, -0.000871313, -0.0021252, -0.00227466, -0.00790582, 0.00298564, -0.00568077, -0.00480323, 0.019399, 0.00687875, 0.104673, -0.143746, 0.470679, -0.545434, 0.334138, -2.08305, -2.16478, -0.126841, 0.469836, -0.544288, 0.336501, -2.09147, -2.16693, -0.121023, -0.00632538, -0.038872, -0.0347562, -0.000983475, -0.036044, -0.0148783
0.143115, 1.69438, -1.22555, -1.53768, -0.895939, -1.20023, 1.23105, -1.30253, 0.0677489, -0.0291501, -0.0180267, 0.112956, -0.143106, 0.0178661, 0.000530213, -1.0357, 51.8457, 23.3942, 7.06909, 0.754576, 3.15921, -0.0292249, 0.0015253, -0.000870079, -0.00214012, -0.00230146, -0.00798872, 0.00307972, -0.00392228, -0.00395034, 0.0191602, 0.00599419, 0.108398, -0.148547, 0.470673, -0.545473, 0.334103, -2.08303, -2.16476, -0.126778, 0.469832, -0.544331, 0.336481, -2.09161, -2.16686, -0.120896, -0.006384, -0.0392179, -0.0351138, -0.00183963, -0.0381243, -0.0157165
0.144115, 1.69444, -1.22559, -1.5377, -0.895817, -1.20037, 1.23107, -1.30253, 0.0660977, -0.0313647, -0.0167327, 0.115312, -0.143521, 0.022472, 0.00133682, -0.960319, 51.9965, 23.3942, 7.1048, 0.748168, 3.16653, -0.0557752, 0.00152366, -0.000869421, -0.00215222, -0.00232825, -0.00806314, 0.00317628, -0.00238255, -0.00360596, 0.0194305, 0.0125086, 0.108756, -0.153202, 0.470666, -0.545512, 0.334068, -2.08301, -2.16473, -0.126715, 0.469827, -0.544373, 0.336458, -2.09174, -2.16679, -0.120776, -0.00644226, -0.0395612, -0.0354704, -0.00217575, -0.0400432, -0.0160336
0.145115, 1.69452, -1.22562, -1.53772, -0.895688, -1.20051, 1.23109, -1.30253, 0.0726386, -0.0293019, -0.0150154, 0.118923, -0.143842, 0.0210472, 0.000619946, -0.960319, 51.9965, 23.3585, 7.06909, 0.741759, 3.18118, -0.0484509, 0.00152701, -0.00086329, -0.00217172, -0.00236367, -0.00814437, 0.00326273, -0.00525486, -0.0064894, 0.0215892, 0.013929, 0.110429, -0.149202, 0.47066, -0.545551, 0.334033, -2.08299, -2.16471, -0.126651, 0.469827, -0.544412, 0.336442, -2.09187, -2.16673, -0.12066, -0.00650015, -0.0399019, -0.035826, 0.000628464, -0.037761, -0.0139075
0.146115, 1.69459, -1.22566, -1.53775, -0.895558, -1.20066, 1.23111, -1.30253, 0.0709594, -0.0320363, -0.0162895, 0.121484, -0.138156, 0.0203818, -6.14201e-05, -0.845268, 52.0322, 23.4339, 7.02942, 0.723448, 3.18851, -0.0356336, 0.00152402, -0.000863516, -0.00218698, -0.00239367, -0.00822438, 0.00336279, -0.00480488, -0.00537198, 0.0201944, 0.016512, 0.102826, -0.15176, 0.470653, -0.545591, 0.333997, -2.08297, -2.16469, -0.126586, 0.469821, -0.544458, 0.33642, -2.09201, -2.16666, -0.120536, -0.00655767, -0.0402399, -0.0361806, -0.000581799, -0.0383749, -0.0156728
0.147115, 1.69467, -1.2257, -1.53777, -0.895434, -1.2008, 1.23114, -1.30253, 0.0734615, -0.035901, -0.0178316, 0.123007, -0.149351, 0.0195436, -4.09465e-05, -0.884941, 52.1432, 23.3942, 7.14447, 0.717955, 3.20224, -0.0356336, 0.00152829, -0.000855903, -0.00220138, -0.00242647, -0.0083008, 0.00344609, -0.00303718, -0.00487576, 0.0176876, 0.00962441, 0.108076, -0.155759, 0.470647, -0.545631, 0.333961, -2.08295, -2.16466, -0.12652, 0.469823, -0.544495, 0.336399, -2.09214, -2.1666, -0.12042, -0.00661481, -0.0405751, -0.036534, -0.00116787, -0.0400908, -0.0187592
0.148115, 1.69474, -1.22573, -1.5378, -0.895298, -1.20094, 1.23116, -1.30253, 0.072552, -0.0358969, -0.0215751, 0.127686, -0.147898, 0.0238405, -2.72976e-05, -0.809562, 52.1432, 23.4696, 7.1048, 0.705138, 3.20956, -0.0356336, 0.00152551, -0.000856048, -0.00221809, -0.00246109, -0.00837947, 0.00355028, -0.000693906, -0.00365023, 0.0177343, 0.0135089, 0.109132, -0.162749, 0.47064, -0.545672, 0.333924, -2.08293, -2.16464, -0.126454, 0.469817, -0.544541, 0.336379, -2.09229, -2.16652, -0.120301, -0.00667155, -0.0409074, -0.0368864, -0.00236263, -0.042794, -0.0193882
0.149115, 1.69482, -1.22578, -1.53782, -0.89516, -1.20108, 1.23118, -1.30253, 0.0744831, -0.0364451, -0.0239493, 0.13591, -0.146308, 0.022064, -0.000967634, -0.845268, 52.29, 23.3942, 7.1048, 0.680419, 3.22421, -0.00999879, 0.00152655, -0.000851589, -0.00223208, -0.00249689, -0.00845015, 0.00364266, 0.000548223, -0.00238095, 0.0177356, 0.014574, 0.106188, -0.168395, 0.470633, -0.545713, 0.333887, -2.08291, -2.16461, -0.126387, 0.469816, -0.544583, 0.336356, -2.09242, -2.16645, -0.120192, -0.00672789, -0.0412368, -0.0372375, -0.00364145, -0.0444019, -0.0198888
0.150115, 1.6949, -1.22582, -1.53786, -0.895018, -1.20122, 1.2312, -1.30253, 0.0780265, -0.0397137, -0.0270905, 0.139704, -0.146046, 0.0221663, -0.000170371, -0.845268, 52.4368, 23.5093, 7.1048, 0.674925, 3.20224, -0.0228162, 0.00152287, -0.000849446, -0.0022415, -0.0025277, -0.00852363, 0.00374977, 0.000643044, -0.00313219, 0.015339, 0.0134129, 0.103066, -0.171055, 0.470627, -0.545754, 0.33385, -2.08289, -2.16458, -0.126319, 0.469812, -0.544629, 0.336327, -2.09256, -2.16636, -0.120073, -0.00678382, -0.0415633, -0.0375874, -0.00303612, -0.0444233, -0.0226447
0.151115, 1.69498, -1.22586, -1.53788, -0.894873, -1.20137, 1.23123, -1.30253, 0.0806067, -0.0395523, -0.0269827, 0.144577, -0.140417, 0.0213151, -0.00157164, -0.845268, 52.4725, 23.3942, 7.14447, 0.668517, 3.20224, 0.0165515, 0.00152338, -0.000845069, -0.00226119, -0.00257356, -0.00860154, 0.00384502, -0.000675699, -0.00403065, 0.0162185, 0.017722, 0.0981451, -0.170126, 0.47062, -0.545796, 0.333812, -2.08287, -2.16456, -0.126251, 0.46981, -0.544673, 0.336309, -2.09271, -2.1663, -0.119966, -0.00683932, -0.0418868, -0.0379361, -0.00220596, -0.0435427, -0.0219507
0.152115, 1.69506, -1.2259, -1.53791, -0.894729, -1.20152, 1.23125, -1.30253, 0.0825686, -0.039425, -0.0286589, 0.147626, -0.146594, 0.0206715, -0.000810403, -0.845268, 52.5122, 23.4696, 7.21588, 0.680419, 3.20224, 0.0101428, 0.00152169, -0.000841232, -0.00227467, -0.00260341, -0.00868499, 0.00394971, 0.000470964, -0.00338094, 0.0162641, 0.0143839, 0.103226, -0.175191, 0.470613, -0.545838, 0.333774, -2.08285, -2.16453, -0.126182, 0.469808, -0.544719, 0.336284, -2.09285, -2.16622, -0.119834, -0.0068944, -0.0422071, -0.0382834, -0.00286654, -0.0450287, -0.0224092
0.153115, 1.69514, -1.22593, -1.53795, -0.894572, -1.20167, 1.23128, -1.30253, 0.0816239, -0.0392692, -0.032103, 0.150073, -0.147423, 0.0201945, 0.00139251, -0.884941, 52.4011, 23.5093, 7.14447, 0.711547, 3.20224, -0.0420422, 0.00151804, -0.00084007, -0.00229609, -0.00264236, -0.00877529, 0.00406986, 0.00206077, -0.00155571, 0.0157741, 0.0122998, 0.104126, -0.183087, 0.470606, -0.54588, 0.333736, -2.08282, -2.1645, -0.126112, 0.469803, -0.544768, 0.336266, -2.09302, -2.16613, -0.119702, -0.00694903, -0.0425243, -0.0386293, -0.0047058, -0.0469151, -0.0234248
0.154115, 1.69523, -1.22597, -1.53798, -0.894415, -1.20182, 1.2313, -1.30253, 0.0803867, -0.0396538, -0.0336118, 0.150298, -0.147297, 0.0200323, 0.000453623, -0.884941, 52.4368, 23.5093, 7.14447, 0.729857, 3.19583, -0.0292249, 0.00151394, -0.000838733, -0.00231251, -0.00268507, -0.00885303, 0.00418229, 0.00261993, -0.00058247, 0.0153839, 0.0115641, 0.10393, -0.184926, 0.470599, -0.545922, 0.333697, -2.0828, -2.16448, -0.126041, 0.469799, -0.544817, 0.336243, -2.09318, -2.16604, -0.119588, -0.00700322, -0.0428383, -0.0389739, -0.00572644, -0.0477611, -0.024209
0.155115, 1.69531, -1.22601, -1.53801, -0.89426, -1.20196, 1.23133, -1.30253, 0.0813753, -0.0429004, -0.0339689, 0.152795, -0.141944, 0.0201317, 0.00101449, -0.845268, 52.4725, 23.4696, 7.18018, 0.736266, 3.18118, -0.0484509, 0.00151202, -0.000835116, -0.0023256, -0.00272803, -0.00892324, 0.00429288, 0.00189497, -0.00124841, 0.0139215, 0.0149895, 0.0965218, -0.185695, 0.470592, -0.545965, 0.333659, -2.08278, -2.16445, -0.12597, 0.469796, -0.544863, 0.336217, -2.09333, -2.16595, -0.119481, -0.00705695, -0.0431491, -0.039317, -0.00519726, -0.0471044, -0.025906
0.156115, 1.69539, -1.22606, -1.53805, -0.894094, -1.2021, 1.23135, -1.30253, 0.0821953, -0.0472034, -0.0376222, 0.157055, -0.142587, 0.0155828, 0.000676328, -0.809562, 52.5836, 23.5807, 7.1048, 0.736266, 3.16653, -0.0484509, 0.0015039, -0.00083561, -0.00233594, -0.00277063, -0.00899315, 0.00441719, 0.00325637, 0.000663188, 0.0105119, 0.00945111, 0.0907272, -0.190861, 0.470585, -0.546008, 0.333619, -2.08275, -2.16442, -0.125898, 0.469789, -0.544916, 0.336186, -2.0935, -2.16584, -0.119372, -0.00711021, -0.0434565, -0.0396587, -0.00724437, -0.0483112, -0.0297614
0.157115, 1.69548, -1.2261, -1.53809, -0.893932, -1.20225, 1.23138, -1.30253, 0.0870375, -0.0397393, -0.0363748, 0.158675, -0.143102, 0.0170595, -0.000735909, -0.809562, 52.5122, 23.5093, 7.1048, 0.729857, 3.14548, -0.0164075, 0.00150183, -0.000831012, -0.00235664, -0.00282202, -0.00907791, 0.00452616, 0.000506965, -0.00202005, 0.015761, 0.012702, 0.0995702, -0.186484, 0.470578, -0.546052, 0.33358, -2.08273, -2.16439, -0.125825, 0.469788, -0.544965, 0.336167, -2.09366, -2.16577, -0.119258, -0.007163, -0.0437605, -0.0399988, -0.00450783, -0.0465957, -0.0245826
0.158115, 1.69558, -1.22614, -1.53812, -0.893762, -1.20239, 1.23141, -1.30253, 0.089484, -0.0399984, -0.0369482, 0.161591, -0.143874, 0.0216575, -0.000253247, -0.884941, 52.5479, 23.5093, 7.02942, 0.736266, 3.15921, -0.0228162, 0.00150227, -0.000823681, -0.00237169, -0.00286835, -0.00914836, 0.0046365, 0.000703781, -0.00343666, 0.0163792, 0.0172344, 0.102413, -0.188306, 0.470571, -0.546096, 0.33354, -2.08271, -2.16437, -0.125751, 0.469789, -0.54501, 0.336141, -2.09381, -2.16568, -0.119153, -0.0072153, -0.0440611, -0.0403373, -0.00311322, -0.0471273, -0.0243888
0.159115, 1.69566, -1.22619, -1.53816, -0.893589, -1.20253, 1.23143, -1.30253, 0.0891471, -0.0442631, -0.0342285, 0.165825, -0.143389, 0.020865, -0.00162689, -0.734184, 52.6193, 23.5093, 6.99371, 0.723448, 3.15921, 0.0165515, 0.00149369, -0.000826857, -0.00238456, -0.00291422, -0.00921561, 0.00476247, 0.00142115, -0.00280239, 0.0156267, 0.0212263, 0.0971261, -0.190124, 0.470564, -0.54614, 0.333499, -2.08268, -2.16434, -0.125677, 0.469779, -0.545065, 0.336113, -2.09398, -2.16557, -0.119048, -0.0072671, -0.0443582, -0.0406742, -0.00380172, -0.0480431, -0.0255587
0.160115, 1.69576, -1.22623, -1.53821, -0.893415, -1.20267, 1.23146, -1.30253, 0.0923435, -0.041618, -0.0365829, 0.165896, -0.148476, 0.0253681, -0.000609878, -0.734184, 52.5836, 23.545, 6.95801, 0.729857, 3.1528, 0.00373412, 0.00149184, -0.00082162, -0.00240186, -0.00296336, -0.009292, 0.00488134, 0.00138399, -0.00440664, 0.0169031, 0.0209168, 0.106761, -0.191597, 0.470556, -0.546184, 0.333458, -2.08266, -2.16431, -0.125602, 0.469778, -0.545113, 0.336089, -2.09415, -2.16548, -0.118937, -0.00731841, -0.0446518, -0.0410095, -0.00220092, -0.0484298, -0.024682
0.161115, 1.69586, -1.22627, -1.53825, -0.893241, -1.20281, 1.23149, -1.30253, 0.0927123, -0.0436165, -0.037009, 0.166315, -0.147839, 0.0226295, 0.00152619, -0.694511, 52.5836, 23.545, 7.02942, 0.736266, 3.18118, -0.0484509, 0.0014893, -0.00081792, -0.00241741, -0.00300841, -0.00936654, 0.00500664, 0.000870938, -0.00410054, 0.0156467, 0.0188568, 0.103235, -0.19438, 0.470549, -0.546229, 0.333417, -2.08263, -2.16428, -0.125526, 0.469775, -0.545163, 0.336062, -2.09432, -2.16537, -0.118822, -0.0073692, -0.0449417, -0.0413431, -0.00262421, -0.0480329, -0.0261668
0.162115, 1.69596, -1.22632, -1.53829, -0.89305, -1.20296, 1.23151, -1.30253, 0.0921079, -0.0478363, -0.0416978, 0.174396, -0.147755, 0.0258351, -0.000677958, -0.658806, 52.6947, 23.5807, 6.91833, 0.748168, 3.19583, -0.00267457, 0.00148156, -0.000816335, -0.00242919, -0.00306058, -0.00943183, 0.00513427, 0.00488667, -0.00182574, 0.0131973, 0.0214901, 0.100474, -0.202664, 0.470542, -0.546274, 0.333376, -2.08261, -2.16425, -0.12545, 0.46977, -0.545217, 0.336031, -2.09449, -2.16526, -0.118723, -0.00741948, -0.0452279, -0.0416749, -0.00490025, -0.0520016, -0.0294621
0.163115, 1.69606, -1.22636, -1.53833, -0.892859, -1.20309, 1.23154, -1.30252, 0.0940021, -0.0450778, -0.0433378, 0.178719, -0.142119, 0.0244281, 0.00198943, -0.619133, 52.6947, 23.545, 6.88263, 0.754576, 3.18851, -0.0685925, 0.00147861, -0.000811856, -0.0024464, -0.00312077, -0.00949556, 0.00526725, 0.00380632, -0.00199224, 0.0148901, 0.0238977, 0.0980367, -0.20688, 0.470534, -0.546319, 0.333334, -2.08258, -2.16422, -0.125373, 0.469768, -0.545268, 0.336006, -2.09466, -2.16515, -0.118634, -0.00746922, -0.0455105, -0.042005, -0.00475385, -0.0514702, -0.0279594
0.164115, 1.69616, -1.22641, -1.53839, -0.892666, -1.20323, 1.23156, -1.30253, 0.0989482, -0.0489627, -0.0510616, 0.180884, -0.136868, 0.0273183, 0.000580304, -0.619133, 52.8058, 23.6561, 6.88263, 0.736266, 3.20224, -0.0484509, 0.0014751, -0.000807205, -0.0024554, -0.00316639, -0.00955323, 0.00539251, 0.00315795, -0.00417981, 0.0104422, 0.0224297, 0.0921753, -0.204997, 0.470527, -0.546364, 0.333292, -2.08255, -2.16419, -0.125295, 0.469766, -0.545318, 0.335972, -2.09482, -2.16503, -0.118534, -0.00751843, -0.0457892, -0.0423333, -0.00281751, -0.0503368, -0.0326532
0.165115, 1.69627, -1.22646, -1.53843, -0.892474, -1.20337, 1.23159, -1.30253, 0.100345, -0.047517, -0.0471639, 0.185976, -0.138762, 0.0252444, 0.000149511, -0.508049, 52.8772, 23.6204, 6.88263, 0.748168, 3.20224, -0.0420422, 0.00147289, -0.000801074, -0.00246986, -0.003226, -0.00961456, 0.0055159, 0.002925, -0.00390813, 0.0133906, 0.0258982, 0.0937909, -0.207148, 0.470519, -0.54641, 0.33325, -2.08253, -2.16416, -0.125216, 0.469766, -0.545368, 0.335944, -2.09499, -2.16493, -0.118446, -0.00756709, -0.0460641, -0.0426597, -0.00302753, -0.0508449, -0.0300235
0.166115, 1.69638, -1.22651, -1.53849, -0.892272, -1.20351, 1.23161, -1.30253, 0.102096, -0.0477273, -0.054134, 0.188024, -0.140147, 0.0271399, 0.000337033, -0.43267, 52.8772, 23.7314, 6.80725, 0.736266, 3.23886, -0.0484509, 0.00146741, -0.000798144, -0.00248518, -0.00327447, -0.00968645, 0.00565259, 0.00436683, -0.00343994, 0.0114473, 0.0218956, 0.0963804, -0.21186, 0.470512, -0.546456, 0.333207, -2.0825, -2.16412, -0.125137, 0.469762, -0.545421, 0.335915, -2.09517, -2.16481, -0.118333, -0.0076152, -0.0463352, -0.0429842, -0.00356894, -0.0522606, -0.0324742
0.167115, 1.69649, -1.22656, -1.53854, -0.892073, -1.20365, 1.23164, -1.30253, 0.106822, -0.0467181, -0.0541224, 0.1983, -0.140707, 0.0293056, -0.000724747, -0.357292, 52.9526, 23.7671, 6.77154, 0.723448, 3.25259, -0.0228162, 0.00146504, -0.000791124, -0.00249661, -0.00332545, -0.00974885, 0.0057771, 0.00522157, -0.00411809, 0.0136812, 0.0281578, 0.0984879, -0.216021, 0.470504, -0.546503, 0.333164, -2.08247, -2.16409, -0.125057, 0.469762, -0.545472, 0.335883, -2.09533, -2.1647, -0.118233, -0.00766275, -0.0466022, -0.0433068, -0.00281905, -0.0536862, -0.0307468
0.168115, 1.69661, -1.22661, -1.53859, -0.891865, -1.20379, 1.23166, -1.30253, 0.110143, -0.0489578, -0.0550924, 0.199661, -0.147216, 0.026533, -0.00194123, -0.242241, 53.024, 23.8425, 6.73187, 0.723448, 3.25992, 0.0165515, 0.0014627, -0.000782592, -0.00250889, -0.00338062, -0.00981219, 0.00590207, 0.00524265, -0.00434799, 0.0120662, 0.022217, 0.100626, -0.216013, 0.470496, -0.546549, 0.333121, -2.08245, -2.16406, -0.124976, 0.469764, -0.545522, 0.335851, -2.0955, -2.16459, -0.118135, -0.00770973, -0.0468653, -0.0436274, -0.00269951, -0.053713, -0.0326733
0.169115, 1.69672, -1.22666, -1.53864, -0.891656, -1.20394, 1.23169, -1.30253, 0.10929, -0.0516706, -0.0518859, 0.20072, -0.147226, 0.0244414, -0.000582074, -0.0161054, 53.1351, 23.7671, 6.69617, 0.736266, 3.26724, -0.00267457, 0.00145727, -0.000777734, -0.00252253, -0.00343666, -0.00987911, 0.00603729, 0.00500004, -0.00389526, 0.01186, 0.0240131, 0.0969032, -0.21825, 0.470489, -0.546596, 0.333077, -2.08242, -2.16403, -0.124894, 0.469762, -0.545576, 0.33582, -2.09568, -2.16447, -0.118033, -0.00775613, -0.0471243, -0.043946, -0.00321403, -0.0537193, -0.0331428
0.170115, 1.69684, -1.22671, -1.5387, -0.891443, -1.20409, 1.23171, -1.30253, 0.115331, -0.0486838, -0.0515022, 0.207005, -0.146625, 0.0176499, -0.000116782, 0.0949785, 53.1747, 23.8782, 6.69617, 0.729857, 3.2883, -0.00999879, 0.00144991, -0.000774839, -0.0025337, -0.00347828, -0.00995152, 0.00618433, 0.00267264, -0.00474339, 0.0139777, 0.0214883, 0.095969, -0.218636, 0.470481, -0.546643, 0.333034, -2.08239, -2.164, -0.124812, 0.469758, -0.545632, 0.335786, -2.09586, -2.16434, -0.117908, -0.00780194, -0.0473792, -0.0442625, -0.00240915, -0.0519661, -0.0310377
0.171115, 1.69696, -1.22676, -1.53876, -0.891215, -1.20425, 1.23173, -1.30253, 0.113929, -0.0501165, -0.0555864, 0.209333, -0.147196, 0.0219521, 0.000871581, 0.285408, 53.2462, 23.9179, 6.65649, 0.748168, 3.31027, -0.0356336, 0.00144016, -0.000773396, -0.002547, -0.00352951, -0.0100207, 0.00634047, 0.0052255, -0.00348728, 0.0127311, 0.0229766, 0.0975517, -0.225824, 0.470473, -0.546691, 0.332989, -2.08236, -2.16396, -0.124729, 0.469753, -0.545691, 0.335753, -2.09606, -2.1642, -0.117795, -0.00784715, -0.04763, -0.044577, -0.00366783, -0.0545977, -0.0329352
0.172115, 1.69709, -1.22681, -1.53882, -0.890984, -1.2044, 1.23176, -1.30253, 0.117297, -0.0475792, -0.0535918, 0.217537, -0.148119, 0.0220858, 0.00132704, 0.436165, 53.2819, 23.8782, 6.62079, 0.791197, 3.2883, -0.0557752, 0.0014324, -0.000767683, -0.00256164, -0.00358593, -0.0100941, 0.00649127, 0.0053929, -0.0037652, 0.0161648, 0.0284213, 0.100481, -0.230238, 0.470465, -0.546738, 0.332945, -2.08233, -2.16393, -0.124645, 0.469751, -0.545748, 0.335722, -2.09626, -2.16407, -0.117683, -0.00789177, -0.0478765, -0.0448893, -0.00328963, -0.0555244, -0.0298929
0.173115, 1.69722, -1.22686, -1.53889, -0.890757, -1.20456, 1.23178, -1.30253, 0.121671, -0.050626, -0.0621612, 0.22289, -0.147523, 0.0203799, 0.000138708, 0.511544, 53.3929, 23.9893, 6.62079, 0.797606, 3.31027, -0.0356336, 0.00142646, -0.000761532, -0.00257002, -0.0036254, -0.0101624, 0.00663416, 0.00650861, -0.00336704, 0.0119604, 0.0217071, 0.0967615, -0.233928, 0.470457, -0.546786, 0.3329, -2.0823, -2.16389, -0.124561, 0.46975, -0.545803, 0.335684, -2.09643, -2.16393, -0.117557, -0.00793577, -0.0481188, -0.0451995, -0.00386066, -0.05624, -0.0345135
0.174115, 1.69736, -1.22691, -1.53895, -0.890516, -1.20471, 1.2318, -1.30253, 0.120797, -0.0488197, -0.0614651, 0.225, -0.151523, 0.0188571, 9.24717e-05, 0.626595, 53.4683, 23.9536, 6.54541, 0.784789, 3.34598, -0.0356336, 0.00141842, -0.000756755, -0.00258269, -0.00367659, -0.0102304, 0.00678756, 0.00754129, -0.00177193, 0.0137393, 0.0208415, 0.101179, -0.238325, 0.470449, -0.546834, 0.332855, -2.08227, -2.16386, -0.124476, 0.469748, -0.545861, 0.33565, -2.09663, -2.16379, -0.117443, -0.00797915, -0.0483568, -0.0455074, -0.00538759, -0.0578357, -0.0331699
0.175115, 1.69749, -1.22697, -1.53902, -0.890277, -1.20487, 1.23182, -1.30253, 0.122507, -0.0480927, -0.0629, 0.225955, -0.15004, 0.0188477, -0.00139641, 0.777352, 53.5794, 24.1044, 6.5097, 0.784789, 3.3533, 0.00373412, 0.00140551, -0.000756433, -0.00258979, -0.00371284, -0.0103034, 0.00694682, 0.00671012, -0.00244646, 0.0139686, 0.0209472, 0.101147, -0.236853, 0.470441, -0.546883, 0.332809, -2.08224, -2.16383, -0.12439, 0.469742, -0.545923, 0.33561, -2.09682, -2.16364, -0.117306, -0.00802191, -0.0485903, -0.0458132, -0.00477583, -0.057256, -0.0331442
0.176115, 1.69762, -1.22702, -1.53909, -0.890027, -1.20503, 1.23183, -1.30253, 0.12681, -0.0475761, -0.0622586, 0.234983, -0.1536, 0.0140012, -0.00140566, 0.928108, 53.6905, 24.0647, 6.39465, 0.772887, 3.36062, 0.0165515, 0.0013945, -0.000754561, -0.00260312, -0.00376497, -0.0103719, 0.00710947, 0.00719485, -0.00165759, 0.0153434, 0.0197104, 0.101806, -0.242109, 0.470433, -0.546931, 0.332763, -2.08221, -2.16379, -0.124304, 0.469737, -0.545984, 0.335575, -2.09702, -2.16349, -0.11719, -0.00806403, -0.0488195, -0.0461166, -0.00553174, -0.0582068, -0.0321381
0.177115, 1.69777, -1.22706, -1.53917, -0.88977, -1.20519, 1.23185, -1.30253, 0.136791, -0.0453412, -0.0677059, 0.240385, -0.151503, 0.0147718, 0.00123303, 0.928108, 53.7262, 24.1401, 6.32324, 0.779296, 3.37436, -0.0420422, 0.00138501, -0.000749655, -0.00261408, -0.00380161, -0.010449, 0.00727908, 0.0046579, -0.00546384, 0.0153128, 0.0182793, 0.103314, -0.242226, 0.470425, -0.54698, 0.332717, -2.08218, -2.16375, -0.124217, 0.469734, -0.546044, 0.335539, -2.09723, -2.16333, -0.117047, -0.00810551, -0.0490442, -0.0464177, -0.00186205, -0.0557654, -0.0322094
0.178115, 1.69791, -1.22712, -1.53925, -0.889509, -1.20535, 1.23186, -1.30253, 0.140807, -0.0463642, -0.0672009, 0.24769, -0.158339, 0.0153571, -0.000127415, 1.03919, 53.873, 24.1401, 6.24786, 0.754576, 3.38901, -0.0164075, 0.00137139, -0.000750082, -0.00262447, -0.00384533, -0.0105166, 0.00744985, 0.00615653, -0.00552486, 0.0159963, 0.0191853, 0.107988, -0.246017, 0.470417, -0.547029, 0.332671, -2.08215, -2.16372, -0.124129, 0.469727, -0.546108, 0.3355, -2.09744, -2.16317, -0.11692, -0.00814634, -0.0492643, -0.0467165, -0.00176014, -0.0575674, -0.0320678
0.179115, 1.69806, -1.22717, -1.53933, -0.889249, -1.20551, 1.23187, -1.30252, 0.143, -0.0503293, -0.0702631, 0.250204, -0.159653, 0.0116418, 0.00184784, 1.07887, 54.0198, 24.1758, 6.28357, 0.736266, 3.38901, -0.0685925, 0.00136301, -0.000744765, -0.00263152, -0.00388193, -0.0105811, 0.00761835, 0.0065376, -0.00493516, 0.0127221, 0.0135828, 0.103724, -0.250534, 0.470409, -0.547078, 0.332624, -2.08211, -2.16368, -0.12404, 0.469725, -0.546167, 0.335459, -2.09763, -2.163, -0.116789, -0.00818651, -0.0494799, -0.0470129, -0.00250835, -0.0576815, -0.0356357
0.180115, 1.69821, -1.22722, -1.5394, -0.888986, -1.20567, 1.23189, -1.30253, 0.148309, -0.0465636, -0.0757817, 0.254293, -0.156871, 0.013314, 0.000757173, 1.18995, 54.0198, 24.1758, 6.24786, 0.754576, 3.39633, -0.0557752, 0.00135352, -0.000741435, -0.00264542, -0.00392455, -0.0106558, 0.00778446, 0.00553105, -0.00659645, 0.0137063, 0.0134009, 0.106637, -0.250212, 0.470401, -0.547128, 0.332577, -2.08208, -2.16365, -0.123951, 0.469721, -0.546227, 0.335424, -2.09784, -2.16285, -0.116652, -0.00822601, -0.0496909, -0.0473069, -0.000883226, -0.0569811, -0.0348609
0.181115, 1.69836, -1.22727, -1.53948, -0.888716, -1.20583, 1.2319, -1.30253, 0.151599, -0.0457641, -0.0786535, 0.25977, -0.159244, 0.014762, -0.000478562, 1.22962, 54.0952, 24.1401, 6.24786, 0.754576, 3.39633, -0.0292249, 0.00134487, -0.000736736, -0.00265652, -0.00396802, -0.0107211, 0.00794952, 0.00656203, -0.00669731, 0.0141367, 0.0136059, 0.110311, -0.253373, 0.470393, -0.547178, 0.33253, -2.08205, -2.16361, -0.123861, 0.469719, -0.546287, 0.335386, -2.09803, -2.16268, -0.116526, -0.00826484, -0.0498971, -0.0475984, -0.000766368, -0.058267, -0.034891
0.182115, 1.69852, -1.22732, -1.53957, -0.888438, -1.20599, 1.23191, -1.30253, 0.155053, -0.0482596, -0.0814969, 0.2677, -0.160298, 0.0154121, -0.0005564, 1.22962, 54.1666, 24.1401, 6.20819, 0.748168, 3.41006, -0.0228162, 0.00133495, -0.000731827, -0.00266595, -0.00400521, -0.0107899, 0.00812152, 0.0082132, -0.00640994, 0.0128698, 0.0145796, 0.109006, -0.259163, 0.470384, -0.547228, 0.332482, -2.08201, -2.16357, -0.12377, 0.469716, -0.546348, 0.335347, -2.09824, -2.16252, -0.116388, -0.00830299, -0.0500987, -0.0478874, -0.00108436, -0.0599164, -0.0366768
0.183115, 1.69867, -1.22737, -1.53966, -0.888159, -1.20615, 1.23192, -1.30253, 0.150933, -0.046153, -0.0844789, 0.272971, -0.166248, 0.0118734, -0.00135428, 1.38038, 54.2062, 24.1401, 6.20819, 0.754576, 3.40365, 0.00373412, 0.00131912, -0.000733837, -0.00267657, -0.0040443, -0.010862, 0.00830513, 0.0125672, -0.00100489, 0.0139316, 0.00982367, 0.114204, -0.271204, 0.470376, -0.547278, 0.332434, -2.08198, -2.16353, -0.123678, 0.469707, -0.546416, 0.335307, -2.09845, -2.16234, -0.116247, -0.00834046, -0.0502955, -0.0481739, -0.006321, -0.0647969, -0.0363984
0.184115, 1.69884, -1.22742, -1.53975, -0.887867, -1.20632, 1.23192, -1.30253, 0.156296, -0.0444905, -0.0859456, 0.280599, -0.170552, 0.013628, -0.00114021, 1.34071, 54.2419, 24.1401, 6.17248, 0.729857, 3.40365, 0.0101428, 0.00130803, -0.00073066, -0.00268782, -0.00407874, -0.0109322, 0.00848599, 0.0133629, -0.00184094, 0.0155841, 0.0114105, 0.120239, -0.275651, 0.470368, -0.547328, 0.332386, -2.08195, -2.1635, -0.123586, 0.469703, -0.546478, 0.335268, -2.09866, -2.16216, -0.116102, -0.00837722, -0.0504874, -0.0484579, -0.00542574, -0.0659933, -0.0352035
