alisrour97/Franka_experiments/Real_Robot_scripts/servo-franka/Data2/log_dyn_INIT2_10.csv
Time,q1,q2,q3,q4,q5,q6,q7,dq1,dq2,dq3,dq4,dq5,dq6,dq7,t1,t2,t3,t4,t5,t6,t7,ex1,ex2,ex3,ex4,ex5,ex6,ev1,ev2,ev3,ev4,ev5,ev6,xd,yd,zd,uxd,uyd,uzd,x,y,z,ux,uy,uz,vxd,vyd,vzd,vx,vy,vz
4.88281e-07, 1.6915, -1.2288, -1.54018, -0.900645, -1.1924, 1.22755, -1.30251, -0.00544302, -0.00727435, -0.0110096, 0.00763082, -0.000183453, -0.00169572, 0.000829058, 0.245735, 66.6159, 34.3757, 7.70386, 3.16791, 4.73666, -0.409169, 0.000404212, -0.00193331, 0.00293137, 0.00381309, 0.00256011, 0.000645057, 0.00753034, 0.00688994, -0.00697624, -0.00733501, -0.0080158, -0.0180588, 0.471008, -0.543389, 0.335894, -2.08385, -2.16584, -0.129887, 0.468976, -0.542602, 0.333128, -2.08116, -2.16228, -0.128195, -1.48327e-05, 4.00419e-05, -1.29039e-06, -0.00687843, -0.00660228, -0.00785086
0.0120879, 1.69144, -1.22882, -1.54031, -0.900593, -1.19241, 1.22751, -1.30251, -0.0103414, -0.000658099, -0.0103447, 0.00249201, -0.00554126, -0.00506722, 0.0012175, 0.0949785, 66.6159, 34.4153, 7.73956, 3.18622, 4.77969, -0.40276, 0.00033767, -0.00200701, 0.00298074, 0.00392959, 0.00258879, 0.000813409, 0.00817635, 0.0097071, -0.00359626, -0.0133011, 0.00158907, -0.0203519, 0.471008, -0.543389, 0.335894, -2.08385, -2.16584, -0.129887, 0.468884, -0.542679, 0.333063, -2.08129, -2.16199, -0.128069, -2.49008e-05, 7.8927e-05, 1.60533e-06, -0.00955691, -0.00783664, -0.00452586
0.0130879, 1.69144, -1.22882, -1.54031, -0.900593, -1.19241, 1.22751, -1.30251, -0.0103414, -0.000658099, -0.0103447, 0.00249201, -0.00554126, -0.00506722, 0.0012175, 0.0949785, 66.6159, 34.4153, 7.73956, 3.18622, 4.77969, -0.40276, 0.000337661, -0.002007, 0.00298074, 0.00392959, 0.00258878, 0.000813413, 0.00821942, 0.00969774, -0.00359247, -0.0133011, 0.00163723, -0.0203213, 0.471008, -0.543389, 0.335894, -2.08385, -2.16584, -0.129887, 0.468884, -0.542679, 0.333063, -2.08129, -2.16199, -0.128069, -3.59273e-05, 0.000121646, 4.81928e-06, -0.00955691, -0.00783664, -0.00452586
0.0140879, 1.69144, -1.22882, -1.54031, -0.900593, -1.19241, 1.22751, -1.30251, -0.0103414, -0.000658099, -0.0103447, 0.00249201, -0.00554126, -0.00506722, 0.0012175, 0.0949785, 66.6159, 34.4153, 7.73956, 3.18622, 4.77969, -0.40276, 0.000337637, -0.002007, 0.00298074, 0.00392958, 0.00258875, 0.000813424, 0.0082665, 0.00968754, -0.00358834, -0.013301, 0.00168982, -0.0202878, 0.471008, -0.543389, 0.335894, -2.08385, -2.16584, -0.129887, 0.468884, -0.542679, 0.333063, -2.08129, -2.16199, -0.128069, -4.79476e-05, 0.000168349, 8.36616e-06, -0.00955691, -0.00783664, -0.00452586
0.0150879, 1.69144, -1.22882, -1.54031, -0.900593, -1.19241, 1.22751, -1.30251, -0.0103414, -0.000658099, -0.0103447, 0.00249201, -0.00554126, -0.00506722, 0.0012175, 0.0949785, 66.6159, 34.4153, 7.73956, 3.18622, 4.77969, -0.40276, 0.000337591, -0.00200699, 0.00298073, 0.00392957, 0.00258871, 0.000813445, 0.00831776, 0.00967647, -0.00358389, -0.0133008, 0.00174701, -0.0202514, 0.471008, -0.543389, 0.335894, -2.08385, -2.16584, -0.129887, 0.468884, -0.542679, 0.333063, -2.08129, -2.16199, -0.128069, -6.09969e-05, 0.000219187, 1.22607e-05, -0.00955691, -0.00783664, -0.00452586
0.0160879, 1.69144, -1.22882, -1.54031, -0.900593, -1.19241, 1.22751, -1.30251, -0.0103414, -0.000658099, -0.0103447, 0.00249201, -0.00554126, -0.00506722, 0.0012175, 0.0949785, 66.6159, 34.4153, 7.73956, 3.18622, 4.77969, -0.40276, 0.000337514, -0.00200697, 0.00298073, 0.00392955, 0.00258864, 0.000813479, 0.00837335, 0.0096645, -0.0035791, -0.0133006, 0.00180897, -0.020212, 0.471008, -0.543389, 0.335894, -2.08385, -2.16584, -0.129887, 0.468884, -0.542679, 0.333063, -2.08129, -2.16199, -0.128069, -7.51097e-05, 0.000274308, 1.65177e-05, -0.00955691, -0.00783664, -0.00452586
0.0170879, 1.69144, -1.22882, -1.54031, -0.900593, -1.19241, 1.22751, -1.30251, -0.0103414, -0.000658099, -0.0103447, 0.00249201, -0.00554126, -0.00506722, 0.0012175, 0.0949785, 66.6159, 34.4153, 7.73956, 3.18622, 4.77969, -0.40276, 0.0003374, -0.00200695, 0.00298072, 0.00392953, 0.00258853, 0.00081353, 0.0084334, 0.0096516, -0.00357396, -0.0133002, 0.00187585, -0.0201696, 0.471008, -0.543389, 0.335894, -2.08385, -2.16584, -0.129887, 0.468884, -0.542679, 0.333063, -2.08129, -2.16199, -0.128069, -9.03198e-05, 0.000333859, 2.1152e-05, -0.00955691, -0.00783664, -0.00452586
0.0180879, 1.69144, -1.22882, -1.54031, -0.900593, -1.19241, 1.22751, -1.30251, -0.0103414, -0.000658099, -0.0103447, 0.00249201, -0.00554126, -0.00506722, 0.0012175, 0.0949785, 66.6159, 34.4153, 7.73956, 3.18622, 4.77969, -0.40276, 0.00033724, -0.00200691, 0.0029807, 0.00392949, 0.00258838, 0.000813601, 0.00849807, 0.00963776, -0.00356847, -0.0132998, 0.00194782, -0.020124, 0.471008, -0.543389, 0.335894, -2.08385, -2.16584, -0.129887, 0.468884, -0.542679, 0.333063, -2.08129, -2.16199, -0.128069, -0.000106661, 0.000397984, 2.61782e-05, -0.00955691, -0.00783664, -0.00452586
0.0190879, 1.69144, -1.22882, -1.54031, -0.900593, -1.19241, 1.22751, -1.30251, -0.0103414, -0.000658099, -0.0103447, 0.00249201, -0.00554126, -0.00506722, 0.0012175, 0.0949785, 66.6159, 34.4153, 7.73956, 3.18622, 4.77969, -0.40276, 0.000337029, -0.00200687, 0.00298069, 0.00392943, 0.00258818, 0.000813696, 0.0085675, 0.00962293, -0.0035626, -0.0132992, 0.00202501, -0.0200751, 0.471008, -0.543389, 0.335894, -2.08385, -2.16584, -0.129887, 0.468884, -0.542679, 0.333063, -2.08129, -2.16199, -0.128069, -0.000124165, 0.000466826, 3.16113e-05, -0.00955691, -0.00783664, -0.00452586
0.0200879, 1.69144, -1.22882, -1.54031, -0.900593, -1.19241, 1.22751, -1.30251, -0.0103414, -0.000658099, -0.0103447, 0.00249201, -0.00554126, -0.00506722, 0.0012175, 0.0949785, 66.6159, 34.4153, 7.73956, 3.18622, 4.77969, -0.40276, 0.000336758, -0.00200681, 0.00298066, 0.00392937, 0.00258792, 0.000813817, 0.00864184, 0.00960709, -0.00355636, -0.0132985, 0.00210759, -0.0200228, 0.471008, -0.543388, 0.335894, -2.08385, -2.16584, -0.129887, 0.468884, -0.542679, 0.333063, -2.08129, -2.16199, -0.128069, -0.000142864, 0.000540525, 3.74658e-05, -0.00955691, -0.00783664, -0.00452586
0.0210879, 1.69144, -1.22882, -1.54031, -0.900593, -1.19241, 1.22751, -1.30251, -0.0103414, -0.000658099, -0.0103447, 0.00249201, -0.00554126, -0.00506722, 0.0012175, 0.0949785, 66.6159, 34.4153, 7.73956, 3.18622, 4.77969, -0.40276, 0.000336419, -0.00200673, 0.00298063, 0.00392928, 0.0025876, 0.000813967, 0.00872122, 0.00959022, -0.00354974, -0.0132977, 0.00219571, -0.0199671, 0.471008, -0.543388, 0.335894, -2.08384, -2.16584, -0.129888, 0.468884, -0.542679, 0.333063, -2.08129, -2.16199, -0.128069, -0.000162789, 0.000619218, 4.37565e-05, -0.00955691, -0.00783664, -0.00452586
0.0220879, 1.69135, -1.22885, -1.54042, -0.900598, -1.19241, 1.2275, -1.30252, -0.00805709, -0.000672224, -0.00592881, -0.00114312, 4.76623e-05, 0.00376315, -0.000938054, -0.0161054, 66.8381, 34.451, 7.81494, 3.13678, 4.76504, -0.324025, 0.000272729, -0.00207681, 0.00303205, 0.00402702, 0.00260942, 0.000939197, 0.00561631, 0.00445192, -0.00183981, -0.00123538, 0.00216882, -0.00832409, 0.471008, -0.543388, 0.335894, -2.08384, -2.16584, -0.129888, 0.468814, -0.542737, 0.333005, -2.08136, -2.16181, -0.127971, -0.000183971, 0.000703042, 5.04979e-05, -0.00449573, -0.00474052, -0.00250366
0.0230879, 1.69134, -1.22885, -1.54043, -0.900597, -1.19241, 1.2275, -1.30252, -0.0130557, -0.000450241, -0.00854515, -0.000747355, 9.32616e-06, 0.00255287, -0.00062537, 0.0196001, 66.8381, 34.4867, 7.81494, 3.13678, 4.77237, -0.324025, 0.000264208, -0.00208456, 0.00303716, 0.00403442, 0.00261008, 0.000956627, 0.00844267, 0.00801924, -0.00241746, -0.00360419, 0.00189532, -0.0151287, 0.471008, -0.543387, 0.335894, -2.08384, -2.16584, -0.129888, 0.468807, -0.542744, 0.332999, -2.08137, -2.16179, -0.127962, -0.000206438, 0.000792126, 5.77046e-05, -0.00800069, -0.00749875, -0.00339798
0.0240879, 1.69133, -1.22886, -1.54045, -0.900597, -1.19241, 1.2275, -1.30251, -0.0138331, -0.0103466, -0.0153368, -0.00185494, -0.00248624, -0.000102598, 0.00080379, 0.059273, 66.6516, 34.34, 7.73956, 3.07544, 4.70096, -0.356984, 0.000253886, -0.00209403, 0.00304984, 0.00405046, 0.00262053, 0.000983281, 0.0110917, 0.00997985, -0.0109777, -0.0142493, -0.00661849, -0.0201951, 0.471007, -0.543387, 0.335894, -2.08384, -2.16584, -0.129889, 0.468797, -0.542752, 0.332985, -2.08139, -2.16175, -0.127952, -0.000230219, 0.000886601, 6.53909e-05, -0.0101968, -0.00878216, -0.012195
0.0250879, 1.69132, -1.22886, -1.54048, -0.900597, -1.19241, 1.2275, -1.30252, -0.0093488, -0.00975612, -0.0210676, -0.00113337, 0.000486267, -0.00601819, 0.00164305, 0.0196001, 65.9177, 33.9313, 7.59277, 2.87952, 4.60025, -0.258107, 0.000247035, -0.00210126, 0.00305987, 0.00407452, 0.00262487, 0.000995397, 0.00934484, 0.00937533, -0.0133048, -0.0233257, -0.0108289, -0.018939, 0.471007, -0.543386, 0.335894, -2.08384, -2.16584, -0.129889, 0.468789, -0.542757, 0.332974, -2.08138, -2.16172, -0.127929, -0.000255341, 0.00098659, 7.35711e-05, -0.00976467, -0.00657466, -0.0142317
0.0260879, 1.69133, -1.22886, -1.54052, -0.900608, -1.19241, 1.22749, -1.30252, -0.00442512, -0.00600723, -0.0298286, -0.00571062, 0.00301739, -0.00992878, -0.00115205, -0.0914839, 64.8108, 33.4076, 7.51739, 2.65796, 4.47848, -0.186696, 0.000242058, -0.00210632, 0.00307718, 0.00412613, 0.00262045, 0.00100273, 0.00647087, 0.00761612, -0.0154319, -0.0358305, -0.00986953, -0.0106348, 0.471007, -0.543385, 0.335894, -2.08384, -2.16584, -0.12989, 0.468784, -0.542759, 0.332957, -2.08136, -2.1617, -0.127867, -0.00028183, 0.00109222, 8.22592e-05, -0.00821377, -0.00323237, -0.0159303
0.0270879, 1.69134, -1.22887, -1.54057, -0.900613, -1.19244, 1.22747, -1.30251, -0.00213949, -0.00308109, -0.0349868, -0.00338673, -0.00182245, -0.0149796, -0.000978576, -0.281914, 63.6325, 32.6658, 7.33093, 2.48035, 4.40707, -0.172963, 0.000234116, -0.0021145, 0.00310173, 0.00420226, 0.00261553, 0.0010266, 0.0074871, 0.00926492, -0.0157695, -0.0459968, -0.00516294, -0.0146611, 0.471007, -0.543384, 0.335894, -2.08384, -2.16584, -0.129891, 0.468775, -0.542762, 0.332932, -2.08135, -2.16164, -0.127776, -0.000309711, 0.0012036, 9.14692e-05, -0.00986417, -0.00413971, -0.0163625
0.0280879, 1.69134, -1.22889, -1.54064, -0.900624, -1.19247, 1.22744, -1.30251, -0.000362272, -0.00386855, -0.0444349, -0.00592335, -0.0115555, -0.0187739, -0.000428823, -0.357292, 62.5653, 31.9953, 7.18018, 2.33295, 4.34207, -0.172963, 0.000218286, -0.00213042, 0.00313924, 0.00430333, 0.00261428, 0.00106077, 0.0096242, 0.0111282, -0.020347, -0.0636444, 0.00116287, -0.0189293, 0.471007, -0.543383, 0.335894, -2.08384, -2.16584, -0.129891, 0.468758, -0.542772, 0.332893, -2.08133, -2.16157, -0.12766, -0.000339009, 0.00132085, 0.000101215, -0.0118431, -0.00550393, -0.0211482
0.0290879, 1.69135, -1.22892, -1.54071, -0.900628, -1.1925, 1.22742, -1.30252, 0.00183256, -0.00914196, -0.0556492, -0.00303987, -0.0200097, -0.0206562, -0.00300043, -0.468376, 61.756, 31.3605, 6.95801, 2.22217, 4.2496, -0.0951428, 0.000198671, -0.00214639, 0.00318807, 0.0044165, 0.0026205, 0.00109022, 0.0139145, 0.013704, -0.0272914, -0.0784439, 0.00257216, -0.02474, 0.471006, -0.543382, 0.335894, -2.08384, -2.16584, -0.129892, 0.46874, -0.542783, 0.332842, -2.0813, -2.16149, -0.127539, -0.000369746, 0.00144407, 0.00011151, -0.0145436, -0.00865267, -0.0285832
0.0300879, 1.69136, -1.22896, -1.54079, -0.900644, -1.19255, 1.2274, -1.30251, 0.00175643, -0.0152307, -0.064573, -0.00759772, -0.0288945, -0.0200006, -0.000687737, -0.508049, 61.0934, 30.579, 6.88263, 2.19104, 4.09854, -0.127186, 0.000179547, -0.00215938, 0.0032424, 0.00453689, 0.00262138, 0.0011235, 0.0169618, 0.0150573, -0.0345928, -0.0924871, 0.00522367, -0.0301808, 0.471006, -0.543381, 0.335894, -2.08384, -2.16584, -0.129893, 0.468726, -0.542793, 0.332786, -2.08127, -2.16141, -0.127404, -0.000401943, 0.00157338, 0.000122367, -0.016082, -0.0104633, -0.0362142
0.0310879, 1.69136, -1.229, -1.54089, -0.900658, -1.1926, 1.22737, -1.30251, 0.00222798, -0.0235443, -0.0740985, -0.0100104, -0.0349077, -0.0195863, 0.00109389, -0.43267, 60.6134, 29.9085, 6.77154, 2.1297, 3.94107, -0.166554, 0.000152183, -0.00218023, 0.00330702, 0.00467575, 0.00262725, 0.00117487, 0.020143, 0.0163692, -0.0431673, -0.105181, 0.00306231, -0.035708, 0.471006, -0.54338, 0.335895, -2.08384, -2.16584, -0.129894, 0.468703, -0.54281, 0.332718, -2.08124, -2.1613, -0.127252, -0.00043562, 0.00170887, 0.000133799, -0.0176216, -0.0122022, -0.0451235
0.0320879, 1.69138, -1.22905, -1.54098, -0.900673, -1.19267, 1.22735, -1.30251, 0.00867495, -0.0294745, -0.0820848, -0.0116768, -0.040249, -0.0189305, 0.00154598, -0.468376, 60.2087, 29.2777, 6.65649, 2.10498, 3.76895, -0.186696, 0.000125654, -0.00219668, 0.00337286, 0.00482245, 0.00261946, 0.00122, 0.0202558, 0.0141435, -0.0499841, -0.116385, 0.00288031, -0.0337366, 0.471005, -0.543378, 0.335895, -2.08383, -2.16584, -0.129895, 0.468685, -0.542825, 0.33265, -2.08122, -2.1612, -0.127078, -0.000470796, 0.00185063, 0.00014582, -0.015676, -0.0110314, -0.0519272
0.0330879, 1.69138, -1.22907, -1.54109, -0.900685, -1.19273, 1.22732, -1.30251, 0.00690294, -0.0260353, -0.0875719, -0.0122856, -0.0485966, -0.0253492, -0.00112034, -0.357292, 59.693, 28.754, 6.5097, 2.06836, 3.66092, -0.127186, 9.66113e-05, -0.00221998, 0.00342982, 0.0049752, 0.00259785, 0.00126793, 0.0228078, 0.0181272, -0.0504416, -0.130375, 0.0104719, -0.037671, 0.471005, -0.543376, 0.335895, -2.08383, -2.16584, -0.129896, 0.46866, -0.542844, 0.33259, -2.08119, -2.1611, -0.126883, -0.000507488, 0.00199877, 0.000158442, -0.0196166, -0.0134952, -0.0526424
0.0340879, 1.6914, -1.2291, -1.54119, -0.900696, -1.1928, 1.2273, -1.30251, 0.0114616, -0.0256211, -0.0900599, -0.0126358, -0.0493938, -0.0217432, 0.00521799, -0.357292, 59.324, 28.3097, 6.35895, 2.02533, 3.57577, -0.160145, 6.99847e-05, -0.002238, 0.00348656, 0.00512713, 0.00256973, 0.0013189, 0.021848, 0.0153403, -0.0510401, -0.130641, 0.0138503, -0.0405589, 0.471004, -0.543375, 0.335895, -2.08383, -2.16584, -0.129898, 0.468641, -0.54286, 0.332531, -2.08118, -2.161, -0.126683, -0.000545713, 0.00215336, 0.000171677, -0.0169274, -0.0121868, -0.0531552
0.0350879, 1.69142, -1.22912, -1.54129, -0.900708, -1.19287, 1.22728, -1.30251, 0.014882, -0.0205538, -0.0894168, -0.0097809, -0.0607701, -0.0245836, 0.00342582, -0.357292, 58.9908, 27.9011, 6.20819, 2.00702, 3.5181, -0.147328, 4.65064e-05, -0.00225316, 0.00353595, 0.00527656, 0.0025288, 0.00136226, 0.0226933, 0.0158093, -0.0478471, -0.136604, 0.0268087, -0.0413674, 0.471004, -0.543373, 0.335895, -2.08383, -2.16584, -0.129899, 0.468624, -0.542875, 0.332479, -2.08116, -2.16092, -0.126473, -0.000585484, 0.00231447, 0.000185536, -0.0172901, -0.0133708, -0.0501056
0.0360879, 1.69143, -1.22913, -1.5414, -0.900716, -1.19295, 1.22726, -1.30251, 0.0147402, -0.0191291, -0.096652, -0.00787418, -0.058823, -0.0221194, 0.00161694, -0.242241, 58.7726, 27.8257, 6.0614, 1.9704, 3.46774, -0.120778, 1.56538e-05, -0.00227414, 0.0035855, 0.00542855, 0.00247842, 0.00141852, 0.0247276, 0.0169215, -0.0490719, -0.138833, 0.0283293, -0.0440994, 0.471003, -0.54337, 0.335895, -2.08383, -2.16584, -0.129901, 0.468602, -0.542896, 0.332426, -2.08117, -2.16083, -0.126249, -0.000626814, 0.0024822, 0.000200032, -0.0184136, -0.0150683, -0.0515827
0.0370879, 1.69145, -1.22913, -1.54149, -0.900745, -1.19303, 1.22725, -1.30251, 0.0150058, -0.0121433, -0.0960375, -0.015501, -0.0621126, -0.0196342, 0.00506095, -0.131157, 58.5861, 27.6749, 6.17248, 1.93378, 3.40365, -0.0951428, -4.61765e-06, -0.00228459, 0.00362545, 0.00557423, 0.00240708, 0.00144617, 0.0226668, 0.0149709, -0.0455842, -0.140743, 0.0400507, -0.0414177, 0.471003, -0.543368, 0.335896, -2.08382, -2.16584, -0.129903, 0.46859, -0.542908, 0.332384, -2.08115, -2.16078, -0.126015, -0.000669715, 0.00265659, 0.000215176, -0.0164563, -0.0133164, -0.0478627
0.0380879, 1.69146, -1.22914, -1.54159, -0.900759, -1.19311, 1.22724, -1.3025, 0.017968, -0.00550686, -0.0926302, -0.0164996, -0.0689302, -0.014604, 0.00587599, 0.134651, 58.6258, 27.6749, 6.09711, 1.89075, 3.38168, -0.147328, -3.07522e-05, -0.00230019, 0.00366355, 0.00570875, 0.00234136, 0.00150083, 0.0217998, 0.0124145, -0.0403135, -0.136947, 0.0549078, -0.0390766, 0.471002, -0.543365, 0.335896, -2.08382, -2.16584, -0.129904, 0.468574, -0.542926, 0.332343, -2.08117, -2.16071, -0.125795, -0.000714195, 0.00283772, 0.000230977, -0.0137884, -0.012986, -0.042585
0.0390879, 1.69147, -1.22912, -1.54168, -0.900784, -1.19319, 1.22723, -1.3025, 0.0106832, 0.000578864, -0.0929107, -0.0176775, -0.0694216, -0.0128047, 0.00434426, 0.551216, 58.6258, 27.8257, 6.17248, 1.84131, 3.41739, -0.147328, -5.64729e-05, -0.00231805, 0.0036923, 0.0058427, 0.00225685, 0.00155008, 0.0246538, 0.0160913, -0.0364404, -0.13476, 0.062348, -0.0439918, 0.471001, -0.543363, 0.335896, -2.08382, -2.16584, -0.129906, 0.468555, -0.542945, 0.332311, -2.08119, -2.16065, -0.125558, -0.000760263, 0.00302564, 0.000247448, -0.0172646, -0.0163622, -0.0390763
0.0400879, 1.69147, -1.2291, -1.54175, -0.900818, -1.19327, 1.22722, -1.3025, 0.00897816, 0.00506807, -0.0843873, -0.0207436, -0.0734166, -0.0138473, 0.00128359, 0.963814, 58.6615, 27.9011, 6.35895, 1.76807, 3.52542, -0.0951428, -7.5188e-05, -0.002332, 0.00371318, 0.00597387, 0.00216551, 0.00157527, 0.0232031, 0.015538, -0.0311865, -0.130873, 0.069446, -0.0371254, 0.471001, -0.54336, 0.335896, -2.08381, -2.16584, -0.129908, 0.46854, -0.542958, 0.332288, -2.08119, -2.16063, -0.12532, -0.000807924, 0.0032204, 0.000264596, -0.0166218, -0.0155214, -0.0336629
0.0410879, 1.69148, -1.22908, -1.54183, -0.900846, -1.19334, 1.22721, -1.3025, 0.00736733, 0.00627078, -0.079823, -0.0232858, -0.0728246, -0.016046, 0.000587246, 1.41608, 58.8083, 28.1986, 6.43433, 1.71863, 3.68289, -0.0814099, -9.67419e-05, -0.00234888, 0.00373504, 0.00610176, 0.00208195, 0.00161174, 0.0219658, 0.0153847, -0.0293013, -0.12936, 0.0691663, -0.033289, 0.471, -0.543357, 0.335896, -2.08381, -2.16584, -0.129911, 0.468523, -0.542973, 0.332264, -2.0812, -2.16059, -0.125093, -0.000857184, 0.00342203, 0.000282433, -0.0164942, -0.014382, -0.0315962
0.0420879, 1.69147, -1.22906, -1.5419, -0.900879, -1.19342, 1.2272, -1.3025, 0.000403551, 0.0101576, -0.0746849, -0.0268681, -0.0725592, -0.0154013, 0.00155495, 1.98341, 59.0662, 28.4565, 6.58508, 1.68201, 3.79001, -0.10796, -0.000117719, -0.00236435, 0.00375156, 0.00621423, 0.00199317, 0.00165082, 0.0227961, 0.0174646, -0.0252512, -0.124459, 0.0731238, -0.0353717, 0.470999, -0.543353, 0.335897, -2.08381, -2.16584, -0.129913, 0.468506, -0.542989, 0.332245, -2.08122, -2.16055, -0.124877, -0.000908043, 0.00363059, 0.000300968, -0.0184464, -0.0157017, -0.0276448
0.0430879, 1.69147, -1.22905, -1.54197, -0.900905, -1.1935, 1.22719, -1.3025, -0.0026823, 0.00640285, -0.0720105, -0.0289449, -0.073249, -0.00882214, -0.000286344, 2.47535, 59.5462, 28.9048, 6.58508, 1.64447, 3.86233, -0.0685925, -0.000143308, -0.00238189, 0.00377452, 0.00632795, 0.00191195, 0.00168858, 0.0243802, 0.0170228, -0.026048, -0.117535, 0.073343, -0.0334728, 0.470998, -0.54335, 0.335897, -2.0838, -2.16584, -0.129916, 0.468488, -0.543008, 0.33222, -2.08124, -2.16051, -0.124667, -0.000960503, 0.00384608, 0.000320207, -0.0180297, -0.0169094, -0.0286717
0.0440879, 1.69147, -1.22904, -1.54203, -0.90093, -1.19358, 1.22719, -1.3025, -0.00352601, 0.00753892, -0.0701411, -0.0267381, -0.0738809, -0.00695725, -8.95839e-05, 2.92762, 60.0223, 29.3888, 6.54541, 1.63257, 3.89071, -0.0685925, -0.000168048, -0.00239772, 0.00379154, 0.00643298, 0.00182226, 0.00172823, 0.0254613, 0.0173644, -0.0241858, -0.113293, 0.0758216, -0.0356167, 0.470997, -0.543346, 0.335897, -2.0838, -2.16584, -0.129919, 0.468472, -0.543026, 0.3322, -2.08127, -2.16048, -0.124459, -0.00101456, 0.00406854, 0.000340161, -0.0183189, -0.0180548, -0.0269705
0.0450879, 1.69147, -1.22903, -1.54209, -0.900959, -1.19367, 1.22719, -1.30251, -0.00388534, 0.0107913, -0.0690552, -0.0251628, -0.0801333, -0.00570783, -0.00191652, 3.22913, 60.6134, 29.9085, 6.5097, 1.65729, 3.9191, -0.0164075, -0.000189629, -0.00240938, 0.00380887, 0.0065385, 0.00173145, 0.00175294, 0.0271634, 0.0182159, -0.0215201, -0.113088, 0.0848301, -0.0369969, 0.470996, -0.543342, 0.335898, -2.08379, -2.16583, -0.129921, 0.468459, -0.543041, 0.33218, -2.08128, -2.16046, -0.12425, -0.00107022, 0.00429798, 0.000360835, -0.0190678, -0.0199508, -0.0245563
0.0460879, 1.69148, -1.22902, -1.54213, -0.900984, -1.19376, 1.22718, -1.3025, 0.00129855, 0.00994833, -0.0591699, -0.0224095, -0.0871061, -0.00727775, 0.000712089, 3.41956, 61.3116, 30.3211, 6.39465, 1.73694, 4.01248, -0.0685925, -0.00020871, -0.00241956, 0.00382275, 0.00663826, 0.00164367, 0.00178377, 0.025167, 0.0151776, -0.0185169, -0.108623, 0.0884958, -0.0343239, 0.470995, -0.543338, 0.335898, -2.08379, -2.16583, -0.129925, 0.468448, -0.543054, 0.332164, -2.0813, -2.16044, -0.124051, -0.00112746, 0.0045344, 0.000382238, -0.0160537, -0.0180815, -0.0213512
0.0470879, 1.69148, -1.229, -1.54219, -0.900996, -1.19385, 1.22716, -1.3025, 0.00166882, 0.0112318, -0.0599456, -0.0162965, -0.091174, -0.00937206, 0.00122954, 3.60603, 62.0139, 30.9519, 6.09711, 1.81018, 4.13424, -0.0878186, -0.000236259, -0.00243806, 0.00383724, 0.00674524, 0.00155257, 0.00183377, 0.027688, 0.0172912, -0.017366, -0.110061, 0.0918707, -0.041423, 0.470994, -0.543333, 0.335898, -2.08379, -2.16583, -0.129928, 0.468429, -0.543075, 0.332146, -2.08134, -2.1604, -0.123838, -0.00118629, 0.0047778, 0.000404375, -0.0180916, -0.0205906, -0.0205204
0.0480879, 1.69149, -1.229, -1.54223, -0.901013, -1.19394, 1.22714, -1.3025, 0.00329524, 0.00634362, -0.0557313, -0.0178631, -0.0911006, -0.0118507, 0.000377034, 3.72108, 62.7875, 31.4002, 5.91064, 1.92096, 4.28531, -0.0750012, -0.000258193, -0.00245117, 0.00385079, 0.00684558, 0.0014676, 0.00186817, 0.0260582, 0.0155891, -0.0192439, -0.109891, 0.085908, -0.0352755, 0.470993, -0.543328, 0.335899, -2.08378, -2.16583, -0.129931, 0.468415, -0.543091, 0.33213, -2.08136, -2.16037, -0.123641, -0.00124669, 0.00502817, 0.000427252, -0.0165782, -0.0183723, -0.0221501
0.0490879, 1.69149, -1.22899, -1.54227, -0.901032, -1.19404, 1.22713, -1.3025, 0.00343996, 0.00420381, -0.0535675, -0.0178094, -0.0992356, -0.0126874, -0.00165738, 3.87183, 63.6325, 31.8842, 5.79956, 2.00061, 4.4144, -0.0228162, -0.000283359, -0.00246754, 0.00386766, 0.00695139, 0.00138388, 0.0019016, 0.0275391, 0.0161193, -0.0197823, -0.112686, 0.0901637, -0.0346027, 0.470992, -0.543323, 0.335899, -2.08377, -2.16583, -0.129935, 0.468398, -0.543109, 0.332111, -2.08137, -2.16034, -0.123439, -0.00130866, 0.00528549, 0.000450875, -0.0171361, -0.0195158, -0.0228722
0.0500879, 1.6915, -1.22898, -1.54231, -0.901045, -1.19414, 1.22712, -1.3025, 0.00551761, 0.0062842, -0.050098, -0.016823, -0.0952046, -0.0097851, 0.000371172, 3.79646, 64.295, 32.2928, 5.6488, 2.06836, 4.4501, -0.0621838, -0.000304261, -0.00247559, 0.00387762, 0.00704357, 0.00128823, 0.00193506, 0.0257753, 0.0135541, -0.0170301, -0.104919, 0.0904329, -0.0322932, 0.47099, -0.543318, 0.3359, -2.08377, -2.16583, -0.129939, 0.468389, -0.543123, 0.332098, -2.0814, -2.16032, -0.123241, -0.00137217, 0.00554973, 0.000475247, -0.0146014, -0.0178289, -0.0199338
0.0510879, 1.6915, -1.22898, -1.54235, -0.901058, -1.19424, 1.22711, -1.30249, 0.00711195, 0.00171936, -0.0499939, -0.0170609, -0.0972597, -0.00812039, 0.00148167, 3.83216, 64.9973, 32.6658, 5.53772, 2.13611, 4.49313, -0.0951428, -0.000330581, -0.00248853, 0.00388832, 0.00713408, 0.00119116, 0.00197776, 0.0262492, 0.0123795, -0.0196267, -0.105076, 0.0887645, -0.0319749, 0.470989, -0.543313, 0.3359, -2.08376, -2.16583, -0.129943, 0.468375, -0.543142, 0.332084, -2.08144, -2.16029, -0.123042, -0.00143722, 0.00582086, 0.000500373, -0.0135702, -0.0175776, -0.0225817
0.0520879, 1.6915, -1.22897, -1.54238, -0.901081, -1.19435, 1.2271, -1.30249, 0.0031363, 0.00207898, -0.0451179, -0.017622, -0.0981669, -0.00911208, 0.000251941, 3.94721, 65.6241, 32.9633, 5.57739, 2.20386, 4.59292, -0.0750012, -0.000356842, -0.00250508, 0.00389831, 0.0072332, 0.00109296, 0.00201348, 0.0271583, 0.0138567, -0.0176194, -0.101698, 0.0892783, -0.0319611, 0.470987, -0.543307, 0.335901, -2.08376, -2.16583, -0.129947, 0.468358, -0.543161, 0.332072, -2.08147, -2.16027, -0.122833, -0.00150377, 0.00609884, 0.000526256, -0.0150069, -0.0185666, -0.0206705
0.0530879, 1.6915, -1.22896, -1.54242, -0.901098, -1.19446, 1.22708, -1.3025, 0.00523085, 0.00199939, -0.0424444, -0.0144794, -0.103886, -0.0106203, -0.00151985, 3.98292, 66.1755, 33.2966, 5.6131, 2.2652, 4.7156, -0.0292249, -0.000385406, -0.00252164, 0.00391314, 0.0073392, 0.000995782, 0.00205066, 0.0278758, 0.0137725, -0.0164964, -0.102166, 0.0930704, -0.0313077, 0.470986, -0.543301, 0.335901, -2.08375, -2.16583, -0.129951, 0.46834, -0.543182, 0.332053, -2.0815, -2.16024, -0.122618, -0.00157182, 0.00638361, 0.000552899, -0.0149247, -0.0191596, -0.0196491
0.0540879, 1.69151, -1.22895, -1.54245, -0.901122, -1.19457, 1.22707, -1.3025, 0.00922808, 0.00208521, -0.0389969, -0.0166983, -0.103371, -0.0113201, -2.41863e-05, 3.90754, 66.5802, 33.5584, 5.72418, 2.32013, 4.83005, -0.0557752, -0.000406485, -0.00253094, 0.00392325, 0.00744553, 0.000890826, 0.00207911, 0.0248466, 0.0104335, -0.0157793, -0.101171, 0.0928226, -0.0248926, 0.470984, -0.543294, 0.335902, -2.08374, -2.16583, -0.129956, 0.46833, -0.543195, 0.332041, -2.08152, -2.16023, -0.122395, -0.00164135, 0.0066751, 0.000580303, -0.011742, -0.0158512, -0.018544
0.0550879, 1.69151, -1.22894, -1.54248, -0.901142, -1.19468, 1.22705, -1.3025, 0.00530321, 0.00666067, -0.0369889, -0.0222078, -0.106123, -0.0091415, -1.18453e-05, 3.98292, 66.8738, 33.7052, 5.87494, 2.33844, 4.87308, -0.0557752, -0.000433372, -0.0025454, 0.00393042, 0.00754304, 0.000781993, 0.00211654, 0.0251922, 0.0109858, -0.0127197, -0.100405, 0.10126, -0.0237987, 0.470983, -0.543288, 0.335902, -2.08374, -2.16583, -0.12996, 0.468314, -0.543214, 0.332031, -2.08155, -2.16021, -0.122178, -0.00171231, 0.00697325, 0.000608468, -0.0122416, -0.0163879, -0.015532
0.0560879, 1.69152, -1.22893, -1.54251, -0.901169, -1.19479, 1.22705, -1.3025, 0.00422127, 0.00476546, -0.0375483, -0.0247042, -0.10673, -0.00582385, -0.000750673, 3.98292, 67.1317, 33.7806, 6.09711, 2.32013, 4.86575, -0.0356336, -0.000456521, -0.00255321, 0.00394016, 0.00763643, 0.00067409, 0.0021419, 0.0259962, 0.0105024, -0.0140099, -0.0994545, 0.102061, -0.0221599, 0.470981, -0.543281, 0.335903, -2.08373, -2.16582, -0.129965, 0.468305, -0.543229, 0.332018, -2.08158, -2.16021, -0.121968, -0.00178469, 0.00727797, 0.000637396, -0.011849, -0.0166583, -0.0169166
0.0570879, 1.69152, -1.22892, -1.54254, -0.901193, -1.1949, 1.22704, -1.3025, 0.00963772, 0.00154215, -0.031066, -0.0253717, -0.110746, -0.00856537, -0.00097276, 3.98292, 67.3181, 33.8202, 6.28357, 2.25238, 4.86575, -0.0228162, -0.000481204, -0.0025631, 0.00394995, 0.00772865, 0.000570941, 0.00216707, 0.0231754, 0.00699569, -0.0141974, -0.0994522, 0.100952, -0.0139626, 0.470979, -0.543273, 0.335904, -2.08372, -2.16582, -0.129971, 0.468294, -0.543245, 0.332006, -2.0816, -2.1602, -0.121764, -0.00185846, 0.00758918, 0.000667086, -0.00852831, -0.0133898, -0.0167398
0.0580879, 1.69153, -1.22892, -1.54258, -0.901212, -1.19502, 1.22702, -1.30249, 0.00993513, 0.00502541, -0.0312132, -0.0260989, -0.114321, -0.0131604, 0.00128608, 3.87183, 67.5006, 33.9313, 6.35895, 2.19745, 4.92984, -0.0750012, -0.000507353, -0.00257359, 0.00396646, 0.00783839, 0.000469517, 0.00220726, 0.023088, 0.00793941, -0.0126854, -0.10532, 0.105517, -0.016422, 0.470977, -0.543266, 0.335904, -2.08371, -2.16582, -0.129976, 0.468282, -0.543261, 0.331987, -2.08163, -2.16018, -0.121541, -0.00193359, 0.00790677, 0.000697537, -0.00949439, -0.0132574, -0.0151746
0.0590879, 1.69155, -1.22892, -1.54261, -0.901227, -1.19514, 1.227, -1.30249, 0.0122445, 0.00669236, -0.0288745, -0.0250755, -0.11209, -0.0176701, 0.00085874, 3.79646, 67.576, 33.9313, 6.35895, 2.13611, 5.02322, -0.0750012, -0.000532843, -0.00258561, 0.00397809, 0.00794656, 0.000367717, 0.00224168, 0.0211469, 0.00699606, -0.0112215, -0.105866, 0.103311, -0.0125723, 0.470975, -0.543258, 0.335905, -2.0837, -2.16582, -0.129982, 0.468268, -0.543277, 0.331972, -2.08165, -2.16015, -0.12132, -0.00201003, 0.00823062, 0.000728745, -0.00864527, -0.011204, -0.013425
0.0600879, 1.69155, -1.22892, -1.54264, -0.901235, -1.19526, 1.22698, -1.3025, 0.0122114, 0.00282153, -0.0304242, -0.0188293, -0.110684, -0.0202909, -0.00112191, 3.79646, 67.7228, 33.9313, 6.24786, 2.08667, 5.10196, -0.0292249, -0.000563337, -0.00260065, 0.00399466, 0.00805243, 0.000275068, 0.00228015, 0.0234671, 0.00887405, -0.0133805, -0.106187, 0.0969126, -0.016074, 0.470973, -0.54325, 0.335906, -2.08369, -2.16582, -0.129988, 0.468252, -0.543297, 0.331952, -2.08167, -2.16012, -0.121111, -0.00208776, 0.00856062, 0.000760709, -0.0105934, -0.0129088, -0.0158286
0.0610879, 1.69157, -1.22893, -1.54267, -0.901259, -1.19538, 1.22696, -1.3025, 0.0178703, -0.000207426, -0.0317755, -0.0189169, -0.107282, -0.0196624, -0.00196788, 3.6814, 67.8696, 33.9313, 6.32324, 2.06195, 5.10928, 0.00373412, -0.000585456, -0.00260506, 0.00401596, 0.008164, 0.000182346, 0.00229544, 0.0212249, 0.00529675, -0.0158724, -0.106395, 0.0920739, -0.00878652, 0.470971, -0.543241, 0.335906, -2.08369, -2.16582, -0.129994, 0.468245, -0.543307, 0.331929, -2.08167, -2.16011, -0.120898, -0.00216672, 0.00889664, 0.000793423, -0.00727005, -0.00982869, -0.0180162
0.0620879, 1.69159, -1.22893, -1.5427, -0.901278, -1.1955, 1.22694, -1.30249, 0.0160691, 3.54177e-05, -0.0298399, -0.0210632, -0.10862, -0.0175116, 0.00113006, 3.6814, 67.9053, 33.9313, 6.35895, 2.05005, 5.06625, -0.0621838, -0.000612019, -0.00261381, 0.00403323, 0.0082747, 7.97115e-05, 0.0023327, 0.0217994, 0.00517992, -0.0150336, -0.104154, 0.0948682, -0.0110732, 0.470969, -0.543232, 0.335907, -2.08368, -2.16582, -0.13, 0.468235, -0.543322, 0.331909, -2.08169, -2.16009, -0.120674, -0.0022469, 0.00923859, 0.000826888, -0.00718262, -0.0101782, -0.0172475
0.0630879, 1.69161, -1.22894, -1.54274, -0.901296, -1.19562, 1.22692, -1.30249, 0.0198194, -0.00181815, -0.0298992, -0.0217642, -0.110102, -0.0218469, 0.00122852, 3.60603, 68.0164, 33.8559, 6.35895, 2.03815, 5.05252, -0.0750012, -0.000636087, -0.00261959, 0.0040536, 0.0083887, -1.58067e-05, 0.00235772, 0.0203051, 0.00378909, -0.016786, -0.109713, 0.0926651, -0.00711518, 0.470967, -0.543223, 0.335908, -2.08367, -2.16581, -0.130006, 0.468227, -0.543334, 0.331886, -2.08169, -2.16007, -0.120455, -0.00232828, 0.00958644, 0.000861108, -0.0059918, -0.00802798, -0.0187535
0.0640879, 1.69162, -1.22895, -1.54277, -0.90131, -1.19575, 1.2269, -1.30249, 0.0190229, -0.00324304, -0.0327772, -0.0207286, -0.11209, -0.022025, 0.00156532, 3.6814, 68.1274, 33.8917, 6.28357, 2.06195, 5.0809, -0.0951428, -0.000666048, -0.00263269, 0.00407697, 0.00850849, -0.00010473, 0.00239812, 0.0224224, 0.00514467, -0.0184435, -0.112799, 0.0932426, -0.0109245, 0.470965, -0.543213, 0.335909, -2.08366, -2.16581, -0.130013, 0.468212, -0.543351, 0.331859, -2.08171, -2.16003, -0.120235, -0.00241084, 0.00994017, 0.000896084, -0.00741222, -0.00956448, -0.0206434
0.0650879, 1.69164, -1.22895, -1.54281, -0.901336, -1.19587, 1.22686, -1.3025, 0.0203925, -0.00451168, -0.0321728, -0.0235205, -0.113967, -0.0276512, -0.00139762, 3.6814, 68.1274, 33.8202, 6.35895, 2.09308, 5.13766, -0.0292249, -0.000687534, -0.00263996, 0.00409555, 0.00863598, -0.000202421, 0.00240991, 0.021128, 0.00479625, -0.0198922, -0.119653, 0.0913635, -0.00424678, 0.470962, -0.543204, 0.33591, -2.08365, -2.16581, -0.13002, 0.468202, -0.543359, 0.331839, -2.08169, -2.16002, -0.120001, -0.00249458, 0.0102997, 0.000931821, -0.0072467, -0.00768942, -0.0218476
0.0660879, 1.69165, -1.22894, -1.54284, -0.901354, -1.19598, 1.22683, -1.3025, 0.0198244, 0.000513843, -0.0328543, -0.0228967, -0.113257, -0.0312963, -0.00116893, 3.75678, 67.9807, 33.7806, 6.32324, 2.09308, 5.17428, -0.0228162, -0.000712206, -0.00265236, 0.00410821, 0.00875919, -0.00030176, 0.00244075, 0.0210944, 0.00598461, -0.0173468, -0.122253, 0.0943525, -0.00555037, 0.47096, -0.543193, 0.335911, -2.08363, -2.16581, -0.130028, 0.468188, -0.543372, 0.331824, -2.0817, -2.15999, -0.119768, -0.00257947, 0.0106651, 0.000968322, -0.00842757, -0.00773166, -0.019257
0.0670879, 1.69167, -1.22894, -1.54288, -0.901373, -1.1961, 1.2268, -1.30249, 0.0154774, -0.00042669, -0.0355104, -0.0203064, -0.114231, -0.0267729, -6.7071e-05, 3.87183, 68.0164, 33.7052, 6.32324, 2.10498, 5.14499, -0.0420422, -0.000738751, -0.00266242, 0.00412677, 0.00888023, -0.000399107, 0.00247222, 0.0254614, 0.00867197, -0.0178321, -0.119257, 0.0966583, -0.0145375, 0.470957, -0.543183, 0.335912, -2.08362, -2.16581, -0.130035, 0.468175, -0.543385, 0.331802, -2.0817, -2.15997, -0.119539, -0.00266552, 0.0110363, 0.00100559, -0.0110585, -0.0117069, -0.0202965
0.0680879, 1.69169, -1.22893, -1.54292, -0.901397, -1.19622, 1.22677, -1.30249, 0.0174287, 0.0106539, -0.0394242, -0.0182742, -0.112586, -0.0226907, 0.00117609, 3.90754, 67.7942, 33.7052, 6.32324, 2.07477, 5.08822, -0.0750012, -0.000759864, -0.00266908, 0.00413727, 0.00900319, -0.00050831, 0.0024968, 0.025479, 0.00791895, -0.0121358, -0.116746, 0.108931, -0.0169481, 0.470954, -0.543172, 0.335913, -2.08361, -2.1658, -0.130043, 0.468166, -0.543393, 0.33179, -2.08171, -2.15995, -0.119298, -0.00275269, 0.0114132, 0.00104363, -0.010187, -0.0121941, -0.0146596
0.0690879, 1.69171, -1.22891, -1.54296, -0.901416, -1.19633, 1.22674, -1.30249, 0.0187616, 0.0136462, -0.0384548, -0.0190624, -0.11222, -0.027881, -0.00114864, 3.94721, 67.5363, 33.6695, 6.28357, 2.05646, 5.00216, -0.0228162, -0.000783125, -0.00267776, 0.00414514, 0.0091279, -0.000624421, 0.00252096, 0.0239547, 0.00771309, -0.0106304, -0.120536, 0.109501, -0.0118595, 0.470952, -0.54316, 0.335914, -2.0836, -2.1658, -0.130051, 0.468156, -0.543404, 0.33178, -2.08171, -2.15994, -0.119048, -0.00284098, 0.0117958, 0.00108244, -0.0100698, -0.0105301, -0.012904
0.0700879, 1.69173, -1.2289, -1.54299, -0.901434, -1.19645, 1.2267, -1.30249, 0.0165759, 0.0129147, -0.0398072, -0.0187725, -0.111409, -0.033934, 0.000183731, 3.98292, 67.3895, 33.5941, 6.20819, 2.02533, 4.97287, -0.0484509, -0.0008059, -0.00268461, 0.00415623, 0.00924809, -0.000729922, 0.00254868, 0.0249557, 0.0101793, -0.0118788, -0.126158, 0.105524, -0.0157293, 0.470949, -0.543148, 0.335915, -2.08359, -2.1658, -0.130059, 0.468146, -0.543413, 0.331767, -2.08172, -2.15992, -0.118813, -0.00293038, 0.0121842, 0.00112203, -0.0126314, -0.0110386, -0.0141785
0.0710879, 1.69176, -1.22887, -1.54303, -0.901451, -1.19657, 1.22666, -1.30249, 0.0230631, 0.0166, -0.0378479, -0.0187109, -0.111283, -0.03524, 0.00110587, 3.94721, 67.0602, 33.5187, 6.13678, 2.00061, 4.97287, -0.0750012, -0.000825227, -0.00269112, 0.00416177, 0.00938085, -0.000846013, 0.00257238, 0.0215979, 0.00641594, -0.00943142, -0.126154, 0.108977, -0.00915121, 0.470946, -0.543136, 0.335916, -2.08357, -2.1658, -0.130068, 0.468137, -0.54342, 0.33176, -2.08172, -2.15991, -0.118555, -0.00302087, 0.0125781, 0.0011624, -0.0089952, -0.0075526, -0.0113135
0.0720879, 1.69179, -1.22886, -1.54306, -0.901461, -1.19669, 1.22661, -1.30249, 0.0277882, 0.0138809, -0.0388746, -0.0138002, -0.1111, -0.0322271, 0.000974641, 3.90754, 66.9492, 33.4076, 5.98602, 1.97681, 4.99484, -0.0814099, -0.000846771, -0.00269808, 0.00417268, 0.00950803, -0.000945935, 0.00259386, 0.0221033, 0.00434407, -0.0106715, -0.122959, 0.107848, -0.00876519, 0.470943, -0.543124, 0.335917, -2.08356, -2.16579, -0.130077, 0.468128, -0.543427, 0.331747, -2.08171, -2.15989, -0.118319, -0.00311245, 0.0129778, 0.00120355, -0.00704426, -0.00737551, -0.0126381
0.0730879, 1.69181, -1.22886, -1.5431, -0.901467, -1.19681, 1.22657, -1.30249, 0.0270028, 0.0139703, -0.039776, -0.00958186, -0.115964, -0.0373831, -0.00175771, 3.90754, 66.8738, 33.4473, 5.79956, 1.96399, 4.96646, -0.0164075, -0.00087421, -0.00270795, 0.00418761, 0.00963714, -0.00104819, 0.00262323, 0.0247105, 0.00731069, -0.0107195, -0.128341, 0.109456, -0.0123168, 0.47094, -0.543111, 0.335918, -2.08355, -2.16579, -0.130086, 0.468115, -0.543439, 0.331729, -2.08171, -2.15987, -0.118079, -0.00320508, 0.013383, 0.00124549, -0.0100078, -0.00965828, -0.0129595
0.0740879, 1.69184, -1.22885, -1.54313, -0.901479, -1.19693, 1.22653, -1.30249, 0.0300535, 0.0113379, -0.0378367, -0.00917242, -0.115854, -0.0361191, 1.50039e-05, 3.87183, 66.8024, 33.3719, 5.72418, 1.97681, 4.92984, -0.0484509, -0.000896651, -0.00271221, 0.00419953, 0.0097608, -0.0011531, 0.0026487, 0.0238468, 0.00497405, -0.0115473, -0.125964, 0.107774, -0.0101451, 0.470937, -0.543097, 0.33592, -2.08353, -2.16579, -0.130095, 0.468108, -0.543446, 0.331715, -2.08171, -2.15985, -0.117843, -0.00329877, 0.0137938, 0.00128822, -0.00782876, -0.0081712, -0.0136706
0.0750879, 1.69188, -1.22884, -1.54317, -0.901483, -1.19705, 1.2265, -1.30248, 0.0334357, 0.00958734, -0.0366891, -0.00713444, -0.115778, -0.0335871, 0.00146808, 3.79646, 66.727, 33.4473, 5.57739, 1.97681, 4.84378, -0.0878186, -0.000922765, -0.00271771, 0.00421541, 0.00988904, -0.00125662, 0.00268331, 0.0235458, 0.00274234, -0.0118176, -0.1224, 0.107551, -0.00915622, 0.470933, -0.543083, 0.335921, -2.08352, -2.16579, -0.130105, 0.4681, -0.543456, 0.331697, -2.08172, -2.15982, -0.117602, -0.00339351, 0.0142102, 0.00133174, -0.00571518, -0.00732425, -0.0139149
0.0760879, 1.69191, -1.22884, -1.5432, -0.901489, -1.19717, 1.22646, -1.30248, 0.03205, 0.00659067, -0.0337633, -0.00510906, -0.11574, -0.0273559, 0.00074137, 3.75678, 66.727, 33.4473, 5.53772, 1.98871, 4.76504, -0.0814099, -0.000946925, -0.00272103, 0.00423123, 0.0100111, -0.00135428, 0.00270583, 0.0254965, 0.00217226, -0.0116253, -0.113459, 0.107665, -0.00980198, 0.47093, -0.543069, 0.335922, -2.0835, -2.16578, -0.130115, 0.468093, -0.543463, 0.331679, -2.08171, -2.1598, -0.117376, -0.00348927, 0.0146321, 0.00137605, -0.00516457, -0.00883406, -0.0140015
0.0770879, 1.69194, -1.22885, -1.54324, -0.901481, -1.1973, 1.22642, -1.30249, 0.0350991, 0.00370789, -0.0388695, -4.93846e-06, -0.116065, -0.0277646, 0.00408795, 3.6814, 66.7627, 33.483, 5.35126, 2.01343, 4.69363, -0.0484509, -0.000976915, -0.00272742, 0.00424824, 0.0101299, -0.00145074, 0.00273953, 0.0274307, 0.00249129, -0.0145837, -0.116702, 0.105326, -0.01683, 0.470926, -0.543055, 0.335924, -2.08349, -2.16578, -0.130125, 0.468084, -0.543476, 0.331659, -2.08172, -2.15977, -0.117153, -0.00358604, 0.0150594, 0.00142116, -0.00561753, -0.00987277, -0.017169
0.0780879, 1.69198, -1.22884, -1.54327, -0.901485, -1.19743, 1.22638, -1.30248, 0.0340436, 0.00341915, -0.0344373, -0.00155895, -0.116878, -0.0290045, 0.00434721, 3.60603, 66.727, 33.4473, 5.38696, 2.06195, 4.64328, -0.0814099, -0.00100132, -0.00272875, 0.00426204, 0.0102528, -0.00155747, 0.00276536, 0.0270168, 0.00218083, -0.0134224, -0.114841, 0.105378, -0.0146378, 0.470923, -0.543039, 0.335925, -2.08347, -2.16578, -0.130135, 0.468079, -0.543483, 0.331643, -2.08172, -2.15975, -0.116917, -0.00368381, 0.0154923, 0.00146708, -0.00537798, -0.00919745, -0.0159217
0.0790879, 1.69203, -1.22884, -1.5433, -0.901484, -1.19755, 1.22635, -1.30248, 0.0370778, 0.00319865, -0.0321052, -0.00157964, -0.117677, -0.0235099, 0.00418239, 3.49494, 66.6913, 33.4473, 5.38696, 2.08667, 4.54989, -0.10796, -0.00102606, -0.00272704, 0.00427449, 0.0103639, -0.00166443, 0.00279021, 0.0263804, -0.000947835, -0.0123844, -0.108862, 0.108973, -0.0103055, 0.470919, -0.543024, 0.335926, -2.08345, -2.16578, -0.130146, 0.468078, -0.54349, 0.331629, -2.08172, -2.15974, -0.116694, -0.00378258, 0.0159305, 0.0015138, -0.00233731, -0.00816238, -0.014846
0.0800879, 1.69207, -1.22884, -1.54334, -0.901482, -1.19768, 1.22633, -1.30248, 0.038546, 0.00219543, -0.0362696, -0.00238636, -0.116368, -0.0236706, 0.00179323, 3.41956, 66.6913, 33.5584, 5.42664, 2.08667, 4.44278, -0.0750012, -0.00105579, -0.00272685, 0.00428939, 0.0104759, -0.00177874, 0.00281973, 0.0266193, -0.00142855, -0.0146215, -0.112698, 0.107681, -0.0070113, 0.470915, -0.543008, 0.335928, -2.08344, -2.16577, -0.130157, 0.468075, -0.543501, 0.331611, -2.08173, -2.15972, -0.116462, -0.00388232, 0.0163742, 0.00156132, -0.00202929, -0.00758936, -0.0170593
0.0810879, 1.69211, -1.22884, -1.54337, -0.901476, -1.1978, 1.22631, -1.30249, 0.0374636, 0.000675653, -0.0331647, 0.000347043, -0.120888, -0.021068, -0.000330673, 3.30451, 66.727, 33.5584, 5.46234, 2.10498, 4.3851, -0.0292249, -0.00108262, -0.00272394, 0.00430352, 0.0105846, -0.00188634, 0.00283619, 0.0290221, -0.000839272, -0.0137206, -0.108461, 0.111159, -0.00804349, 0.470911, -0.542992, 0.335929, -2.08342, -2.16577, -0.130169, 0.468074, -0.543508, 0.331594, -2.08173, -2.15972, -0.116242, -0.00398302, 0.0168232, 0.00160966, -0.0025995, -0.00967525, -0.0164778
0.0820879, 1.69215, -1.22885, -1.5434, -0.901473, -1.19793, 1.22629, -1.30248, 0.0378157, -0.00211258, -0.0350551, 0.00169802, -0.123348, -0.0199145, 0.0023479, 3.26881, 66.8381, 33.5941, 5.53772, 2.09949, 4.34939, -0.0951428, -0.00111333, -0.00272178, 0.00432394, 0.0106936, -0.00199049, 0.00287389, 0.0309778, -0.000464382, -0.0157276, -0.109874, 0.111492, -0.012927, 0.470907, -0.542975, 0.335931, -2.0834, -2.16577, -0.13018, 0.468073, -0.543519, 0.331571, -2.08175, -2.1597, -0.116024, -0.00408468, 0.0172776, 0.00165881, -0.00307788, -0.010857, -0.0187037
0.0830879, 1.6922, -1.22885, -1.54344, -0.901473, -1.19805, 1.22626, -1.30248, 0.0382096, -0.00138181, -0.0340829, -0.0011783, -0.120181, -0.0195639, 0.00237255, 3.22913, 66.8381, 33.6695, 5.6488, 2.06836, 4.33566, -0.114369, -0.00114053, -0.00271786, 0.00433979, 0.0108035, -0.00209908, 0.00289826, 0.0295613, -0.00199581, -0.0153179, -0.108564, 0.110503, -0.00824066, 0.470903, -0.542958, 0.335933, -2.08338, -2.16576, -0.130192, 0.468073, -0.543525, 0.331552, -2.08175, -2.15968, -0.115802, -0.00418727, 0.0177373, 0.00170878, -0.00168697, -0.0089988, -0.0180756
0.0840879, 1.69225, -1.22886, -1.54347, -0.901472, -1.19817, 1.22625, -1.30248, 0.0426405, -0.00433495, -0.0328094, 0.000765762, -0.125871, -0.0194925, -4.23131e-05, 3.15376, 66.9849, 33.5941, 5.72418, 2.03174, 4.32834, -0.0685925, -0.00116587, -0.00270847, 0.00435763, 0.0109002, -0.00219936, 0.00290668, 0.0297841, -0.00378609, -0.0165243, -0.11002, 0.112656, -0.00408055, 0.470899, -0.54294, 0.335934, -2.08336, -2.16576, -0.130204, 0.468078, -0.54353, 0.331532, -2.08174, -2.15969, -0.115604, -0.00429078, 0.0182023, 0.00175956, -3.81313e-05, -0.00849358, -0.0193052
0.0850879, 1.69229, -1.22887, -1.5435, -0.901463, -1.19829, 1.22624, -1.30248, 0.0419252, -0.00463825, -0.0366114, 0.00400085, -0.122808, -0.0127854, -0.000449372, 3.11805, 67.0602, 33.7052, 5.72418, 2.02533, 4.27066, -0.0557752, -0.00119808, -0.00270214, 0.0043751, 0.0109949, -0.00231067, 0.00293343, 0.0324416, -0.00365081, -0.0169559, -0.104442, 0.113609, -0.00768141, 0.470895, -0.542922, 0.335936, -2.08334, -2.16576, -0.130217, 0.468081, -0.54354, 0.331512, -2.08176, -2.15969, -0.115397, -0.00439521, 0.0186725, 0.00181117, -0.000197686, -0.0105853, -0.0200897
0.0860879, 1.69235, -1.22888, -1.54354, -0.901466, -1.19841, 1.22624, -1.30248, 0.0452711, -0.0138627, -0.0365227, 0.000639826, -0.125051, -0.012797, 0.00069002, 3.04267, 67.2784, 33.7052, 5.83527, 2.01984, 4.2203, -0.0814099, -0.00122275, -0.00268689, 0.0043976, 0.0110872, -0.00241024, 0.00294206, 0.0317148, -0.00629437, -0.0229673, -0.108273, 0.107186, -0.00276189, 0.47089, -0.542903, 0.335938, -2.08332, -2.16575, -0.13023, 0.468092, -0.543542, 0.331487, -2.08175, -2.15969, -0.115205, -0.00450054, 0.019148, 0.0018636, 0.00209324, -0.00835524, -0.02594
0.0870879, 1.6924, -1.2289, -1.54357, -0.901471, -1.19852, 1.22624, -1.30248, 0.0489879, -0.0149035, -0.0337323, -0.00267164, -0.121596, -0.00949754, -0.000221939, 2.92762, 67.5006, 33.7052, 5.98602, 2.00061, 4.20657, -0.0621838, -0.00124668, -0.00266844, 0.0044213, 0.0111743, -0.00250882, 0.00294423, 0.0287563, -0.0107246, -0.0229418, -0.103543, 0.105716, 0.00755667, 0.470886, -0.542884, 0.33594, -2.0833, -2.16575, -0.130243, 0.468106, -0.543542, 0.331461, -2.08173, -2.15971, -0.115022, -0.00460676, 0.0196287, 0.00191686, 0.00630611, -0.00477522, -0.0255354
0.0880879, 1.69245, -1.22891, -1.5436, -0.901467, -1.19864, 1.22624, -1.30247, 0.0479981, -0.0128826, -0.0355408, -0.00145988, -0.120185, -0.00716658, 0.00082407, 2.96729, 67.6117, 33.7449, 5.98602, 2.01984, 4.19925, -0.0878186, -0.00127956, -0.00265863, 0.00443982, 0.0112565, -0.00261816, 0.00297083, 0.0301981, -0.0102137, -0.0219419, -0.101503, 0.108234, 0.00434954, 0.470881, -0.542864, 0.335942, -2.08328, -2.16574, -0.130257, 0.468111, -0.543551, 0.331439, -2.08175, -2.15971, -0.114831, -0.00471385, 0.0201145, 0.00197095, 0.00577701, -0.00588749, -0.0247036
0.0890879, 1.69251, -1.22894, -1.54364, -0.901471, -1.19876, 1.22624, -1.30248, 0.0511379, -0.0174804, -0.035867, -0.000314136, -0.118945, -0.00611596, -0.00136646, 2.85224, 67.9807, 33.7449, 6.09711, 2.02533, 4.21298, -0.0356336, -0.00130612, -0.00264015, 0.00447112, 0.0113502, -0.00270997, 0.00296796, 0.0299953, -0.0121685, -0.0246539, -0.100594, 0.103711, 0.00931773, 0.470877, -0.542844, 0.335944, -2.08326, -2.16574, -0.13027, 0.468125, -0.543552, 0.331406, -2.08172, -2.15972, -0.114648, -0.00482181, 0.0206055, 0.00202587, 0.00751573, -0.00469642, -0.0273544
0.0900879, 1.69256, -1.22896, -1.54367, -0.901482, -1.19888, 1.22624, -1.30247, 0.0544326, -0.0178818, -0.0371484, -0.00330383, -0.118956, -0.00391962, 8.50829e-05, 2.81654, 68.2385, 33.7806, 6.24786, 2.06195, 4.19192, -0.0621838, -0.00133263, -0.00262221, 0.0044986, 0.011443, -0.00281058, 0.00297542, 0.0286886, -0.0149585, -0.0257126, -0.101725, 0.10542, 0.0134582, 0.470872, -0.542823, 0.335946, -2.08324, -2.16574, -0.130285, 0.468138, -0.543552, 0.331376, -2.08171, -2.15973, -0.114457, -0.00493062, 0.0211016, 0.00208162, 0.0101079, -0.00263138, -0.0282254
0.0910879, 1.69261, -1.22898, -1.54372, -0.901488, -1.19899, 1.22626, -1.30247, 0.0559304, -0.0181004, -0.0395988, -0.00364174, -0.119124, -0.00121477, -0.000171105, 2.81654, 68.4964, 33.8917, 6.32324, 2.10498, 4.14157, -0.0557752, -0.00136414, -0.00260539, 0.00452766, 0.011532, -0.00291536, 0.00298655, 0.029275, -0.0160098, -0.0265698, -0.101964, 0.107463, 0.0145976, 0.470867, -0.542802, 0.335948, -2.08322, -2.16573, -0.130299, 0.46815, -0.543557, 0.331344, -2.0817, -2.15974, -0.114266, -0.00504026, 0.0216028, 0.00213822, 0.0110383, -0.00253264, -0.0291388
0.0920879, 1.69267, -1.22899, -1.54375, -0.901498, -1.19911, 1.22627, -1.30247, 0.0580637, -0.0138476, -0.0389193, -0.00478324, -0.117534, 0.00148501, 0.000130437, 2.77686, 68.5678, 33.8917, 6.43433, 2.10498, 4.07016, -0.0621838, -0.00138913, -0.00258383, 0.00454622, 0.0116138, -0.00303061, 0.00298541, 0.0279443, -0.0182758, -0.0238358, -0.0987402, 0.112417, 0.0184944, 0.470862, -0.542781, 0.33595, -2.08319, -2.16573, -0.130314, 0.468166, -0.543556, 0.331323, -2.0817, -2.15977, -0.114073, -0.00515073, 0.022109, 0.00219565, 0.0132422, -0.00104104, -0.0262439
0.0930879, 1.69273, -1.22902, -1.54379, -0.901509, -1.19922, 1.22628, -1.30248, 0.0568179, -0.0201331, -0.0410337, -0.005605, -0.117778, 0.00181258, -0.00211173, 2.73719, 68.9011, 34.0027, 6.54541, 2.12421, 4.04086, -0.00267457, -0.00141783, -0.00256273, 0.00457836, 0.0117083, -0.00313358, 0.00298001, 0.0298633, -0.0176179, -0.0282762, -0.101113, 0.107222, 0.0196069, 0.470857, -0.542759, 0.335952, -2.08317, -2.16572, -0.130329, 0.468182, -0.543556, 0.331289, -2.08167, -2.15979, -0.11388, -0.00526201, 0.0226203, 0.00225393, 0.0123818, -0.00176435, -0.0308494
0.0940879, 1.69278, -1.22902, -1.54384, -0.90152, -1.19934, 1.22628, -1.30247, 0.057994, -0.0154065, -0.0416711, -0.00922316, -0.118304, 0.000740251, 0.000562891, 2.73719, 68.9725, 34.0781, 6.65649, 2.16724, 4.04819, -0.0557752, -0.00144596, -0.00254454, 0.00459952, 0.0118024, -0.00325078, 0.00298991, 0.0284889, -0.0187249, -0.0263424, -0.10428, 0.112806, 0.0209987, 0.470851, -0.542736, 0.335954, -2.08315, -2.16572, -0.130344, 0.468195, -0.543558, 0.331265, -2.08166, -2.15981, -0.113672, -0.0053741, 0.0231366, 0.00231306, 0.013396, -0.000143676, -0.0287009
0.0950879, 1.69285, -1.22903, -1.54388, -0.901528, -1.19945, 1.22628, -1.30247, 0.0583377, -0.0114345, -0.0429648, -0.0111986, -0.117673, -0.00124785, 0.000852994, 2.62611, 69.0121, 34.1892, 6.73187, 2.17273, 4.09122, -0.0685925, -0.00147122, -0.0025236, 0.00462158, 0.0119013, -0.00336402, 0.00299372, 0.0278541, -0.0188561, -0.0248939, -0.10744, 0.116095, 0.0225998, 0.470846, -0.542713, 0.335957, -2.08312, -2.16571, -0.13036, 0.468211, -0.543555, 0.331241, -2.08165, -2.15982, -0.113463, -0.00548698, 0.0236579, 0.00237303, 0.013444, 0.000786613, -0.0271165
0.0960879, 1.69291, -1.22904, -1.54392, -0.901537, -1.19957, 1.22628, -1.30247, 0.0607937, -0.0112333, -0.0419682, -0.01357, -0.116397, 0.00240614, 0.000808284, 2.55073, 69.1589, 34.2289, 6.84296, 2.17914, 4.12692, -0.0750012, -0.00149761, -0.00250211, 0.00464661, 0.0119978, -0.00347236, 0.00299065, 0.0265029, -0.0218498, -0.02454, -0.10423, 0.117864, 0.028395, 0.470841, -0.542689, 0.335959, -2.0831, -2.16571, -0.130376, 0.468227, -0.543553, 0.331214, -2.08162, -2.15985, -0.113262, -0.00560063, 0.0241841, 0.00243385, 0.0162843, 0.00271613, -0.026587
0.0970879, 1.69296, -1.22903, -1.54396, -0.901552, -1.19968, 1.22628, -1.30248, 0.0584776, -0.00502285, -0.0381383, -0.0131143, -0.116584, 0.000553971, -0.00213821, 2.51106, 69.0479, 34.2646, 6.99371, 2.18555, 4.16354, -0.00267457, -0.00152223, -0.00248233, 0.00465893, 0.0120918, -0.00359941, 0.00297962, 0.0266856, -0.0207513, -0.019472, -0.101418, 0.123468, 0.0306046, 0.470835, -0.542665, 0.335962, -2.08307, -2.16571, -0.130393, 0.468242, -0.54355, 0.3312, -2.0816, -2.15989, -0.113047, -0.00571505, 0.0247152, 0.00249553, 0.0152636, 0.00223906, -0.0215173
0.0980879, 1.69302, -1.22903, -1.54402, -0.901566, -1.19979, 1.22629, -1.30247, 0.0599356, -0.00261269, -0.0445367, -0.0126753, -0.115067, 0.00555062, 0.000542485, 2.47535, 69.0121, 34.4153, 7.14447, 2.16724, 4.15622, -0.0557752, -0.00155007, -0.0024631, 0.00467906, 0.0121965, -0.00372414, 0.00298763, 0.0280388, -0.0214692, -0.0198689, -0.101725, 0.128122, 0.0267264, 0.470829, -0.54264, 0.335964, -2.08305, -2.1657, -0.13041, 0.468255, -0.543549, 0.331177, -2.08159, -2.1599, -0.112821, -0.00583022, 0.0252512, 0.00255806, 0.0158997, 0.00153113, -0.02208
0.0990879, 1.69308, -1.22903, -1.54406, -0.901582, -1.1999, 1.22629, -1.30247, 0.0563318, -0.000888279, -0.0430549, -0.015227, -0.109491, 0.00321153, 0.000362611, 2.51106, 68.9725, 34.451, 7.29126, 2.16083, 4.1846, -0.0557752, -0.00157912, -0.00244459, 0.00469662, 0.0122954, -0.00385195, 0.0029905, 0.0276182, -0.0205438, -0.0186774, -0.100308, 0.12469, 0.0284415, 0.470823, -0.542615, 0.335967, -2.08302, -2.16569, -0.130427, 0.468268, -0.543548, 0.331157, -2.08158, -2.15993, -0.112599, -0.00594613, 0.0257921, 0.00262146, 0.0148879, 0.00226561, -0.0207474
0.100088, 1.69315, -1.22902, -1.54411, -0.901596, -1.20001, 1.22629, -1.30248, 0.0619766, 0.00102237, -0.0431294, -0.0133241, -0.110957, 0.000697764, -0.000503529, 2.32459, 68.9011, 34.5264, 7.40631, 2.17273, 4.23495, -0.0356336, -0.00160228, -0.00242009, 0.00471443, 0.0124021, -0.0039787, 0.00297965, 0.0261036, -0.0227114, -0.0177937, -0.102989, 0.127174, 0.0329712, 0.470817, -0.542589, 0.335969, -2.08299, -2.16569, -0.130444, 0.468287, -0.543542, 0.331138, -2.08155, -2.15997, -0.112371, -0.00606278, 0.0263379, 0.00268571, 0.0169136, 0.00425994, -0.0196408
0.101088, 1.6932, -1.22902, -1.54416, -0.901605, -1.20013, 1.22628, -1.30248, 0.0592992, 0.00156769, -0.0444452, -0.0131402, -0.111579, -0.000812239, -0.00155585, 2.28492, 68.8614, 34.5264, 7.44202, 2.17914, 4.27798, -0.00267457, -0.00163313, -0.00240313, 0.00473172, 0.0125062, -0.00410638, 0.00298379, 0.0280895, -0.020668, -0.0178685, -0.105141, 0.128034, 0.0307033, 0.470811, -0.542563, 0.335972, -2.08296, -2.16568, -0.130462, 0.468298, -0.543542, 0.331118, -2.08153, -2.15999, -0.112144, -0.00618014, 0.0268884, 0.00275083, 0.0148245, 0.00277824, -0.0198981
0.102088, 1.69326, -1.22901, -1.5442, -0.901622, -1.20024, 1.22628, -1.30247, 0.0616004, 0.00528259, -0.0464423, -0.0158991, -0.116356, -0.000846817, 0.000929856, 2.20954, 68.6789, 34.5621, 7.59277, 2.19104, 4.29263, -0.0557752, -0.00166128, -0.00238305, 0.00474427, 0.0126075, -0.00424516, 0.00298999, 0.0278339, -0.0217039, -0.0168502, -0.110417, 0.136702, 0.0306165, 0.470805, -0.542536, 0.335975, -2.08294, -2.16568, -0.13048, 0.468313, -0.54354, 0.331104, -2.08153, -2.16002, -0.111908, -0.0062982, 0.0274437, 0.00281681, 0.0157689, 0.00347185, -0.018819
0.103088, 1.69332, -1.22901, -1.54426, -0.901631, -1.20036, 1.22628, -1.30247, 0.0611109, 0.00266293, -0.0499913, -0.0120863, -0.11724, -0.000386637, 0.000620206, 2.09846, 68.7146, 34.6732, 7.62848, 2.22217, 4.29263, -0.0557752, -0.00169424, -0.00236557, 0.00476565, 0.012716, -0.0043722, 0.00300253, 0.0309415, -0.0200693, -0.0190187, -0.111827, 0.135518, 0.025518, 0.470799, -0.542509, 0.335978, -2.08291, -2.16567, -0.130499, 0.468324, -0.543541, 0.33108, -2.08152, -2.16003, -0.111677, -0.00641697, 0.0280038, 0.00288366, 0.0140511, 0.0012333, -0.0213292
0.104088, 1.69338, -1.22899, -1.5443, -0.901647, -1.20048, 1.22628, -1.30248, 0.0632308, 0.00965602, -0.0487943, -0.0111448, -0.116333, -0.000632954, -0.00202771, 1.87232, 68.4964, 34.6375, 7.73956, 2.22217, 4.30636, 0.0101428, -0.00172084, -0.00234322, 0.00477563, 0.0128198, -0.00451637, 0.00298916, 0.0297634, -0.0212935, -0.0144474, -0.109791, 0.142124, 0.0304889, 0.470793, -0.542481, 0.33598, -2.08288, -2.16567, -0.130518, 0.468341, -0.543537, 0.331068, -2.08149, -2.16008, -0.111436, -0.00653641, 0.0285686, 0.00295138, 0.0152781, 0.00230497, -0.0166024
0.105088, 1.69344, -1.22899, -1.54435, -0.901662, -1.2006, 1.22628, -1.30248, 0.0626457, 0.00758496, -0.0490458, -0.00955965, -0.111987, -0.000864431, -0.00111428, 1.72157, 68.4567, 34.6375, 7.81494, 2.25238, 4.32101, 0.00373412, -0.00175391, -0.00232491, 0.00479221, 0.0129228, -0.00465299, 0.00299875, 0.0304262, -0.0211491, -0.0155052, -0.107463, 0.136855, 0.0293356, 0.470786, -0.542452, 0.335983, -2.08285, -2.16566, -0.130537, 0.468353, -0.543538, 0.331049, -2.08149, -2.1601, -0.111202, -0.00665653, 0.0291381, 0.00301998, 0.0149994, 0.00237881, -0.0176781
0.106088, 1.6935, -1.22898, -1.5444, -0.901676, -1.20072, 1.22628, -1.30247, 0.0608284, 0.00605656, -0.048535, -0.0114831, -0.116443, -0.00104377, 0.00119006, 1.49146, 68.421, 34.6018, 7.89032, 2.24048, 4.33566, -0.0484509, -0.00178376, -0.00230241, 0.00481039, 0.0130277, -0.00478591, 0.00300054, 0.0321402, -0.020237, -0.0163718, -0.109938, 0.139597, 0.0260698, 0.470779, -0.542423, 0.335986, -2.08282, -2.16566, -0.130557, 0.468369, -0.543534, 0.331029, -2.08147, -2.16012, -0.11097, -0.0067773, 0.0297122, 0.00308945, 0.0139983, 0.00135833, -0.018705
0.107088, 1.69356, -1.22897, -1.54444, -0.901686, -1.20083, 1.22628, -1.30247, 0.0593485, 0.00993515, -0.0504572, -0.0111308, -0.120083, -0.00219934, 0.000556107, 1.26533, 68.3099, 34.5264, 7.89032, 2.22858, 4.37778, -0.0420422, -0.00181547, -0.00228254, 0.0048245, 0.0131311, -0.00492219, 0.00300666, 0.03413, -0.0183867, -0.0146963, -0.113527, 0.146525, 0.0230552, 0.470773, -0.542393, 0.335989, -2.08278, -2.16565, -0.130577, 0.468383, -0.543533, 0.331012, -2.08146, -2.16015, -0.110737, -0.00689872, 0.030291, 0.0031598, 0.0121621, -0.000362009, -0.017236
0.108088, 1.69362, -1.22897, -1.54448, -0.901698, -1.20095, 1.22627, -1.30248, 0.056201, 0.00865113, -0.0481949, -0.0119881, -0.122681, -0.00196654, -0.00227405, 1.11457, 68.2385, 34.4153, 7.92602, 2.21576, 4.39242, 0.0293689, -0.00185033, -0.00226609, 0.00483952, 0.0132331, -0.00505582, 0.00300868, 0.0360481, -0.0170845, -0.014551, -0.112526, 0.147908, 0.0241326, 0.470766, -0.542363, 0.335993, -2.08275, -2.16564, -0.130597, 0.468393, -0.543534, 0.330995, -2.08144, -2.16018, -0.110509, -0.00702078, 0.0308744, 0.00323103, 0.0108144, -0.0017474, -0.0172823
0.109088, 1.69368, -1.22896, -1.54452, -0.901716, -1.20107, 1.22627, -1.30248, 0.0597028, 0.00696339, -0.0486254, -0.0144791, -0.124276, -0.00209317, 0.000416802, 0.85273, 68.1989, 34.2646, 8.03711, 2.18555, 4.4144, -0.0228162, -0.00187966, -0.00224236, 0.00485396, 0.0133341, -0.00519217, 0.00300557, 0.0349037, -0.0194591, -0.0162054, -0.115541, 0.148497, 0.0267443, 0.470759, -0.542332, 0.335996, -2.08272, -2.16564, -0.130618, 0.46841, -0.543528, 0.330978, -2.08142, -2.16021, -0.11028, -0.00714347, 0.0314625, 0.00330314, 0.0129618, 0.000325528, -0.0187379
0.110088, 1.69374, -1.22895, -1.54456, -0.901728, -1.20119, 1.22627, -1.30247, 0.0593317, 0.0082769, -0.047112, -0.0144991, -0.125707, 0.00732246, 0.000752626, 0.586922, 68.0521, 34.1535, 8.07678, 2.16724, 4.43545, -0.0356336, -0.00191074, -0.00221946, 0.00486405, 0.0134325, -0.00533701, 0.00300802, 0.0364927, -0.0211703, -0.0140352, -0.106471, 0.156169, 0.0266874, 0.470751, -0.542301, 0.335999, -2.08269, -2.16563, -0.130639, 0.468427, -0.543525, 0.330966, -2.08141, -2.16024, -0.110045, -0.00726676, 0.032055, 0.00337613, 0.0146842, -0.000914806, -0.0168236
0.111088, 1.6938, -1.22895, -1.54461, -0.901737, -1.20132, 1.22626, -1.30247, 0.056745, 0.00733909, -0.0454779, -0.010524, -0.122553, 0.00436653, 0.00124777, 0.400459, 67.9807, 34.1535, 8.07678, 2.14252, 4.47116, -0.0557752, -0.00194884, -0.00220316, 0.004878, 0.0135371, -0.00548036, 0.00302427, 0.038234, -0.0190503, -0.0135541, -0.103873, 0.151271, 0.0223529, 0.470744, -0.542268, 0.336003, -2.08265, -2.16562, -0.13066, 0.468437, -0.543528, 0.330949, -2.08141, -2.16026, -0.109803, -0.00739066, 0.0326521, 0.00345001, 0.0125239, -0.00219794, -0.0164837
0.112088, 1.69385, -1.22894, -1.54464, -0.901755, -1.20145, 1.22626, -1.30248, 0.0582062, 0.006769, -0.0427352, -0.0132826, -0.124334, 0.00192281, -0.00160954, 0.21003, 67.9053, 33.967, 8.18787, 2.12421, 4.51419, 0.0101428, -0.00198343, -0.00218348, 0.00488984, 0.0136369, -0.00562396, 0.00301612, 0.0369639, -0.0204403, -0.0135589, -0.105935, 0.151694, 0.0301537, 0.470737, -0.542236, 0.336006, -2.08262, -2.16562, -0.130682, 0.46845, -0.543526, 0.330935, -2.08139, -2.1603, -0.10957, -0.00751515, 0.0332538, 0.00352478, 0.0137417, -0.000283385, -0.0162586
0.113088, 1.69391, -1.22892, -1.54468, -0.901767, -1.20157, 1.22626, -1.30248, 0.0562901, 0.00886634, -0.0437395, -0.0135943, -0.121201, 0.00146472, -0.000327024, 0.0196001, 67.7228, 33.8917, 8.22754, 2.10498, 4.52151, -0.00999879, -0.00202009, -0.00216477, 0.00489674, 0.0137322, -0.00577669, 0.00302554, 0.0376849, -0.0195869, -0.012636, -0.105348, 0.151661, 0.0281294, 0.470729, -0.542203, 0.33601, -2.08258, -2.16561, -0.130704, 0.468462, -0.543527, 0.330925, -2.08139, -2.16034, -0.109331, -0.00764022, 0.0338599, 0.00360044, 0.0128244, -0.000566533, -0.0153598
0.114088, 1.69396, -1.22892, -1.54471, -0.901786, -1.2017, 1.22625, -1.30248, 0.053852, 0.0069025, -0.0410068, -0.0146053, -0.123222, 0.0018596, 0.000731433, -0.131157, 67.6831, 33.8202, 8.29895, 2.08667, 4.50686, -0.0356336, -0.00205699, -0.00214494, 0.00490897, 0.0138315, -0.00592512, 0.00303158, 0.0391388, -0.0189123, -0.0127725, -0.103748, 0.152037, 0.0266003, 0.470722, -0.542169, 0.336013, -2.08255, -2.1656, -0.130727, 0.468475, -0.543527, 0.33091, -2.08138, -2.16037, -0.109092, -0.00776586, 0.0344704, 0.00367699, 0.0120731, -0.00139687, -0.0156261
0.115088, 1.69401, -1.22892, -1.54474, -0.901805, -1.20183, 1.22625, -1.30248, 0.0540875, 0.00464936, -0.0378663, -0.0163697, -0.125948, 0.000952639, 1.29134e-05, -0.242241, 67.6831, 33.7052, 8.414, 2.08118, 4.52151, -0.0228162, -0.00209477, -0.00212606, 0.00492165, 0.0139245, -0.00606563, 0.00303376, 0.0391367, -0.0196692, -0.0132925, -0.104045, 0.152188, 0.0301099, 0.470714, -0.542134, 0.336017, -2.08251, -2.16559, -0.13075, 0.468487, -0.543527, 0.330895, -2.08137, -2.1604, -0.10887, -0.00789206, 0.0350854, 0.00375444, 0.012684, -0.000666917, -0.016086
0.116088, 1.69407, -1.22891, -1.54479, -0.90182, -1.20196, 1.22625, -1.30248, 0.0534304, 0.00564099, -0.041122, -0.0157091, -0.123687, 0.000284137, -0.0016868, -0.43267, 67.576, 33.8202, 8.44971, 2.09949, 4.53616, 0.0229602, -0.0021354, -0.00210835, 0.00493381, 0.0140297, -0.00622047, 0.00304334, 0.0403191, -0.0187865, -0.0137626, -0.105855, 0.151762, 0.0301224, 0.470706, -0.542099, 0.336021, -2.08248, -2.16559, -0.130773, 0.468498, -0.543529, 0.33088, -2.08137, -2.16043, -0.108619, -0.0080188, 0.0357048, 0.00383279, 0.0117018, -0.0011774, -0.0166312
0.117088, 1.69412, -1.2289, -1.54481, -0.901836, -1.20208, 1.22625, -1.30247, 0.0559657, 0.00471551, -0.033757, -0.0161994, -0.120724, 0.00033311, 9.61719e-05, -0.619133, 67.5363, 33.6695, 8.52509, 2.09308, 4.53616, -0.00999879, -0.0021711, -0.0020859, 0.00494182, 0.0141141, -0.00636299, 0.00304623, 0.0376624, -0.0221047, -0.0118887, -0.0985978, 0.148772, 0.0361767, 0.470698, -0.542063, 0.336024, -2.08244, -2.16558, -0.130797, 0.468513, -0.543526, 0.330869, -2.08136, -2.16047, -0.108404, -0.00814607, 0.0363285, 0.00391203, 0.0148608, 0.00191655, -0.0143887
0.118088, 1.69417, -1.2289, -1.54484, -0.90185, -1.20221, 1.22624, -1.30247, 0.0558506, 0.00316379, -0.0338692, -0.0148795, -0.119768, -0.000450057, 0.000776195, -0.734184, 67.5363, 33.7449, 8.52509, 2.11139, 4.55722, -0.0292249, -0.00221316, -0.00206893, 0.00495633, 0.0142091, -0.0065022, 0.00305669, 0.0386352, -0.0218201, -0.0126947, -0.0983445, 0.14661, 0.0348984, 0.47069, -0.542027, 0.336028, -2.0824, -2.16557, -0.130821, 0.468523, -0.543528, 0.330852, -2.08135, -2.16049, -0.108181, -0.00827387, 0.0369566, 0.00399218, 0.0144549, 0.00169873, -0.0152492
0.119088, 1.69422, -1.2289, -1.54487, -0.901863, -1.20233, 1.22625, -1.30248, 0.0569194, 0.00379472, -0.0358532, -0.0170423, -0.123915, 0.000289411, 4.27488e-05, -0.884941, 67.4649, 33.7806, 8.52509, 2.12421, 4.54349, -0.0164075, -0.0022544, -0.00204862, 0.00496418, 0.0142923, -0.00665336, 0.00306217, 0.0394153, -0.0223085, -0.0132748, -0.102422, 0.152029, 0.0366194, 0.470682, -0.54199, 0.336032, -2.08236, -2.16556, -0.130845, 0.468536, -0.54353, 0.330841, -2.08135, -2.16053, -0.107959, -0.00840218, 0.0375891, 0.00407323, 0.0148218, 0.00167251, -0.0158792
0.120088, 1.69428, -1.2289, -1.5449, -0.901871, -1.20246, 1.22624, -1.30248, 0.0556464, 0.000870693, -0.0309973, -0.0147561, -0.125925, -0.000526336, -0.0011922, -1.07537, 67.5363, 33.8202, 8.48541, 2.12421, 4.56454, 0.0165515, -0.00229591, -0.00202857, 0.00497796, 0.0143792, -0.00678798, 0.00306612, 0.0408731, -0.0217303, -0.0129376, -0.0987159, 0.150458, 0.0366865, 0.470673, -0.541953, 0.336036, -2.08232, -2.16556, -0.13087, 0.468549, -0.54353, 0.330824, -2.08134, -2.16056, -0.107751, -0.008531, 0.0382258, 0.00415518, 0.0141812, 0.00079505, -0.0156765
0.121088, 1.69433, -1.2289, -1.54491, -0.90189, -1.20258, 1.22624, -1.30247, 0.050676, 0.00058895, -0.0246197, -0.0158561, -0.128809, -0.000576695, 0.00113798, -1.22613, 67.5363, 33.7449, 8.56079, 2.14801, 4.57187, -0.0356336, -0.00233541, -0.00200683, 0.00498691, 0.0144609, -0.00693192, 0.00307459, 0.0426676, -0.0200983, -0.0107132, -0.0942054, 0.152708, 0.0328851, 0.470665, -0.541914, 0.33604, -2.08228, -2.16555, -0.130895, 0.468563, -0.543529, 0.330813, -2.08133, -2.16059, -0.107539, -0.0086603, 0.0388668, 0.00423804, 0.0125688, -0.000747303, -0.0136305
0.122088, 1.69438, -1.2289, -1.54494, -0.901896, -1.20271, 1.22624, -1.30247, 0.0489778, 0.000398999, -0.0256534, -0.0130087, -0.125115, -0.000892901, 0.000521296, -1.33721, 67.5363, 33.7806, 8.48541, 2.16083, 4.58652, -0.0292249, -0.00238078, -0.00199033, 0.00499618, 0.0145431, -0.00707252, 0.00308719, 0.044384, -0.0187893, -0.0107133, -0.0919982, 0.149757, 0.0304484, 0.470656, -0.541875, 0.336045, -2.08224, -2.16554, -0.130921, 0.468572, -0.543532, 0.3308, -2.08133, -2.16062, -0.10733, -0.00879009, 0.039512, 0.00432181, 0.0111946, -0.00184956, -0.0137775
0.123088, 1.69442, -1.2289, -1.54496, -0.901912, -1.20284, 1.22623, -1.30248, 0.047894, -0.000657246, -0.0275763, -0.0146082, -0.127793, -0.000569695, -0.000635813, -1.45226, 67.576, 33.8559, 8.56079, 2.19104, 4.58652, -0.00267457, -0.0024257, -0.00197271, 0.00500896, 0.0146315, -0.0072138, 0.00309684, 0.046109, -0.0180735, -0.0121151, -0.0952486, 0.151963, 0.0305374, 0.470647, -0.541836, 0.336049, -2.0822, -2.16553, -0.130947, 0.468582, -0.543534, 0.330784, -2.08133, -2.16065, -0.107114, -0.00892034, 0.0401615, 0.0044065, 0.0103614, -0.00271374, -0.0153267
0.124088, 1.69447, -1.22889, -1.54499, -0.901924, -1.20296, 1.22623, -1.30248, 0.0470929, 0.00216387, -0.0239665, -0.0139535, -0.124234, -0.000360617, -0.00161067, -1.56335, 67.4649, 34.0027, 8.56079, 2.19745, 4.58652, 0.0293689, -0.00247184, -0.00195609, 0.00501434, 0.0147154, -0.00736746, 0.00310902, 0.0456329, -0.0186191, -0.00900979, -0.0894884, 0.152315, 0.0333737, 0.470638, -0.541796, 0.336053, -2.08216, -2.16552, -0.130973, 0.468591, -0.543538, 0.330776, -2.08133, -2.16068, -0.10689, -0.00905105, 0.0408151, 0.00449209, 0.0108723, -0.00204891, -0.0121195
0.125088, 1.69452, -1.2289, -1.54501, -0.901937, -1.20309, 1.22623, -1.30247, 0.0483609, -0.00115319, -0.0224018, -0.0143743, -0.126983, -0.00382502, 0.00109636, -1.75378, 67.576, 34.0781, 8.60046, 2.21576, 4.55722, -0.0292249, -0.00251663, -0.0019347, 0.00502802, 0.0147965, -0.00750632, 0.00312181, 0.0457769, -0.018924, -0.0108026, -0.0929891, 0.150244, 0.0325634, 0.470629, -0.541755, 0.336058, -2.08212, -2.16551, -0.131, 0.468605, -0.543538, 0.330759, -2.08133, -2.1607, -0.106685, -0.00918221, 0.0414729, 0.0045786, 0.0109858, -0.00124091, -0.0138366
0.126088, 1.69457, -1.22889, -1.54503, -0.901947, -1.20321, 1.22623, -1.30247, 0.0468203, 0.0027597, -0.0196043, -0.0138312, -0.128709, -0.00679901, 0.00120563, -1.82915, 67.4252, 34.0781, 8.60046, 2.22858, 4.53616, -0.0420422, -0.00256277, -0.00191629, 0.00502904, 0.0148673, -0.00766053, 0.00313591, 0.0463857, -0.0177308, -0.00757408, -0.0930011, 0.154489, 0.0314855, 0.47062, -0.541714, 0.336063, -2.08207, -2.1655, -0.131027, 0.468615, -0.543541, 0.330755, -2.08134, -2.16074, -0.106476, -0.00931381, 0.0421348, 0.00466602, 0.00980349, -0.00173042, -0.0106229
0.127088, 1.69462, -1.22889, -1.54505, -0.901959, -1.20334, 1.22623, -1.30248, 0.0441774, 0.00184131, -0.0224615, -0.0173694, -0.126154, -0.00388236, -0.000145685, -1.97991, 67.4252, 34.1535, 8.63617, 2.2652, 4.50046, -0.0164075, -0.00261017, -0.00189713, 0.00503616, 0.0149444, -0.00781066, 0.00314125, 0.0476621, -0.0174726, -0.00920487, -0.0930423, 0.154012, 0.03325, 0.470611, -0.541671, 0.336067, -2.08203, -2.16549, -0.131055, 0.468627, -0.543544, 0.330744, -2.08134, -2.16078, -0.106265, -0.00944583, 0.0428008, 0.00475437, 0.00940088, -0.0020804, -0.0123386
0.128088, 1.69466, -1.22888, -1.54506, -0.901968, -1.20346, 1.22623, -1.30248, 0.0465915, 0.00206389, -0.0195883, -0.0159474, -0.127304, -0.00309232, -0.00060575, -2.05529, 67.3895, 34.1535, 8.63617, 2.2652, 4.50046, -0.00267457, -0.00265804, -0.00187787, 0.00503973, 0.0150109, -0.0079597, 0.00315363, 0.0473868, -0.0191444, -0.00789205, -0.0899631, 0.156046, 0.036225, 0.470601, -0.541629, 0.336072, -2.08198, -2.16548, -0.131083, 0.468638, -0.543546, 0.330737, -2.08135, -2.16081, -0.106067, -0.00957827, 0.043471, 0.00484363, 0.0109767, -0.00127207, -0.0109633
0.129088, 1.69471, -1.22889, -1.54508, -0.901985, -1.20359, 1.22623, -1.30247, 0.0502136, -0.0020569, -0.0175557, -0.0196842, -0.133579, -0.0016258, 0.000104793, -2.20605, 67.5363, 34.1535, 8.71155, 2.25238, 4.47848, -0.0164075, -0.0027036, -0.00185436, 0.0050528, 0.0150888, -0.00809998, 0.00315738, 0.0467122, -0.0221225, -0.0101455, -0.0924075, 0.158866, 0.0417534, 0.470592, -0.541585, 0.336077, -2.08194, -2.16548, -0.131111, 0.468653, -0.543545, 0.330721, -2.08133, -2.16085, -0.105867, -0.00971111, 0.0441452, 0.00493382, 0.0137114, 0.000543711, -0.0130847
0.130088, 1.69476, -1.22889, -1.5451, -0.901996, -1.20373, 1.22624, -1.30247, 0.0490122, 0.00236428, -0.019427, -0.0175767, -0.134283, -0.000316254, 0.000781939, -2.3211, 67.5006, 34.1535, 8.71155, 2.28351, 4.4501, -0.0356336, -0.0027532, -0.00183373, 0.00505688, 0.0151616, -0.00825988, 0.00316824, 0.0488139, -0.0208283, -0.00769666, -0.0915753, 0.165097, 0.0372043, 0.470582, -0.541541, 0.336082, -2.08189, -2.16547, -0.13114, 0.468666, -0.543548, 0.330714, -2.08134, -2.16089, -0.105652, -0.00984435, 0.0448234, 0.00502493, 0.0124527, -0.00128622, -0.0108685
0.131088, 1.69481, -1.2289, -1.54511, -0.902006, -1.20386, 1.22624, -1.30247, 0.0489752, -0.000780154, -0.0199387, -0.0161278, -0.133564, -0.000152228, 0.000521293, -2.47185, 67.6117, 34.1178, 8.71155, 2.2771, 4.44278, -0.0356336, -0.00280298, -0.00181205, 0.00506615, 0.0152321, -0.00840638, 0.0031795, 0.0502196, -0.0206671, -0.00948983, -0.0910375, 0.16207, 0.0366272, 0.470572, -0.541496, 0.336087, -2.08185, -2.16546, -0.131169, 0.468679, -0.54355, 0.330701, -2.08134, -2.16092, -0.105453, -0.00997797, 0.0455056, 0.00511696, 0.0121441, -0.00171793, -0.0127645
0.132088, 1.69486, -1.22889, -1.54513, -0.902018, -1.20399, 1.22624, -1.30248, 0.0479849, -0.000338514, -0.0216794, -0.015964, -0.132654, -0.00411839, -0.00111053, -2.58294, 67.6117, 34.2646, 8.74725, 2.27161, 4.4208, 0.00373412, -0.0028564, -0.00179335, 0.00507491, 0.0153155, -0.00856818, 0.00319284, 0.0511325, -0.0192345, -0.0100843, -0.0952262, 0.160563, 0.0369648, 0.470562, -0.541451, 0.336092, -2.0818, -2.16545, -0.131199, 0.468689, -0.543555, 0.330689, -2.08135, -2.16096, -0.105225, -0.010112, 0.0461918, 0.00520992, 0.0105916, -0.00189877, -0.0133602
0.133088, 1.69491, -1.22891, -1.54514, -0.902027, -1.20414, 1.22624, -1.30248, 0.0472376, -0.00435838, -0.0174042, -0.0148699, -0.139106, -0.00166078, -0.000740356, -2.69799, 67.7942, 34.1892, 8.74725, 2.30182, 4.37778, 0.00373412, -0.00290925, -0.00177032, 0.00508481, 0.015384, -0.00872315, 0.00319982, 0.0534983, -0.0192378, -0.0104979, -0.0919684, 0.163387, 0.0353039, 0.470552, -0.541404, 0.336097, -2.08175, -2.16543, -0.131229, 0.468704, -0.543558, 0.330675, -2.08135, -2.161, -0.105021, -0.0102463, 0.0468819, 0.00530381, 0.0105323, -0.00347774, -0.0140485
0.134088, 1.69496, -1.22891, -1.54515, -0.902039, -1.20429, 1.22625, -1.30247, 0.0489757, -0.00280344, -0.017039, -0.0140697, -0.142499, 0.000613466, 0.00120185, -2.77337, 67.7942, 34.2289, 8.74725, 2.31372, 4.32101, -0.0420422, -0.00296716, -0.00175235, 0.00509168, 0.0154607, -0.00889501, 0.00322478, 0.0543586, -0.0202156, -0.00919761, -0.0908937, 0.169556, 0.0337958, 0.470542, -0.541358, 0.336102, -2.0817, -2.16542, -0.131259, 0.468713, -0.543566, 0.330664, -2.08137, -2.16103, -0.10479, -0.010381, 0.047576, 0.00539863, 0.011454, -0.00379315, -0.0128377
0.135088, 1.69501, -1.22893, -1.54516, -0.90205, -1.20444, 1.22625, -1.30247, 0.0494512, -0.00782448, -0.0126742, -0.0144729, -0.145213, 0.00198769, 0.00103859, -2.80907, 68.0521, 34.2289, 8.78693, 2.33295, 4.27066, -0.0484509, -0.00302561, -0.00173199, 0.0051081, 0.0155355, -0.00904819, 0.00324502, 0.054971, -0.0215004, -0.0105504, -0.087739, 0.16796, 0.0364997, 0.470531, -0.54131, 0.336108, -2.08165, -2.16541, -0.13129, 0.468725, -0.543573, 0.330643, -2.08138, -2.16106, -0.10458, -0.0105161, 0.048274, 0.00549438, 0.0125753, -0.00343379, -0.0142153
0.136088, 1.69506, -1.22893, -1.54517, -0.902061, -1.20459, 1.22626, -1.30247, 0.0513658, -0.0069221, -0.0125178, -0.0138577, -0.146557, 0.00270414, -0.00100303, -2.92413, 68.1274, 34.2289, 8.78693, 2.33295, 4.22763, -0.00267457, -0.00307991, -0.00170781, 0.00511495, 0.0156105, -0.00921922, 0.00325079, 0.0552427, -0.0225392, -0.00988543, -0.0874335, 0.171039, 0.0399028, 0.470521, -0.541262, 0.336113, -2.0816, -2.1654, -0.131321, 0.46874, -0.543576, 0.330632, -2.08138, -2.16111, -0.104354, -0.0106515, 0.0489759, 0.00559107, 0.0135125, -0.00305898, -0.0135393
0.137088, 1.69511, -1.22895, -1.54518, -0.902069, -1.20475, 1.22627, -1.30247, 0.0518704, -0.00884054, -0.0132299, -0.0133723, -0.152948, 0.00377797, -0.000397416, -2.9995, 68.3099, 34.2646, 8.78693, 2.33295, 4.16995, -0.00999879, -0.0031394, -0.00168676, 0.00512667, 0.0156849, -0.0093839, 0.00327041, 0.0575772, -0.0222039, -0.0110855, -0.0900058, 0.175664, 0.0373588, 0.47051, -0.541213, 0.336119, -2.08155, -2.16539, -0.131353, 0.468752, -0.543582, 0.330616, -2.0814, -2.16114, -0.104134, -0.0107872, 0.0496816, 0.00568869, 0.0130839, -0.00448276, -0.0149858
0.138088, 1.69516, -1.22895, -1.54519, -0.902083, -1.2049, 1.22628, -1.30247, 0.0517959, -0.00678939, -0.00805849, -0.010813, -0.156788, 0.00477148, 0.00115921, -3.03521, 68.3496, 34.1892, 8.82263, 2.32654, 4.10586, -0.0484509, -0.00319675, -0.00166248, 0.00513151, 0.0157537, -0.00956381, 0.00328599, 0.0586869, -0.0223362, -0.0075672, -0.0848841, 0.18153, 0.0350311, 0.470499, -0.541163, 0.336125, -2.0815, -2.16538, -0.131385, 0.468767, -0.543587, 0.330607, -2.08141, -2.16119, -0.103906, -0.0109232, 0.0503911, 0.00578725, 0.0132508, -0.00541005, -0.0115957
0.139088, 1.69522, -1.22896, -1.5452, -0.902093, -1.20506, 1.22628, -1.30247, 0.0527789, -0.00700768, -0.00705168, -0.0132169, -0.159689, 0.00495538, 0.000535447, -3.11059, 68.4567, 34.2289, 8.78693, 2.30182, 4.05551, -0.0420422, -0.00325543, -0.0016384, 0.00514043, 0.0158298, -0.00973943, 0.00329912, 0.0586702, -0.0234262, -0.00767541, -0.0863872, 0.184707, 0.0386603, 0.470489, -0.541113, 0.33613, -2.08145, -2.16537, -0.131418, 0.468782, -0.543592, 0.330594, -2.08142, -2.16123, -0.103675, -0.0110595, 0.0511045, 0.00588674, 0.0141993, -0.00461637, -0.0116367
0.140088, 1.69527, -1.22896, -1.54521, -0.902103, -1.20522, 1.22629, -1.30248, 0.0525871, -0.00641684, -0.00923081, -0.0130379, -0.161255, 0.00401555, -0.00181317, -3.15026, 68.5321, 34.2646, 8.78693, 2.2771, 4.03445, 0.0165515, -0.00331624, -0.00161751, 0.00514838, 0.01591, -0.009917, 0.00331113, 0.0601467, -0.0226354, -0.00810711, -0.0895777, 0.186957, 0.0394831, 0.470477, -0.541062, 0.336136, -2.0814, -2.16536, -0.13145, 0.468794, -0.543599, 0.330582, -2.08143, -2.16127, -0.103438, -0.0111962, 0.0518216, 0.00598718, 0.0133121, -0.0053208, -0.0121735
0.141088, 1.69532, -1.22897, -1.54521, -0.902118, -1.20538, 1.22629, -1.30247, 0.0501914, -0.00686272, -0.00814902, -0.0137782, -0.16265, 0.00316862, 1.19204e-05, -3.11059, 68.6432, 34.1892, 8.82263, 2.24048, 4.0198, -0.0164075, -0.00337532, -0.00159494, 0.00515488, 0.0159837, -0.0100912, 0.00332685, 0.0617255, -0.0214511, -0.00800659, -0.0899154, 0.187903, 0.0364039, 0.470466, -0.54101, 0.336142, -2.08134, -2.16535, -0.131484, 0.468807, -0.543603, 0.330572, -2.08144, -2.16132, -0.103211, -0.0113331, 0.0525425, 0.00608855, 0.0120549, -0.00622198, -0.0121882
0.142088, 1.69537, -1.22898, -1.54522, -0.902138, -1.20554, 1.22629, -1.30247, 0.048386, -0.00623535, -0.00620157, -0.0189044, -0.163875, 0.00312537, 0.00170337, -3.03521, 68.7146, 34.1892, 8.93372, 2.22217, 3.99142, -0.0621838, -0.00343716, -0.00157493, 0.00516175, 0.0160627, -0.010272, 0.00334763, 0.0615246, -0.0218842, -0.00754152, -0.0907781, 0.190539, 0.0383399, 0.470455, -0.540957, 0.336148, -2.08129, -2.16533, -0.131518, 0.468818, -0.543609, 0.33056, -2.08146, -2.16135, -0.102972, -0.0114702, 0.0532671, 0.00619087, 0.0123609, -0.00535215, -0.0116117
0.143088, 1.69542, -1.22897, -1.54523, -0.902156, -1.2057, 1.22629, -1.30247, 0.0458179, -0.0024788, -0.0087909, -0.0188032, -0.160327, 0.00232619, 0.00137294, -3.03521, 68.6432, 34.2289, 9.00909, 2.19104, 3.9841, -0.0685925, -0.00349629, -0.00155233, 0.00516304, 0.0161423, -0.0104611, 0.00336015, 0.0628407, -0.0202483, -0.00614089, -0.0912089, 0.191785, 0.0362984, 0.470443, -0.540904, 0.336154, -2.08123, -2.16532, -0.131552, 0.468831, -0.543613, 0.330555, -2.08147, -2.1614, -0.102725, -0.0116077, 0.0539954, 0.00629413, 0.0106908, -0.00620873, -0.0102863
0.144088, 1.69546, -1.22897, -1.54523, -0.902173, -1.20586, 1.22629, -1.30247, 0.0461338, -0.00071876, -0.00655575, -0.0198243, -0.157479, 0.00566278, -0.00176347, -2.9995, 68.6035, 34.2289, 9.00909, 2.17273, 3.99783, 0.00373412, -0.00355721, -0.0015318, 0.00516421, 0.0162189, -0.0106455, 0.00336693, 0.0623015, -0.0220694, -0.00417201, -0.0853035, 0.193546, 0.0430515, 0.470432, -0.54085, 0.336161, -2.08118, -2.16531, -0.131586, 0.468842, -0.543618, 0.33055, -2.08147, -2.16146, -0.102487, -0.0117453, 0.0547273, 0.00639834, 0.0124256, -0.00517442, -0.008213
0.145088, 1.69551, -1.22897, -1.54524, -0.902197, -1.20602, 1.22629, -1.30247, 0.0460164, -0.000474859, -0.00572708, -0.0204224, -0.150722, 0.00438327, 0.000757131, -2.95983, 68.6035, 34.2646, 9.12018, 2.15442, 3.99142, -0.0484509, -0.00361759, -0.00150901, 0.00516865, 0.0163, -0.0108317, 0.00338197, 0.0612625, -0.0229208, -0.0039248, -0.0826567, 0.188389, 0.0439825, 0.47042, -0.540795, 0.336167, -2.08112, -2.1653, -0.131621, 0.468855, -0.543621, 0.330542, -2.08148, -2.1615, -0.102241, -0.0118833, 0.0554629, 0.00650349, 0.01311, -0.00341503, -0.00772962
0.146088, 1.69556, -1.22898, -1.54524, -0.902213, -1.20618, 1.22629, -1.30247, 0.0433351, -0.00383981, -0.00420908, -0.0194763, -0.155353, 0.00347149, 0.00125074, -2.92413, 68.7543, 34.2646, 9.04877, 2.14801, 3.9841, -0.0685925, -0.00368123, -0.00148727, 0.00517557, 0.0163708, -0.0110057, 0.00339881, 0.0642943, -0.0209513, -0.00513781, -0.0835913, 0.188863, 0.0396804, 0.470408, -0.54074, 0.336174, -2.08106, -2.16528, -0.131657, 0.468867, -0.543626, 0.330531, -2.08149, -2.16154, -0.10202, -0.0120214, 0.0562022, 0.00660959, 0.0110725, -0.00555956, -0.00924167
0.147088, 1.6956, -1.22898, -1.54523, -0.902242, -1.20633, 1.22629, -1.30247, 0.039352, -0.00255745, -0.0022641, -0.0201012, -0.153896, -0.00683056, 0.00526768, -2.80907, 68.7543, 34.2289, 9.15985, 2.11139, 3.9841, -0.0621838, -0.00374096, -0.00146403, 0.00517742, 0.0164436, -0.011188, 0.00340251, 0.0647513, -0.0175553, -0.00443987, -0.0895878, 0.184411, 0.0339789, 0.470396, -0.540684, 0.33618, -2.08101, -2.16527, -0.131692, 0.46888, -0.543627, 0.330525, -2.08149, -2.1616, -0.10179, -0.0121598, 0.056945, 0.00671664, 0.00758646, -0.00551848, -0.00841704
0.148088, 1.69564, -1.22897, -1.54523, -0.902266, -1.2065, 1.22629, -1.30247, 0.0416616, 0.00089531, -0.00256457, -0.0239271, -0.157326, -0.00517676, 0.00244299, -2.77337, 68.6432, 34.2646, 9.15985, 2.08667, 3.9841, -0.0228162, -0.00380492, -0.00144391, 0.00517571, 0.0165211, -0.0113847, 0.00341278, 0.0639538, -0.0196208, -0.00298155, -0.0917513, 0.192683, 0.0414913, 0.470384, -0.540627, 0.336187, -2.08095, -2.16526, -0.131729, 0.468891, -0.543632, 0.330523, -2.0815, -2.16166, -0.10154, -0.0122984, 0.0576914, 0.00682465, 0.00953637, -0.00412493, -0.00681093
0.149088, 1.69568, -1.22897, -1.54523, -0.902289, -1.20665, 1.22629, -1.30247, 0.0408278, 0.000598238, 0.00452678, -0.023095, -0.159023, -0.00442709, 0.00239533, -2.77337, 68.6432, 34.2646, 9.12018, 2.03815, 3.99783, -0.0356336, -0.00386928, -0.00142309, 0.00517764, 0.0165956, -0.0115702, 0.00342766, 0.0642983, -0.0202984, -0.00040526, -0.0850565, 0.194353, 0.0432286, 0.470372, -0.540569, 0.336194, -2.08089, -2.16524, -0.131765, 0.468901, -0.543637, 0.330517, -2.08151, -2.1617, -0.101304, -0.0124372, 0.0584414, 0.0069336, 0.0101834, -0.0040883, -0.00423805
0.150088, 1.69572, -1.22897, -1.54523, -0.902313, -1.20682, 1.22629, -1.30247, 0.0392068, 0.00216309, 0.00519082, -0.0218447, -0.160055, -0.00279323, 0.00327391, -2.7337, 68.5678, 34.1892, 9.04877, 1.98871, 3.9841, -0.0750012, -0.0039347, -0.00140244, 0.00517365, 0.0166635, -0.0117676, 0.00344563, 0.0662423, -0.0194903, 0.00118259, -0.0824301, 0.198131, 0.0400117, 0.470359, -0.54051, 0.336201, -2.08083, -2.16523, -0.131802, 0.468912, -0.543642, 0.330516, -2.08153, -2.16176, -0.101064, -0.0125762, 0.0591949, 0.00704351, 0.00936901, -0.00553458, -0.00284674
0.151088, 1.69576, -1.22897, -1.54522, -0.902342, -1.20697, 1.22629, -1.30246, 0.0379864, 0.00144283, 0.00460306, -0.02778, -0.15748, -0.00212501, 0.00309281, -2.69799, 68.5678, 34.1535, 9.00909, 1.96399, 3.9841, -0.0951428, -0.00400127, -0.00138324, 0.0051747, 0.016734, -0.0119535, 0.00346183, 0.0655508, -0.0205658, -0.000140955, -0.0837141, 0.196935, 0.0452148, 0.470347, -0.540451, 0.336208, -2.08077, -2.16522, -0.13184, 0.468921, -0.543648, 0.330511, -2.08155, -2.1618, -0.100833, -0.0127154, 0.0599519, 0.00715437, 0.0102306, -0.00384153, -0.00396996
0.152088, 1.69579, -1.22897, -1.54523, -0.902371, -1.20714, 1.22629, -1.30247, 0.0331738, 0.000127242, 0.00246397, -0.0292772, -0.155492, -0.00188508, 0.000455714, -2.62261, 68.6035, 34.1892, 8.97339, 1.94568, 3.99142, -0.0484509, -0.0040729, -0.00136804, 0.00517906, 0.0168129, -0.0121428, 0.00348241, 0.0682108, -0.0182125, -0.00158635, -0.0844338, 0.194957, 0.0445082, 0.470334, -0.540391, 0.336215, -2.0807, -2.1652, -0.131878, 0.468926, -0.543657, 0.330502, -2.08156, -2.16184, -0.100589, -0.0128547, 0.0607124, 0.00726618, 0.00778693, -0.00557765, -0.00563635
0.153088, 1.69582, -1.22896, -1.54522, -0.902407, -1.2073, 1.22629, -1.30246, 0.0345188, 0.00259091, 0.00265072, -0.0322389, -0.158964, -0.00140457, 0.00554873, -2.62261, 68.4964, 34.1535, 9.00909, 1.92737, 3.99142, -0.0621838, -0.00414052, -0.00134898, 0.00517683, 0.0168904, -0.0123454, 0.0035006, 0.0679894, -0.0194269, -0.00046994, -0.0866846, 0.201633, 0.0426296, 0.470321, -0.540331, 0.336222, -2.08064, -2.16519, -0.131916, 0.468935, -0.543662, 0.3305, -2.08158, -2.16189, -0.100334, -0.0129943, 0.0614763, 0.00737895, 0.00889476, -0.00471769, -0.00442821
0.154088, 1.69585, -1.22896, -1.54522, -0.902437, -1.20746, 1.22629, -1.30246, 0.0321658, 0.00349084, 0.00449524, -0.0309549, -0.156911, -0.0015559, 0.00537613, -2.62261, 68.421, 34.0424, 8.89801, 1.92096, 4.00516, -0.0951428, -0.00420986, -0.00133156, 0.00517303, 0.0169572, -0.0125383, 0.00351948, 0.0693028, -0.018444, 0.00101611, -0.0830724, 0.201225, 0.0413075, 0.470308, -0.540269, 0.33623, -2.08058, -2.16517, -0.131955, 0.468942, -0.543669, 0.3305, -2.0816, -2.16194, -0.100102, -0.0131339, 0.0622436, 0.00749268, 0.00787851, -0.00551959, -0.0030293
0.155088, 1.69588, -1.22895, -1.54521, -0.902472, -1.20762, 1.22629, -1.30245, 0.0305745, 0.0039979, 0.00402208, -0.0318284, -0.160249, -0.00112043, 0.00416365, -2.62261, 68.3496, 34.0027, 8.85834, 1.89624, 4.00516, -0.101552, -0.00428207, -0.00131643, 0.00517155, 0.0170294, -0.0127342, 0.00354288, 0.0712901, -0.0174619, 0.00118784, -0.0846586, 0.205511, 0.0407836, 0.470295, -0.540207, 0.336237, -2.08051, -2.16516, -0.131994, 0.468946, -0.543677, 0.330497, -2.08162, -2.16199, -0.0998596, -0.0132738, 0.0630144, 0.00760737, 0.0068391, -0.0067771, -0.00303336
0.156088, 1.6959, -1.22894, -1.54521, -0.902512, -1.20777, 1.22629, -1.30246, 0.0261174, 0.00619193, 0.00358953, -0.0362646, -0.157601, -0.0010806, 0.00598454, -2.62261, 68.1989, 33.967, 8.85834, 1.87793, 4.01248, -0.0557752, -0.00435054, -0.00129948, 0.00516721, 0.0171017, -0.0129283, 0.003554, 0.0721115, -0.0162474, 0.00196529, -0.0848442, 0.206604, 0.0394919, 0.470282, -0.540144, 0.336245, -2.08045, -2.16514, -0.132034, 0.468953, -0.543681, 0.330497, -2.08162, -2.16204, -0.0996212, -0.0134137, 0.0637885, 0.00772302, 0.00554698, -0.00698574, -0.00224731
0.157088, 1.69593, -1.22893, -1.54519, -0.902553, -1.20792, 1.22629, -1.30245, 0.0245818, 0.00579852, 0.0068094, -0.0386302, -0.150328, -0.00076718, 0.00551891, -2.69799, 68.1274, 33.7806, 8.82263, 1.84131, 4.01248, -0.0814099, -0.00441702, -0.0012779, 0.00515979, 0.0171564, -0.0131206, 0.00356202, 0.0708474, -0.0174897, 0.00263395, -0.0791514, 0.201137, 0.0449121, 0.470268, -0.54008, 0.336252, -2.08038, -2.16513, -0.132074, 0.468964, -0.543683, 0.330501, -2.08163, -2.1621, -0.0994047, -0.0135538, 0.064566, 0.00783963, 0.00662724, -0.0050122, -0.00131355
0.158088, 1.69594, -1.22892, -1.54519, -0.902594, -1.20806, 1.22629, -1.30245, 0.0205446, 0.0090627, 0.00458062, -0.0406309, -0.149492, -0.00054654, 0.00462274, -2.65832, 67.9053, 33.7806, 8.78693, 1.81018, 4.01248, -0.0951428, -0.00449037, -0.00126518, 0.00515236, 0.0172219, -0.0133181, 0.003588, 0.072859, -0.0154514, 0.00375144, -0.0804344, 0.204766, 0.0431289, 0.470255, -0.540016, 0.33626, -2.08032, -2.16511, -0.132115, 0.468966, -0.543691, 0.330504, -2.08166, -2.16215, -0.0991696, -0.013694, 0.0653468, 0.00795721, 0.00456905, -0.00647695, -0.000353146
0.159088, 1.69596, -1.22891, -1.54518, -0.902643, -1.2082, 1.22628, -1.30245, 0.0206096, 0.00864033, 0.00707599, -0.0429969, -0.144625, -0.0017131, 0.00266197, -2.62261, 67.7942, 33.7449, 8.78693, 1.79187, 4.04819, -0.0750012, -0.00456101, -0.00125052, 0.00514991, 0.0172885, -0.0135004, 0.00359849, 0.0713689, -0.01692, 0.0039443, -0.0780349, 0.200613, 0.0504636, 0.470241, -0.53995, 0.336268, -2.08025, -2.1651, -0.132156, 0.468969, -0.543695, 0.330502, -2.08166, -2.1622, -0.0989508, -0.0138343, 0.0661309, 0.00807574, 0.00584899, -0.00418963, 0.000141708
0.160088, 1.69597, -1.2289, -1.54517, -0.902692, -1.20833, 1.22628, -1.30245, 0.0215723, 0.00835873, 0.00760187, -0.0444515, -0.141488, -0.00143307, -0.000388254, -2.62261, 67.6831, 33.6338, 8.78693, 1.78638, 4.05551, -0.00999879, -0.00463132, -0.00123566, 0.00514409, 0.0173472, -0.0136809, 0.00360516, 0.0706412, -0.0184039, 0.00373864, -0.0766105, 0.19881, 0.0574701, 0.470227, -0.539884, 0.336276, -2.08018, -2.16508, -0.132197, 0.468973, -0.543698, 0.330504, -2.08166, -2.16225, -0.0987433, -0.0139747, 0.0669183, 0.00819524, 0.00715748, -0.00258798, 0.000123046
0.161088, 1.69598, -1.22888, -1.54517, -0.902741, -1.20846, 1.22628, -1.30244, 0.0211625, 0.0106766, 0.00528249, -0.0447359, -0.139094, -0.00229261, 0.00209475, -2.69799, 67.4649, 33.6338, 8.74725, 1.77997, 4.09122, -0.0685925, -0.00470183, -0.00122091, 0.00513774, 0.0174125, -0.0138667, 0.00362696, 0.07125, -0.0180006, 0.00420887, -0.077987, 0.199715, 0.054876, 0.470213, -0.539817, 0.336284, -2.08012, -2.16506, -0.132239, 0.468977, -0.543701, 0.330507, -2.08167, -2.1623, -0.0985222, -0.0141153, 0.067709, 0.00831571, 0.00665595, -0.00248797, 0.00061888
0.162088, 1.69599, -1.22888, -1.54516, -0.902794, -1.20858, 1.22627, -1.30243, 0.0148292, 0.011225, 0.00461061, -0.0482526, -0.132846, -0.00672415, 0.00177145, -2.65832, 67.4252, 33.5941, 8.71155, 1.77997, 4.10586, -0.0750012, -0.00477552, -0.00120902, 0.00513817, 0.0174738, -0.0140348, 0.00364561, 0.072221, -0.0150951, 0.00375205, -0.0800294, 0.193853, 0.0541576, 0.470199, -0.539749, 0.336293, -2.08005, -2.16505, -0.132281, 0.468977, -0.543705, 0.330502, -2.08167, -2.16233, -0.0983241, -0.0142558, 0.0685029, 0.00843714, 0.00363449, -0.00270279, 0.000220684
0.163088, 1.69599, -1.22887, -1.54516, -0.902857, -1.2087, 1.22627, -1.30243, 0.0102875, 0.00941876, 0.00718891, -0.0535179, -0.123508, -0.00487794, 0.000300809, -2.62261, 67.3538, 33.5584, 8.78693, 1.79187, 4.10586, -0.0484509, -0.00484778, -0.00119515, 0.00513616, 0.0175327, -0.0142094, 0.00365415, 0.0714676, -0.015722, 0.00323366, -0.0736448, 0.186237, 0.0606011, 0.470185, -0.539681, 0.336301, -2.07998, -2.16503, -0.132324, 0.46898, -0.543707, 0.330501, -2.08167, -2.16238, -0.0981235, -0.0143965, 0.0692999, 0.00855954, 0.00407438, -0.00105312, -7.31903e-05
0.164088, 1.69599, -1.22885, -1.54514, -0.902908, -1.20882, 1.22626, -1.30244, 0.00954906, 0.0116748, 0.00690964, -0.0526904, -0.121234, -0.0038196, -0.00114622, -2.69799, 67.1317, 33.483, 8.67188, 1.79828, 4.11319, -0.00999879, -0.00491831, -0.00118021, 0.0051254, 0.0175822, -0.0143868, 0.00365935, 0.0723628, -0.0155906, 0.00472102, -0.0710817, 0.187855, 0.0615921, 0.47017, -0.539612, 0.33631, -2.0799, -2.16502, -0.132367, 0.468983, -0.543708, 0.330508, -2.08166, -2.16244, -0.0979314, -0.0145372, 0.0701002, 0.0086829, 0.00389278, -0.00137468, 0.00137513
0.165088, 1.69599, -1.22884, -1.54514, -0.902973, -1.20893, 1.22626, -1.30243, -0.000814299, 0.0105307, 0.00403655, -0.0578824, -0.115035, -0.00303995, 0.00574903, -2.62261, 67.0206, 33.5187, 8.67188, 1.79828, 4.12051, -0.0621838, -0.00499417, -0.00117074, 0.00512333, 0.0176411, -0.0145575, 0.00368229, 0.0757965, -0.0113811, 0.00291998, -0.0708233, 0.183136, 0.0501821, 0.470156, -0.539541, 0.336318, -2.07983, -2.165, -0.132411, 0.468981, -0.543712, 0.330506, -2.08167, -2.16247, -0.0977342, -0.014678, 0.0709037, 0.00880724, -0.000389626, -0.00385375, -0.000697442
0.166088, 1.69598, -1.22883, -1.54513, -0.903038, -1.20904, 1.22626, -1.30243, -0.00229379, 0.012719, 0.00758491, -0.0612338, -0.111078, -0.00192208, 0.00326974, -2.54723, 66.9095, 33.4473, 8.63617, 1.823, 4.11319, -0.0356336, -0.00506823, -0.00115903, 0.00511714, 0.0176941, -0.0147317, 0.00368849, 0.074678, -0.0126595, 0.00516544, -0.0659359, 0.183433, 0.0575322, 0.470141, -0.539471, 0.336327, -2.07976, -2.16498, -0.132455, 0.468981, -0.543715, 0.330509, -2.08167, -2.16253, -0.0975422, -0.0148189, 0.0717102, 0.00893254, 0.000790336, -0.0022417, 0.00177659
0.167088, 1.69598, -1.22882, -1.54513, -0.903108, -1.20915, 1.22625, -1.30242, -0.000684743, 0.0104826, 0.00462268, -0.0607378, -0.107404, -0.00191505, 0.00395318, -2.58294, 66.8381, 33.483, 8.60046, 1.8349, 4.12692, -0.0750012, -0.00513947, -0.00114478, 0.00511552, 0.0177526, -0.0148948, 0.00369733, 0.0750349, -0.0134892, 0.00278517, -0.0668755, 0.179232, 0.058303, 0.470126, -0.539399, 0.336336, -2.07969, -2.16496, -0.132499, 0.468983, -0.543712, 0.330507, -2.08165, -2.16257, -0.0973556, -0.0149597, 0.0725199, 0.00905882, 0.00140414, -0.00137298, -0.000533629
0.168088, 1.69597, -1.2288, -1.54512, -0.903168, -1.20925, 1.22625, -1.30242, -0.00526888, 0.0147627, 0.00572551, -0.0630655, -0.104713, -0.000861846, 0.00117651, -2.50756, 66.6516, 33.5187, 8.414, 1.85321, 4.11319, -0.0292249, -0.00521691, -0.00113664, 0.00510621, 0.0177988, -0.0150647, 0.00371336, 0.0761566, -0.012157, 0.00571427, -0.0636417, 0.182561, 0.0603411, 0.470112, -0.539326, 0.336345, -2.07961, -2.16495, -0.132544, 0.468979, -0.543717, 0.330513, -2.08166, -2.16261, -0.0971752, -0.0151006, 0.0733327, 0.00918606, 8.60886e-05, -0.00218414, 0.00234188
0.169088, 1.69596, -1.22879, -1.54512, -0.903238, -1.20934, 1.22624, -1.30241, -0.00866729, 0.0133445, 0.00655126, -0.0642723, -0.102973, -0.00536045, 0.00670876, -2.43218, 66.6516, 33.5584, 8.33862, 1.87244, 4.11319, -0.0557752, -0.00529279, -0.00112718, 0.00510644, 0.017856, -0.01522, 0.00372955, 0.0772863, -0.0101658, 0.00479895, -0.0660021, 0.178283, 0.0539012, 0.470096, -0.539253, 0.336354, -2.07954, -2.16493, -0.132589, 0.468977, -0.543718, 0.330509, -2.08165, -2.16264, -0.0969981, -0.0152415, 0.0741485, 0.00931428, -0.00203345, -0.00242259, 0.00144372
0.170088, 1.69595, -1.22878, -1.54511, -0.903313, -1.20943, 1.22624, -1.30241, -0.0112834, 0.010324, 0.00809052, -0.0687495, -0.0973396, -0.00347681, 0.00354444, -2.3568, 66.6159, 33.5584, 8.29895, 1.90906, 4.09854, -0.0164075, -0.00536528, -0.00111467, 0.00510345, 0.017907, -0.0153746, 0.00372929, 0.0770001, -0.0111219, 0.0032204, -0.0622512, 0.172589, 0.0615553, 0.470081, -0.539179, 0.336364, -2.07946, -2.16491, -0.132635, 0.468977, -0.543715, 0.330509, -2.08162, -2.16269, -0.0968308, -0.0153825, 0.0749674, 0.00944347, -0.00128742, -0.00103074, 2.55635e-05
0.171088, 1.69593, -1.22876, -1.5451, -0.903387, -1.20951, 1.22623, -1.30241, -0.00989666, 0.0132185, 0.00612542, -0.0709105, -0.0930013, -0.00238089, 0.00201447, -2.28143, 66.5048, 33.5584, 8.18787, 1.93378, 4.09122, 0.00373412, -0.00543825, -0.00110253, 0.00509621, 0.0179498, -0.0155303, 0.00372946, 0.0759841, -0.0127823, 0.00394917, -0.0618416, 0.173648, 0.0672249, 0.470066, -0.539104, 0.336373, -2.07939, -2.16489, -0.132681, 0.468976, -0.543712, 0.330513, -2.0816, -2.16275, -0.0966717, -0.0155234, 0.0757893, 0.00957364, 0.000221153, 0.000750586, 0.00097941
0.172088, 1.69591, -1.22875, -1.5451, -0.903469, -1.2096, 1.22622, -1.30241, -0.0105826, 0.0116699, 0.00286918, -0.0744986, -0.0898003, -0.00678228, 0.00140374, -2.13067, 66.5445, 33.6338, 8.15216, 1.9704, 4.09854, 0.0101428, -0.00551593, -0.0010954, 0.00509822, 0.0180085, -0.0156797, 0.00373912, 0.0758054, -0.0123049, 0.00104299, -0.0686047, 0.168631, 0.0702444, 0.47005, -0.539028, 0.336383, -2.07931, -2.16487, -0.132728, 0.468971, -0.543712, 0.330508, -2.08158, -2.16278, -0.096501, -0.0156643, 0.0766142, 0.00970477, -0.00051023, 0.0021911, -0.00171934
0.173088, 1.6959, -1.22873, -1.5451, -0.903557, -1.20968, 1.22621, -1.3024, -0.0105593, 0.011099, 0.00065395, -0.0778932, -0.0874494, -0.00564151, 0.00214276, -2.13067, 66.4334, 33.7052, 8.15216, 2.00702, 4.11319, -0.0164075, -0.00558468, -0.00108052, 0.00509499, 0.0180707, -0.0158348, 0.00373477, 0.0758067, -0.0132759, -0.000449067, -0.0699557, 0.167991, 0.0726922, 0.470035, -0.538951, 0.336392, -2.07923, -2.16485, -0.132775, 0.468973, -0.543703, 0.330509, -2.08154, -2.16283, -0.0963224, -0.0158053, 0.0774421, 0.00983689, 0.000264372, 0.00329616, -0.00309548
0.174088, 1.69588, -1.22872, -1.5451, -0.903633, -1.20975, 1.2262, -1.30239, -0.0142614, 0.0101672, 0.00110524, -0.0786872, -0.0855958, -0.00785085, 0.00781428, -1.97991, 66.4691, 33.8202, 7.9657, 2.04364, 4.08389, -0.0557752, -0.0056646, -0.00107504, 0.00509523, 0.0181208, -0.0159765, 0.00375545, 0.0774553, -0.0113781, -0.00094088, -0.0703118, 0.165226, 0.0653239, 0.470019, -0.538874, 0.336402, -2.07915, -2.16483, -0.132822, 0.468965, -0.543703, 0.330505, -2.08152, -2.16285, -0.0961688, -0.0159461, 0.0782729, 0.00996998, -0.00172664, 0.00249833, -0.00365687
0.175088, 1.69585, -1.22872, -1.54509, -0.903719, -1.20982, 1.22619, -1.30239, -0.0180461, 0.00801572, 0.00535524, -0.0841473, -0.079528, -0.00902043, 0.00498597, -1.90453, 66.5802, 33.7806, 7.85065, 2.08118, 4.04086, -0.0356336, -0.00573883, -0.00106286, 0.00509531, 0.0181659, -0.0161154, 0.003749, 0.0763662, -0.0118538, -0.00139771, -0.066836, 0.158409, 0.0737334, 0.470003, -0.538796, 0.336412, -2.07907, -2.16481, -0.13287, 0.468964, -0.543697, 0.330503, -2.08148, -2.1629, -0.0960268, -0.016087, 0.0791067, 0.010104, -0.00144841, 0.00450047, -0.00382048
0.176088, 1.69583, -1.22869, -1.54509, -0.903819, -1.20989, 1.22617, -1.3024, -0.0219977, 0.0117577, 0.00641311, -0.0893685, -0.0750311, -0.00616206, 0.00107095, -1.78948, 66.4691, 33.8202, 7.89032, 2.12421, 4.0198, 0.0357776, -0.00580992, -0.00105065, 0.00508998, 0.0182219, -0.0162689, 0.00373203, 0.0762679, -0.0120633, 0.000900062, -0.0627449, 0.160915, 0.0806932, 0.469987, -0.538717, 0.336422, -2.07899, -2.16479, -0.132919, 0.468963, -0.543688, 0.330506, -2.08143, -2.16296, -0.0958595, -0.0162278, 0.0799433, 0.0102391, -0.00129535, 0.0050812, -0.00141479
0.177088, 1.69581, -1.22868, -1.54509, -0.903906, -1.20996, 1.22616, -1.30239, -0.024706, 0.0118361, 0.00640649, -0.0883592, -0.0720603, -0.00791684, 0.00243199, -1.6784, 66.4691, 33.8917, 7.73956, 2.17914, 3.97677, -0.00267457, -0.00588674, -0.00104142, 0.00508959, 0.0182754, -0.0164124, 0.00373974, 0.0778447, -0.0104289, 0.0010739, -0.0618334, 0.158337, 0.0771671, 0.469971, -0.538637, 0.336433, -2.07891, -2.16477, -0.132968, 0.468959, -0.543683, 0.330504, -2.0814, -2.163, -0.095703, -0.0163686, 0.0807828, 0.0103751, -0.00300065, 0.0042689, -0.00131363
0.178088, 1.69578, -1.22866, -1.54508, -0.904002, -1.21002, 1.22615, -1.30239, -0.0228701, 0.0119218, 0.00737113, -0.0922533, -0.0688784, -0.0101057, 0.00282508, -1.60302, 66.4691, 33.9313, 7.66418, 2.20935, 3.95572, -0.0292249, -0.00595949, -0.0010297, 0.00508766, 0.0183301, -0.0165538, 0.00373309, 0.0756812, -0.0125712, 0.000624603, -0.0633517, 0.155941, 0.0839284, 0.469954, -0.538556, 0.336443, -2.07883, -2.16475, -0.133017, 0.468957, -0.543674, 0.330504, -2.08136, -2.16304, -0.0955492, -0.0165093, 0.0816252, 0.0105121, -0.00109803, 0.00740993, -0.0013474
0.179088, 1.69575, -1.22865, -1.54509, -0.904104, -1.21009, 1.22613, -1.30238, -0.0224326, 0.0126248, 0.00318926, -0.0961864, -0.0668079, -0.0109415, 0.00157397, -1.48797, 66.5802, 34.0424, 7.62848, 2.24048, 3.91269, -0.0164075, -0.00603781, -0.00102195, 0.00509361, 0.0183924, -0.0166906, 0.0037311, 0.0755019, -0.0131223, -0.00107753, -0.0684878, 0.156005, 0.0881611, 0.469938, -0.538474, 0.336454, -2.07875, -2.16473, -0.133067, 0.468951, -0.543668, 0.330495, -2.08131, -2.16308, -0.0953917, -0.01665, 0.0824704, 0.0106501, -0.000757205, 0.00872655, -0.00288333
0.180088, 1.69573, -1.22864, -1.54508, -0.904205, -1.21015, 1.22612, -1.30239, -0.0241832, 0.0128034, 0.00370942, -0.0976411, -0.0651429, -0.00713906, -0.000759491, -1.41259, 66.5802, 34.0027, 7.51739, 2.27161, 3.87607, 0.0357776, -0.00611161, -0.00101015, 0.00509191, 0.0184437, -0.0168301, 0.00371296, 0.0766508, -0.0135471, -0.00057035, -0.0642192, 0.157556, 0.0913154, 0.469921, -0.538392, 0.336464, -2.07866, -2.16471, -0.133117, 0.468949, -0.543657, 0.330495, -2.08125, -2.16314, -0.0952458, -0.0167906, 0.0833185, 0.010789, -0.000409451, 0.00838068, -0.00244677
0.181088, 1.6957, -1.22862, -1.54508, -0.904305, -1.2102, 1.2261, -1.30238, -0.0277495, 0.0137219, 0.00120113, -0.0979588, -0.063958, -0.0087989, 0.00077345, -1.37688, 66.5445, 34.0781, 7.36664, 2.30823, 3.83304, 0.00373412, -0.0061864, -0.000998145, 0.00509039, 0.0185002, -0.0169746, 0.00370533, 0.0790337, -0.0110764, -0.000904, -0.0666625, 0.157581, 0.0861228, 0.469904, -0.538309, 0.336475, -2.07858, -2.16469, -0.133167, 0.468947, -0.543647, 0.330495, -2.08119, -2.16318, -0.0950883, -0.0169311, 0.0841693, 0.010929, -0.00293824, 0.00682893, -0.00294573
0.182088, 1.69567, -1.2286, -1.54508, -0.904417, -1.21026, 1.22609, -1.30238, -0.0302963, 0.0119138, 0.00259412, -0.100701, -0.0626654, -0.0145584, 0.00058537, -1.33721, 66.6159, 34.1535, 7.33093, 2.33295, 3.7836, 0.00373412, -0.0062616, -0.000985616, 0.00509465, 0.0185599, -0.017113, 0.00369147, 0.0792512, -0.00973163, -0.00222461, -0.0707421, 0.152771, 0.0877083, 0.469887, -0.538224, 0.336486, -2.07849, -2.16467, -0.133218, 0.468946, -0.543636, 0.330489, -2.08113, -2.16323, -0.0949349, -0.0170715, 0.0850228, 0.0110699, -0.00446116, 0.0076209, -0.00410669
0.183088, 1.69564, -1.22859, -1.54508, -0.904525, -1.21031, 1.22607, -1.30238, -0.0303469, 0.0104698, 0.00310672, -0.103509, -0.0572145, -0.0188101, 0.00044255, -1.26183, 66.6913, 34.1178, 7.21588, 2.36316, 3.73324, 0.00373412, -0.00633612, -0.000972458, 0.00509544, 0.0186081, -0.017246, 0.00367383, 0.0778325, -0.0103906, -0.00367651, -0.0727314, 0.145825, 0.0927496, 0.46987, -0.538139, 0.336497, -2.07841, -2.16465, -0.13327, 0.468945, -0.543623, 0.330486, -2.08107, -2.16329, -0.0948001, -0.0172118, 0.0858791, 0.0112118, -0.00404963, 0.0101369, -0.00519717
0.184088, 1.6956, -1.22858, -1.54507, -0.904638, -1.21037, 1.22606, -1.30238, -0.0335647, 0.013337, 0.00340574, -0.107164, -0.0572264, -0.018433, -0.0011238, -1.18645, 66.727, 34.0781, 7.14447, 2.37598, 3.71127, 0.0431018, -0.00641217, -0.000960876, 0.00509464, 0.0186581, -0.0173847, 0.00365574, 0.0787668, -0.00957137, -0.00217802, -0.0729769, 0.1499, 0.0948378, 0.469853, -0.538053, 0.336508, -2.07832, -2.16463, -0.133322, 0.468942, -0.543611, 0.330485, -2.08101, -2.16335, -0.0946584, -0.017352, 0.0867382, 0.0113547, -0.00491398, 0.00980292, -0.003706
0.185088, 1.69557, -1.22857, -1.54507, -0.904753, -1.21042, 1.22605, -1.30238, -0.0350117, 0.0130337, -0.000951056, -0.109948, -0.0580598, -0.0169427, 0.000738281, -1.15075, 66.8738, 34.2289, 7.06909, 2.40619, 3.66092, 0.00373412, -0.00649038, -0.000949209, 0.00510265, 0.0187172, -0.0175154, 0.00364189, 0.0807208, -0.00888816, -0.00406066, -0.0768217, 0.152364, 0.0920897, 0.469836, -0.537967, 0.33652, -2.07823, -2.1646, -0.133374, 0.468939, -0.543599, 0.330475, -2.08094, -2.16339, -0.0945145, -0.0174921, 0.0875999, 0.0114985, -0.00573197, 0.00900821, -0.00571748
0.186088, 1.69553, -1.22855, -1.54506, -0.904871, -1.21046, 1.22604, -1.30238, -0.0338615, 0.016422, 0.00443274, -0.112957, -0.0482035, -0.011766, 0.000514253, -1.07537, 66.8738, 34.1535, 7.02942, 2.4126, 3.62521, 0.00373412, -0.00656466, -0.000935041, 0.00509897, 0.0187589, -0.0176531, 0.00361956, 0.0773559, -0.0132874, -0.000254251, -0.0641645, 0.151056, 0.102352, 0.469818, -0.537879, 0.336531, -2.07815, -2.16458, -0.133427, 0.468938, -0.543585, 0.330478, -2.08087, -2.16346, -0.0943842, -0.0176321, 0.0884643, 0.0116434, -0.00145925, 0.0127789, -0.00142279
