alisrour97/Franka_experiments/Real_Robot_scripts/servo-franka/Data2/log_dyn_PI2_7.csv
Time,q1,q2,q3,q4,q5,q6,q7,dq1,dq2,dq3,dq4,dq5,dq6,dq7,t1,t2,t3,t4,t5,t6,t7,ex1,ex2,ex3,ex4,ex5,ex6,ev1,ev2,ev3,ev4,ev5,ev6,xd,yd,zd,uxd,uyd,uzd,x,y,z,ux,uy,uz,vxd,vyd,vzd,vx,vy,vz
7.32422e-07, 1.69142, -1.22809, -1.53975, -0.900399, -1.19182, 1.22822, -1.30262, 0.0092307, 0.00626358, 0.00971356, -0.00119678, 0.0082284, 0.0033459, -0.00103231, -1.45226, 62.4185, 30.4679, 7.44202, 1.5401, 3.36062, -0.153737, 0.000498333, -0.00178057, 0.00225937, 0.00238864, 0.00204575, 0.000442375, -0.00843068, -0.00860266, 0.0068189, 0.0137842, 0.000919311, 0.0184103, 0.471008, -0.543389, 0.335894, -2.08385, -2.16584, -0.129887, 0.469109, -0.542642, 0.333768, -2.08202, -2.16322, -0.129218, -1.41255e-05, -9.11997e-05, -6.59526e-05, 0.00852211, 0.00753426, 0.00771637
0.013199, 1.6915, -1.22805, -1.53962, -0.900409, -1.19173, 1.22823, -1.30263, 0.0099581, 0.0047382, 0.0139483, -0.000277097, 0.00547324, -0.000172041, -0.00100629, -1.52764, 62.7875, 30.5433, 7.47772, 1.52179, 3.38901, -0.133595, 0.000584438, -0.0016991, 0.00219523, 0.00223688, 0.00208269, 0.000250537, -0.00909075, -0.00863243, 0.00723559, 0.0133662, -0.000406507, 0.0193862, 0.471008, -0.543389, 0.335894, -2.08385, -2.16584, -0.129887, 0.469211, -0.542544, 0.333868, -2.08186, -2.16353, -0.12949, -2.13283e-05, -0.000136675, -0.000102379, 0.00853607, 0.00807752, 0.00819294
0.014199, 1.6915, -1.22805, -1.53962, -0.900409, -1.19173, 1.22823, -1.30263, 0.0099581, 0.0047382, 0.0139483, -0.000277097, 0.00547324, -0.000172041, -0.00100629, -1.52764, 62.7875, 30.5433, 7.47772, 1.52179, 3.38901, -0.133595, 0.00058445, -0.0016991, 0.00219523, 0.00223687, 0.00208269, 0.000250535, -0.00914563, -0.00864111, 0.00726753, 0.0133946, -0.000396854, 0.0193254, 0.471008, -0.543389, 0.335894, -2.08385, -2.16584, -0.129887, 0.469211, -0.542544, 0.333868, -2.08186, -2.16353, -0.12949, -2.91898e-05, -0.000186294, -0.000142179, 0.00853607, 0.00807752, 0.00819294
0.015199, 1.6915, -1.22805, -1.53962, -0.900409, -1.19173, 1.22823, -1.30263, 0.0099581, 0.0047382, 0.0139483, -0.000277097, 0.00547324, -0.000172041, -0.00100629, -1.52764, 62.7875, 30.5433, 7.47772, 1.52179, 3.38901, -0.133595, 0.000584481, -0.00169909, 0.00219521, 0.00223685, 0.00208269, 0.000250531, -0.00920526, -0.00865054, 0.00730229, 0.0134255, -0.000386203, 0.0192592, 0.471008, -0.543389, 0.335894, -2.08385, -2.16584, -0.129887, 0.469211, -0.542544, 0.333868, -2.08186, -2.16353, -0.12949, -3.77325e-05, -0.000240197, -0.00018547, 0.00853607, 0.00807752, 0.00819294
0.016199, 1.6915, -1.22805, -1.53962, -0.900409, -1.19173, 1.22823, -1.30263, 0.0099581, 0.0047382, 0.0139483, -0.000277097, 0.00547324, -0.000172041, -0.00100629, -1.52764, 62.7875, 30.5433, 7.47772, 1.52179, 3.38901, -0.133595, 0.00058454, -0.00169909, 0.00219517, 0.0022368, 0.00208271, 0.000250523, -0.00926979, -0.00866075, 0.00733996, 0.0134592, -0.00037451, 0.0191873, 0.471008, -0.543389, 0.335894, -2.08385, -2.16584, -0.129887, 0.469211, -0.542544, 0.333868, -2.08186, -2.16353, -0.12949, -4.69786e-05, -0.000298522, -0.00023237, 0.00853607, 0.00807752, 0.00819294
0.017199, 1.6915, -1.22805, -1.53962, -0.900409, -1.19173, 1.22823, -1.30263, 0.0099581, 0.0047382, 0.0139483, -0.000277097, 0.00547324, -0.000172041, -0.00100629, -1.52764, 62.7875, 30.5433, 7.47772, 1.52179, 3.38901, -0.133595, 0.000584639, -0.00169907, 0.00219512, 0.00223671, 0.00208273, 0.00025051, -0.00933937, -0.00867176, 0.00738063, 0.0134957, -0.000361731, 0.0191097, 0.471008, -0.54339, 0.335894, -2.08385, -2.16584, -0.129887, 0.469211, -0.542544, 0.333868, -2.08186, -2.16353, -0.12949, -5.69498e-05, -0.000361405, -0.000282992, 0.00853607, 0.00807752, 0.00819294
0.018199, 1.6915, -1.22805, -1.53962, -0.900409, -1.19173, 1.22823, -1.30263, 0.0099581, 0.0047382, 0.0139483, -0.000277097, 0.00547324, -0.000172041, -0.00100629, -1.52764, 62.7875, 30.5433, 7.47772, 1.52179, 3.38901, -0.133595, 0.000584785, -0.00169905, 0.00219503, 0.00223659, 0.00208276, 0.00025049, -0.00941415, -0.00868358, 0.00742439, 0.013535, -0.000347821, 0.0190261, 0.471008, -0.54339, 0.335894, -2.08385, -2.16584, -0.129886, 0.469211, -0.542544, 0.333868, -2.08186, -2.16353, -0.12949, -6.7667e-05, -0.000428975, -0.000337449, 0.00853607, 0.00807752, 0.00819294
0.019199, 1.6915, -1.22805, -1.53962, -0.900409, -1.19173, 1.22823, -1.30263, 0.0099581, 0.0047382, 0.0139483, -0.000277097, 0.00547324, -0.000172041, -0.00100629, -1.52764, 62.7875, 30.5433, 7.47772, 1.52179, 3.38901, -0.133595, 0.000584987, -0.00169901, 0.00219491, 0.00223642, 0.0020828, 0.000250463, -0.00949426, -0.00869625, 0.00747133, 0.0135773, -0.000332737, 0.0189363, 0.471008, -0.54339, 0.335893, -2.08385, -2.16584, -0.129886, 0.469211, -0.542544, 0.333868, -2.08186, -2.16353, -0.12949, -7.91509e-05, -0.000501362, -0.000395848, 0.00853607, 0.00807752, 0.00819294
0.020199, 1.6915, -1.22805, -1.53962, -0.900409, -1.19173, 1.22823, -1.30263, 0.0099581, 0.0047382, 0.0139483, -0.000277097, 0.00547324, -0.000172041, -0.00100629, -1.52764, 62.7875, 30.5433, 7.47772, 1.52179, 3.38901, -0.133595, 0.000585256, -0.00169897, 0.00219476, 0.00223619, 0.00208286, 0.000250426, -0.00957985, -0.00870978, 0.00752153, 0.0136227, -0.000316433, 0.0188402, 0.471008, -0.54339, 0.335893, -2.08385, -2.16584, -0.129886, 0.469211, -0.542544, 0.333868, -2.08186, -2.16353, -0.12949, -9.14213e-05, -0.000578688, -0.000458296, 0.00853607, 0.00807752, 0.00819294
0.021199, 1.6915, -1.22805, -1.53962, -0.900409, -1.19173, 1.22823, -1.30263, 0.0099581, 0.0047382, 0.0139483, -0.000277097, 0.00547324, -0.000172041, -0.00100629, -1.52764, 62.7875, 30.5433, 7.47772, 1.52179, 3.38901, -0.133595, 0.0005856, -0.00169892, 0.00219456, 0.0022359, 0.00208293, 0.00025038, -0.00967106, -0.0087242, 0.00757509, 0.0136713, -0.000298867, 0.0187376, 0.471008, -0.54339, 0.335893, -2.08385, -2.16584, -0.129885, 0.469211, -0.542544, 0.333868, -2.08186, -2.16353, -0.12949, -0.000104498, -0.000661074, -0.000524897, 0.00853607, 0.00807752, 0.00819294
0.022199, 1.6915, -1.22805, -1.53962, -0.900409, -1.19173, 1.22823, -1.30263, 0.0099581, 0.0047382, 0.0139483, -0.000277097, 0.00547324, -0.000172041, -0.00100629, -1.52764, 62.7875, 30.5433, 7.47772, 1.52179, 3.38901, -0.133595, 0.000586027, -0.00169885, 0.00219431, 0.00223554, 0.00208303, 0.000250323, -0.009768, -0.00873953, 0.00763208, 0.0137231, -0.000279994, 0.0186283, 0.471008, -0.543391, 0.335893, -2.08385, -2.16584, -0.129885, 0.469211, -0.542544, 0.333868, -2.08186, -2.16353, -0.12949, -0.000118398, -0.000748633, -0.000595748, 0.00853607, 0.00807752, 0.00819294
0.023199, 1.69157, -1.228, -1.5395, -0.90042, -1.19165, 1.22828, -1.30263, 0.00901949, 0.00641283, 0.0122329, -0.00248671, 0.00621672, 0.000979945, 0.000385452, -1.45226, 63.3389, 30.5433, 7.62848, 1.33136, 3.28097, -0.166554, 0.000660052, -0.00161789, 0.00212643, 0.00206492, 0.00207883, 8.7999e-05, -0.00993865, -0.00868244, 0.00791193, 0.0128606, 0.00164373, 0.0175226, 0.471008, -0.543391, 0.335892, -2.08385, -2.16584, -0.129884, 0.469292, -0.542479, 0.333944, -2.08178, -2.16377, -0.129691, -0.000133141, -0.000841478, -0.000670947, 0.00846832, 0.00810774, 0.00842227
0.024199, 1.69157, -1.22799, -1.53949, -0.900417, -1.19164, 1.22829, -1.30263, 0.00810177, 0.00584986, 0.00830166, -0.000825798, 0.00877338, 0.00682204, 0.00100295, -1.37688, 63.3032, 30.579, 7.59277, 1.33136, 3.25259, -0.186696, 0.000663275, -0.00161308, 0.00211744, 0.00204445, 0.00207005, 8.45999e-05, -0.0081756, -0.00848859, 0.00704027, 0.0166359, 0.00197995, 0.0133946, 0.471008, -0.543392, 0.335892, -2.08385, -2.16584, -0.129884, 0.469297, -0.542477, 0.333953, -2.08179, -2.16379, -0.129704, -0.000148743, -0.000939713, -0.000750586, 0.0082907, 0.00639519, 0.00721415
0.025199, 1.69158, -1.22799, -1.53949, -0.900416, -1.19164, 1.2283, -1.30263, 0.0100164, 0.000173608, 0.00581966, 0.0012103, 0.00734964, 0.00602653, -0.000789427, -1.41259, 63.0811, 30.4679, 7.51739, 1.30755, 3.22421, -0.147328, 0.000669515, -0.00160416, 0.00211427, 0.00203277, 0.00206663, 6.69808e-05, -0.00729258, -0.00848515, 0.00300466, 0.0133686, -0.00283964, 0.0135981, 0.471008, -0.543393, 0.335891, -2.08385, -2.16584, -0.129883, 0.469305, -0.542472, 0.333956, -2.08178, -2.16381, -0.129715, -0.00016522, -0.00104344, -0.000834754, 0.00815668, 0.00604071, 0.00300819
0.026199, 1.6916, -1.22799, -1.53948, -0.900418, -1.19163, 1.22831, -1.30264, 0.0155021, -0.002624, 0.00669968, 0.000239289, 0.00811066, 0.00515199, -0.00320505, -1.48797, 62.6407, 30.095, 7.40631, 1.2334, 3.20224, -0.0750012, 0.00067973, -0.00159154, 0.00211345, 0.00201843, 0.00207334, 3.90194e-05, -0.0103008, -0.0119292, 0.00124526, 0.0122488, -0.00646209, 0.0228712, 0.471007, -0.543393, 0.335891, -2.08385, -2.16584, -0.129882, 0.469317, -0.542462, 0.333957, -2.08176, -2.16384, -0.129739, -0.000182589, -0.00115275, -0.000923534, 0.0114078, 0.00931288, 0.00154518
0.027199, 1.69161, -1.22799, -1.5395, -0.900424, -1.19163, 1.22831, -1.30263, 0.0146483, -0.00186197, 0.00302667, -0.0037452, 0.0075864, 0.00445493, -0.0021367, -1.48797, 62.0496, 29.8728, 7.29126, 1.18396, 3.18118, -0.0750012, 0.000684893, -0.00158405, 0.00211777, 0.00202525, 0.00207006, 2.82495e-05, -0.0105086, -0.0115113, -0.000103202, 0.00655897, -0.0050331, 0.0223487, 0.471007, -0.543394, 0.33589, -2.08385, -2.16584, -0.129881, 0.469324, -0.542457, 0.333953, -2.08174, -2.16385, -0.129728, -0.000200863, -0.00126774, -0.00101701, 0.0109161, 0.00959353, 0.000165043
0.0281997, 1.69163, -1.22801, -1.5395, -0.900431, -1.19162, 1.22832, -1.30263, 0.0149876, -0.00258308, 0.00284353, -0.0059983, 0.00271429, 0.0034215, -0.00118711, -1.52764, 61.6092, 29.5395, 7.14447, 1.13544, 3.17386, -0.0814099, 0.000692791, -0.00157244, 0.00212848, 0.00203227, 0.0020794, 1.18066e-05, -0.0104998, -0.0114681, -0.000934022, 0.00211785, -0.00202464, 0.0218502, 0.471007, -0.543395, 0.335889, -2.08384, -2.16584, -0.129879, 0.469335, -0.542448, 0.333942, -2.08172, -2.16386, -0.12973, -0.000220057, -0.00138849, -0.00111525, 0.0108241, 0.00959017, -0.000753653
0.0291997, 1.69164, -1.22802, -1.53952, -0.900432, -1.19163, 1.22833, -1.30263, 0.0114367, -0.00287187, -0.00331438, -0.00610974, 0.00163861, 0.00268748, -0.00126612, -1.41259, 61.2759, 29.3134, 6.91833, 1.13544, 3.16653, -0.0685925, 0.000692758, -0.00156875, 0.00214145, 0.00204519, 0.00208666, 1.01692e-05, -0.00765447, -0.00818731, -0.00309813, -0.0038517, -0.00146868, 0.0150458, 0.471007, -0.543396, 0.335888, -2.08384, -2.16584, -0.129878, 0.469338, -0.542447, 0.333929, -2.0817, -2.16386, -0.129722, -0.000240182, -0.00151507, -0.00121833, 0.00755102, 0.00685348, -0.00333633
0.0301997, 1.69165, -1.22803, -1.53954, -0.90044, -1.19162, 1.22834, -1.30264, 0.0141871, -0.00518967, -0.00896166, -0.00817797, 0.000523408, 0.00776302, -0.00206479, -1.37688, 61.0538, 29.1269, 6.77154, 1.14734, 3.14548, -0.0356336, 0.000697417, -0.00155878, 0.00215771, 0.00205894, 0.00209607, -1.07908e-05, -0.00749755, -0.0100642, -0.00636429, -0.00642253, 0.000305655, 0.0171547, 0.471007, -0.543398, 0.335887, -2.08384, -2.16584, -0.129876, 0.469347, -0.542441, 0.333912, -2.08167, -2.16387, -0.129717, -0.000261251, -0.00164757, -0.00132632, 0.00929211, 0.00714555, -0.00675034
0.0311997, 1.69166, -1.22805, -1.53955, -0.900446, -1.19163, 1.22835, -1.30263, 0.0134798, -0.00776659, -0.0080897, -0.00647916, -0.00110354, 0.0131011, 0.000556256, -1.22613, 60.8713, 28.8691, 6.62079, 1.18396, 3.08047, -0.0878186, 0.000699339, -0.00155045, 0.00216759, 0.00206056, 0.00209404, -1.53551e-05, -0.00589557, -0.0103068, -0.00673882, -0.000994554, 0.00151909, 0.0120923, 0.471007, -0.543399, 0.335886, -2.08384, -2.16584, -0.129874, 0.469355, -0.542438, 0.333901, -2.08166, -2.16387, -0.129712, -0.000283275, -0.00178604, -0.00143928, 0.00955612, 0.00549312, -0.00748907
0.0321997, 1.69168, -1.22807, -1.53957, -0.900457, -1.19164, 1.22837, -1.30263, 0.018073, -0.0131774, -0.00926506, -0.00938039, -0.00240149, 0.0162484, 0.00111682, -1.15075, 60.8356, 28.6826, 6.5097, 1.22699, 3.03744, -0.10796, 0.000702788, -0.00153951, 0.00218375, 0.00206885, 0.00209756, -2.51301e-05, -0.00762285, -0.0138759, -0.0106086, -0.00235179, -0.000745747, 0.0175214, 0.471006, -0.543401, 0.335885, -2.08384, -2.16584, -0.129872, 0.469365, -0.542434, 0.333884, -2.08165, -2.16388, -0.129705, -0.000306264, -0.00193055, -0.00155726, 0.0128961, 0.00779546, -0.0112677
0.0331997, 1.69169, -1.22808, -1.53958, -0.900473, -1.19164, 1.22838, -1.30263, 0.0135124, -0.00839572, -0.0110091, -0.0109004, -0.00304532, 0.0204093, -0.000238796, -0.996025, 60.7245, 28.5319, 6.5097, 1.26453, 3.07315, -0.0814099, 0.000707929, -0.00153024, 0.00219584, 0.00208239, 0.00209487, -4.36094e-05, -0.0057388, -0.0119786, -0.00792619, -7.62883e-05, 0.00674069, 0.0143715, 0.471006, -0.543402, 0.335883, -2.08384, -2.16584, -0.12987, 0.469373, -0.542428, 0.333871, -2.08162, -2.16389, -0.129687, -0.000330225, -0.00208114, -0.00168032, 0.0111415, 0.00529439, -0.00897731
0.0341997, 1.6917, -1.22808, -1.5396, -0.900479, -1.19165, 1.22839, -1.30264, 0.015867, -0.00611828, -0.0156081, -0.00600492, -0.00410528, 0.0117374, -0.0025667, -0.809562, 60.538, 28.5319, 6.39465, 1.31946, 3.16653, -0.0164075, 0.000709128, -0.00152662, 0.00220607, 0.00210639, 0.00208628, -5.25816e-05, -0.0054565, -0.00967601, -0.00832026, -0.00988267, 0.00556902, 0.011934, 0.471006, -0.543404, 0.335882, -2.08384, -2.16584, -0.129868, 0.469376, -0.542427, 0.33386, -2.0816, -2.1639, -0.12965, -0.000355167, -0.00223786, -0.0018085, 0.00881281, 0.00482542, -0.00946902
0.0351997, 1.69172, -1.22807, -1.53963, -0.900486, -1.19166, 1.2284, -1.30263, 0.0172109, -0.00270637, -0.0147994, -0.00340478, -0.00388625, 0.00972699, -0.00123641, -0.734184, 60.2802, 28.4961, 6.32324, 1.34967, 3.2883, -0.0292249, 0.000714923, -0.00151809, 0.00221067, 0.00212448, 0.00207028, -5.85164e-05, -0.00620112, -0.00961607, -0.00580751, -0.00941113, 0.0075993, 0.00984637, 0.471005, -0.543406, 0.33588, -2.08384, -2.16584, -0.129865, 0.469384, -0.542422, 0.333854, -2.08159, -2.1639, -0.129612, -0.000381096, -0.00240075, -0.00194184, 0.00879112, 0.00500845, -0.00700386
0.0361997, 1.69174, -1.22808, -1.53965, -0.900493, -1.19166, 1.22841, -1.30263, 0.0189443, -0.00544842, -0.0178332, -0.00623554, -0.00285101, 0.016393, 0.000159069, -0.694511, 60.2444, 28.4961, 6.32324, 1.35608, 3.324, -0.0557752, 0.000720788, -0.00150595, 0.00222228, 0.00213644, 0.00206453, -7.3097e-05, -0.00662323, -0.0121005, -0.00828393, -0.0075286, 0.00785515, 0.0113599, 0.471005, -0.543408, 0.335878, -2.08384, -2.16584, -0.129862, 0.469395, -0.542416, 0.333841, -2.08157, -2.16392, -0.129591, -0.000408018, -0.00256985, -0.00208038, 0.0111409, 0.00573886, -0.00959711
0.0371997, 1.69175, -1.22808, -1.53966, -0.9005, -1.19167, 1.22844, -1.30263, 0.0182683, -0.00716178, -0.0151627, -0.00725718, -0.00147697, 0.0153956, -0.00040258, -0.583427, 60.062, 28.4208, 6.28357, 1.34418, 3.25259, -0.0420422, 0.000727364, -0.00149239, 0.00222032, 0.00212765, 0.00204003, -9.0618e-05, -0.00759178, -0.0124537, -0.00842004, -0.00583302, 0.00446776, 0.0136993, 0.471005, -0.543411, 0.335877, -2.08384, -2.16583, -0.129859, 0.469408, -0.542412, 0.333842, -2.08157, -2.16395, -0.129575, -0.000435936, -0.00274516, -0.00222414, 0.0114262, 0.00655512, -0.00973564
0.0381997, 1.69176, -1.22808, -1.53968, -0.90051, -1.19167, 1.22847, -1.30263, 0.0162435, -0.00629368, -0.0157921, -0.00975604, 0.000833573, 0.0257825, -0.00145518, -0.392998, 60.062, 28.4565, 6.32324, 1.29474, 3.13815, -0.00999879, 0.000729793, -0.00148197, 0.00222638, 0.00212192, 0.00202482, -0.000100072, -0.00696113, -0.0139422, -0.00734482, 0.00303825, 0.00881507, 0.0151585, 0.471004, -0.543413, 0.335874, -2.08384, -2.16583, -0.129855, 0.469418, -0.542411, 0.333834, -2.08157, -2.16397, -0.129563, -0.000464854, -0.00292672, -0.00237315, 0.0129451, 0.00564636, -0.00896575
0.0391997, 1.69178, -1.22808, -1.5397, -0.900522, -1.19167, 1.2285, -1.30263, 0.0152479, -0.00440713, -0.0169641, -0.0132692, 0.00146162, 0.0222268, -2.06852e-05, -0.357292, 60.0223, 28.5319, 6.43433, 1.27002, 3.05209, -0.0356336, 0.000736421, -0.00146694, 0.00223103, 0.00212026, 0.0020028, -0.000113881, -0.00819746, -0.0133791, -0.00727322, -0.00202375, 0.00882149, 0.0151895, 0.471004, -0.543416, 0.335872, -2.08384, -2.16583, -0.129852, 0.469432, -0.542406, 0.333828, -2.08157, -2.164, -0.12954, -0.000494774, -0.00311453, -0.00252743, 0.0123113, 0.00664505, -0.00884052
0.0401997, 1.69179, -1.22807, -1.53972, -0.900526, -1.19167, 1.22853, -1.30263, 0.0124652, -0.0029574, -0.0158758, -0.00982094, 0.001408, 0.0222777, 0.000732195, -0.242241, 59.9866, 28.5319, 6.43433, 1.25812, 3.03012, -0.0557752, 0.000739689, -0.00145673, 0.00223208, 0.0021097, 0.00198483, -0.000118386, -0.00649906, -0.0112522, -0.0052776, 0.00126221, 0.00992753, 0.00889887, 0.471003, -0.543419, 0.33587, -2.08384, -2.16583, -0.129848, 0.469441, -0.542405, 0.333824, -2.08158, -2.16402, -0.12953, -0.000525695, -0.00330858, -0.00268698, 0.010289, 0.00438012, -0.00722902
0.0411997, 1.6918, -1.22808, -1.53974, -0.900532, -1.19166, 1.22856, -1.30263, 0.00970006, -0.00437573, -0.0176482, -0.00904163, 0.00228959, 0.0251354, 0.000216863, -0.0914839, 60.062, 28.6429, 6.5097, 1.2215, 3.05942, -0.0484509, 0.000742975, -0.00144684, 0.00223862, 0.00210466, 0.00197551, -0.000126813, -0.00463877, -0.00989787, -0.00610312, 0.00341735, 0.00921622, 0.00521099, 0.471003, -0.543422, 0.335867, -2.08384, -2.16583, -0.129843, 0.46945, -0.542404, 0.333816, -2.08158, -2.16403, -0.129523, -0.000557617, -0.00350887, -0.00285182, 0.00894113, 0.00241493, -0.00845687
0.0421997, 1.69181, -1.22808, -1.53976, -0.900535, -1.19167, 1.22859, -1.30263, 0.00839615, -0.00506826, -0.0170428, -0.0011976, 0.00175969, 0.0218414, -0.00104222, 0.0196001, 60.1334, 28.6826, 6.54541, 1.21509, 3.11618, -0.0164075, 0.000744236, -0.001438, 0.0022437, 0.0020959, 0.00196199, -0.000133658, -0.00226049, -0.00690969, -0.00528963, 0.00483981, 0.0066211, -0.00182536, 0.471002, -0.543426, 0.335864, -2.08384, -2.16583, -0.129839, 0.469458, -0.542405, 0.333808, -2.08158, -2.16405, -0.129515, -0.000590537, -0.00371538, -0.00302192, 0.00603829, -0.000386963, -0.00810268
0.0431997, 1.69182, -1.22808, -1.53978, -0.900541, -1.19167, 1.22863, -1.30264, 0.00738584, -0.00466736, -0.0204547, -0.00329029, 0.00140744, 0.0257788, -0.00262759, 0.134651, 60.173, 28.754, 6.65649, 1.20868, 3.13083, 0.0357776, 0.000744144, -0.00142896, 0.00224791, 0.00208065, 0.00194366, -0.000141366, -0.00151774, -0.00691917, -0.00601585, 0.00444817, 0.00968085, -0.00144695, 0.471002, -0.543429, 0.335861, -2.08384, -2.16583, -0.129834, 0.469467, -0.542407, 0.3338, -2.08159, -2.16407, -0.12951, -0.000624453, -0.00392809, -0.0031973, 0.00601413, -0.00122079, -0.00911072
0.0441997, 1.69183, -1.22809, -1.5398, -0.900553, -1.19167, 1.22867, -1.30263, 0.00925748, -0.00588761, -0.0230012, -0.0064753, 0.000461293, 0.0337402, -0.000564934, 0.134651, 60.2802, 28.8294, 6.84296, 1.2215, 3.14548, 0.00373412, 0.00074872, -0.00141404, 0.0022554, 0.00206754, 0.00192755, -0.000152682, -0.00187807, -0.00964153, -0.00733479, 0.00693086, 0.0137361, -0.000677335, 0.471001, -0.543433, 0.335858, -2.08384, -2.16582, -0.129829, 0.469481, -0.542405, 0.33379, -2.08159, -2.1641, -0.129504, -0.000659358, -0.00414696, -0.00337792, 0.0086375, -0.000769578, -0.01062
0.0451997, 1.69184, -1.22809, -1.53982, -0.900556, -1.19167, 1.22871, -1.30263, 0.00959554, -0.00412785, -0.0217305, -0.00602016, 0.000102365, 0.0337651, 0.000369363, 0.170357, 60.2802, 28.9048, 6.91833, 1.22699, 3.19583, -0.0164075, 0.000749648, -0.00140391, 0.00225652, 0.00204742, 0.00190615, -0.000152755, -0.00249711, -0.00992553, -0.00565238, 0.00834985, 0.0157454, -0.00151002, 0.471, -0.543437, 0.335855, -2.08383, -2.16582, -0.129823, 0.46949, -0.542407, 0.333786, -2.08161, -2.16411, -0.129499, -0.000695248, -0.00437195, -0.00356376, 0.00892389, -0.000630735, -0.0090571
0.0461997, 1.69185, -1.2281, -1.53983, -0.900556, -1.19167, 1.22875, -1.30263, 0.0114434, -0.00726568, -0.0199486, -0.00396848, -0.000848569, 0.0320467, 8.88279e-06, 0.134651, 60.4666, 28.9405, 6.91833, 1.25171, 3.2883, -0.00999879, 0.00075012, -0.00139213, 0.00226463, 0.00202747, 0.00189648, -0.000156574, -0.00303423, -0.010494, -0.00667246, 0.00854293, 0.0123741, -0.000826198, 0.471, -0.543442, 0.335851, -2.08383, -2.16582, -0.129818, 0.469501, -0.54241, 0.333774, -2.08162, -2.16413, -0.129506, -0.000732114, -0.004603, -0.00375481, 0.00939871, -0.000151285, -0.0101892
0.0471997, 1.69187, -1.22811, -1.53985, -0.900553, -1.19168, 1.22879, -1.30264, 0.0114512, -0.00839153, -0.0203966, -0.00261194, -0.00171956, 0.0324506, -0.00196077, 0.0196001, 60.6134, 29.0555, 6.91833, 1.28284, 3.3533, 0.0431018, 0.000750647, -0.00137897, 0.00227234, 0.00201283, 0.00187732, -0.000165163, -0.00248608, -0.0101545, -0.00711139, 0.00879928, 0.0121393, -0.000831894, 0.470999, -0.543446, 0.335848, -2.08383, -2.16582, -0.129812, 0.469513, -0.542412, 0.333762, -2.08163, -2.16415, -0.129498, -0.000769946, -0.00484006, -0.003951, 0.00902549, -0.000875846, -0.0108937
0.0481997, 1.69188, -1.22813, -1.53987, -0.900547, -1.19169, 1.22884, -1.30263, 0.0124757, -0.0108768, -0.0188651, 4.72333e-05, -0.00634149, 0.0378203, 0.000388243, -0.0161054, 60.8356, 29.0912, 6.84296, 1.30755, 3.41739, -0.00267457, 0.000746958, -0.00136888, 0.00228014, 0.00198594, 0.00186285, -0.00015447, -0.00103418, -0.0109562, -0.00708172, 0.0137011, 0.015875, -0.00558031, 0.470998, -0.543451, 0.335844, -2.08383, -2.16582, -0.129805, 0.469522, -0.542419, 0.33375, -2.08166, -2.16416, -0.129505, -0.000808735, -0.00508306, -0.00415231, 0.00984025, -0.00252399, -0.0113153
0.0491997, 1.6919, -1.22814, -1.53989, -0.90055, -1.1917, 1.2289, -1.30263, 0.015062, -0.010749, -0.0186994, -0.000877565, -0.00434742, 0.0488992, 0.00100481, -0.131157, 60.9824, 29.1666, 6.88263, 1.30115, 3.41006, -0.0228162, 0.000748878, -0.00135146, 0.00228534, 0.00195596, 0.00183816, -0.00016052, -0.00202108, -0.0149363, -0.00607614, 0.0237339, 0.0200658, -0.00241941, 0.470997, -0.543456, 0.33584, -2.08383, -2.16582, -0.129798, 0.469538, -0.54242, 0.33374, -2.08168, -2.16419, -0.129507, -0.000848468, -0.00533191, -0.00435868, 0.0137766, -0.00179048, -0.0104958
0.0501997, 1.69191, -1.22814, -1.53991, -0.900547, -1.1917, 1.22896, -1.30263, 0.012742, -0.00888459, -0.0158783, -0.000570819, -0.0062921, 0.0483475, 0.000669876, -0.206535, 61.0538, 29.1269, 6.88263, 1.27002, 3.38168, -0.0228162, 0.000749967, -0.0013339, 0.00228397, 0.00191067, 0.00180732, -0.000166082, -0.00161467, -0.0137552, -0.00369209, 0.0256449, 0.0230329, -0.00430515, 0.470997, -0.543461, 0.335835, -2.08383, -2.16581, -0.129791, 0.469555, -0.542424, 0.333737, -2.08172, -2.16423, -0.12952, -0.000889131, -0.00558652, -0.00457004, 0.012657, -0.00286155, -0.00838059
0.0511997, 1.69193, -1.22816, -1.53993, -0.900549, -1.1917, 1.22902, -1.30263, 0.0100329, -0.00713784, -0.0184246, -0.0012051, -0.0036332, 0.0568199, -0.00199482, -0.242241, 61.2402, 29.2777, 6.91833, 1.23981, 3.36062, 0.0431018, 0.000748135, -0.00131878, 0.00229253, 0.00187752, 0.00178539, -0.000171109, -0.0001665, -0.0137921, -0.00259801, 0.0324615, 0.0269901, -0.00447187, 0.470996, -0.543467, 0.335831, -2.08383, -2.16581, -0.129784, 0.469569, -0.542429, 0.333723, -2.08174, -2.16426, -0.129527, -0.00093071, -0.0058468, -0.00478633, 0.0127436, -0.00471838, -0.00774247
0.0521997, 1.69194, -1.22816, -1.53995, -0.900547, -1.19171, 1.22909, -1.30263, 0.0145744, -0.00795405, -0.02047, -0.00172342, -0.00216205, 0.0618197, -0.000346537, -0.281914, 61.387, 29.3134, 6.95801, 1.2215, 3.39633, 0.0165515, 0.00074753, -0.00130238, 0.00229562, 0.00183866, 0.00175595, -0.000172063, -0.00190287, -0.0172365, -0.00349748, 0.0348538, 0.0278393, -0.00201122, 0.470995, -0.543473, 0.335826, -2.08383, -2.16581, -0.129776, 0.469584, -0.542435, 0.333715, -2.08177, -2.16429, -0.129533, -0.000973186, -0.00611264, -0.00500747, 0.0160464, -0.00299067, -0.00868648
0.0531997, 1.69196, -1.22817, -1.53997, -0.900546, -1.19171, 1.22915, -1.30263, 0.0124108, -0.0067945, -0.0189937, -0.00197816, -0.00151758, 0.0590571, 0.00122704, -0.357292, 61.4584, 29.3531, 6.99371, 1.21509, 3.47507, -0.0228162, 0.00075018, -0.00128485, 0.00229663, 0.00180342, 0.00172641, -0.000171469, -0.00214909, -0.0159334, -0.00227196, 0.0345348, 0.0270389, -0.00495135, 0.470994, -0.543479, 0.335821, -2.08382, -2.16581, -0.129768, 0.469601, -0.542437, 0.333709, -2.0818, -2.16431, -0.129534, -0.00101654, -0.00638391, -0.00523338, 0.0147372, -0.00326078, -0.0076248
0.0541997, 1.69197, -1.22817, -1.53999, -0.90055, -1.19172, 1.22921, -1.30263, 0.0121366, -0.00699415, -0.0187509, -0.00307751, -0.0016877, 0.0656906, 0.00105538, -0.357292, 61.5695, 29.4245, 7.06909, 1.22699, 3.56845, -0.0292249, 0.000749729, -0.00127006, 0.00229867, 0.00176912, 0.00169176, -0.000174667, -0.00196856, -0.0173148, -0.00167369, 0.0401206, 0.03041, -0.00439191, 0.470993, -0.543485, 0.335816, -2.08382, -2.1658, -0.129759, 0.469614, -0.542443, 0.333701, -2.08183, -2.16435, -0.129528, -0.00106076, -0.00666049, -0.00546395, 0.0161007, -0.00375115, -0.0073345
0.0551997, 1.69198, -1.22818, -1.54002, -0.90055, -1.19173, 1.22927, -1.30263, 0.00887863, -0.00716074, -0.0177547, -0.00288352, -0.00130151, 0.0669023, -0.00122919, -0.357292, 61.6806, 29.4642, 7.1048, 1.22699, 3.66092, 0.0229602, 0.000749155, -0.00125536, 0.002301, 0.00173339, 0.00166014, -0.000177888, -0.000918718, -0.0159371, -0.000922642, 0.043, 0.0304244, -0.00525699, 0.470992, -0.543492, 0.33581, -2.08382, -2.1658, -0.12975, 0.469628, -0.54245, 0.333692, -2.08186, -2.16438, -0.129527, -0.00110581, -0.00694224, -0.0056991, 0.0147444, -0.00524128, -0.00694943
0.0561997, 1.69199, -1.22818, -1.54004, -0.90055, -1.19174, 1.22934, -1.30263, 0.0119327, -0.00150282, -0.0209982, -0.00284783, -0.00486585, 0.074135, -0.000107384, -0.317619, 61.6806, 29.5395, 7.14447, 1.21509, 3.69754, 0.00373412, 0.000748128, -0.00124103, 0.00229733, 0.00169143, 0.00161719, -0.000172191, -0.000977605, -0.0179408, 0.00192273, 0.0449931, 0.0429453, -0.00662859, 0.470991, -0.543499, 0.335805, -2.08382, -2.1658, -0.12974, 0.469641, -0.542457, 0.33369, -2.08191, -2.16441, -0.12952, -0.00115168, -0.007229, -0.00593872, 0.0168005, -0.00582581, -0.00443102
0.0571997, 1.69201, -1.22818, -1.54006, -0.900552, -1.19175, 1.22941, -1.30263, 0.0138598, -0.00151427, -0.0234034, -0.00273187, -0.00210831, 0.0759261, 0.00016577, -0.392998, 61.7163, 29.611, 7.18018, 1.17206, 3.71127, -0.00267457, 0.000751706, -0.00122073, 0.0022961, 0.00164732, 0.00157965, -0.000179504, -0.0019825, -0.0192611, 0.00133262, 0.04568, 0.0418527, -0.00572447, 0.47099, -0.543506, 0.335799, -2.08382, -2.16579, -0.129731, 0.46966, -0.542461, 0.333685, -2.08195, -2.16445, -0.129522, -0.00119834, -0.00752062, -0.00618267, 0.0180152, -0.00498053, -0.00514181
0.0581997, 1.69202, -1.22819, -1.54008, -0.900549, -1.19175, 1.22948, -1.30263, 0.0116379, -0.00336585, -0.0212787, -0.00181983, -0.00059623, 0.0723937, 0.000856498, -0.317619, 61.8274, 29.6506, 7.18018, 1.14093, 3.72592, -0.0228162, 0.000750501, -0.00120502, 0.00229548, 0.00159624, 0.00154649, -0.000174651, -0.00199048, -0.0177947, 0.00113492, 0.0459951, 0.0368266, -0.00824346, 0.470988, -0.543514, 0.335793, -2.08381, -2.16579, -0.12972, 0.469675, -0.542469, 0.333679, -2.08199, -2.16448, -0.129534, -0.00124576, -0.00781692, -0.00643084, 0.0164959, -0.00529851, -0.00553973
0.0591997, 1.69204, -1.22819, -1.5401, -0.900559, -1.19175, 1.22956, -1.30263, 0.0128912, -0.00466077, -0.0204561, -0.00473862, -0.000214362, 0.0789945, -0.000649704, -0.357292, 61.9385, 29.722, 7.33093, 1.12903, 3.73324, 0.0101428, 0.000756413, -0.00118153, 0.00229784, 0.00155162, 0.00151175, -0.00019442, -0.00318784, -0.0206212, 0.000978026, 0.0511445, 0.0388152, -0.00280177, 0.470987, -0.543521, 0.335786, -2.08381, -2.16579, -0.12971, 0.469697, -0.542469, 0.33367, -2.08201, -2.16454, -0.12954, -0.00129392, -0.00811772, -0.00668309, 0.0192221, -0.00427745, -0.00584681
0.0601997, 1.69205, -1.22819, -1.54012, -0.900561, -1.19176, 1.22963, -1.30263, 0.0135821, -0.00473422, -0.022847, -0.00315828, -0.00393534, 0.0792918, -0.000670495, -0.392998, 62.0139, 29.7974, 7.33093, 1.11072, 3.7543, 0.0165515, 0.000760999, -0.00116084, 0.00229755, 0.0015077, 0.00147661, -0.000203802, -0.00209416, -0.0199246, 0.000503225, 0.04842, 0.0420711, -0.00628127, 0.470986, -0.54353, 0.335779, -2.08381, -2.16578, -0.129699, 0.469716, -0.542472, 0.333664, -2.08204, -2.16458, -0.129543, -0.00134278, -0.00842284, -0.00693927, 0.0184994, -0.00561772, -0.00672061
0.0611997, 1.69207, -1.2282, -1.54015, -0.900562, -1.19176, 1.22971, -1.30263, 0.0130642, -0.00648768, -0.0248496, -0.00294014, -0.00336231, 0.0792828, -0.000209638, -0.392998, 62.1606, 29.8728, 7.36664, 1.11713, 3.76163, 0.0101428, 0.000762754, -0.00114118, 0.00229979, 0.00146117, 0.00144164, -0.000207598, -0.0016788, -0.0193807, -0.0009697, 0.0471747, 0.0400415, -0.00859954, 0.470984, -0.543538, 0.335772, -2.08381, -2.16578, -0.129687, 0.469734, -0.542478, 0.333654, -2.08208, -2.16462, -0.129548, -0.00139231, -0.00873205, -0.00719924, 0.0178681, -0.00613259, -0.00848314
0.0621997, 1.69208, -1.22822, -1.54017, -0.900569, -1.19177, 1.22978, -1.30262, 0.0151148, -0.00944542, -0.0238733, -0.0045581, -0.00708003, 0.0794647, 0.00646329, -0.357292, 62.3828, 29.9839, 7.47772, 1.12262, 3.76163, -0.0292249, 0.000765015, -0.00112219, 0.0023063, 0.00142104, 0.00141234, -0.000209644, -0.00259232, -0.0207873, -0.00246405, 0.0453273, 0.0404738, -0.0129706, 0.470983, -0.543547, 0.335765, -2.0838, -2.16578, -0.129675, 0.469751, -0.542482, 0.333641, -2.08211, -2.16465, -0.129551, -0.00144249, -0.00904515, -0.00746282, 0.0191359, -0.00525634, -0.0101233
0.0631997, 1.6921, -1.22823, -1.54019, -0.900566, -1.19177, 1.22985, -1.30262, 0.0208773, -0.00874515, -0.0236405, -0.00220318, -0.00909601, 0.0756345, 0.00375426, -0.357292, 62.4899, 29.9839, 7.44202, 1.11072, 3.74698, -0.00267457, 0.000768079, -0.00110323, 0.00230723, 0.00137239, 0.00138333, -0.000213003, -0.00491983, -0.0226504, -0.00206453, 0.0417592, 0.040988, -0.00763566, 0.470982, -0.543556, 0.335758, -2.0838, -2.16577, -0.129663, 0.469769, -0.542488, 0.333632, -2.08214, -2.16468, -0.129563, -0.00149327, -0.00936199, -0.00772991, 0.0208771, -0.00326061, -0.00969144
0.0641997, 1.69212, -1.22824, -1.54021, -0.900569, -1.19178, 1.22992, -1.30263, 0.0180734, -0.0101487, -0.0197307, -0.00230375, -0.0114063, 0.0759418, 0.00211233, -0.317619, 62.6764, 29.9482, 7.47772, 1.11713, 3.76163, 0.0165515, 0.00077285, -0.00108316, 0.00231016, 0.00132486, 0.00135807, -0.000226, -0.00425344, -0.0216673, -0.0011212, 0.0448625, 0.0414039, -0.00797579, 0.47098, -0.543565, 0.33575, -2.0838, -2.16577, -0.12965, 0.469787, -0.542491, 0.333622, -2.08217, -2.16473, -0.129579, -0.00154466, -0.00968246, -0.00800043, 0.0199019, -0.00442435, -0.00910432
0.0651997, 1.69213, -1.22825, -1.54024, -0.900569, -1.19179, 1.22999, -1.30263, 0.0161322, -0.0110024, -0.0234812, -0.00153564, -0.00858027, 0.0728795, 0.00212411, -0.281914, 62.8589, 30.0593, 7.47772, 1.11713, 3.74698, 0.00373412, 0.000774663, -0.00106524, 0.00231404, 0.00128034, 0.00132843, -0.0002262, -0.00354322, -0.0195749, -0.00279052, 0.041057, 0.0369461, -0.0118603, 0.470979, -0.543575, 0.335742, -2.0838, -2.16576, -0.129636, 0.469803, -0.542498, 0.33361, -2.0822, -2.16476, -0.129585, -0.00159663, -0.0100065, -0.00827433, 0.017725, -0.00527826, -0.0110735
0.0661997, 1.69215, -1.22826, -1.54026, -0.900574, -1.19179, 1.23006, -1.30263, 0.0184361, -0.0107443, -0.024483, -0.00278686, -0.0062149, 0.0695321, 0.00135959, -0.281914, 63.0057, 30.095, 7.5531, 1.11072, 3.76163, 0.0101428, 0.000781288, -0.00104364, 0.00231831, 0.00123804, 0.00130157, -0.000235476, -0.00593655, -0.0206761, -0.00335674, 0.0376709, 0.033961, -0.00786794, 0.470977, -0.543585, 0.335734, -2.08379, -2.16576, -0.129623, 0.469823, -0.5425, 0.333597, -2.08223, -2.16479, -0.129592, -0.00164918, -0.0103339, -0.00855153, 0.0186662, -0.00311077, -0.0115721
0.0671997, 1.69217, -1.22826, -1.54028, -0.900572, -1.19179, 1.23014, -1.30262, 0.0201164, -0.0063095, -0.0228283, -0.00102258, -0.00401415, 0.067304, 0.00273747, -0.281914, 62.97, 30.0236, 7.51739, 1.09241, 3.7543, -0.0356336, 0.00078895, -0.00102182, 0.00231055, 0.00118185, 0.001262, -0.000238232, -0.00795175, -0.0213345, 2.7723e-05, 0.0393858, 0.0353765, -0.00813553, 0.470975, -0.543595, 0.335725, -2.08379, -2.16576, -0.129608, 0.469843, -0.542503, 0.333597, -2.08227, -2.16484, -0.1296, -0.00170228, -0.0106648, -0.00883197, 0.0193215, -0.00194592, -0.00821821
0.0681997, 1.69219, -1.22827, -1.54031, -0.900572, -1.1918, 1.23021, -1.30262, 0.0189968, -0.00762637, -0.0250883, -0.00068164, -0.00658992, 0.0614163, 0.00216409, -0.317619, 63.1168, 30.095, 7.51739, 1.06769, 3.74057, -0.0420422, 0.000795411, -0.00100017, 0.00231421, 0.00114016, 0.0012331, -0.000245432, -0.00723639, -0.0189465, -0.0017278, 0.0315508, 0.0334592, -0.011343, 0.470974, -0.543606, 0.335716, -2.08379, -2.16575, -0.129594, 0.469862, -0.542505, 0.333585, -2.0823, -2.16487, -0.129603, -0.00175593, -0.0109989, -0.0091156, 0.0168447, -0.00281383, -0.010274
0.0691997, 1.6922, -1.22827, -1.54033, -0.900572, -1.1918, 1.23028, -1.30262, 0.0186591, -0.00507402, -0.0249843, -0.000454366, -0.00483289, 0.0619492, 6.09696e-05, -0.242241, 63.1168, 30.095, 7.51739, 1.06128, 3.71127, -0.00267457, 0.000800172, -0.000981812, 0.00230855, 0.00109001, 0.00119039, -0.000251493, -0.00794589, -0.0190327, 0.000139627, 0.0335381, 0.034902, -0.00964649, 0.470972, -0.543617, 0.335707, -2.08378, -2.16575, -0.129578, 0.469879, -0.542512, 0.333582, -2.08233, -2.16492, -0.129601, -0.0018101, -0.0113362, -0.00940234, 0.0169191, -0.00273445, -0.00860962
0.0701997, 1.69222, -1.22827, -1.54036, -0.90057, -1.19181, 1.23035, -1.30263, 0.0204486, -0.00337501, -0.0257811, 0.00280643, -0.00865923, 0.0623962, -0.00132628, -0.242241, 63.1168, 30.1346, 7.51739, 1.07959, 3.69021, 0.0357776, 0.000806379, -0.000961919, 0.00230551, 0.00104472, 0.0011512, -0.000259696, -0.00734034, -0.0188482, 0.0014893, 0.0330992, 0.0398933, -0.0115064, 0.47097, -0.543628, 0.335698, -2.08378, -2.16574, -0.129563, 0.469897, -0.542517, 0.333576, -2.08237, -2.16496, -0.129596, -0.00186479, -0.0116765, -0.00969213, 0.0167508, -0.00388784, -0.00765529
0.0711997, 1.69224, -1.22828, -1.54038, -0.900569, -1.19181, 1.23042, -1.30262, 0.022657, -0.00567793, -0.0277698, 0.00129488, -0.0105879, 0.0685024, 0.00132888, -0.281914, 63.2635, 30.095, 7.5531, 1.0741, 3.66092, -0.0228162, 0.000814887, -0.000938234, 0.00230642, 0.000993379, 0.0011221, -0.000264481, -0.00750957, -0.0210758, -0.000122393, 0.0347571, 0.0426464, -0.0126897, 0.470968, -0.54364, 0.335688, -2.08378, -2.16574, -0.129546, 0.469918, -0.542519, 0.333566, -2.0824, -2.16499, -0.129608, -0.00191999, -0.0120199, -0.00998491, 0.0188557, -0.00372503, -0.00958119
0.0721997, 1.69226, -1.22828, -1.54041, -0.900566, -1.19182, 1.23049, -1.30262, 0.0263431, -0.00294575, -0.031153, 0.00105761, -0.00884851, 0.0700828, 0.00186755, -0.281914, 63.2278, 30.1346, 7.5531, 1.0979, 3.68289, -0.0484509, 0.000821136, -0.000919626, 0.00230017, 0.000951209, 0.00107501, -0.000262506, -0.00933565, -0.0230959, 0.000436358, 0.0337733, 0.0452006, -0.0109549, 0.470966, -0.543652, 0.335678, -2.08377, -2.16573, -0.12953, 0.469935, -0.542525, 0.333562, -2.08245, -2.16503, -0.12959, -0.00197567, -0.0123662, -0.0102806, 0.0207726, -0.00227182, -0.00910358
0.0731997, 1.69229, -1.22829, -1.54044, -0.900564, -1.19183, 1.23056, -1.30262, 0.0267267, -0.00455906, -0.032071, -7.71801e-05, -0.0117808, 0.0671482, 0.000557099, -0.317619, 63.3389, 30.2457, 7.59277, 1.12262, 3.70395, -0.0292249, 0.000828376, -0.000899174, 0.00230424, 0.000917017, 0.00104428, -0.000269152, -0.00961729, -0.0226257, -0.00102974, 0.0285706, 0.0448386, -0.0101448, 0.470964, -0.543664, 0.335668, -2.08377, -2.16572, -0.129512, 0.469953, -0.542529, 0.333548, -2.08247, -2.16506, -0.12958, -0.00203183, -0.0127153, -0.0105792, 0.0201835, -0.00213654, -0.0107921
0.0741997, 1.69231, -1.22829, -1.54047, -0.900552, -1.19185, 1.23063, -1.30262, 0.0278089, -0.00470738, -0.0291017, 0.00495575, -0.0105529, 0.0711284, -0.00130591, -0.392998, 63.4103, 30.206, 7.51739, 1.17206, 3.69021, 0.0165515, 0.000834394, -0.000877932, 0.00230116, 0.000867881, 0.00100375, -0.000274595, -0.00942758, -0.0235641, 0.00117494, 0.0376622, 0.0451837, -0.0102767, 0.470962, -0.543677, 0.335657, -2.08377, -2.16572, -0.129495, 0.469972, -0.542535, 0.333541, -2.08251, -2.1651, -0.129577, -0.00208844, -0.0130671, -0.0108805, 0.021151, -0.00297643, -0.00897487
0.0751997, 1.69234, -1.22829, -1.54049, -0.900543, -1.19186, 1.2307, -1.30262, 0.0319279, -0.00230122, -0.0310931, 0.0076807, -0.0126204, 0.0683312, 0.000363675, -0.468376, 63.3746, 30.206, 7.47772, 1.19037, 3.69754, -0.0164075, 0.000842791, -0.0008568, 0.00229362, 0.000820145, 0.000958472, -0.000272969, -0.0105363, -0.0241892, 0.00204772, 0.033636, 0.0480442, -0.0124494, 0.47096, -0.54369, 0.335646, -2.08376, -2.16571, -0.129476, 0.469991, -0.54254, 0.333538, -2.08255, -2.16514, -0.129565, -0.00214551, -0.0134215, -0.0111846, 0.0217104, -0.00234503, -0.00826456
0.0761997, 1.69235, -1.2283, -1.54053, -0.900533, -1.19187, 1.23078, -1.30262, 0.0259998, -0.00589447, -0.0312291, 0.00874231, -0.0137712, 0.07256, 0.000727354, -0.43267, 63.5611, 30.2814, 7.47772, 1.19678, 3.68289, -0.0292249, 0.000843506, -0.000841088, 0.00229814, 0.000776167, 0.000927417, -0.000257422, -0.00695341, -0.021374, 0.000967544, 0.0380404, 0.0473644, -0.0204822, 0.470958, -0.543704, 0.335635, -2.08376, -2.16571, -0.129457, 0.470004, -0.542552, 0.333522, -2.0826, -2.16515, -0.129562, -0.00220301, -0.0137786, -0.0114914, 0.0189301, -0.0061882, -0.0101084
0.0771997, 1.69238, -1.22831, -1.54056, -0.900518, -1.19188, 1.23085, -1.30262, 0.0251393, -0.00559906, -0.0318432, 0.0104588, -0.0186155, 0.0751436, 0.00096726, -0.543754, 63.6325, 30.2457, 7.44202, 1.19037, 3.65451, -0.0420422, 0.000849743, -0.00081938, 0.00229498, 0.000724738, 0.000886615, -0.000256228, -0.00513397, -0.0203845, 0.00168642, 0.038727, 0.0529064, -0.0254948, 0.470956, -0.543717, 0.335624, -2.08375, -2.1657, -0.129438, 0.470024, -0.542559, 0.333514, -2.08265, -2.16519, -0.129558, -0.00226092, -0.014138, -0.0118008, 0.0179751, -0.00849498, -0.00996034
0.0781997, 1.6924, -1.2283, -1.5406, -0.900501, -1.19189, 1.23093, -1.30262, 0.0264931, -0.00113348, -0.0358216, 0.0116603, -0.0179308, 0.0726338, -0.00128221, -0.619133, 63.5214, 30.3568, 7.40631, 1.18396, 3.63254, 0.0101428, 0.000854222, -0.000801641, 0.00228604, 0.000678959, 0.000832727, -0.000248297, -0.00576726, -0.0197734, 0.00303093, 0.0343871, 0.0558878, -0.0252324, 0.470954, -0.543731, 0.335612, -2.08375, -2.16569, -0.129418, 0.470039, -0.542569, 0.333512, -2.0827, -2.16522, -0.129534, -0.00231925, -0.0144999, -0.0121127, 0.017333, -0.00846343, -0.00882814
0.0791997, 1.69243, -1.2283, -1.54063, -0.900493, -1.1919, 1.23099, -1.30262, 0.0265319, -0.00251832, -0.0368682, 0.00908267, -0.018184, 0.0685631, -0.000104525, -0.658806, 63.5968, 30.3925, 7.51739, 1.19678, 3.66092, -0.00999879, 0.000860013, -0.000783461, 0.00228643, 0.000640695, 0.000794043, -0.000241084, -0.0069846, -0.0195014, 0.00138516, 0.0287394, 0.0531339, -0.0251897, 0.470951, -0.543746, 0.3356, -2.08374, -2.16569, -0.129398, 0.470055, -0.542577, 0.333499, -2.08275, -2.16524, -0.129516, -0.00237796, -0.014864, -0.0124272, 0.0168991, -0.0073837, -0.0105708
0.0801997, 1.69246, -1.2283, -1.54066, -0.900473, -1.19192, 1.23106, -1.30262, 0.0261555, -0.00167845, -0.0368843, 0.0131117, -0.0138107, 0.0706168, -6.64601e-05, -0.809562, 63.5968, 30.3925, 7.51739, 1.20318, 3.67557, -0.00999879, 0.000866681, -0.000763394, 0.0022801, 0.000595111, 0.000747056, -0.000233567, -0.00675527, -0.0193042, 0.00289327, 0.0348627, 0.0511858, -0.0282171, 0.470949, -0.543761, 0.335587, -2.08374, -2.16568, -0.129377, 0.470072, -0.542586, 0.333494, -2.0828, -2.16527, -0.129497, -0.00243706, -0.0152304, -0.012744, 0.0167063, -0.00821649, -0.00942846
0.0811997, 1.69248, -1.22831, -1.5407, -0.900457, -1.19194, 1.23113, -1.30262, 0.0240263, -0.00195386, -0.037832, 0.011305, -0.0140885, 0.0723882, 0.000670187, -0.884941, 63.6325, 30.4322, 7.59277, 1.19037, 3.71127, -0.0292249, 0.000871721, -0.000745718, 0.00227944, 0.000558438, 0.000705332, -0.000221234, -0.00629499, -0.0187075, 0.00267305, 0.0351707, 0.0523109, -0.0305406, 0.470946, -0.543776, 0.335575, -2.08373, -2.16567, -0.129355, 0.470087, -0.542595, 0.333482, -2.08285, -2.16529, -0.129473, -0.00249652, -0.0155988, -0.0130633, 0.0160594, -0.00902988, -0.0100187
0.0821997, 1.69251, -1.22831, -1.54075, -0.90044, -1.19196, 1.2312, -1.30262, 0.0256044, -0.00213755, -0.0393865, 0.0132005, -0.0198122, 0.0727941, -0.00124682, -0.960319, 63.6682, 30.5036, 7.66418, 1.20868, 3.74698, 0.0165515, 0.000874383, -0.000730478, 0.0022776, 0.000526948, 0.000653977, -0.000209937, -0.00533181, -0.0183933, 0.00249268, 0.0324123, 0.0571539, -0.0319025, 0.470944, -0.543792, 0.335562, -2.08373, -2.16567, -0.129333, 0.4701, -0.542608, 0.333471, -2.0829, -2.16531, -0.129432, -0.00255634, -0.0159693, -0.0133848, 0.0157137, -0.0103364, -0.0106584
0.0831997, 1.69253, -1.22831, -1.54079, -0.900416, -1.19198, 1.23127, -1.30262, 0.0217758, -0.00142485, -0.0429126, 0.0155208, -0.0186284, 0.0696978, -0.000829851, -0.960319, 63.6682, 30.5433, 7.70386, 1.19678, 3.76163, 0.0165515, 0.000874376, -0.000717151, 0.00227312, 0.000484122, 0.000603327, -0.00018575, -0.00324484, -0.0147228, 0.00217718, 0.0292248, 0.0554263, -0.0399769, 0.470941, -0.543808, 0.335548, -2.08372, -2.16566, -0.129311, 0.470111, -0.542624, 0.333461, -2.08297, -2.16532, -0.129404, -0.0026165, -0.0163418, -0.0137086, 0.0120508, -0.0128708, -0.0115056
0.0841997, 1.69256, -1.22831, -1.54083, -0.900403, -1.192, 1.23134, -1.30262, 0.0217629, -0.00187778, -0.0405345, 0.0137701, -0.0182528, 0.0725475, -7.74967e-05, -1.07537, 63.7079, 30.5036, 7.89032, 1.19678, 3.77627, 0.00373412, 0.000881296, -0.0006976, 0.00227134, 0.000447239, 0.000555353, -0.000177374, -0.00440789, -0.0161631, 0.0030308, 0.0333759, 0.0562218, -0.0384722, 0.470939, -0.543824, 0.335534, -2.08372, -2.16565, -0.129287, 0.470128, -0.542633, 0.33345, -2.08302, -2.16535, -0.129372, -0.00267698, -0.0167161, -0.0140346, 0.0134184, -0.0121692, -0.0108526
0.0851997, 1.69259, -1.22832, -1.54088, -0.900381, -1.19202, 1.23142, -1.30261, 0.022569, -0.00292219, -0.0427715, 0.0152135, -0.0261386, 0.0746004, 0.00140716, -1.22613, 63.7793, 30.5036, 7.9657, 1.18396, 3.76895, -0.0356336, 0.000885115, -0.000678079, 0.00227246, 0.000407928, 0.00050853, -0.00015838, -0.00242119, -0.0154705, 0.00222999, 0.0302845, 0.0628626, -0.044646, 0.470936, -0.543841, 0.33552, -2.08371, -2.16564, -0.129264, 0.470144, -0.542645, 0.333435, -2.08308, -2.16536, -0.129342, -0.00273778, -0.0170921, -0.0143627, 0.0127077, -0.0144118, -0.0122587
0.0861997, 1.69261, -1.22833, -1.54093, -0.90036, -1.19205, 1.23149, -1.30261, 0.0202037, -0.0045465, -0.0472887, 0.0155001, -0.0289216, 0.0712079, 0.000938682, -1.26183, 63.8904, 30.6186, 8.07678, 1.20318, 3.77627, -0.0356336, 0.000882008, -0.000667056, 0.00227823, 0.000384499, 0.000458139, -0.000127942, -0.000418453, -0.0124428, -0.000192321, 0.0227417, 0.0622046, -0.0503735, 0.470933, -0.543858, 0.335506, -2.08371, -2.16563, -0.129239, 0.470152, -0.542664, 0.333414, -2.08314, -2.16536, -0.12929, -0.00279888, -0.0174699, -0.0146928, 0.00960568, -0.0165181, -0.0151989
0.0871997, 1.69264, -1.22834, -1.54099, -0.900334, -1.19207, 1.23157, -1.30262, 0.0245355, -0.00646462, -0.0535228, 0.0175779, -0.0294287, 0.0734387, -0.00178128, -1.41259, 64.0372, 30.7297, 8.11249, 1.17847, 3.76895, 0.0293689, 0.000882876, -0.000650968, 0.00228487, 0.000356611, 0.000414966, -0.000111411, -0.000345238, -0.0137608, -0.00300367, 0.0194331, 0.0623365, -0.0488729, 0.470931, -0.543875, 0.335491, -2.0837, -2.16563, -0.129214, 0.470165, -0.542679, 0.333392, -2.08319, -2.16537, -0.12925, -0.00286026, -0.0178492, -0.015025, 0.0107602, -0.0164834, -0.0183591
0.0881997, 1.69267, -1.22834, -1.54104, -0.900311, -1.1921, 1.23164, -1.30262, 0.0237704, -0.00607294, -0.0537768, 0.0171975, -0.026594, 0.0706387, -0.00169582, -1.52764, 64.1125, 30.6544, 8.22754, 1.18396, 3.76163, 0.0431018, 0.000886032, -0.000634168, 0.00228355, 0.000322529, 0.00036041, -9.32231e-05, -0.00137988, -0.0132371, -0.00284715, 0.0183662, 0.0592068, -0.0491206, 0.470928, -0.543893, 0.335476, -2.0837, -2.16562, -0.129189, 0.470179, -0.542693, 0.333378, -2.08325, -2.16538, -0.129205, -0.00292192, -0.0182301, -0.0153591, 0.0101444, -0.0158883, -0.0183624
0.0891997, 1.6927, -1.22834, -1.54109, -0.900282, -1.19213, 1.23171, -1.30262, 0.0252837, -0.00404859, -0.052787, 0.0211558, -0.0236753, 0.0681944, 0.000327755, -1.60302, 64.1125, 30.6544, 8.29895, 1.16565, 3.76895, 0.00373412, 0.000885812, -0.000622264, 0.00228258, 0.000295044, 0.000305551, -5.47125e-05, -0.0025292, -0.0132872, -0.000772098, 0.0205797, 0.0574301, -0.052268, 0.470925, -0.543911, 0.335461, -2.08369, -2.16561, -0.129163, 0.470188, -0.542711, 0.333364, -2.08332, -2.16537, -0.12915, -0.00298385, -0.0186124, -0.0156951, 0.0101674, -0.015453, -0.016473
0.0901997, 1.69274, -1.22835, -1.54115, -0.900255, -1.19216, 1.23178, -1.30261, 0.0283774, -0.00436947, -0.0552419, 0.0239661, -0.0260839, 0.0660254, 0.00120203, -1.75378, 64.184, 30.6544, 8.37433, 1.15375, 3.76895, -0.0228162, 0.000888331, -0.000605853, 0.00228566, 0.000270135, 0.000253496, -2.997e-05, -0.00270794, -0.0133664, -0.00151661, 0.0165491, 0.0581964, -0.0550852, 0.470922, -0.54393, 0.335445, -2.08368, -2.1656, -0.129136, 0.470201, -0.542726, 0.333345, -2.08338, -2.16538, -0.129096, -0.00304602, -0.0189961, -0.016033, 0.0101506, -0.0155425, -0.017521
0.0911997, 1.69277, -1.22836, -1.54121, -0.900228, -1.19219, 1.23185, -1.30262, 0.0287603, -0.00643944, -0.0522063, 0.0221004, -0.0270353, 0.0651238, -0.00113129, -1.82915, 64.3347, 30.579, 8.48541, 1.12262, 3.76895, 0.0293689, 0.0008886, -0.000591612, 0.00229076, 0.000244439, 0.000203668, -5.28037e-06, -0.00420846, -0.0143663, -0.0017354, 0.017163, 0.0566103, -0.0501283, 0.470919, -0.543949, 0.335429, -2.08368, -2.16559, -0.129109, 0.470212, -0.542744, 0.333323, -2.08344, -2.16538, -0.129044, -0.00310843, -0.019381, -0.0163726, 0.0110253, -0.0143715, -0.017875
0.0921997, 1.6928, -1.22836, -1.54127, -0.900193, -1.19222, 1.23192, -1.30262, 0.0319246, -0.00429295, -0.0551023, 0.0242189, -0.0283258, 0.0673982, -0.000991451, -1.90453, 64.3347, 30.579, 8.44971, 1.10431, 3.80466, 0.0357776, 0.000887728, -0.00058, 0.00229084, 0.000222603, 0.000145161, 3.14771e-05, -0.00452334, -0.0154554, -0.000890269, 0.0170057, 0.0612114, -0.0514266, 0.470916, -0.543968, 0.335413, -2.08367, -2.16558, -0.129081, 0.470221, -0.542763, 0.333306, -2.08352, -2.16537, -0.128977, -0.00317106, -0.0197671, -0.0167139, 0.01207, -0.0145321, -0.0173668
0.0931997, 1.69283, -1.22836, -1.54134, -0.900164, -1.19225, 1.23199, -1.30262, 0.0304478, -0.00453239, -0.0620037, 0.0261183, -0.0245296, 0.0605666, 0.000525904, -1.94024, 64.4061, 30.6544, 8.52509, 1.0741, 3.81198, 0.00373412, 0.000888322, -0.000567168, 0.0022977, 0.000206433, 9.69483e-05, 6.40261e-05, -0.00374034, -0.0122321, -0.00345802, 0.00821792, 0.0549051, -0.058685, 0.470912, -0.543988, 0.335396, -2.08366, -2.16557, -0.129052, 0.47023, -0.542781, 0.333282, -2.08358, -2.16536, -0.128914, -0.00323391, -0.0201544, -0.0170569, 0.00872174, -0.0154294, -0.0202678
0.0941997, 1.69287, -1.22836, -1.54139, -0.900132, -1.19228, 1.23206, -1.30261, 0.0326935, -0.0038568, -0.0585958, 0.0254178, -0.0267, 0.0661676, 0.00109665, -1.97991, 64.4418, 30.5036, 8.56079, 1.06128, 3.81198, -0.0164075, 0.000890093, -0.000553101, 0.00229434, 0.000174489, 3.6799e-05, 9.91427e-05, -0.00514125, -0.0150855, -0.00128804, 0.0147454, 0.0602098, -0.0561008, 0.470909, -0.544008, 0.335379, -2.08366, -2.16556, -0.129023, 0.470241, -0.542799, 0.333269, -2.08366, -2.16536, -0.128856, -0.00329695, -0.0205426, -0.0174015, 0.0115381, -0.0146515, -0.0183407
0.0951997, 1.6929, -1.22837, -1.54146, -0.900102, -1.19232, 1.23213, -1.30262, 0.030585, -0.00433443, -0.0629337, 0.0277822, -0.0319466, 0.0700295, -0.00120164, -1.97991, 64.5172, 30.5036, 8.60046, 1.03107, 3.79733, 0.0357776, 0.000889662, -0.000541299, 0.00229776, 0.000155058, -2.01037e-05, 0.000126339, -0.00154989, -0.0127983, -0.00204431, 0.0135804, 0.0661447, -0.0623521, 0.470906, -0.544029, 0.335362, -2.08365, -2.16555, -0.128993, 0.470249, -0.542819, 0.333247, -2.08372, -2.16536, -0.128787, -0.00336018, -0.0209318, -0.0177477, 0.00929087, -0.0185636, -0.0199203
0.0961997, 1.69294, -1.22837, -1.54154, -0.900072, -1.19235, 1.23219, -1.30262, 0.0296816, -0.00112638, -0.0657793, 0.0296352, -0.0322661, 0.073666, -0.000801061, -2.01562, 64.4418, 30.6186, 8.63617, 1.01825, 3.79001, 0.0357776, 0.00089178, -0.0005276, 0.00230057, 0.000146409, -8.45924e-05, 0.000158664, -0.000297976, -0.012011, -0.000253767, 0.0157102, 0.0715864, -0.0673804, 0.470903, -0.54405, 0.335344, -2.08364, -2.16554, -0.128963, 0.470259, -0.542837, 0.333227, -2.08378, -2.16536, -0.128698, -0.00342359, -0.0213219, -0.0180953, 0.00855165, -0.0204972, -0.0186701
0.0971997, 1.69298, -1.22836, -1.54161, -0.90004, -1.19238, 1.23227, -1.30262, 0.0332817, 8.43006e-05, -0.0649595, 0.0309886, -0.0329445, 0.0758589, 0.000415419, -2.091, 64.4061, 30.6186, 8.67188, 1.01825, 3.79001, 0.0101428, 0.000897396, -0.000509831, 0.00229919, 0.000127353, -0.000150618, 0.000190651, -0.00185533, -0.0142435, 0.00123209, 0.0185241, 0.0745613, -0.0666697, 0.470899, -0.544071, 0.335326, -2.08363, -2.16553, -0.128932, 0.470273, -0.542853, 0.33321, -2.08385, -2.16536, -0.128618, -0.00348715, -0.0217127, -0.0184443, 0.0107168, -0.0194876, -0.0173797
0.0981997, 1.69301, -1.22837, -1.54167, -0.900007, -1.19242, 1.23233, -1.30262, 0.0290884, -0.000779015, -0.0648578, 0.0296183, -0.0371953, 0.0768365, 0.00102295, -2.01562, 64.4418, 30.5036, 8.67188, 1.00635, 3.7836, -0.00999879, 0.000897039, -0.000499034, 0.00230018, 0.000106046, -0.000210871, 0.000229126, 0.000165741, -0.0119964, 0.00116566, 0.0177297, 0.0778391, -0.0721549, 0.470896, -0.544093, 0.335307, -2.08363, -2.16552, -0.1289, 0.47028, -0.542874, 0.333191, -2.08393, -2.16535, -0.128544, -0.00355087, -0.0221042, -0.0187947, 0.00847863, -0.0219562, -0.01804
0.0991997, 1.69305, -1.22836, -1.54174, -0.899976, -1.19245, 1.2324, -1.30262, 0.0344821, 0.000315876, -0.068669, 0.0269371, -0.0352353, 0.0769835, -0.00101344, -2.01562, 64.4061, 30.5433, 8.74725, 0.969725, 3.8193, 0.0357776, 0.000901518, -0.000484578, 0.00230119, 9.47176e-05, -0.000273615, 0.000254947, -0.0031526, -0.0152449, 0.000107217, 0.0137493, 0.0782354, -0.0642329, 0.470892, -0.544115, 0.335289, -2.08362, -2.16551, -0.128868, 0.470291, -0.542891, 0.333171, -2.08398, -2.16535, -0.128459, -0.00361472, -0.0224964, -0.0191465, 0.0115017, -0.0187766, -0.0190231
0.1002, 1.69309, -1.22836, -1.54183, -0.899935, -1.19249, 1.23247, -1.30262, 0.0345017, 0.000210586, -0.0721913, 0.0285395, -0.0351929, 0.0762835, -0.00118424, -1.97991, 64.4061, 30.6186, 8.67188, 0.969725, 3.85501, 0.0495105, 0.000901003, -0.000473909, 0.00230432, 8.33693e-05, -0.000334813, 0.000297762, -0.00246434, -0.0142206, -0.000751667, 0.0111532, 0.0780415, -0.0677174, 0.470888, -0.544138, 0.335269, -2.08361, -2.1655, -0.128835, 0.470298, -0.542913, 0.333148, -2.08406, -2.16533, -0.128372, -0.00367869, -0.0228891, -0.0194995, 0.0104076, -0.0197586, -0.0202996
0.1012, 1.69313, -1.22836, -1.54189, -0.899898, -1.19252, 1.23254, -1.30262, 0.0385441, 0.00181083, -0.0701024, 0.0317027, -0.034787, 0.0725685, 0.000431215, -1.97991, 64.3347, 30.5036, 8.63617, 0.963317, 3.86233, 0.0165515, 0.000905574, -0.000458851, 0.0023018, 6.29285e-05, -0.000399694, 0.000334972, -0.00481274, -0.015556, 0.00112804, 0.0112821, 0.0773796, -0.067608, 0.470885, -0.54416, 0.33525, -2.0836, -2.16549, -0.128801, 0.470309, -0.542931, 0.333132, -2.08413, -2.16532, -0.128291, -0.00374278, -0.0232822, -0.0198537, 0.0116628, -0.0180676, -0.0184754
0.1022, 1.69317, -1.22836, -1.54197, -0.899863, -1.19256, 1.23261, -1.30261, 0.0391271, 0.00213524, -0.074821, 0.0322323, -0.0347708, 0.069584, 0.000999559, -2.01562, 64.295, 30.5036, 8.67188, 0.963317, 3.87607, -0.00267457, 0.000910543, -0.00044212, 0.00230267, 4.65251e-05, -0.000465598, 0.000372387, -0.00471906, -0.0144481, -0.000279813, 0.00508865, 0.076699, -0.0709316, 0.470881, -0.544184, 0.33523, -2.08359, -2.16547, -0.128767, 0.470322, -0.542949, 0.333111, -2.08421, -2.16532, -0.128205, -0.00380697, -0.0236758, -0.020209, 0.0104436, -0.0183825, -0.0202015
0.1032, 1.69321, -1.22835, -1.54205, -0.899825, -1.19259, 1.23268, -1.30262, 0.036073, 0.00309393, -0.0758742, 0.0324849, -0.0349458, 0.0722707, -0.000283059, -1.90453, 64.2236, 30.5433, 8.71155, 0.969725, 3.86966, 0.0229602, 0.000910878, -0.000432127, 0.00230234, 3.48548e-05, -0.000535085, 0.000412894, -0.00328232, -0.0130111, 0.000639196, 0.00742993, 0.0792827, -0.0740726, 0.470877, -0.544207, 0.33521, -2.08358, -2.16546, -0.128732, 0.470328, -0.542972, 0.333091, -2.08428, -2.1653, -0.128108, -0.00387125, -0.0240696, -0.0205654, 0.00902928, -0.0203949, -0.0198291
0.1042, 1.69325, -1.22834, -1.54213, -0.899786, -1.19263, 1.23275, -1.30262, 0.037376, 0.00382586, -0.0778959, 0.0348064, -0.035379, 0.0758481, -0.00117205, -1.94024, 64.1483, 30.5036, 8.67188, 0.981627, 3.84768, 0.0495105, 0.000917106, -0.0004143, 0.00229927, 1.31455e-05, -0.000605076, 0.000445135, -0.00280349, -0.0135247, 0.00122055, 0.00986636, 0.082319, -0.0756669, 0.470873, -0.544231, 0.335189, -2.08357, -2.16545, -0.128697, 0.470342, -0.54299, 0.333074, -2.08436, -2.16531, -0.128022, -0.00393561, -0.0244637, -0.0209229, 0.00951652, -0.02133, -0.0197031
0.1052, 1.69329, -1.22834, -1.5422, -0.899749, -1.19266, 1.23282, -1.30262, 0.0367497, 0.00338579, -0.0778498, 0.0345663, -0.0341944, 0.07619, -3.53768e-05, -1.90453, 64.1125, 30.3925, 8.71155, 0.956908, 3.86233, 0.0293689, 0.00092281, -0.000400121, 0.00229705, -6.57154e-06, -0.000667488, 0.000480052, -0.00320647, -0.013506, 0.00130592, 0.0110434, 0.081284, -0.0774015, 0.470869, -0.544256, 0.335168, -2.08357, -2.16544, -0.128661, 0.470352, -0.543008, 0.333056, -2.08443, -2.1653, -0.127941, -0.00400003, -0.0248579, -0.0212814, 0.00942224, -0.0213402, -0.0199146
0.1062, 1.69334, -1.22834, -1.54228, -0.899708, -1.1927, 1.23289, -1.30261, 0.0379987, 0.00402043, -0.0767044, 0.0354138, -0.0342427, 0.0722796, 0.00167184, -1.94024, 64.0372, 30.3568, 8.71155, 0.956908, 3.86966, -0.0164075, 0.000929229, -0.000384616, 0.00229556, -2.06801e-05, -0.000733255, 0.000523558, -0.00464733, -0.013555, 0.00209462, 0.00923188, 0.0801226, -0.078714, 0.470865, -0.544281, 0.335147, -2.08356, -2.16543, -0.128624, 0.470363, -0.543026, 0.333036, -2.0845, -2.16528, -0.127849, -0.0040645, -0.0252522, -0.0216408, 0.00938464, -0.0204312, -0.0192738
0.1072, 1.69339, -1.22833, -1.54236, -0.899666, -1.19273, 1.23295, -1.30262, 0.0411116, 0.00611396, -0.079013, 0.0328474, -0.0353203, 0.0692326, -0.000580861, -1.94024, 63.8904, 30.3211, 8.71155, 0.981627, 3.88339, 0.0293689, 0.000935233, -0.000371397, 0.00229259, -3.08355e-05, -0.000801422, 0.000555299, -0.00705634, -0.0148185, 0.0020218, 0.00288823, 0.0822664, -0.0732589, 0.470861, -0.544306, 0.335125, -2.08355, -2.16541, -0.128586, 0.470372, -0.543046, 0.333018, -2.08457, -2.16528, -0.12775, -0.00412902, -0.0256465, -0.022001, 0.0104935, -0.0183842, -0.0193723
0.1082, 1.69343, -1.22832, -1.54244, -0.899622, -1.19277, 1.23301, -1.30262, 0.0414688, 0.00574641, -0.0787041, 0.0350212, -0.0342007, 0.0718309, -0.000895866, -1.86486, 63.819, 30.206, 8.67188, 0.956908, 3.88339, 0.0431018, 0.000938994, -0.000361144, 0.00228929, -4.59024e-05, -0.000865482, 0.000598521, -0.00699307, -0.0152621, 0.00272948, 0.00723014, 0.082289, -0.0745918, 0.470857, -0.544332, 0.335103, -2.08354, -2.1654, -0.128548, 0.470378, -0.543068, 0.333, -2.08464, -2.16526, -0.127659, -0.00419356, -0.0260407, -0.0223621, 0.0109005, -0.0189315, -0.0190587
0.1092, 1.69347, -1.22832, -1.54252, -0.899586, -1.1928, 1.23307, -1.30262, 0.0466957, 0.00475896, -0.0832828, 0.0329558, -0.0343626, 0.0645398, -0.000325976, -1.86486, 63.7793, 30.1703, 8.78693, 0.956908, 3.87607, 0.0357776, 0.000947639, -0.000345467, 0.00229091, -5.17407e-05, -0.000928251, 0.000635319, -0.01006, -0.016584, -0.000376652, -0.00470776, 0.0786931, -0.0710462, 0.470853, -0.544358, 0.335081, -2.08353, -2.16539, -0.128509, 0.470389, -0.543084, 0.332977, -2.08471, -2.16525, -0.12756, -0.00425812, -0.0264347, -0.0227239, 0.0119316, -0.0157661, -0.0220539
0.1102, 1.69352, -1.2283, -1.5426, -0.899542, -1.19284, 1.23314, -1.30262, 0.0473028, 0.00827675, -0.0814789, 0.0374376, -0.0342659, 0.0641862, 0.00049476, -1.86486, 63.5611, 30.0236, 8.78693, 0.951415, 3.86233, 0.0165515, 0.000954505, -0.000332935, 0.0022815, -6.86024e-05, -0.00100371, 0.000677257, -0.0101963, -0.0161886, 0.00320059, -0.000706697, 0.0816816, -0.0749912, 0.470849, -0.544384, 0.335058, -2.08352, -2.16537, -0.12847, 0.470397, -0.543105, 0.332964, -2.08479, -2.16524, -0.127458, -0.00432269, -0.0268285, -0.0230865, 0.0116003, -0.0165913, -0.0188513
0.1112, 1.69356, -1.2283, -1.54269, -0.899497, -1.19288, 1.2332, -1.30261, 0.0449327, 0.0119091, -0.0858097, 0.0376366, -0.033755, 0.0585989, 0.00131318, -1.86486, 63.5611, 29.9839, 8.78693, 0.938597, 3.85501, -0.00999879, 0.000958943, -0.00032301, 0.00228587, -6.78337e-05, -0.00106106, 0.000729562, -0.00964267, -0.0130816, 0.00376689, -0.00798517, 0.0825386, -0.0809281, 0.470844, -0.544411, 0.335035, -2.08351, -2.16536, -0.12843, 0.470403, -0.543126, 0.332937, -2.08486, -2.1652, -0.127353, -0.00438725, -0.027222, -0.0234497, 0.00847373, -0.0177455, -0.0186446
0.1122, 1.69361, -1.22829, -1.54278, -0.899454, -1.19291, 1.23326, -1.30261, 0.0441415, 0.0119985, -0.0851248, 0.0391944, -0.0342062, 0.0550597, 0.000875457, -1.90453, 63.4103, 29.9085, 8.85834, 0.945006, 3.83304, -0.00999879, 0.000967042, -0.000308876, 0.00228125, -7.40821e-05, -0.00113595, 0.000771064, -0.00969921, -0.0117764, 0.00431452, -0.00944575, 0.08127, -0.0830944, 0.47084, -0.544438, 0.335012, -2.08349, -2.16534, -0.128389, 0.470412, -0.543146, 0.332919, -2.08494, -2.16518, -0.127239, -0.00445179, -0.0276151, -0.0238135, 0.00712424, -0.0182204, -0.0184185
0.1132, 1.69365, -1.22828, -1.54287, -0.899403, -1.19295, 1.23332, -1.30262, 0.0425468, 0.0109041, -0.0866573, 0.0398596, -0.0341204, 0.0570188, -0.00138305, -1.90453, 63.3032, 29.7974, 8.82263, 0.938597, 3.80466, 0.0431018, 0.000970193, -0.000301357, 0.00227779, -8.24304e-05, -0.0012023, 0.000819597, -0.00862676, -0.0109147, 0.00378039, -0.00821844, 0.081304, -0.0843138, 0.470836, -0.544466, 0.334988, -2.08348, -2.16533, -0.128348, 0.470415, -0.54317, 0.332899, -2.08502, -2.16516, -0.127135, -0.00451631, -0.0280078, -0.0241779, 0.0062176, -0.019625, -0.01945
0.1142, 1.6937, -1.22827, -1.54296, -0.899352, -1.19299, 1.23338, -1.30262, 0.0452341, 0.0110027, -0.0907764, 0.0433346, -0.0389413, 0.0600591, 0.00029867, -1.94024, 63.1564, 29.7974, 8.78693, 0.951415, 3.7543, 0.0101428, 0.000974502, -0.000291319, 0.0022741, -8.95236e-05, -0.00127508, 0.000871985, -0.00711351, -0.0109933, 0.00329704, -0.00982894, 0.0871566, -0.0905964, 0.470831, -0.544494, 0.334964, -2.08347, -2.16531, -0.128305, 0.470421, -0.543194, 0.332878, -2.0851, -2.16513, -0.127021, -0.00458078, -0.0283999, -0.0245428, 0.00626769, -0.0214335, -0.0205295
0.1152, 1.69374, -1.22826, -1.54304, -0.899307, -1.19303, 1.23344, -1.30262, 0.0464088, 0.0110863, -0.0887264, 0.0401142, -0.0376109, 0.0617356, 0.000945099, -1.94024, 63.0057, 29.722, 8.85834, 0.945006, 3.71127, -0.00999879, 0.000982927, -0.000279846, 0.00226673, -0.0001004, -0.0013464, 0.000917062, -0.00955755, -0.0132577, 0.00401943, -0.00728947, 0.0873859, -0.0864762, 0.470826, -0.544522, 0.334939, -2.08346, -2.1653, -0.128263, 0.470427, -0.543215, 0.332862, -2.08518, -2.16511, -0.126913, -0.00464521, -0.0287914, -0.0249081, 0.00840468, -0.0194304, -0.0198743
0.1162, 1.69378, -1.22825, -1.54313, -0.899259, -1.19307, 1.23349, -1.30262, 0.0442311, 0.00922981, -0.0880151, 0.0446132, -0.0362068, 0.0571755, 0.000630066, -1.94024, 62.9343, 29.6863, 8.89801, 0.926695, 3.67557, -0.00999879, 0.000987903, -0.000271323, 0.00226611, -0.000105434, -0.00140941, 0.00096805, -0.00841959, -0.0105779, 0.0038226, -0.00730172, 0.0818678, -0.0920604, 0.470822, -0.544551, 0.334914, -2.08345, -2.16528, -0.128219, 0.470431, -0.543239, 0.332838, -2.08526, -2.16508, -0.126806, -0.00470957, -0.0291822, -0.0252738, 0.00569747, -0.0210241, -0.020527
0.1172, 1.69383, -1.22824, -1.54321, -0.899205, -1.19311, 1.23355, -1.30262, 0.0443184, 0.00971327, -0.0866562, 0.0471382, -0.0402265, 0.0531473, -0.001784, -2.01562, 62.7875, 29.611, 8.85834, 0.926695, 3.66824, 0.0495105, 0.000994296, -0.00026214, 0.00225832, -0.000117241, -0.00147981, 0.00101679, -0.00809873, -0.00916874, 0.00489116, -0.00989786, 0.0835892, -0.0931102, 0.470817, -0.54458, 0.334889, -2.08344, -2.16527, -0.128175, 0.470435, -0.543262, 0.332821, -2.08534, -2.16506, -0.126699, -0.00477385, -0.0295723, -0.0256399, 0.00427743, -0.0219528, -0.0198437
0.1182, 1.69387, -1.22823, -1.54329, -0.899157, -1.19315, 1.2336, -1.30262, 0.0417436, 0.0131807, -0.0848612, 0.046226, -0.043284, 0.0542282, -0.000205991, -1.97991, 62.6407, 29.4999, 8.93372, 0.932189, 3.67557, 0.0229602, 0.00100209, -0.000254945, 0.00224905, -0.000124394, -0.00155024, 0.00106776, -0.00763899, -0.00809701, 0.00798368, -0.00817696, 0.090202, -0.0972932, 0.470812, -0.54461, 0.334863, -2.08342, -2.16525, -0.12813, 0.470438, -0.543285, 0.332806, -2.08542, -2.16503, -0.126585, -0.00483806, -0.0299616, -0.0260062, 0.00327531, -0.0233149, -0.0171943
0.1192, 1.69391, -1.22822, -1.54338, -0.899101, -1.19319, 1.23365, -1.30262, 0.0424986, 0.0134846, -0.0861501, 0.0483029, -0.045316, 0.0507413, 0.00132073, -2.05529, 62.4542, 29.4999, 8.89801, 0.932189, 3.67557, -0.0164075, 0.00100911, -0.000247441, 0.00224092, -0.000132458, -0.00161776, 0.00112661, -0.00751666, -0.00702039, 0.00795845, -0.012015, 0.090624, -0.101842, 0.470808, -0.54464, 0.334837, -2.08341, -2.16524, -0.128084, 0.47044, -0.543309, 0.332789, -2.08551, -2.16499, -0.126474, -0.00490216, -0.0303499, -0.0263728, 0.00213973, -0.0238641, -0.0175711
0.1202, 1.69396, -1.22821, -1.54347, -0.899045, -1.19323, 1.23371, -1.30261, 0.042024, 0.0100768, -0.086056, 0.0509679, -0.046148, 0.0480404, 0.00088049, -2.091, 62.4185, 29.4642, 8.93372, 0.913878, 3.68289, -0.0164075, 0.00101471, -0.000240392, 0.00223524, -0.000147378, -0.00167923, 0.00118577, -0.00677194, -0.00571471, 0.00645014, -0.013253, 0.086575, -0.105027, 0.470803, -0.54467, 0.334811, -2.0834, -2.16522, -0.128038, 0.470443, -0.543335, 0.332769, -2.0856, -2.16495, -0.126376, -0.00496616, -0.0307373, -0.0267396, 0.000742012, -0.0248084, -0.0195017
0.1212, 1.694, -1.2282, -1.54354, -0.898985, -1.19327, 1.23376, -1.30262, 0.0442355, 0.0135825, -0.0809727, 0.0539895, -0.0425611, 0.0519529, -0.00134579, -2.24175, 62.2717, 29.3531, 8.93372, 0.895568, 3.65451, 0.0357776, 0.00102397, -0.000228974, 0.00222166, -0.000169726, -0.00175329, 0.00123151, -0.00897675, -0.0082986, 0.0112801, -0.00196077, 0.0887843, -0.100358, 0.470798, -0.544701, 0.334784, -2.08339, -2.1652, -0.127991, 0.470449, -0.543358, 0.332756, -2.08568, -2.16494, -0.126273, -0.00503004, -0.0311236, -0.0271065, 0.00336182, -0.0236541, -0.0148397
0.1222, 1.69405, -1.2282, -1.54362, -0.898927, -1.19331, 1.23382, -1.30262, 0.0480018, 0.00946682, -0.083229, 0.0553324, -0.0406037, 0.0444277, -0.000897191, -2.3568, 62.2717, 29.3531, 8.97339, 0.895568, 3.64718, 0.0357776, 0.00103109, -0.000220711, 0.00221834, -0.000178897, -0.00181298, 0.0012831, -0.0110108, -0.00870212, 0.00769051, -0.00948174, 0.0797643, -0.0992803, 0.470793, -0.544732, 0.334757, -2.08337, -2.16519, -0.127943, 0.470452, -0.543382, 0.332733, -2.08576, -2.1649, -0.12617, -0.0050938, -0.0315088, -0.0274735, 0.00349419, -0.0214631, -0.0184491
0.1232, 1.69408, -1.22818, -1.5437, -0.89887, -1.19335, 1.23387, -1.30262, 0.0440158, 0.011817, -0.082054, 0.0555203, -0.0428485, 0.047866, 0.000826026, -2.3211, 62.0496, 29.238, 9.04877, 0.877257, 3.65451, -0.00267457, 0.00103641, -0.000217492, 0.00220078, -0.000203501, -0.00188836, 0.00134889, -0.00927386, -0.00702279, 0.0103407, -0.00522312, 0.0856808, -0.105982, 0.470788, -0.544764, 0.33473, -2.08336, -2.16517, -0.127895, 0.470451, -0.543411, 0.332724, -2.08587, -2.16487, -0.126066, -0.00515741, -0.0318928, -0.0278405, 0.00191536, -0.0240378, -0.0164157
0.1242, 1.69413, -1.22817, -1.54378, -0.898806, -1.1934, 1.23392, -1.30262, 0.0409393, 0.0115433, -0.0767298, 0.0585055, -0.0405321, 0.0511829, 0.00105931, -2.39648, 61.9028, 29.2023, 9.00909, 0.870848, 3.65451, -0.0164075, 0.00104329, -0.000212363, 0.00218762, -0.000220586, -0.00195666, 0.00141112, -0.00864431, -0.00650418, 0.0132451, 0.00564752, 0.0846986, -0.109205, 0.470782, -0.544796, 0.334702, -2.08335, -2.16515, -0.127846, 0.470451, -0.543438, 0.33271, -2.08596, -2.16483, -0.12596, -0.00522087, -0.0322756, -0.0282076, 0.00146624, -0.0255094, -0.0139962
0.1252, 1.69417, -1.22816, -1.54385, -0.898738, -1.19345, 1.23397, -1.30262, 0.0392945, 0.0078693, -0.0758964, 0.0628139, -0.042788, 0.0536439, -0.000514496, -2.50756, 61.9028, 29.1666, 9.00909, 0.852538, 3.66092, 0.0165515, 0.00105029, -0.000204304, 0.00217722, -0.00024712, -0.00201868, 0.00146957, -0.00619498, -0.0050898, 0.0125874, 0.00981797, 0.0838942, -0.113971, 0.470777, -0.544828, 0.334674, -2.08333, -2.16513, -0.127796, 0.470454, -0.543465, 0.332693, -2.08606, -2.16479, -0.12587, -0.00528417, -0.032657, -0.0285745, 5.33005e-05, -0.0282658, -0.0153475
0.1262, 1.69421, -1.22815, -1.54393, -0.898675, -1.19349, 1.23402, -1.30262, 0.0393378, 0.00881018, -0.0744744, 0.063408, -0.0448089, 0.054642, -0.00132634, -2.54723, 61.756, 29.238, 9.12018, 0.846129, 3.67557, 0.0431018, 0.00105488, -0.000201391, 0.00216344, -0.000264932, -0.00209257, 0.00153485, -0.00634686, -0.00523199, 0.014127, 0.0117288, 0.0871002, -0.114303, 0.470772, -0.54486, 0.334645, -2.08332, -2.16511, -0.127746, 0.470452, -0.543495, 0.332679, -2.08616, -2.16475, -0.125758, -0.0053473, -0.0330371, -0.0289414, 0.000185434, -0.0287265, -0.0141754
0.1272, 1.69426, -1.22814, -1.54399, -0.898607, -1.19354, 1.23407, -1.30262, 0.0410383, 0.00856964, -0.0732764, 0.0688531, -0.0464613, 0.0516065, -0.000884228, -2.65832, 61.6449, 29.0555, 9.15985, 0.840636, 3.66824, 0.0431018, 0.00106514, -0.00019194, 0.0021457, -0.000296379, -0.00216306, 0.00159021, -0.00613022, -0.00450562, 0.0151234, 0.0120518, 0.0864893, -0.118475, 0.470766, -0.544894, 0.334616, -2.0833, -2.1651, -0.127694, 0.470456, -0.54352, 0.332668, -2.08626, -2.16473, -0.125664, -0.00541024, -0.0334157, -0.0293081, -0.000556938, -0.0295016, -0.0135688
0.1282, 1.6943, -1.22814, -1.54407, -0.898532, -1.19359, 1.23412, -1.30261, 0.0373237, 0.00578639, -0.075047, 0.070619, -0.0476703, 0.0490027, 0.00185192, -2.69799, 61.6449, 29.0912, 9.15985, 0.834227, 3.66824, -0.0228162, 0.00106638, -0.000191609, 0.00213562, -0.000316852, -0.00222734, 0.00167097, -0.00378655, -0.00121058, 0.0133731, 0.0092328, 0.0835384, -0.12829, 0.470761, -0.544927, 0.334587, -2.08329, -2.16508, -0.127643, 0.470451, -0.543554, 0.332649, -2.08637, -2.16467, -0.125562, -0.00547299, -0.0337927, -0.0296745, -0.00389257, -0.0320585, -0.0159218
0.1292, 1.69435, -1.22814, -1.54415, -0.89846, -1.19365, 1.23417, -1.30262, 0.0365254, 0.00474779, -0.0776148, 0.0719875, -0.0525158, 0.0519545, -0.000223448, -2.80907, 61.6092, 29.0555, 9.15985, 0.822325, 3.66092, 0.0165515, 0.00107296, -0.000184726, 0.00212422, -0.000341024, -0.00229441, 0.0017299, -0.00155527, -7.35949e-05, 0.012655, 0.00835542, 0.0882422, -0.131679, 0.470756, -0.544961, 0.334557, -2.08327, -2.16506, -0.12759, 0.470453, -0.543583, 0.332632, -2.08646, -2.16463, -0.125462, -0.00553554, -0.0341681, -0.0300408, -0.0050379, -0.0345731, -0.0173065
0.1302, 1.69439, -1.22813, -1.54422, -0.898386, -1.1937, 1.23422, -1.30262, 0.0332398, 0.00413444, -0.0754859, 0.0721979, -0.0563855, 0.0497945, -0.000623683, -2.80907, 61.5695, 28.9802, 9.19556, 0.822325, 3.64718, 0.0293689, 0.00107587, -0.000183162, 0.00210846, -0.000370742, -0.00236537, 0.00180556, -0.000300651, 0.00220221, 0.0133683, 0.0074791, 0.0897402, -0.135626, 0.47075, -0.544995, 0.334527, -2.08326, -2.16504, -0.127537, 0.470449, -0.543616, 0.332618, -2.08658, -2.16458, -0.125361, -0.00559787, -0.0345419, -0.0304067, -0.00730077, -0.0363882, -0.0170897
0.1312, 1.69444, -1.22813, -1.5443, -0.898314, -1.19375, 1.23427, -1.30262, 0.0375056, 0.00278722, -0.0757765, 0.0736636, -0.0547313, 0.0466505, 0.000771006, -2.95983, 61.5695, 28.9802, 9.30664, 0.809508, 3.66092, -0.00267457, 0.00108482, -0.000174517, 0.00209839, -0.000392772, -0.00242988, 0.00186739, -0.00265628, 0.000485097, 0.0124861, 0.0055832, 0.0857922, -0.13433, 0.470744, -0.545029, 0.334497, -2.08324, -2.16502, -0.127483, 0.470452, -0.543643, 0.332598, -2.08668, -2.16454, -0.12526, -0.00565998, -0.0349139, -0.0307722, -0.00576468, -0.0342286, -0.0180163
0.1322, 1.69448, -1.22813, -1.54437, -0.898228, -1.19381, 1.23432, -1.30262, 0.0339182, 0.00188134, -0.0750705, 0.0784264, -0.0581576, 0.0510255, -0.000198073, -2.95983, 61.5695, 28.9405, 9.27094, 0.804015, 3.64718, 0.0165515, 0.00108368, -0.00017533, 0.00208676, -0.000421839, -0.00249584, 0.00195337, 0.00100504, 0.00295622, 0.0137482, 0.011521, 0.0895794, -0.142525, 0.470739, -0.545064, 0.334466, -2.08323, -2.165, -0.127428, 0.470446, -0.543681, 0.332579, -2.0868, -2.16448, -0.125161, -0.00572185, -0.0352841, -0.0311374, -0.00811574, -0.0385085, -0.0176232
0.1332, 1.69453, -1.22814, -1.54444, -0.89814, -1.19386, 1.23438, -1.30261, 0.0355271, -0.00132684, -0.0777797, 0.0815866, -0.0595192, 0.0488667, 0.00132601, -2.9995, 61.6806, 28.9048, 9.23523, 0.766478, 3.63986, -0.0228162, 0.00108723, -0.000170424, 0.00207755, -0.000458628, -0.00254933, 0.00203401, 0.00171215, 0.0036679, 0.0113709, 0.00800437, 0.0866808, -0.14759, 0.470733, -0.5451, 0.334435, -2.08321, -2.16498, -0.127372, 0.470445, -0.543714, 0.332557, -2.08692, -2.16442, -0.125084, -0.00578347, -0.0356524, -0.0315021, -0.00895282, -0.039239, -0.0204218
0.1342, 1.69457, -1.22814, -1.54452, -0.898054, -1.19392, 1.23443, -1.30262, 0.0366756, -0.000871512, -0.0811861, 0.0858181, -0.0576654, 0.0569959, -0.00104877, -3.03521, 61.6806, 28.9405, 9.23523, 0.766478, 3.62521, 0.0293689, 0.00108987, -0.000167741, 0.00206567, -0.000486579, -0.00261564, 0.00210806, 0.00318825, 0.0028313, 0.0119895, 0.0152107, 0.0898372, -0.149479, 0.470727, -0.545135, 0.334403, -2.08319, -2.16496, -0.127316, 0.470442, -0.543749, 0.332538, -2.08703, -2.16437, -0.124984, -0.00584484, -0.0360188, -0.0318663, -0.00810224, -0.0411234, -0.0204305
0.1352, 1.69462, -1.22815, -1.54459, -0.897966, -1.19398, 1.23448, -1.30262, 0.0406109, -0.00316968, -0.0790334, 0.0863762, -0.056153, 0.0540507, -0.00093654, -3.07488, 61.7917, 28.9048, 9.23523, 0.760985, 3.59683, 0.0357776, 0.00109382, -0.000162818, 0.00205533, -0.000521836, -0.00267407, 0.00218349, 0.000345397, 0.000626213, 0.0113191, 0.0151024, 0.085069, -0.145295, 0.470721, -0.545171, 0.334371, -2.08318, -2.16494, -0.127259, 0.470442, -0.543783, 0.332516, -2.08714, -2.16431, -0.124899, -0.00590595, -0.0363832, -0.0322299, -0.00608721, -0.0384877, -0.0210867
0.1362, 1.69467, -1.22815, -1.54467, -0.897872, -1.19403, 1.23453, -1.30262, 0.044995, -0.00386902, -0.0783788, 0.0867658, -0.0580667, 0.0502835, 0.000325076, -3.03521, 61.8671, 28.9048, 9.23523, 0.723448, 3.59683, 0.0101428, 0.00109495, -0.000161294, 0.00204377, -0.000557171, -0.00273448, 0.0022681, -0.00198968, -0.00103516, 0.0109439, 0.011363, 0.0844282, -0.143552, 0.470716, -0.545208, 0.334339, -2.08316, -2.16492, -0.127202, 0.470438, -0.54382, 0.332496, -2.08726, -2.16425, -0.12481, -0.00596678, -0.0367455, -0.032593, -0.00458562, -0.0364189, -0.0215121
0.1372, 1.69472, -1.22815, -1.54475, -0.897779, -1.19409, 1.23458, -1.30261, 0.0462839, -0.00164582, -0.0808791, 0.0902974, -0.0613423, 0.0530173, 0.00167478, -3.03521, 61.8274, 28.9048, 9.23523, 0.736266, 3.59683, -0.0292249, 0.00109912, -0.000157384, 0.00202914, -0.000588572, -0.00280298, 0.00235186, -0.000677537, -0.000667853, 0.0123483, 0.0120924, 0.0908886, -0.149718, 0.47071, -0.545245, 0.334306, -2.08314, -2.16489, -0.127143, 0.470436, -0.543854, 0.332478, -2.08738, -2.16419, -0.124709, -0.00602732, -0.0371056, -0.0329554, -0.00491215, -0.038305, -0.0206793
0.1382, 1.69477, -1.22816, -1.54483, -0.897684, -1.19415, 1.23463, -1.30262, 0.0454314, -0.00285633, -0.0804579, 0.0926207, -0.0584966, 0.0559018, -0.00105362, -2.95983, 61.9028, 28.9405, 9.23523, 0.723448, 3.58218, 0.0293689, 0.00110058, -0.000155536, 0.00201935, -0.000617969, -0.00286512, 0.00243118, -0.000254203, -0.000670033, 0.0127125, 0.0178207, 0.0888235, -0.149374, 0.470704, -0.545282, 0.334273, -2.08313, -2.16487, -0.127084, 0.470432, -0.543891, 0.332455, -2.0875, -2.16413, -0.124611, -0.00608756, -0.0374636, -0.0333171, -0.00494065, -0.0391367, -0.0207471
0.1392, 1.69484, -1.22817, -1.54491, -0.897584, -1.19421, 1.23468, -1.30262, 0.0487804, -0.00617001, -0.0839825, 0.0963111, -0.0576365, 0.0571204, -0.000465054, -3.03521, 62.0853, 29.0159, 9.15985, 0.741759, 3.56845, 0.0229602, 0.001104, -0.000148503, 0.00201419, -0.000647292, -0.00292262, 0.00251675, -6.01429e-05, -0.00154029, 0.0102641, 0.0175421, 0.085759, -0.151904, 0.470697, -0.545319, 0.33424, -2.08311, -2.16485, -0.127025, 0.470433, -0.543926, 0.332427, -2.08761, -2.16406, -0.124516, -0.0061475, -0.0378192, -0.0336781, -0.00421789, -0.0392724, -0.0235839
0.1402, 1.69489, -1.22818, -1.54499, -0.897485, -1.19427, 1.23473, -1.30262, 0.0508749, -0.00411102, -0.0815965, 0.0981841, -0.0602939, 0.0536264, 0.000402041, -2.84875, 62.0853, 29.0159, 9.12018, 0.736266, 3.5538, 0.00373412, 0.00110465, -0.000148356, 0.00200032, -0.000681861, -0.00298921, 0.00260774, -0.00136478, -0.00179855, 0.0124791, 0.0165102, 0.0883041, -0.152801, 0.470691, -0.545357, 0.334206, -2.08309, -2.16483, -0.126964, 0.470427, -0.543965, 0.332407, -2.08774, -2.16399, -0.124417, -0.00620712, -0.0381726, -0.0340383, -0.00398035, -0.038667, -0.0215634
0.1412, 1.69494, -1.22819, -1.54507, -0.897389, -1.19434, 1.23479, -1.30261, 0.0514934, -0.00533739, -0.079176, 0.0984449, -0.0584338, 0.0506586, 0.00125137, -2.7337, 62.1964, 28.9802, 9.12018, 0.741759, 3.53915, -0.0228162, 0.00110847, -0.000143042, 0.00199078, -0.000717483, -0.00305053, 0.00269476, -0.00303156, -0.00226546, 0.0126607, 0.0172533, 0.0842226, -0.152151, 0.470685, -0.545395, 0.334172, -2.08307, -2.1648, -0.126903, 0.470426, -0.544001, 0.332383, -2.08787, -2.16392, -0.124324, -0.00626642, -0.0385235, -0.0343977, -0.00362488, -0.037381, -0.0215006
0.1422, 1.69501, -1.22819, -1.54516, -0.897293, -1.1944, 1.23484, -1.30262, 0.0571076, -0.00355696, -0.0830369, 0.0988557, -0.057639, 0.0483187, -0.000861173, -2.69799, 62.1964, 29.0555, 9.12018, 0.766478, 3.53274, 0.0229602, 0.00111589, -0.00013409, 0.00198, -0.000742752, -0.00312194, 0.00276415, -0.00557015, -0.0043307, 0.0122143, 0.0121128, 0.084905, -0.14715, 0.470679, -0.545434, 0.334138, -2.08305, -2.16478, -0.126841, 0.470429, -0.544034, 0.33236, -2.08797, -2.16387, -0.12421, -0.00632538, -0.038872, -0.0347562, -0.001728, -0.0350698, -0.0219742
0.1432, 1.69507, -1.22819, -1.54525, -0.89719, -1.19446, 1.23489, -1.30262, 0.0570739, -0.00413356, -0.0859163, 0.101722, -0.0567768, 0.0514443, -0.000574116, -2.62261, 62.2717, 29.1269, 9.00909, 0.784789, 3.53915, 0.0229602, 0.00112163, -0.000125553, 0.00197013, -0.000775105, -0.0031877, 0.00284515, -0.0042929, -0.00389104, 0.0118376, 0.0144329, 0.0854392, -0.151739, 0.470673, -0.545473, 0.334103, -2.08303, -2.16476, -0.126778, 0.470431, -0.544068, 0.332336, -2.08809, -2.16381, -0.124108, -0.006384, -0.0392179, -0.0351138, -0.00219424, -0.0366369, -0.0228874
0.1442, 1.69514, -1.2282, -1.54533, -0.897082, -1.19452, 1.23495, -1.30262, 0.061571, -0.00442541, -0.0838975, 0.103878, -0.0600141, 0.0482487, -0.000145385, -2.47185, 62.3431, 29.1666, 8.89801, 0.791197, 3.54648, 0.0165515, 0.00112614, -0.000119103, 0.00195824, -0.000810222, -0.00325364, 0.00293228, -0.0061348, -0.00540519, 0.0124757, 0.0126323, 0.0863572, -0.150398, 0.470666, -0.545512, 0.334068, -2.08301, -2.16473, -0.126715, 0.470432, -0.544104, 0.332313, -2.08821, -2.16375, -0.124008, -0.00644226, -0.0395612, -0.0354704, -0.000780473, -0.0351975, -0.0223785
0.1452, 1.6952, -1.2282, -1.54542, -0.896982, -1.19458, 1.235, -1.30262, 0.0618654, -0.0021145, -0.0859305, 0.10579, -0.0581083, 0.0512395, 0.00112378, -2.3211, 62.3074, 29.238, 8.89801, 0.797606, 3.56112, -0.0164075, 0.00113508, -0.000109689, 0.00194513, -0.000838217, -0.00332596, 0.00301319, -0.00594333, -0.00555081, 0.0139423, 0.0158248, 0.0888829, -0.154114, 0.47066, -0.545551, 0.334033, -2.08299, -2.16471, -0.126651, 0.470435, -0.544137, 0.332291, -2.08833, -2.16369, -0.123893, -0.00650015, -0.0399019, -0.035826, -0.000628791, -0.0359462, -0.0213207
0.1462, 1.69528, -1.2282, -1.54551, -0.896871, -1.19464, 1.23506, -1.30262, 0.0657954, -0.00224447, -0.0870023, 0.106727, -0.0614252, 0.0547464, -0.000708875, -2.20605, 62.3431, 29.2777, 8.78693, 0.815917, 3.53915, 0.0229602, 0.00114175, -9.93201e-05, 0.00193164, -0.000878649, -0.00339618, 0.00309228, -0.00654753, -0.00768198, 0.0140336, 0.0166261, 0.0936553, -0.151501, 0.470653, -0.545591, 0.333997, -2.08297, -2.16469, -0.126586, 0.470439, -0.544172, 0.33227, -2.08845, -2.16363, -0.123793, -0.00655767, -0.0402399, -0.0361806, 0.00142481, -0.0356142, -0.0215618
0.1472, 1.69534, -1.22821, -1.5456, -0.89676, -1.19471, 1.23511, -1.30262, 0.0684003, -0.00409446, -0.0837483, 0.11139, -0.0635475, 0.0511486, -0.000947302, -2.05529, 62.4542, 29.2777, 8.63617, 0.827819, 3.53274, 0.0357776, 0.00114639, -9.20596e-05, 0.00192215, -0.00091544, -0.00345867, 0.00318206, -0.00716982, -0.00786843, 0.014596, 0.0174178, 0.0915585, -0.152573, 0.470647, -0.545631, 0.333961, -2.08295, -2.16466, -0.12652, 0.47044, -0.544208, 0.332243, -2.08858, -2.16356, -0.123696, -0.00661481, -0.0405751, -0.036534, 0.0015544, -0.0354135, -0.0212702
0.1482, 1.69541, -1.22822, -1.54569, -0.896654, -1.19477, 1.23517, -1.30262, 0.0695204, -0.00449265, -0.0856346, 0.114345, -0.0691288, 0.0537553, 0.000317901, -1.86486, 62.5296, 29.3134, 8.63617, 0.827819, 3.53915, 0.0101428, 0.00115166, -8.36197e-05, 0.0019123, -0.000948298, -0.00353032, 0.00327202, -0.00537026, -0.00740284, 0.0145856, 0.0170332, 0.0972728, -0.158739, 0.47064, -0.545672, 0.333924, -2.08293, -2.16464, -0.126454, 0.470441, -0.544245, 0.332217, -2.08871, -2.16349, -0.123584, -0.00667155, -0.0409074, -0.0368864, 0.00109689, -0.03754, -0.0218966
0.1492, 1.69549, -1.22821, -1.54579, -0.896536, -1.19484, 1.23523, -1.30261, 0.0723198, -0.00123169, -0.0909259, 0.116312, -0.0691441, 0.0554186, 0.00143264, -1.75378, 62.4542, 29.3888, 8.52509, 0.834227, 3.53274, -0.0228162, 0.00115754, -7.38828e-05, 0.00189774, -0.000982313, -0.0036098, 0.00336298, -0.00543562, -0.00788573, 0.015223, 0.0150545, 0.101979, -0.162087, 0.470633, -0.545713, 0.333887, -2.08291, -2.16461, -0.126387, 0.470445, -0.544282, 0.332195, -2.08884, -2.16343, -0.123464, -0.00672789, -0.0412368, -0.0372375, 0.00154606, -0.0378828, -0.0216246
0.1502, 1.69556, -1.22822, -1.54588, -0.896427, -1.19491, 1.23529, -1.30261, 0.0719929, -0.00488649, -0.0913346, 0.115128, -0.0703679, 0.0511391, 0.000955092, -1.52764, 62.4899, 29.3134, 8.52509, 0.870848, 3.5538, -0.0228162, 0.00116198, -6.64813e-05, 0.00188595, -0.0010169, -0.00368569, 0.00345502, -0.00580261, -0.00709867, 0.0126953, 0.00999634, 0.0976696, -0.162107, 0.470627, -0.545754, 0.33385, -2.08289, -2.16458, -0.126319, 0.470446, -0.54432, 0.33217, -2.08897, -2.16336, -0.123348, -0.00678382, -0.0415633, -0.0375874, 0.000593653, -0.0374912, -0.0243881
0.1512, 1.69563, -1.22823, -1.54599, -0.896304, -1.19497, 1.23535, -1.30262, 0.0742353, -0.00612521, -0.0961919, 0.116637, -0.0696731, 0.048175, -0.000821334, -1.41259, 62.601, 29.4245, 8.414, 0.865355, 3.56845, 0.0165515, 0.00116426, -5.85152e-05, 0.00187922, -0.00104791, -0.00375604, 0.00354934, -0.00605011, -0.00677124, 0.0103794, 0.00417496, 0.0950173, -0.162189, 0.47062, -0.545796, 0.333812, -2.08287, -2.16456, -0.126251, 0.470447, -0.54436, 0.332139, -2.0891, -2.16329, -0.123232, -0.00683932, -0.0418868, -0.0379361, 0.00011287, -0.0372283, -0.0269747
0.1522, 1.6957, -1.22823, -1.5461, -0.896183, -1.19504, 1.23541, -1.30262, 0.0710604, -0.00521331, -0.0977927, 0.120805, -0.0655085, 0.0509179, -0.00125963, -1.22613, 62.6407, 29.4642, 8.414, 0.877257, 3.57577, 0.0357776, 0.00116433, -5.3838e-05, 0.00186972, -0.00108045, -0.00383232, 0.00365102, -0.00405663, -0.00476439, 0.0116366, 0.0100635, 0.0938672, -0.168623, 0.470613, -0.545838, 0.333774, -2.08285, -2.16453, -0.126182, 0.470445, -0.544403, 0.33211, -2.08924, -2.16321, -0.123111, -0.0068944, -0.0422071, -0.0382834, -0.00182598, -0.0397919, -0.0263233
0.1532, 1.69579, -1.22824, -1.5462, -0.896056, -1.19511, 1.23546, -1.30262, 0.0764282, -0.0036269, -0.100489, 0.125795, -0.0707894, 0.0526044, 0.00010968, -1.22613, 62.6407, 29.4245, 8.37433, 0.883666, 3.61148, 0.0101428, 0.00117206, -4.20363e-05, 0.00185703, -0.00111411, -0.00390698, 0.003741, -0.00369834, -0.00591048, 0.0124962, 0.00880604, 0.100897, -0.172809, 0.470606, -0.54588, 0.333736, -2.08282, -2.1645, -0.126112, 0.47045, -0.54444, 0.332085, -2.08937, -2.16314, -0.122993, -0.00694903, -0.0425243, -0.0386293, -0.000689136, -0.0405476, -0.0259143
0.1542, 1.69586, -1.22824, -1.54631, -0.895925, -1.19517, 1.23552, -1.30261, 0.0764387, -0.0042019, -0.105359, 0.127227, -0.0700367, 0.0587503, 0.00105646, -1.07537, 62.7121, 29.4999, 8.29895, 0.877257, 3.63254, -0.0164075, 0.00117163, -3.7844e-05, 0.00184979, -0.00114694, -0.00397474, 0.00385515, -0.00208432, -0.00599353, 0.0114771, 0.0112843, 0.103322, -0.177738, 0.470599, -0.545922, 0.333697, -2.0828, -2.16448, -0.126041, 0.470447, -0.544483, 0.332054, -2.08952, -2.16304, -0.122878, -0.00700322, -0.0428383, -0.0389739, -0.000642419, -0.0422953, -0.0275181
0.1552, 1.69594, -1.22824, -1.54641, -0.8958, -1.19524, 1.23559, -1.30262, 0.0773143, -0.00028795, -0.103082, 0.128741, -0.0698835, 0.0641613, -0.000753752, -0.960319, 62.601, 29.4642, 8.33862, 0.883666, 3.64718, 0.0229602, 0.00117536, -2.95138e-05, 0.0018344, -0.00118406, -0.00406127, 0.0039477, -0.00268287, -0.00752261, 0.0155451, 0.0194082, 0.109871, -0.175997, 0.470592, -0.545965, 0.333659, -2.08278, -2.16445, -0.12597, 0.470449, -0.544525, 0.33203, -2.08966, -2.16298, -0.12275, -0.00705695, -0.0431491, -0.039317, 0.000969844, -0.0425763, -0.0238032
0.1562, 1.69602, -1.22825, -1.54652, -0.895667, -1.19531, 1.23565, -1.30262, 0.0757681, -0.00201906, -0.107059, 0.130032, -0.0693477, 0.058785, -0.00097722, -0.884941, 62.6764, 29.3888, 8.37433, 0.877257, 3.64718, 0.0357776, 0.00117745, -2.0469e-05, 0.0018229, -0.00122896, -0.00413675, 0.00404873, -0.0016504, -0.00481524, 0.0131951, 0.01263, 0.105511, -0.180807, 0.470585, -0.546008, 0.333619, -2.08275, -2.16442, -0.125898, 0.470451, -0.544567, 0.332002, -2.08981, -2.1629, -0.122641, -0.00711021, -0.0434565, -0.0396587, -0.00184184, -0.0436536, -0.0265352
0.1572, 1.69611, -1.22825, -1.54663, -0.895532, -1.19538, 1.23572, -1.30262, 0.0816656, -0.00207714, -0.11075, 0.128857, -0.0685003, 0.0588742, 0.000772674, -0.960319, 62.5653, 29.3531, 8.37433, 0.858946, 3.65451, -0.00267457, 0.0011814, -9.90189e-06, 0.00180822, -0.00126721, -0.00422374, 0.00415518, -0.00436464, -0.00790398, 0.0116996, 0.00884954, 0.105711, -0.177859, 0.470578, -0.546052, 0.33358, -2.08273, -2.16439, -0.125825, 0.470455, -0.544609, 0.331977, -2.08996, -2.16282, -0.122511, -0.007163, -0.0437605, -0.0399988, 0.00103575, -0.0409216, -0.0280353
0.1582, 1.69619, -1.22826, -1.54675, -0.895393, -1.19544, 1.23578, -1.30261, 0.0775044, -0.00656678, -0.116025, 0.131046, -0.0682789, 0.0597846, 0.00149846, -0.845268, 62.6407, 29.3134, 8.37433, 0.846129, 3.65451, -0.0292249, 0.00118096, -3.91692e-06, 0.00180013, -0.0013053, -0.00429613, 0.00427317, -0.000653289, -0.00445478, 0.00807123, 0.00682273, 0.101918, -0.187649, 0.470571, -0.546096, 0.33354, -2.08271, -2.16437, -0.125751, 0.470454, -0.544654, 0.331945, -2.09012, -2.16272, -0.122393, -0.0072153, -0.0440611, -0.0403373, -0.00247186, -0.0444713, -0.0324159
0.1592, 1.69628, -1.22825, -1.54687, -0.895254, -1.19551, 1.23585, -1.30262, 0.0806031, -0.0063065, -0.117835, 0.137045, -0.0683508, 0.054984, -0.000696448, -0.845268, 62.5653, 29.2777, 8.44971, 0.840636, 3.66092, 0.0165515, 0.00118268, 4.32101e-06, 0.00178727, -0.00133951, -0.00438341, 0.00437881, -0.000733098, -0.00368025, 0.00813474, 0.00384884, 0.0999435, -0.189234, 0.470564, -0.54614, 0.333499, -2.08268, -2.16434, -0.125677, 0.470456, -0.544698, 0.331917, -2.09027, -2.16264, -0.122257, -0.0072671, -0.0443582, -0.0406742, -0.00329693, -0.0447311, -0.0326521
0.1602, 1.69637, -1.22826, -1.54698, -0.895113, -1.19558, 1.23591, -1.30262, 0.0826507, -0.00567465, -0.119777, 0.138912, -0.0673674, 0.0517037, -0.000701657, -0.845268, 62.601, 29.1269, 8.52509, 0.809508, 3.65451, 0.0229602, 0.00118735, 1.50462e-05, 0.00177864, -0.00137645, -0.00445421, 0.00447877, -0.00162509, -0.00361135, 0.00798267, 0.000824067, 0.098552, -0.190139, 0.470556, -0.546184, 0.333458, -2.08266, -2.16431, -0.125602, 0.470459, -0.544738, 0.331886, -2.0904, -2.16256, -0.122141, -0.00731841, -0.0446518, -0.0410095, -0.00345408, -0.0441234, -0.0329974
0.1612, 1.69645, -1.22826, -1.5471, -0.89496, -1.19565, 1.23598, -1.30262, 0.081582, -0.00258899, -0.124212, 0.14539, -0.0674203, 0.0548241, 0.000244305, -0.734184, 62.5296, 29.0912, 8.52509, 0.797606, 3.64718, 0.00373412, 0.00118329, 1.82863e-05, 0.00176261, -0.00142413, -0.00454048, 0.00460602, 0.0014093, -0.00130191, 0.00976932, 0.00356408, 0.103318, -0.200691, 0.470549, -0.546229, 0.333417, -2.08263, -2.16428, -0.125526, 0.470456, -0.544789, 0.33186, -2.09058, -2.16246, -0.122017, -0.0073692, -0.0449417, -0.0413431, -0.00563254, -0.0477779, -0.031959
0.1622, 1.69654, -1.22826, -1.54722, -0.894807, -1.19571, 1.23604, -1.30261, 0.0835104, 0.000515224, -0.122789, 0.142926, -0.0627558, 0.0606405, 0.00162093, -0.734184, 62.4185, 29.0159, 8.56079, 0.772887, 3.65451, -0.0356336, 0.00118292, 2.42277e-05, 0.00174992, -0.0014629, -0.00462075, 0.00473018, -0.0014094, -0.00476371, 0.012479, 0.0113127, 0.106017, -0.196505, 0.470542, -0.546274, 0.333376, -2.08261, -2.16425, -0.12545, 0.470455, -0.544836, 0.331831, -2.09075, -2.16236, -0.121889, -0.00741948, -0.0452279, -0.0416749, -0.00221746, -0.0455547, -0.029296
0.1632, 1.69664, -1.22827, -1.54735, -0.894651, -1.19578, 1.23611, -1.30262, 0.0846908, -0.00159488, -0.121187, 0.148293, -0.0584451, 0.0610541, -0.0006148, -0.734184, 62.4899, 28.9048, 8.56079, 0.729857, 3.65451, 0.0101428, 0.00118282, 3.27533e-05, 0.00174366, -0.00150547, -0.0046882, 0.00484295, -0.00162009, -0.00514871, 0.01281, 0.0176888, 0.100442, -0.196256, 0.470534, -0.546319, 0.333334, -2.08258, -2.16422, -0.125373, 0.470456, -0.544882, 0.331795, -2.0909, -2.16226, -0.121778, -0.00746922, -0.0455105, -0.042005, -0.00187623, -0.045664, -0.02928
0.1642, 1.69674, -1.22828, -1.54749, -0.894488, -1.19584, 1.23617, -1.30262, 0.0882584, -0.0026182, -0.125301, 0.148721, -0.0609065, 0.0611281, -0.0013593, -0.845268, 62.4185, 28.8691, 8.56079, 0.717955, 3.66092, 0.0357776, 0.00118363, 4.19773e-05, 0.00173658, -0.00153728, -0.00476287, 0.00496098, -0.00196792, -0.00612406, 0.0109315, 0.0130036, 0.102235, -0.195793, 0.470527, -0.546364, 0.333292, -2.08255, -2.16419, -0.125295, 0.470458, -0.544928, 0.33176, -2.09105, -2.16216, -0.121647, -0.00751843, -0.0457892, -0.0423333, -0.00103765, -0.0452712, -0.0314426
0.1652, 1.69683, -1.22826, -1.54763, -0.894325, -1.1959, 1.23624, -1.30262, 0.0904478, 0.00388391, -0.12613, 0.153313, -0.0622111, 0.0663328, 0.000280593, -0.809562, 62.1606, 28.754, 8.52509, 0.699645, 3.64718, 0.00373412, 0.0011797, 4.46318e-05, 0.00171994, -0.00157555, -0.00485505, 0.00509876, -0.00152529, -0.00687917, 0.0157758, 0.0190606, 0.112492, -0.200917, 0.470519, -0.54641, 0.33325, -2.08253, -2.16416, -0.125216, 0.470454, -0.54498, 0.331733, -2.09124, -2.16205, -0.121503, -0.00756709, -0.0460641, -0.0426597, -0.000122861, -0.0466948, -0.0270805
0.1662, 1.69692, -1.22827, -1.54776, -0.894153, -1.19596, 1.2363, -1.30262, 0.0917926, 0.00312243, -0.130348, 0.160789, -0.0633818, 0.0659944, 0.00117041, -0.76989, 62.1249, 28.6429, 8.44971, 0.680419, 3.63254, -0.0228162, 0.00117435, 4.74009e-05, 0.00171124, -0.00161545, -0.00492859, 0.00523912, 0.000916409, -0.00505515, 0.0150691, 0.0182238, 0.112631, -0.210097, 0.470512, -0.546456, 0.333207, -2.0825, -2.16412, -0.125137, 0.470449, -0.545033, 0.331698, -2.09142, -2.16193, -0.121378, -0.0076152, -0.0463352, -0.0429842, -0.00193331, -0.049343, -0.0284191
0.1672, 1.69702, -1.22827, -1.54791, -0.893988, -1.19603, 1.23637, -1.30262, 0.0901219, 0.00445353, -0.131958, 0.162583, -0.0600006, 0.0709624, -0.000440432, -0.734184, 62.0139, 28.6072, 8.52509, 0.662108, 3.58951, 0.0101428, 0.00117008, 5.22473e-05, 0.00170261, -0.00165207, -0.0050113, 0.005369, 0.0019419, -0.00471852, 0.0163535, 0.0243751, 0.113955, -0.212051, 0.470504, -0.546503, 0.333164, -2.08247, -2.16409, -0.125057, 0.470447, -0.545084, 0.331663, -2.09159, -2.16182, -0.121241, -0.00766275, -0.0466022, -0.0433068, -0.00222842, -0.0508332, -0.0276211
0.1682, 1.69712, -1.22827, -1.54805, -0.893813, -1.19609, 1.23644, -1.30262, 0.0917717, 0.00456235, -0.135459, 0.166923, -0.0619248, 0.0690003, -0.0010057, -0.694511, 61.9385, 28.5319, 8.48541, 0.650206, 3.57577, 0.0293689, 0.0011659, 5.7319e-05, 0.00169326, -0.00169221, -0.0050897, 0.0055067, 0.00307538, -0.0035, 0.0158195, 0.0209566, 0.115003, -0.216647, 0.470496, -0.546549, 0.333121, -2.08245, -2.16406, -0.124976, 0.470445, -0.545136, 0.331628, -2.09177, -2.1617, -0.12111, -0.00770973, -0.0468653, -0.0436274, -0.00347245, -0.0521834, -0.0286032
0.1692, 1.69722, -1.22827, -1.5482, -0.893636, -1.19615, 1.23651, -1.30262, 0.0901815, 0.00236446, -0.139031, 0.171923, -0.0638474, 0.067901, 4.16113e-05, -0.658806, 61.8274, 28.4961, 8.48541, 0.650206, 3.5538, 0.0101428, 0.00116069, 6.13716e-05, 0.00168269, -0.00173205, -0.00517229, 0.00564698, 0.00616666, -0.000496241, 0.014224, 0.0188222, 0.114026, -0.22662, 0.470489, -0.546596, 0.333077, -2.08242, -2.16403, -0.124894, 0.470441, -0.54519, 0.331594, -2.09195, -2.16158, -0.120974, -0.00775613, -0.0471243, -0.043946, -0.00647215, -0.0553732, -0.0308729
0.1702, 1.69733, -1.22827, -1.54835, -0.893458, -1.19621, 1.23658, -1.30261, 0.0937438, -0.000106386, -0.144316, 0.181178, -0.0645466, 0.0665265, 0.0014858, -0.694511, 61.756, 28.4565, 8.48541, 0.631896, 3.53274, -0.0292249, 0.00115882, 6.92715e-05, 0.00167218, -0.00177347, -0.00525278, 0.00578468, 0.00834093, 0.000775632, 0.0121675, 0.0167214, 0.111582, -0.236043, 0.470481, -0.546643, 0.333034, -2.08239, -2.164, -0.124812, 0.470442, -0.54524, 0.331559, -2.09213, -2.16146, -0.120841, -0.00780194, -0.0473792, -0.0442625, -0.00779299, -0.0575117, -0.0335129
0.1712, 1.69743, -1.22827, -1.5485, -0.893268, -1.19627, 1.23664, -1.30262, 0.0934161, -0.00212217, -0.146142, 0.184551, -0.0608668, 0.0649391, 7.1911e-06, -0.619133, 61.6806, 28.4565, 8.414, 0.613585, 3.54648, -0.00267457, 0.00115175, 6.98864e-05, 0.00166053, -0.00181336, -0.00532984, 0.00593225, 0.00885971, 0.00184822, 0.0109562, 0.0173693, 0.106017, -0.238135, 0.470473, -0.546691, 0.332989, -2.08236, -2.16396, -0.124729, 0.470435, -0.545296, 0.331526, -2.09232, -2.16132, -0.120709, -0.00784715, -0.04763, -0.044577, -0.00893892, -0.0581329, -0.0350667
0.1722, 1.69753, -1.22827, -1.54864, -0.893081, -1.19633, 1.23671, -1.30262, 0.097726, -0.000407579, -0.144882, 0.184428, -0.0630752, 0.068668, -0.001182, -0.583427, 61.6092, 28.3454, 8.44971, 0.613585, 3.56112, 0.0293689, 0.00114774, 7.35817e-05, 0.00164695, -0.00185956, -0.00540695, 0.00607208, 0.00701637, -0.00125537, 0.012804, 0.0205678, 0.111864, -0.233401, 0.470465, -0.546738, 0.332945, -2.08233, -2.16393, -0.124645, 0.470432, -0.54535, 0.331494, -2.0925, -2.1612, -0.120583, -0.00789177, -0.0478765, -0.0448893, -0.00587415, -0.0567152, -0.033376
0.1732, 1.69753, -1.22827, -1.54864, -0.893081, -1.19633, 1.23671, -1.30262, 0.097726, -0.000407579, -0.144882, 0.184428, -0.0630752, 0.068668, -0.001182, -0.583427, 61.6092, 28.3454, 8.44971, 0.613585, 3.56112, 0.0293689, 0.0012017, 8.19936e-05, 0.00160964, -0.00193232, -0.00540373, 0.00606517, 0.00673077, -0.00129768, 0.013075, 0.0210304, 0.11224, -0.234069, 0.470457, -0.546786, 0.3329, -2.0823, -2.16389, -0.124561, 0.470432, -0.54535, 0.331494, -2.0925, -2.1612, -0.120583, -0.00793577, -0.0481188, -0.0451995, -0.00587415, -0.0567152, -0.033376
0.1742, 1.69763, -1.22827, -1.54879, -0.892883, -1.19639, 1.23677, -1.30262, 0.0994977, -0.00386611, -0.148902, 0.18946, -0.0600278, 0.065952, -0.000788, -0.468376, 61.6092, 28.3097, 8.414, 0.607176, 3.58218, 0.0293689, 0.00119033, 7.78635e-05, 0.00159971, -0.00197503, -0.00547525, 0.00622817, 0.00741375, -0.000392806, 0.0102538, 0.0188168, 0.105295, -0.238642, 0.470449, -0.546834, 0.332855, -2.08227, -2.16386, -0.124476, 0.47042, -0.545411, 0.331457, -2.0927, -2.16105, -0.120455, -0.00797915, -0.0483568, -0.0455074, -0.00691033, -0.0572321, -0.0365439
0.1752, 1.69763, -1.22827, -1.54879, -0.892883, -1.19639, 1.23677, -1.30262, 0.0994977, -0.00386611, -0.148902, 0.18946, -0.0600278, 0.065952, -0.000788, -0.468376, 61.6092, 28.3097, 8.414, 0.607176, 3.58218, 0.0293689, 0.00124485, 8.63531e-05, 0.00156185, -0.00204925, -0.00547221, 0.00622119, 0.00713736, -0.000433799, 0.0105216, 0.0192815, 0.105677, -0.239308, 0.470441, -0.546883, 0.332809, -2.08224, -2.16383, -0.12439, 0.47042, -0.545411, 0.331457, -2.0927, -2.16105, -0.120455, -0.00802191, -0.0485903, -0.0458132, -0.00691033, -0.0572321, -0.0365439
0.1762, 1.69763, -1.22827, -1.54879, -0.892883, -1.19639, 1.23677, -1.30262, 0.0994977, -0.00386611, -0.148902, 0.18946, -0.0600278, 0.065952, -0.000788, -0.468376, 61.6092, 28.3097, 8.414, 0.607176, 3.58218, 0.0293689, 0.00129965, 9.48791e-05, 0.00152373, -0.0021242, -0.00546925, 0.00621419, 0.00686567, -0.000474003, 0.0107879, 0.0197473, 0.106062, -0.239972, 0.470433, -0.546931, 0.332763, -2.08221, -2.16379, -0.124304, 0.47042, -0.545411, 0.331457, -2.0927, -2.16105, -0.120455, -0.00806403, -0.0488195, -0.0461166, -0.00691033, -0.0572321, -0.0365439
0.1772, 1.69763, -1.22827, -1.54879, -0.892883, -1.19639, 1.23677, -1.30262, 0.0994977, -0.00386611, -0.148902, 0.18946, -0.0600278, 0.065952, -0.000788, -0.468376, 61.6092, 28.3097, 8.414, 0.607176, 3.58218, 0.0293689, 0.00135471, 0.000103441, 0.00148533, -0.00219988, -0.00546639, 0.00620715, 0.00659873, -0.000513411, 0.0110525, 0.0202142, 0.10645, -0.240635, 0.470425, -0.54698, 0.332717, -2.08218, -2.16375, -0.124217, 0.47042, -0.545411, 0.331457, -2.0927, -2.16105, -0.120455, -0.00810551, -0.0490442, -0.0464177, -0.00691033, -0.0572321, -0.0365439
0.1782, 1.6982, -1.22826, -1.54962, -0.891856, -1.19668, 1.2371, -1.30262, 0.11362, 0.000283487, -0.160302, 0.205966, -0.055399, 0.0662615, -0.00191724, -0.43267, 61.387, 28.1589, 8.33862, 0.588866, 3.58951, 0.0431018, 0.00110076, 8.45565e-05, 0.00158643, -0.00210761, -0.00586465, 0.00701907, 0.00602286, -0.00316917, 0.0114479, 0.0191121, 0.107474, -0.244682, 0.470417, -0.547029, 0.332671, -2.08215, -2.16372, -0.124129, 0.470398, -0.545696, 0.331272, -2.09368, -2.16033, -0.119775, -0.00814634, -0.0492643, -0.0467165, -0.00430263, -0.0568351, -0.0364558
0.1792, 1.69833, -1.22826, -1.54979, -0.89163, -1.19673, 1.23716, -1.30262, 0.115898, 3.92164e-05, -0.166208, 0.215631, -0.0554477, 0.0653019, 0.00116324, -0.392998, 61.387, 28.2343, 8.26324, 0.613585, 3.58951, -0.0228162, 0.0010892, 8.4944e-05, 0.00157738, -0.00215222, -0.00593838, 0.00719927, 0.00876823, -0.00105696, 0.0106432, 0.0177389, 0.106932, -0.257486, 0.470409, -0.547078, 0.332624, -2.08211, -2.16368, -0.12404, 0.470391, -0.545758, 0.331232, -2.0939, -2.16016, -0.119642, -0.00818651, -0.0494799, -0.0470129, -0.00638727, -0.0597247, -0.0378979
0.1802, 1.69845, -1.22826, -1.54996, -0.891396, -1.19679, 1.23723, -1.30262, 0.118975, -8.61867e-05, -0.164268, 0.221879, -0.0555158, 0.0635435, 0.000775497, -0.392998, 61.387, 28.1589, 8.22754, 0.643798, 3.59683, -0.0228162, 0.00107745, 8.47173e-05, 0.00156461, -0.00220312, -0.0060125, 0.00737519, 0.00842882, -0.0014166, 0.012089, 0.0208065, 0.105873, -0.259297, 0.470401, -0.547128, 0.332577, -2.08208, -2.16365, -0.123951, 0.470383, -0.545821, 0.331196, -2.09411, -2.16, -0.119515, -0.00822601, -0.0496909, -0.0473069, -0.00601966, -0.0598073, -0.0367246
0.1812, 1.69857, -1.22826, -1.55013, -0.891166, -1.19685, 1.23729, -1.30262, 0.119517, -0.000976924, -0.165178, 0.222034, -0.0555953, 0.0627936, 4.22798e-05, -0.357292, 61.4227, 28.1986, 8.26324, 0.674925, 3.60415, -0.00999879, 0.00106547, 8.51744e-05, 0.00155585, -0.0022481, -0.00608721, 0.00754885, 0.00818521, -0.00141647, 0.0114428, 0.0196875, 0.105198, -0.259261, 0.470393, -0.547178, 0.33253, -2.08205, -2.16361, -0.123861, 0.470376, -0.545884, 0.331155, -2.09433, -2.15984, -0.11938, -0.00826484, -0.0498971, -0.0475984, -0.00609283, -0.059674, -0.0376166
0.1822, 1.6987, -1.22825, -1.5503, -0.890931, -1.19691, 1.23735, -1.30262, 0.124291, 0.00355442, -0.166591, 0.224948, -0.0507658, 0.0670412, -0.00166723, -0.392998, 61.2402, 28.274, 8.29895, 0.693236, 3.62521, 0.0357776, 0.00105933, 8.8622e-05, 0.00153867, -0.00229356, -0.00616781, 0.00771577, 0.0060482, -0.00444398, 0.0144539, 0.0259393, 0.108344, -0.255212, 0.470384, -0.547228, 0.332482, -2.08201, -2.16357, -0.12377, 0.470372, -0.545942, 0.331124, -2.09453, -2.15968, -0.11924, -0.00830299, -0.0500987, -0.0478874, -0.00305855, -0.0581024, -0.0347086
0.1832, 1.69882, -1.22825, -1.55047, -0.890695, -1.19696, 1.23741, -1.30261, 0.122957, 0.00232223, -0.168637, 0.234473, -0.046841, 0.0645006, 0.00129601, -0.317619, 61.2402, 28.274, 8.37433, 0.705138, 3.64718, -0.0292249, 0.0010482, 8.67402e-05, 0.00152498, -0.0023451, -0.006238, 0.00789919, 0.00871797, -0.00119282, 0.0144335, 0.028834, 0.102396, -0.26817, 0.470376, -0.547278, 0.332434, -2.08198, -2.16353, -0.123678, 0.470363, -0.546006, 0.331088, -2.09476, -2.15951, -0.119114, -0.00834046, -0.0502955, -0.0481739, -0.00624817, -0.0610656, -0.0353141
0.1842, 1.69895, -1.22825, -1.55064, -0.890449, -1.19702, 1.23747, -1.30262, 0.125809, -0.000157828, -0.173252, 0.23874, -0.0479602, 0.0629574, 0.000626647, -0.281914, 61.3116, 28.3851, 8.37433, 0.705138, 3.68289, -0.0228162, 0.00103543, 8.61374e-05, 0.00151633, -0.00239575, -0.00630216, 0.00808113, 0.0097146, -0.000669996, 0.0119198, 0.0247337, 0.10062, -0.271601, 0.470368, -0.547328, 0.332386, -2.08195, -2.1635, -0.123586, 0.470355, -0.54607, 0.331046, -2.09497, -2.15933, -0.118994, -0.00837722, -0.0504874, -0.0484579, -0.00687453, -0.0618779, -0.0382156
0.1852, 1.69909, -1.22826, -1.55082, -0.890192, -1.19707, 1.23753, -1.30261, 0.132287, -0.000131875, -0.168736, 0.24468, -0.0536222, 0.061353, 0.000180405, -0.281914, 61.3116, 28.3097, 8.26324, 0.717955, 3.71127, -0.0164075, 0.00102236, 8.58087e-05, 0.00150342, -0.00245166, -0.00637117, 0.00827041, 0.00836245, -0.00285855, 0.0141628, 0.0269228, 0.104341, -0.270336, 0.470359, -0.547378, 0.332338, -2.08191, -2.16346, -0.123493, 0.470347, -0.546135, 0.331008, -2.0952, -2.15915, -0.118872, -0.00841329, -0.0506745, -0.0487392, -0.00467923, -0.0609835, -0.0361508
0.1862, 1.69922, -1.22826, -1.551, -0.889942, -1.19713, 1.23758, -1.30262, 0.133875, -0.00187115, -0.171638, 0.245374, -0.0533601, 0.0559205, -0.00157515, -0.281914, 61.387, 28.3454, 8.29895, 0.729857, 3.72592, 0.0293689, 0.0010123, 8.62987e-05, 0.00149683, -0.00248905, -0.00643372, 0.00844797, 0.00776853, -0.00217161, 0.0119085, 0.0201754, 0.100369, -0.26954, 0.470351, -0.547429, 0.332289, -2.08188, -2.16342, -0.1234, 0.47034, -0.546197, 0.330964, -2.09541, -2.15897, -0.118738, -0.00844864, -0.0508567, -0.0490179, -0.00551369, -0.0602621, -0.0385392
