alisrour97/Franka_experiments/Real_Robot_scripts/servo-franka/Data2/log_dyn_PI2_13.csv
Time,q1,q2,q3,q4,q5,q6,q7,dq1,dq2,dq3,dq4,dq5,dq6,dq7,t1,t2,t3,t4,t5,t6,t7,ex1,ex2,ex3,ex4,ex5,ex6,ev1,ev2,ev3,ev4,ev5,ev6,xd,yd,zd,uxd,uyd,uzd,x,y,z,ux,uy,uz,vxd,vyd,vzd,vx,vy,vz
9.76563e-07, 1.6907, -1.23027, -1.5414, -0.900534, -1.19283, 1.22733, -1.3025, -0.00648901, -0.00330485, -0.00621882, 0.000430715, 0.00179011, -0.0156954, -0.000472134, 1.45576, 69.8572, 36.7957, 7.73956, 3.61011, 5.20999, -0.350575, -0.000430716, -0.00268237, 0.0041865, 0.0052123, 0.00373076, 0.00223971, 0.00248813, 0.00744158, -0.00505711, -0.0172617, -0.0123909, -0.00871366, 0.471008, -0.543389, 0.335894, -2.08385, -2.16584, -0.129887, 0.468206, -0.543276, 0.331785, -2.08154, -2.15937, -0.127688, -1.41255e-05, -9.11997e-05, -6.59526e-05, -0.00753966, -0.00207363, -0.00522138
0.0121287, 1.69067, -1.23031, -1.54148, -0.900565, -1.1928, 1.22723, -1.3025, -0.00325872, -0.0037784, -0.00648626, -0.00410961, 0.00109356, -0.0151341, -0.0005624, 1.305, 70.0436, 36.8711, 7.92602, 3.6037, 5.2814, -0.363392, -0.000437767, -0.00271887, 0.00424842, 0.0053659, 0.00383439, 0.00226619, -4.335e-05, 0.00461998, -0.00614916, -0.0200059, -0.0114891, -0.00186362, 0.471008, -0.543389, 0.335894, -2.08385, -2.16584, -0.129887, 0.468155, -0.543279, 0.331713, -2.08142, -2.15918, -0.127592, -2.13283e-05, -0.000136675, -0.000102379, -0.00485885, 0.000663579, -0.00602827
0.0131287, 1.69067, -1.23031, -1.54148, -0.900565, -1.1928, 1.22723, -1.3025, -0.00325872, -0.0037784, -0.00648626, -0.00410961, 0.00109356, -0.0151341, -0.0005624, 1.305, 70.0436, 36.8711, 7.92602, 3.6037, 5.2814, -0.363392, -0.000437756, -0.00271887, 0.00424841, 0.00536589, 0.00383439, 0.00226619, -9.82311e-05, 0.0046113, -0.00611721, -0.0199775, -0.0114796, -0.00192441, 0.471008, -0.543389, 0.335894, -2.08385, -2.16584, -0.129887, 0.468155, -0.543279, 0.331713, -2.08142, -2.15918, -0.127592, -2.91898e-05, -0.000186294, -0.000142179, -0.00485885, 0.000663579, -0.00602827
0.0141287, 1.69067, -1.23031, -1.54148, -0.900565, -1.1928, 1.22723, -1.3025, -0.00325872, -0.0037784, -0.00648626, -0.00410961, 0.00109356, -0.0151341, -0.0005624, 1.305, 70.0436, 36.8711, 7.92602, 3.6037, 5.2814, -0.363392, -0.000437725, -0.00271886, 0.0042484, 0.00536586, 0.00383439, 0.00226619, -0.000157859, 0.00460187, -0.00608245, -0.0199465, -0.0114691, -0.00199063, 0.471008, -0.543389, 0.335894, -2.08385, -2.16584, -0.129887, 0.468155, -0.543279, 0.331713, -2.08142, -2.15918, -0.127592, -3.77325e-05, -0.000240197, -0.00018547, -0.00485885, 0.000663579, -0.00602827
0.0151287, 1.69067, -1.23031, -1.54148, -0.900565, -1.1928, 1.22723, -1.3025, -0.00325872, -0.0037784, -0.00648626, -0.00410961, 0.00109356, -0.0151341, -0.0005624, 1.305, 70.0436, 36.8711, 7.92602, 3.6037, 5.2814, -0.363392, -0.000437665, -0.00271885, 0.00424836, 0.00536581, 0.00383441, 0.00226618, -0.000222388, 0.00459166, -0.00604479, -0.0199127, -0.0114575, -0.00206246, 0.471008, -0.543389, 0.335894, -2.08385, -2.16584, -0.129887, 0.468155, -0.543279, 0.331713, -2.08142, -2.15918, -0.127592, -4.69786e-05, -0.000298522, -0.00023237, -0.00485885, 0.000663579, -0.00602827
0.0161287, 1.69067, -1.23031, -1.54148, -0.900565, -1.1928, 1.22723, -1.3025, -0.00325872, -0.0037784, -0.00648626, -0.00410961, 0.00109356, -0.0151341, -0.0005624, 1.305, 70.0436, 36.8711, 7.92602, 3.6037, 5.2814, -0.363392, -0.000437567, -0.00271884, 0.0042483, 0.00536573, 0.00383443, 0.00226617, -0.000291968, 0.00458066, -0.00600412, -0.0198762, -0.0114449, -0.00214009, 0.471008, -0.54339, 0.335894, -2.08385, -2.16584, -0.129887, 0.468155, -0.543279, 0.331713, -2.08142, -2.15918, -0.127592, -5.69498e-05, -0.000361405, -0.000282992, -0.00485885, 0.000663579, -0.00602827
0.0171287, 1.69067, -1.23031, -1.54148, -0.900565, -1.1928, 1.22723, -1.3025, -0.00325872, -0.0037784, -0.00648626, -0.00410961, 0.00109356, -0.0151341, -0.0005624, 1.305, 70.0436, 36.8711, 7.92602, 3.6037, 5.2814, -0.363392, -0.000437421, -0.00271882, 0.00424822, 0.00536561, 0.00383446, 0.00226615, -0.000366744, 0.00456883, -0.00596036, -0.0198367, -0.0114312, -0.00222369, 0.471008, -0.54339, 0.335894, -2.08385, -2.16584, -0.129886, 0.468155, -0.543279, 0.331713, -2.08142, -2.15918, -0.127592, -6.7667e-05, -0.000428975, -0.000337449, -0.00485885, 0.000663579, -0.00602827
0.0181287, 1.69067, -1.23031, -1.54148, -0.900565, -1.1928, 1.22723, -1.3025, -0.00325872, -0.0037784, -0.00648626, -0.00410961, 0.00109356, -0.0151341, -0.0005624, 1.305, 70.0436, 36.8711, 7.92602, 3.6037, 5.2814, -0.363392, -0.000437218, -0.00271878, 0.0042481, 0.00536543, 0.0038345, 0.00226612, -0.000446859, 0.00455616, -0.00591342, -0.0197943, -0.0114163, -0.00231345, 0.471008, -0.54339, 0.335893, -2.08385, -2.16584, -0.129886, 0.468155, -0.543279, 0.331713, -2.08142, -2.15918, -0.127592, -7.91509e-05, -0.000501362, -0.000395848, -0.00485885, 0.000663579, -0.00602827
0.0191287, 1.69067, -1.23031, -1.54148, -0.900565, -1.1928, 1.22723, -1.3025, -0.00325872, -0.0037784, -0.00648626, -0.00410961, 0.00109356, -0.0151341, -0.0005624, 1.305, 70.0436, 36.8711, 7.92602, 3.6037, 5.2814, -0.363392, -0.000436949, -0.00271874, 0.00424795, 0.00536521, 0.00383456, 0.00226608, -0.000532452, 0.00454262, -0.00586322, -0.0197488, -0.0114002, -0.00240954, 0.471008, -0.54339, 0.335893, -2.08385, -2.16584, -0.129886, 0.468155, -0.543279, 0.331713, -2.08142, -2.15918, -0.127592, -9.14213e-05, -0.000578688, -0.000458296, -0.00485885, 0.000663579, -0.00602827
0.0201287, 1.69067, -1.23031, -1.54148, -0.900565, -1.1928, 1.22723, -1.3025, -0.00325872, -0.0037784, -0.00648626, -0.00410961, 0.00109356, -0.0151341, -0.0005624, 1.305, 70.0436, 36.8711, 7.92602, 3.6037, 5.2814, -0.363392, -0.000436606, -0.00271868, 0.00424775, 0.00536492, 0.00383464, 0.00226604, -0.000623654, 0.0045282, -0.00580967, -0.0197002, -0.0113828, -0.00251212, 0.471008, -0.54339, 0.335893, -2.08385, -2.16584, -0.129885, 0.468155, -0.543279, 0.331713, -2.08142, -2.15918, -0.127592, -0.000104498, -0.000661074, -0.000524897, -0.00485885, 0.000663579, -0.00602827
0.0211287, 1.69067, -1.23031, -1.54148, -0.900565, -1.1928, 1.22723, -1.3025, -0.00325872, -0.0037784, -0.00648626, -0.00410961, 0.00109356, -0.0151341, -0.0005624, 1.305, 70.0436, 36.8711, 7.92602, 3.6037, 5.2814, -0.363392, -0.000436178, -0.00271861, 0.0042475, 0.00536455, 0.00383473, 0.00226598, -0.000720595, 0.00451286, -0.00575268, -0.0196483, -0.0113642, -0.00262136, 0.471008, -0.543391, 0.335893, -2.08385, -2.16584, -0.129885, 0.468155, -0.543279, 0.331713, -2.08142, -2.15918, -0.127592, -0.000118398, -0.000748633, -0.000595748, -0.00485885, 0.000663579, -0.00602827
0.0221287, 1.69067, -1.23031, -1.54148, -0.900565, -1.1928, 1.22723, -1.3025, -0.00325872, -0.0037784, -0.00648626, -0.00410961, 0.00109356, -0.0151341, -0.0005624, 1.305, 70.0436, 36.8711, 7.92602, 3.6037, 5.2814, -0.363392, -0.000435658, -0.00271853, 0.0042472, 0.00536411, 0.00383484, 0.00226591, -0.000823399, 0.00449661, -0.00569219, -0.019593, -0.0113442, -0.00273741, 0.471008, -0.543391, 0.335892, -2.08385, -2.16584, -0.129884, 0.468155, -0.543279, 0.331713, -2.08142, -2.15918, -0.127592, -0.000133141, -0.000841478, -0.000670947, -0.00485885, 0.000663579, -0.00602827
0.0231287, 1.69068, -1.23036, -1.54158, -0.900601, -1.19273, 1.22713, -1.30251, 4.26784e-05, -0.00696073, -0.00994715, -0.00122021, 0.00971568, -0.00480421, -0.00174311, 1.22962, 70.6308, 37.0933, 8.0014, 3.41327, 5.41781, -0.330433, -0.000421907, -0.00273533, 0.00433012, 0.00553515, 0.00399299, 0.00224184, -0.00115661, 0.000962022, -0.00760424, -0.00897525, -0.016361, 0.000324802, 0.471008, -0.543392, 0.335892, -2.08385, -2.16584, -0.129884, 0.468135, -0.543254, 0.331633, -2.08122, -2.15905, -0.127564, -0.000148743, -0.000939713, -0.000750586, -0.00142538, 0.00133319, -0.00805072
0.0241287, 1.69068, -1.23038, -1.54159, -0.900603, -1.19272, 1.22712, -1.30251, 0.00177498, -0.0156724, -0.015259, -0.00216008, 0.000528553, -0.00989941, -0.00238277, 1.15424, 70.4086, 36.6846, 7.92602, 3.33362, 5.33908, -0.297474, -0.000419165, -0.00273366, 0.00434016, 0.00554266, 0.00401485, 0.00223511, 0.000855066, 0.00251993, -0.0152067, -0.0237242, -0.0195424, -0.00207027, 0.471008, -0.543393, 0.335891, -2.08385, -2.16584, -0.129883, 0.468136, -0.54325, 0.331623, -2.0812, -2.15905, -0.127578, -0.00016522, -0.00104344, -0.000834754, -0.00320026, 0.000349858, -0.0159069
0.0251287, 1.69069, -1.23037, -1.54162, -0.900611, -1.19272, 1.22711, -1.30251, 0.00386205, -0.0139825, -0.0257745, -0.00305451, 0.00286762, -0.0111123, -0.00158852, 1.03919, 69.4168, 36.276, 7.85065, 3.13129, 5.18069, -0.297474, -0.00042028, -0.00273879, 0.00435397, 0.00558881, 0.00401804, 0.00224636, 0.000971906, 0.0029833, -0.018208, -0.0334338, -0.01953, -0.00445556, 0.471007, -0.543393, 0.335891, -2.08385, -2.16584, -0.129882, 0.46813, -0.54325, 0.331609, -2.08118, -2.15901, -0.127528, -0.000182589, -0.00115275, -0.000923534, -0.00378458, 0.00056819, -0.0189635
0.0261287, 1.6907, -1.23038, -1.54167, -0.900628, -1.19271, 1.22709, -1.30251, 0.00785501, -0.00971317, -0.0346033, -0.00792396, 0.00717963, -0.0130401, 0.000467231, 0.813057, 68.0917, 35.5698, 7.81494, 2.84839, 5.03787, -0.205922, -0.000416469, -0.00274115, 0.00437732, 0.00565646, 0.0040335, 0.00223993, -0.0019872, 0.00114243, -0.0198012, -0.0433336, -0.0186124, -0.00132962, 0.471007, -0.543394, 0.33589, -2.08385, -2.16584, -0.129881, 0.468127, -0.543244, 0.331586, -2.08113, -2.15899, -0.127468, -0.000200863, -0.00126774, -0.00101701, -0.00212769, 0.00369506, -0.0202264
0.0271287, 1.69071, -1.23038, -1.54173, -0.900635, -1.19272, 1.22705, -1.30251, 0.0113546, -0.00252475, -0.0438137, -0.00623695, 0.00286624, -0.0197253, -0.00195752, 0.551216, 66.5048, 34.7486, 7.5531, 2.62134, 4.90146, -0.133595, -0.000417784, -0.00274941, 0.00440389, 0.00574857, 0.00404005, 0.00224976, -0.00177118, 0.00300874, -0.0192896, -0.0582856, -0.0106519, -0.00308199, 0.471007, -0.543395, 0.335889, -2.08384, -2.16584, -0.129879, 0.468117, -0.543242, 0.331559, -2.08109, -2.15894, -0.12737, -0.000220057, -0.00138849, -0.00111525, -0.00398462, 0.00320596, -0.0197968
0.0281287, 1.69073, -1.2304, -1.54181, -0.900644, -1.19273, 1.22701, -1.3025, 0.0137822, -0.00382089, -0.0558914, -0.00862993, -0.00240825, -0.0254956, -1.43522e-05, 0.285408, 65.1083, 33.8559, 7.29126, 2.44281, 4.77969, -0.160145, -0.000421124, -0.00276019, 0.00444975, 0.00587389, 0.00406642, 0.00227261, -0.000646819, 0.00486502, -0.0252083, -0.0778824, -0.00938809, -0.00821894, 0.471007, -0.543396, 0.335888, -2.08384, -2.16584, -0.129878, 0.468105, -0.54324, 0.331512, -2.08103, -2.15885, -0.127254, -0.000240182, -0.00151507, -0.00121833, -0.00603212, 0.00280438, -0.0258626
0.0291287, 1.69075, -1.23043, -1.54193, -0.900667, -1.19275, 1.22695, -1.3025, 0.0154019, -0.00892911, -0.0731926, -0.0141204, -0.00805015, -0.0348688, 0.000695638, 0.0196001, 63.7436, 33.1498, 7.18018, 2.31372, 4.67257, -0.172963, -0.00042798, -0.0027759, 0.00451419, 0.00604366, 0.00409805, 0.00229592, 0.00102967, 0.00804578, -0.0359132, -0.107006, -0.012833, -0.0127637, 0.471007, -0.543398, 0.335887, -2.08384, -2.16584, -0.129876, 0.468087, -0.543239, 0.331447, -2.08095, -2.15874, -0.127094, -0.000261251, -0.00164757, -0.00132632, -0.0095564, 0.0025343, -0.0367052
0.0301287, 1.69077, -1.23048, -1.54202, -0.90068, -1.19278, 1.22691, -1.30251, 0.0177748, -0.0210558, -0.0818077, -0.0147268, -0.0106607, -0.037013, -0.000821437, -0.166862, 62.7121, 32.1421, 6.91833, 2.27161, 4.42813, -0.133595, -0.000439105, -0.0027891, 0.00458403, 0.00619116, 0.00414093, 0.00231236, 0.00281409, 0.00855922, -0.0464006, -0.119218, -0.0231299, -0.0133037, 0.471007, -0.543399, 0.335886, -2.08384, -2.16584, -0.129874, 0.468071, -0.543241, 0.331376, -2.08087, -2.15864, -0.126971, -0.000283275, -0.00178604, -0.00143928, -0.0104061, 0.00222732, -0.0474351
0.0311287, 1.69078, -1.23053, -1.54214, -0.900709, -1.19281, 1.22686, -1.3025, 0.0200773, -0.0299496, -0.0866005, -0.0229496, -0.0164452, -0.0436584, 0.00104009, -0.242241, 61.8274, 31.2137, 6.84296, 2.21576, 4.17727, -0.172963, -0.000450824, -0.00280489, 0.00466592, 0.00636634, 0.0041891, 0.00234051, 0.00143764, 0.00797419, -0.0550657, -0.136809, -0.0294106, -0.00991327, 0.471006, -0.543401, 0.335885, -2.08384, -2.16584, -0.129872, 0.468053, -0.543242, 0.331292, -2.08078, -2.15851, -0.126821, -0.000306264, -0.00193055, -0.00155726, -0.010207, 0.00479929, -0.0559133
0.0321287, 1.69081, -1.23059, -1.54225, -0.900731, -1.19284, 1.22681, -1.3025, 0.0229607, -0.0423173, -0.0905895, -0.0209677, -0.0215418, -0.0443216, 0.00055327, -0.357292, 61.0934, 30.3568, 6.69617, 2.18555, 3.93374, -0.166554, -0.000462839, -0.00281935, 0.00475039, 0.00654345, 0.00423955, 0.00236044, 0.00345877, 0.00796268, -0.0635875, -0.143717, -0.0376735, -0.0118642, 0.471006, -0.543402, 0.335883, -2.08384, -2.16584, -0.12987, 0.468035, -0.543243, 0.331206, -2.08068, -2.1584, -0.126672, -0.000330225, -0.00208114, -0.00168032, -0.010455, 0.00396542, -0.0647649
0.0331287, 1.69082, -1.23066, -1.54237, -0.900755, -1.19287, 1.22676, -1.3025, 0.0195273, -0.0454779, -0.101226, -0.0194093, -0.0252632, -0.0413687, 0.00264582, -0.357292, 60.5023, 29.5752, 6.54541, 2.16083, 3.7186, -0.226063, -0.000480443, -0.00284003, 0.00483761, 0.00672722, 0.00428795, 0.00240129, 0.00878571, 0.0119323, -0.0684618, -0.151096, -0.0358391, -0.0251834, 0.471006, -0.543404, 0.335882, -2.08384, -2.16584, -0.129868, 0.468012, -0.54325, 0.331116, -2.0806, -2.15825, -0.126511, -0.000355167, -0.00223786, -0.0018085, -0.01443, -0.000862472, -0.0704131
0.0341287, 1.69085, -1.2307, -1.54251, -0.900779, -1.19291, 1.2267, -1.3025, 0.0198743, -0.0426372, -0.107139, -0.0173304, -0.0267912, -0.0464427, -0.000860188, -0.468376, 59.8398, 28.9048, 6.35895, 2.10498, 3.57577, -0.153737, -0.000492407, -0.00285665, 0.00491772, 0.00692208, 0.00431824, 0.0024241, 0.00979444, 0.0143844, -0.068945, -0.160117, -0.0340354, -0.0267625, 0.471005, -0.543406, 0.33588, -2.08384, -2.16584, -0.129865, 0.467992, -0.543252, 0.331034, -2.0805, -2.15814, -0.126321, -0.000381096, -0.00240075, -0.00194184, -0.0168864, -0.0020472, -0.0711062
0.0351287, 1.69087, -1.23074, -1.54264, -0.900802, -1.19295, 1.22665, -1.3025, 0.0233839, -0.0427951, -0.11174, -0.0195765, -0.0275299, -0.0459467, -5.77189e-05, -0.583427, 59.4351, 28.3097, 6.20819, 2.03815, 3.45309, -0.166554, -0.000504758, -0.00287126, 0.00499892, 0.00711663, 0.00434355, 0.00245731, 0.00854366, 0.0126975, -0.0710053, -0.165586, -0.0326908, -0.0247929, 0.471005, -0.543408, 0.335878, -2.08384, -2.16584, -0.129862, 0.467975, -0.543255, 0.330951, -2.08042, -2.15801, -0.126125, -0.000408018, -0.00256985, -0.00208038, -0.0153479, -0.000595415, -0.0731358
0.0361287, 1.69087, -1.23074, -1.54264, -0.900802, -1.19295, 1.22665, -1.3025, 0.0233839, -0.0427951, -0.11174, -0.0195765, -0.0275299, -0.0459467, -5.77189e-05, -0.583427, 59.4351, 28.3097, 6.20819, 2.03815, 3.45309, -0.166554, -0.000502095, -0.00287083, 0.00499736, 0.00711429, 0.00434409, 0.00245695, 0.00834924, 0.0126666, -0.0708893, -0.165477, -0.032648, -0.0250176, 0.471005, -0.543411, 0.335877, -2.08384, -2.16583, -0.129859, 0.467975, -0.543255, 0.330951, -2.08042, -2.15801, -0.126125, -0.000435936, -0.00274516, -0.00222414, -0.0153479, -0.000595415, -0.0731358
0.0371287, 1.69087, -1.23074, -1.54264, -0.900802, -1.19295, 1.22665, -1.3025, 0.0233839, -0.0427951, -0.11174, -0.0195765, -0.0275299, -0.0459467, -5.77189e-05, -0.583427, 59.4351, 28.3097, 6.20819, 2.03815, 3.45309, -0.166554, -0.000499222, -0.00287036, 0.00499568, 0.00711177, 0.00434468, 0.00245656, 0.00814787, 0.0126346, -0.0707691, -0.165363, -0.0326034, -0.0252507, 0.471004, -0.543413, 0.335874, -2.08384, -2.16583, -0.129855, 0.467975, -0.543255, 0.330951, -2.08042, -2.15801, -0.126125, -0.000464854, -0.00292672, -0.00237315, -0.0153479, -0.000595415, -0.0731358
0.0381287, 1.69095, -1.2308, -1.54303, -0.900897, -1.19307, 1.22654, -1.30249, 0.022024, -0.027513, -0.121468, -0.0268203, -0.0397371, -0.0319325, -0.000577323, -0.43267, 58.6972, 27.4885, 6.28357, 1.84131, 3.17386, -0.140919, -0.000532609, -0.00290815, 0.0051919, 0.00767099, 0.00431407, 0.00253169, 0.0108954, 0.0125866, -0.0648153, -0.169227, 0.000807926, -0.0290106, 0.471004, -0.543416, 0.335872, -2.08384, -2.16583, -0.129852, 0.467931, -0.543262, 0.330751, -2.08021, -2.15773, -0.125464, -0.000494774, -0.00311453, -0.00252743, -0.0150168, -0.00441008, -0.0678389
0.0391287, 1.69097, -1.2308, -1.54316, -0.900936, -1.19311, 1.22652, -1.30249, 0.0197697, -0.0150439, -0.120557, -0.0308232, -0.0411065, -0.0286152, -0.00233859, -0.166862, 58.7726, 27.4885, 6.47003, 1.75525, 3.14548, -0.0878186, -0.000541816, -0.00292174, 0.00524062, 0.0078348, 0.00428169, 0.00255024, 0.00979729, 0.0125384, -0.0571746, -0.166555, 0.0162456, -0.0264959, 0.471003, -0.543419, 0.33587, -2.08384, -2.16583, -0.129848, 0.467915, -0.543267, 0.330699, -2.08016, -2.15767, -0.125244, -0.000525695, -0.00330858, -0.00268698, -0.014763, -0.00469413, -0.0602848
0.0401287, 1.69098, -1.23079, -1.54327, -0.900989, -1.19316, 1.22649, -1.30249, 0.0160142, -0.00955677, -0.119639, -0.0401463, -0.0440894, -0.0248751, -0.00127806, 0.21003, 58.9194, 27.6749, 6.80725, 1.71222, 3.21689, -0.0951428, -0.000547533, -0.00293393, 0.0052849, 0.00800151, 0.0042371, 0.0025684, 0.00877378, 0.0121248, -0.0542564, -0.167138, 0.0266783, -0.0240195, 0.471003, -0.543422, 0.335867, -2.08384, -2.16583, -0.129843, 0.467901, -0.54327, 0.330652, -2.08011, -2.15761, -0.125008, -0.000557617, -0.00350887, -0.00285182, -0.0143132, -0.00431623, -0.0574218
0.0411287, 1.69098, -1.23076, -1.54338, -0.90104, -1.19321, 1.22647, -1.30249, 0.0103865, 5.10005e-05, -0.11452, -0.0464724, -0.0467266, -0.0234583, -0.00037002, 0.586922, 58.9908, 27.9368, 7.14447, 1.68201, 3.33865, -0.10796, -0.000552802, -0.00294738, 0.00531451, 0.00815739, 0.00417104, 0.00258785, 0.00791152, 0.0131413, -0.0471082, -0.163833, 0.0391915, -0.0238332, 0.471002, -0.543426, 0.335864, -2.08384, -2.16583, -0.129839, 0.467886, -0.543274, 0.33062, -2.08009, -2.15756, -0.124762, -0.000590537, -0.00371538, -0.00302192, -0.0151341, -0.00481327, -0.050369
0.0421287, 1.69098, -1.23074, -1.54348, -0.901083, -1.19325, 1.22646, -1.30249, 0.00716313, 0.00471214, -0.108395, -0.0473138, -0.0497565, -0.0227363, -0.00146191, 1.07887, 59.324, 28.274, 7.33093, 1.68201, 3.48239, -0.0750012, -0.000562361, -0.00296336, 0.00534188, 0.0082953, 0.00410816, 0.00261317, 0.00784562, 0.0139337, -0.0419364, -0.158623, 0.0462923, -0.0236326, 0.471002, -0.543429, 0.335861, -2.08384, -2.16583, -0.129834, 0.467869, -0.543284, 0.330589, -2.08007, -2.15752, -0.124539, -0.000624453, -0.00392809, -0.0031973, -0.015775, -0.00578936, -0.0454034
0.0431287, 1.69099, -1.23072, -1.54358, -0.901135, -1.1933, 1.22645, -1.30249, 0.00471015, 0.0110649, -0.10437, -0.046682, -0.0473883, -0.0110575, -0.0021912, 1.45576, 59.8398, 28.7937, 7.59277, 1.69391, 3.58951, -0.0420422, -0.000569534, -0.00297521, 0.00537142, 0.00843275, 0.00404258, 0.00262733, 0.00823093, 0.0124056, -0.0354041, -0.142489, 0.0561224, -0.0235748, 0.471001, -0.543433, 0.335858, -2.08384, -2.16582, -0.129829, 0.467856, -0.543291, 0.330556, -2.08004, -2.15748, -0.124314, -0.000659358, -0.00414696, -0.00337792, -0.0140341, -0.00733149, -0.0392398
0.0441287, 1.69098, -1.2307, -1.54367, -0.90118, -1.19336, 1.22644, -1.30249, 0.00296403, 0.0163772, -0.102155, -0.0520066, -0.0497052, -0.0105024, -0.000711735, 1.83265, 60.5023, 29.3531, 7.70386, 1.70032, 3.66824, -0.0621838, -0.000578979, -0.00298839, 0.00539529, 0.00855308, 0.00397493, 0.00265224, 0.00675954, 0.012023, -0.0319394, -0.14281, 0.0639068, -0.0222267, 0.471, -0.543437, 0.335855, -2.08383, -2.16582, -0.129823, 0.467842, -0.543301, 0.330528, -2.08004, -2.15745, -0.124104, -0.000695248, -0.00437195, -0.00356376, -0.0136154, -0.00662149, -0.0357877
0.0451287, 1.69098, -1.23069, -1.54375, -0.901217, -1.19341, 1.22644, -1.30248, -0.00366895, 0.0135213, -0.095992, -0.045586, -0.0483426, -0.0095701, 0.000748523, 2.17384, 61.3513, 30.0236, 7.62848, 1.74335, 3.73324, -0.0951428, -0.000591981, -0.0030042, 0.00541837, 0.00866552, 0.00390931, 0.00268702, 0.0101544, 0.0156702, -0.0299634, -0.131981, 0.0592962, -0.0326894, 0.471, -0.543442, 0.335851, -2.08383, -2.16582, -0.129818, 0.467825, -0.543315, 0.3305, -2.08005, -2.1574, -0.123904, -0.000732114, -0.004603, -0.00375481, -0.0171021, -0.0106575, -0.0344442
0.0461287, 1.69098, -1.23067, -1.54383, -0.901255, -1.19347, 1.22644, -1.30249, -0.00505567, 0.0152456, -0.0900794, -0.0444723, -0.0479281, -0.00968819, -0.00146594, 2.3603, 62.3431, 30.6544, 7.5531, 1.80469, 3.8193, -0.0420422, -0.000600231, -0.00301604, 0.00543592, 0.00877367, 0.00383769, 0.00270239, 0.00936686, 0.0156102, -0.0264769, -0.125668, 0.0601457, -0.0301926, 0.470999, -0.543446, 0.335848, -2.08383, -2.16582, -0.129812, 0.467812, -0.543326, 0.330478, -2.08004, -2.15738, -0.123705, -0.000769946, -0.00484006, -0.003951, -0.0169823, -0.0106512, -0.0310772
0.0471287, 1.69098, -1.23064, -1.5439, -0.901292, -1.19353, 1.22643, -1.30249, -0.00145333, 0.0195716, -0.0848223, -0.0421247, -0.0524015, -0.0110592, -0.000230009, 2.47535, 63.3746, 31.4002, 7.40631, 1.87244, 3.94107, -0.0621838, -0.00060873, -0.00302979, 0.00545056, 0.00888319, 0.00376316, 0.00272912, 0.00746702, 0.0139674, -0.0218841, -0.12328, 0.0670966, -0.0293124, 0.470998, -0.543451, 0.335844, -2.08383, -2.16582, -0.129805, 0.467797, -0.543337, 0.330459, -2.08005, -2.15735, -0.123499, -0.000808735, -0.00508306, -0.00415231, -0.0152823, -0.00965822, -0.0264982
0.0481287, 1.69098, -1.23064, -1.5439, -0.901292, -1.19353, 1.22643, -1.30249, -0.00145333, 0.0195716, -0.0848223, -0.0421247, -0.0524015, -0.0110592, -0.000230009, 2.47535, 63.3746, 31.4002, 7.40631, 1.87244, 3.94107, -0.0621838, -0.000603127, -0.00302888, 0.00544725, 0.00887815, 0.00376426, 0.00272836, 0.00719073, 0.0139236, -0.0217172, -0.123119, 0.0671637, -0.0296389, 0.470997, -0.543456, 0.33584, -2.08383, -2.16582, -0.129798, 0.467797, -0.543337, 0.330459, -2.08005, -2.15735, -0.123499, -0.000848468, -0.00533191, -0.00435868, -0.0152823, -0.00965822, -0.0264982
0.0491287, 1.69098, -1.23064, -1.5439, -0.901292, -1.19353, 1.22643, -1.30249, -0.00145333, 0.0195716, -0.0848223, -0.0421247, -0.0524015, -0.0110592, -0.000230009, 2.47535, 63.3746, 31.4002, 7.40631, 1.87244, 3.94107, -0.0621838, -0.00059724, -0.00302792, 0.00544377, 0.00887284, 0.00376542, 0.00272756, 0.00690801, 0.0138789, -0.0215463, -0.122953, 0.0672331, -0.0299737, 0.470997, -0.543461, 0.335835, -2.08383, -2.16581, -0.129791, 0.467797, -0.543337, 0.330459, -2.08005, -2.15735, -0.123499, -0.000889131, -0.00558652, -0.00457004, -0.0152823, -0.00965822, -0.0264982
0.0501287, 1.69098, -1.23064, -1.5439, -0.901292, -1.19353, 1.22643, -1.30249, -0.00145333, 0.0195716, -0.0848223, -0.0421247, -0.0524015, -0.0110592, -0.000230009, 2.47535, 63.3746, 31.4002, 7.40631, 1.87244, 3.94107, -0.0621838, -0.000591063, -0.00302691, 0.00544011, 0.00886726, 0.00376663, 0.00272673, 0.00661896, 0.0138331, -0.0213714, -0.122782, 0.0673046, -0.0303167, 0.470996, -0.543467, 0.335831, -2.08383, -2.16581, -0.129784, 0.467797, -0.543337, 0.330459, -2.08005, -2.15735, -0.123499, -0.00093071, -0.0058468, -0.00478633, -0.0152823, -0.00965822, -0.0264982
0.0511287, 1.69097, -1.23055, -1.54414, -0.90141, -1.1938, 1.22635, -1.30248, -0.00295476, 0.0209091, -0.0680821, -0.0355682, -0.0729497, -0.017063, 0.000227224, 2.3603, 67.8339, 34.0781, 6.73187, 2.12421, 4.6149, -0.0750012, -0.000637678, -0.00308967, 0.00548735, 0.00930874, 0.00346131, 0.00283721, 0.00879244, 0.0165651, -0.0139865, -0.119313, 0.0808804, -0.0372069, 0.470995, -0.543473, 0.335826, -2.08383, -2.16581, -0.129776, 0.467733, -0.543384, 0.330402, -2.08008, -2.15723, -0.122682, -0.000973186, -0.00611264, -0.00500747, -0.0177085, -0.0133181, -0.0196819
0.0521287, 1.69097, -1.23052, -1.54419, -0.901446, -1.19388, 1.22634, -1.30248, -0.000300883, 0.0237479, -0.0651453, -0.0346377, -0.0760021, -0.0156353, 0.000626509, 2.28492, 68.8257, 34.7129, 6.77154, 2.20386, 4.72934, -0.0878186, -0.000643716, -0.00310363, 0.00549503, 0.0094201, 0.00337424, 0.00286177, 0.00748582, 0.0148461, -0.0109756, -0.116485, 0.086819, -0.035832, 0.470994, -0.543479, 0.335821, -2.08382, -2.16581, -0.129768, 0.467718, -0.543396, 0.330389, -2.08009, -2.15721, -0.12246, -0.00101654, -0.00638391, -0.00523338, -0.015973, -0.0126925, -0.0167839
0.0531287, 1.69097, -1.23049, -1.54425, -0.901479, -1.19396, 1.22632, -1.30248, 0.000563917, 0.0294488, -0.0622334, -0.0342489, -0.07692, -0.0152208, -5.68141e-05, 2.24921, 69.5279, 35.1969, 6.84296, 2.24689, 4.85843, -0.0750012, -0.000650119, -0.00312021, 0.00549214, 0.00952718, 0.00327158, 0.00288811, 0.0060243, 0.0140098, -0.00635459, -0.113291, 0.0933408, -0.03404, 0.470993, -0.543485, 0.335816, -2.08382, -2.1658, -0.129759, 0.467701, -0.54341, 0.330386, -2.08012, -2.1572, -0.122227, -0.00106076, -0.00666049, -0.00546395, -0.0150671, -0.0122031, -0.01225
0.0541287, 1.69097, -1.23045, -1.54431, -0.901516, -1.19405, 1.22629, -1.30249, -0.0017997, 0.0302497, -0.0622121, -0.0325086, -0.0825082, -0.0154829, -0.00197048, 2.20954, 70.2261, 35.7523, 6.99371, 2.29541, 5.00216, -0.0228162, -0.00065828, -0.00313988, 0.00549784, 0.00965616, 0.0031727, 0.00291372, 0.00827353, 0.0163703, -0.00533619, -0.114657, 0.0984207, -0.0382305, 0.470992, -0.543492, 0.33581, -2.08382, -2.1658, -0.12975, 0.46768, -0.543424, 0.330374, -2.08012, -2.15717, -0.121972, -0.00110581, -0.00694224, -0.0056991, -0.0173523, -0.0149587, -0.0117571
0.0551287, 1.69096, -1.23041, -1.54437, -0.901555, -1.19415, 1.22627, -1.30248, -0.0014938, 0.0340352, -0.0599749, -0.0356468, -0.0863303, -0.0156207, 0.000381896, 2.20954, 70.6308, 36.0895, 7.21588, 2.33295, 5.14499, -0.0685925, -0.000664269, -0.00315766, 0.00549419, 0.00977527, 0.00305886, 0.00294611, 0.00683136, 0.0155757, -0.00257916, -0.115631, 0.105486, -0.0382003, 0.470991, -0.543499, 0.335805, -2.08382, -2.1658, -0.12974, 0.467662, -0.543438, 0.330372, -2.08015, -2.15715, -0.121713, -0.00115168, -0.007229, -0.00593872, -0.0165564, -0.0142135, -0.00907444
0.0561287, 1.69096, -1.23038, -1.54441, -0.901589, -1.19424, 1.22624, -1.30248, -0.0042706, 0.0328917, -0.0582203, -0.0368987, -0.0882235, -0.0160155, 0.000492054, 2.20954, 71.0355, 36.276, 7.40631, 2.34485, 5.29605, -0.0750012, -0.000671422, -0.00317649, 0.00549505, 0.00989464, 0.00295657, 0.00297966, 0.00743935, 0.0167604, -0.00249026, -0.11538, 0.105685, -0.0401109, 0.47099, -0.543506, 0.335799, -2.08382, -2.16579, -0.129731, 0.467642, -0.543453, 0.330365, -2.08017, -2.15713, -0.121464, -0.00119834, -0.00752062, -0.00618267, -0.0177613, -0.0151675, -0.00928899
0.0571287, 1.69096, -1.23034, -1.54448, -0.90163, -1.19434, 1.22621, -1.30249, -0.00243174, 0.0369369, -0.0587742, -0.0401092, -0.0914186, -0.0149206, -0.00160467, 2.17384, 71.329, 36.4982, 7.70386, 2.28992, 5.41049, -0.0228162, -0.000676589, -0.00319351, 0.00549872, 0.0100233, 0.00285194, 0.00299724, 0.00584499, 0.015293, -0.00054595, -0.117671, 0.113326, -0.0352039, 0.470988, -0.543514, 0.335793, -2.08381, -2.16579, -0.12972, 0.467624, -0.543466, 0.330355, -2.08017, -2.15711, -0.121204, -0.00124576, -0.00781692, -0.00643084, -0.0163298, -0.014129, -0.00741416
0.0581287, 1.69096, -1.23031, -1.54454, -0.901661, -1.19444, 1.22618, -1.30249, -0.00414637, 0.0332237, -0.0572704, -0.0419042, -0.0903249, -0.024126, -0.00130708, 2.13416, 71.6266, 36.6489, 7.85065, 2.24689, 5.53958, -0.0164075, -0.000684103, -0.00321316, 0.00550793, 0.0101592, 0.00275785, 0.00302836, 0.00458107, 0.0170357, -0.00294005, -0.124531, 0.104256, -0.034871, 0.470987, -0.543521, 0.335786, -2.08381, -2.16579, -0.12971, 0.467603, -0.543481, 0.330339, -2.08018, -2.15708, -0.120944, -0.00129392, -0.00811772, -0.00668309, -0.0182504, -0.0128848, -0.00978142
0.0591287, 1.69096, -1.23029, -1.54459, -0.901701, -1.19454, 1.22614, -1.30248, -0.00326196, 0.0294093, -0.0553295, -0.042026, -0.093967, -0.0295797, 0.00129879, 2.13416, 71.8091, 36.6092, 8.07678, 2.18555, 5.62564, -0.0750012, -0.000689782, -0.00323096, 0.00551613, 0.0102927, 0.00265927, 0.0030603, 0.0039062, 0.0174584, -0.00481455, -0.129583, 0.100759, -0.0371151, 0.470986, -0.54353, 0.335779, -2.08381, -2.16578, -0.129699, 0.467584, -0.543494, 0.330323, -2.08019, -2.15704, -0.120683, -0.00134278, -0.00842284, -0.00693927, -0.0188134, -0.0122525, -0.0117709
0.0601287, 1.69097, -1.23027, -1.54466, -0.901734, -1.19464, 1.22611, -1.30248, 0.00804463, 0.0291227, -0.0610749, -0.0392327, -0.0966075, -0.0289485, 0.000391173, 1.9477, 71.9955, 36.6092, 8.18787, 2.1178, 5.7117, -0.0621838, -0.000692381, -0.00324413, 0.00553229, 0.0104383, 0.00257135, 0.00308026, 0.00118922, 0.012882, -0.00694829, -0.135553, 0.103563, -0.0315417, 0.470984, -0.543538, 0.335772, -2.08381, -2.16578, -0.129687, 0.467569, -0.543503, 0.330301, -2.08017, -2.15701, -0.120419, -0.00139231, -0.00873205, -0.00719924, -0.014467, -0.00936391, -0.0138546
0.0611287, 1.69098, -1.23027, -1.54472, -0.901765, -1.19475, 1.22607, -1.30249, 0.0073656, 0.0246806, -0.0581109, -0.0356577, -0.0984636, -0.0270205, -0.00167197, 1.87232, 72.2137, 36.5378, 8.22754, 2.05005, 5.75473, -0.00999879, -0.000699775, -0.00326196, 0.00555311, 0.0105837, 0.00249137, 0.00310475, 0.00255605, 0.0132562, -0.00759608, -0.130508, 0.101177, -0.0328015, 0.470983, -0.543547, 0.335765, -2.0838, -2.16578, -0.129675, 0.467549, -0.543517, 0.330272, -2.08016, -2.15697, -0.120163, -0.00144249, -0.00904515, -0.00746282, -0.0148656, -0.0109421, -0.0149584
0.0621287, 1.691, -1.23026, -1.5448, -0.901795, -1.19486, 1.22603, -1.30249, 0.00954435, 0.0205249, -0.0635362, -0.0331181, -0.101371, -0.0342198, -0.00186062, 1.68189, 72.3248, 36.4982, 8.26324, 2.01984, 5.76938, 0.0101428, -0.000706856, -0.00327833, 0.00557795, 0.0107405, 0.00240749, 0.00313238, 0.00330448, 0.0150926, -0.0121167, -0.142137, 0.0961492, -0.0366052, 0.470982, -0.543556, 0.335758, -2.0838, -2.16577, -0.129663, 0.467531, -0.543529, 0.33024, -2.08015, -2.15692, -0.11989, -0.00149327, -0.00936199, -0.00772991, -0.0168876, -0.0113773, -0.0197497
0.0631287, 1.69101, -1.23026, -1.54487, -0.901824, -1.19497, 1.22598, -1.30248, 0.010952, 0.0148957, -0.0662064, -0.0305717, -0.102225, -0.0387359, 0.000692381, 1.49146, 72.4002, 36.4228, 8.26324, 1.95209, 5.75473, -0.0420422, -0.000712404, -0.00329469, 0.0056071, 0.010905, 0.00233453, 0.00317031, 0.0038305, 0.0161197, -0.0162563, -0.148064, 0.0891158, -0.0418811, 0.47098, -0.543565, 0.33575, -2.0838, -2.16577, -0.12965, 0.467512, -0.54354, 0.330203, -2.08013, -2.15686, -0.119617, -0.00154466, -0.00968246, -0.00800043, -0.0180962, -0.0116222, -0.024158
0.0641287, 1.69103, -1.23025, -1.54495, -0.901855, -1.19508, 1.22593, -1.30248, 0.0100007, 0.00929042, -0.0687343, -0.0320394, -0.103414, -0.0420149, 0.00120758, 1.38038, 72.2534, 36.2363, 8.26324, 1.90265, 5.73276, -0.0621838, -0.000718135, -0.00331406, 0.00563267, 0.0110737, 0.00225587, 0.00320187, 0.00437205, 0.017362, -0.0206558, -0.154475, 0.0832371, -0.0439774, 0.470979, -0.543575, 0.335742, -2.0838, -2.16576, -0.129636, 0.46749, -0.543553, 0.330169, -2.08011, -2.1568, -0.119335, -0.00159663, -0.0100065, -0.00827433, -0.0195293, -0.0118547, -0.0288223
0.0651287, 1.69104, -1.23025, -1.54502, -0.901889, -1.19519, 1.22588, -1.30248, 0.0108488, 0.00910521, -0.0668214, -0.0308162, -0.104658, -0.0487532, 0.000567703, 1.34071, 72.178, 35.9784, 8.29895, 1.85962, 5.69705, -0.0557752, -0.000723019, -0.00333424, 0.00566073, 0.011245, 0.00218464, 0.00323014, 0.00315671, 0.0181364, -0.0203074, -0.158572, 0.0806351, -0.0435284, 0.470977, -0.543585, 0.335734, -2.08379, -2.16576, -0.129623, 0.467467, -0.543564, 0.330133, -2.08009, -2.15674, -0.119057, -0.00164918, -0.0103339, -0.00855153, -0.0203862, -0.0110677, -0.0285433
0.0661287, 1.69106, -1.23025, -1.54511, -0.901931, -1.1953, 1.22582, -1.30248, 0.0132824, 0.00869464, -0.0723774, -0.0325989, -0.105534, -0.0534111, -0.00131695, 1.22962, 72.1027, 35.9031, 8.44971, 1.81659, 5.64029, -0.00999879, -0.000725061, -0.00335116, 0.0056973, 0.0114312, 0.00211856, 0.00324998, 0.00205338, 0.0182583, -0.0230534, -0.168914, 0.0793229, -0.0410882, 0.470975, -0.543595, 0.335725, -2.08379, -2.16576, -0.129608, 0.467448, -0.543571, 0.330089, -2.08004, -2.15668, -0.118768, -0.00170228, -0.0106648, -0.00883197, -0.0207004, -0.00989183, -0.0313601
0.0671287, 1.69106, -1.23024, -1.54518, -0.901962, -1.19541, 1.22576, -1.30248, 0.0117035, 0.0107113, -0.0721194, -0.0316754, -0.106898, -0.0570215, 0.00105482, 1.26533, 71.9202, 35.6055, 8.37433, 1.79187, 5.58261, -0.0621838, -0.000730733, -0.00337721, 0.0057182, 0.0116055, 0.00204203, 0.00329505, 0.00231035, 0.0201039, -0.0216346, -0.171371, 0.0806265, -0.0466766, 0.470974, -0.543606, 0.335716, -2.08379, -2.16575, -0.129594, 0.467419, -0.543586, 0.330059, -2.08003, -2.1566, -0.118478, -0.00175593, -0.0109989, -0.0091156, -0.0225368, -0.0107735, -0.0302264
0.0681287, 1.69108, -1.23023, -1.54526, -0.902006, -1.19552, 1.22569, -1.30248, 0.0151372, 0.0128222, -0.0749019, -0.0325093, -0.106812, -0.0635677, 0.000465857, 1.11457, 71.698, 35.4548, 8.48541, 1.73694, 5.50387, -0.0557752, -0.000726683, -0.00339469, 0.0057444, 0.0117994, 0.00196712, 0.00331191, -0.000146449, 0.0196613, -0.0219911, -0.179963, 0.0798933, -0.0438058, 0.470972, -0.543617, 0.335707, -2.08378, -2.16575, -0.129578, 0.467399, -0.543589, 0.330025, -2.07998, -2.15655, -0.118171, -0.0018101, -0.0113362, -0.00940234, -0.0222499, -0.00861241, -0.0304972
0.0691287, 1.69108, -1.23019, -1.54534, -0.902038, -1.19562, 1.22562, -1.30248, 0.011226, 0.0200477, -0.0743702, -0.0326704, -0.108577, -0.0638873, -0.00067277, 1.22962, 71.2219, 35.1969, 8.44971, 1.73694, 5.41781, -0.0292249, -0.000730348, -0.00342335, 0.00575285, 0.011975, 0.00187189, 0.00335027, 0.00071582, 0.0220602, -0.0171494, -0.179208, 0.088319, -0.0473691, 0.47097, -0.543628, 0.335698, -2.08378, -2.16574, -0.129563, 0.467368, -0.543604, 0.330008, -2.07997, -2.15648, -0.117861, -0.00186479, -0.0116765, -0.00969213, -0.0244939, -0.0106472, -0.0260668
0.0701287, 1.6911, -1.23017, -1.54542, -0.902076, -1.19572, 1.22555, -1.30248, 0.0141575, 0.0205978, -0.0737996, -0.0305791, -0.109046, -0.0638109, -0.000448512, 1.11457, 70.9244, 35.0104, 8.44971, 1.71222, 5.32443, -0.0292249, -0.000725485, -0.00344284, 0.00577235, 0.0121629, 0.00179574, 0.0033718, -0.000408568, 0.0207702, -0.0162329, -0.178035, 0.0892949, -0.0469132, 0.470968, -0.54364, 0.335688, -2.08378, -2.16574, -0.129546, 0.467346, -0.543609, 0.32998, -2.07993, -2.15643, -0.117558, -0.00191999, -0.0120199, -0.00998491, -0.0232679, -0.00996878, -0.0253191
0.0711287, 1.69111, -1.23014, -1.5455, -0.902112, -1.19582, 1.22548, -1.30248, 0.0142333, 0.022474, -0.0761722, -0.0320738, -0.104805, -0.066383, 0.00139641, 1.07887, 70.5594, 34.8597, 8.44971, 1.69391, 5.16696, -0.0750012, -0.000723776, -0.00346433, 0.00578905, 0.0123419, 0.00171356, 0.00340535, -0.00205465, 0.0207882, -0.016155, -0.180676, 0.0868228, -0.0476372, 0.470966, -0.543652, 0.335678, -2.08377, -2.16573, -0.12953, 0.467322, -0.543618, 0.329955, -2.0799, -2.15636, -0.117257, -0.00197567, -0.0123662, -0.0102806, -0.0233977, -0.00870275, -0.0252817
0.0721287, 1.69113, -1.23011, -1.54559, -0.902146, -1.19592, 1.22541, -1.30247, 0.0148571, 0.0237666, -0.0766346, -0.0316482, -0.101948, -0.0695505, 0.00167693, 0.888436, 70.1904, 34.7486, 8.37433, 1.68201, 5.03787, -0.0951428, -0.000715843, -0.00348137, 0.00580488, 0.0125276, 0.00163381, 0.00342577, -0.00350828, 0.0208398, -0.0155537, -0.18203, 0.0843356, -0.04748, 0.470964, -0.543664, 0.335668, -2.08377, -2.16572, -0.129512, 0.467302, -0.54362, 0.329931, -2.07986, -2.15631, -0.116952, -0.00203183, -0.0127153, -0.0105792, -0.0235356, -0.00771142, -0.0247592
0.0731287, 1.69115, -1.23008, -1.54566, -0.902174, -1.19602, 1.22534, -1.30248, 0.0185816, 0.0263532, -0.0761892, -0.029797, -0.100703, -0.0666426, 0.00332408, 0.813057, 69.7461, 34.6375, 8.22754, 1.69391, 4.89413, -0.0292249, -0.000711652, -0.00350297, 0.00581623, 0.0127028, 0.00155327, 0.00344763, -0.00526185, 0.0183935, -0.0133094, -0.177762, 0.0874135, -0.0470022, 0.470962, -0.543677, 0.335657, -2.08377, -2.16572, -0.129495, 0.467278, -0.543628, 0.32991, -2.07983, -2.15626, -0.116657, -0.00208844, -0.0130671, -0.0108805, -0.0211303, -0.00657727, -0.0226466
0.0741287, 1.69117, -1.23006, -1.54574, -0.902201, -1.19612, 1.22527, -1.30248, 0.0193084, 0.0253576, -0.0757769, -0.0263335, -0.100264, -0.069971, 0.00331543, 0.701973, 69.4168, 34.5264, 8.11249, 1.73053, 4.76504, -0.0484509, -0.000706127, -0.0035206, 0.0058306, 0.0128757, 0.00147482, 0.00347722, -0.00538444, 0.0191695, -0.0133359, -0.178383, 0.0842366, -0.0494595, 0.47096, -0.54369, 0.335646, -2.08376, -2.16571, -0.129476, 0.467257, -0.543634, 0.329887, -2.0798, -2.1562, -0.116366, -0.00214551, -0.0134215, -0.0111846, -0.0219678, -0.00683842, -0.0229339
0.0751287, 1.6912, -1.23004, -1.54582, -0.902222, -1.19622, 1.2252, -1.30247, 0.0245991, 0.0243665, -0.0758237, -0.0251596, -0.104004, -0.0682686, 0.00446744, 0.511544, 69.2303, 34.5264, 7.92602, 1.76166, 4.6506, -0.101552, -0.000700042, -0.00353655, 0.00584982, 0.0130484, 0.0014068, 0.00350445, -0.00675627, 0.016501, -0.0136404, -0.17878, 0.0873902, -0.0481693, 0.470958, -0.543704, 0.335635, -2.08376, -2.16571, -0.129457, 0.467238, -0.543639, 0.329858, -2.07977, -2.15613, -0.116084, -0.00220301, -0.0137786, -0.0114914, -0.0194206, -0.00568512, -0.0234097
0.0761287, 1.69122, -1.23002, -1.54589, -0.902238, -1.19632, 1.22513, -1.30247, 0.0276265, 0.0208147, -0.0749233, -0.0214245, -0.107461, -0.0716082, 0.00319615, 0.360787, 69.0479, 34.5264, 7.73956, 1.79828, 4.53616, -0.101552, -0.000695439, -0.00355325, 0.00586538, 0.0132126, 0.00133523, 0.00353232, -0.00692515, 0.0163535, -0.015073, -0.181241, 0.0848807, -0.0483427, 0.470956, -0.543717, 0.335624, -2.08375, -2.1657, -0.129438, 0.467218, -0.543647, 0.329832, -2.07974, -2.15607, -0.115809, -0.00226092, -0.014138, -0.0118008, -0.0193896, -0.0056515, -0.0251117
0.0771287, 1.69124, -1.23001, -1.54596, -0.902255, -1.19643, 1.22507, -1.30247, 0.023868, 0.0158657, -0.0757316, -0.0174377, -0.105911, -0.0689135, 0.000598736, 0.325081, 68.9725, 34.6018, 7.62848, 1.85321, 4.40707, -0.0557752, -0.000695959, -0.00357328, 0.00588519, 0.0133739, 0.00126545, 0.0035669, -0.00390457, 0.0186819, -0.0170326, -0.176562, 0.079696, -0.0532133, 0.470954, -0.543731, 0.335612, -2.08375, -2.16569, -0.129418, 0.467195, -0.543659, 0.329802, -2.07972, -2.15601, -0.115536, -0.00231925, -0.0144999, -0.0121127, -0.021737, -0.00878928, -0.0277559
0.0781287, 1.69127, -1.23, -1.54603, -0.902265, -1.19653, 1.22502, -1.30247, 0.0240892, 0.0150156, -0.0735269, -0.0134497, -0.109886, -0.0620152, 0.00123378, 0.170357, 68.79, 34.5621, 7.47772, 1.91546, 4.27798, -0.0750012, -0.000690755, -0.00358598, 0.00589642, 0.0135196, 0.00118824, 0.00359346, -0.00209996, 0.0181592, -0.0153529, -0.168443, 0.0851878, -0.0578779, 0.470951, -0.543746, 0.3356, -2.08374, -2.16569, -0.129398, 0.46718, -0.543668, 0.32978, -2.07971, -2.15596, -0.115274, -0.00237796, -0.014864, -0.0124272, -0.0211483, -0.0111721, -0.0267074
0.0791287, 1.6913, -1.23, -1.54611, -0.902278, -1.19664, 1.22497, -1.30247, 0.0272052, 0.00930235, -0.0762443, -0.0108859, -0.112575, -0.05869, 0.0028472, 0.0196001, 68.8257, 34.7129, 7.47772, 1.97681, 4.19192, -0.127186, -0.0006895, -0.00359831, 0.00592107, 0.0136779, 0.00111501, 0.00363167, -0.00117786, 0.0169983, -0.01893, -0.168671, 0.0835625, -0.0612376, 0.470949, -0.543761, 0.335587, -2.08374, -2.16568, -0.129377, 0.467164, -0.543678, 0.329744, -2.0797, -2.15589, -0.115001, -0.00243706, -0.0152304, -0.012744, -0.0201458, -0.0118511, -0.0307345
0.0801287, 1.69133, -1.22999, -1.54618, -0.902283, -1.19676, 1.22493, -1.30247, 0.0265658, 0.00629694, -0.0708418, -0.00869688, -0.114313, -0.0518114, 0.00125499, -0.0161054, 68.8257, 34.7883, 7.47772, 2.03174, 4.12051, -0.10796, -0.000692378, -0.0036141, 0.00593848, 0.0138181, 0.0010366, 0.0036712, -0.000441645, 0.0156945, -0.0175956, -0.15762, 0.0849766, -0.0606233, 0.470946, -0.543776, 0.335575, -2.08373, -2.16567, -0.129355, 0.467145, -0.543694, 0.329714, -2.0797, -2.15583, -0.114741, -0.00249652, -0.0155988, -0.0130633, -0.0188284, -0.0130984, -0.0298898
0.0811287, 1.69136, -1.22999, -1.54624, -0.902285, -1.19687, 1.22489, -1.30247, 0.0290639, 0.00593993, -0.0681933, -0.00158949, -0.114919, -0.047011, -0.000807063, -0.166862, 68.7543, 34.824, 7.51739, 2.06836, 4.06283, -0.0621838, -0.000691245, -0.00362353, 0.00595191, 0.0139474, 0.000952871, 0.00369864, 0.000249451, 0.014519, -0.015332, -0.148188, 0.0869353, -0.0617708, 0.470944, -0.543792, 0.335562, -2.08373, -2.16567, -0.129333, 0.467132, -0.543707, 0.329688, -2.0797, -2.15579, -0.114489, -0.00255634, -0.0159693, -0.0133848, -0.0176073, -0.0144513, -0.0281191
0.0821287, 1.69139, -1.22998, -1.54631, -0.902286, -1.19699, 1.22486, -1.30247, 0.0280934, 0.0040136, -0.068857, -2.90993e-06, -0.120237, -0.0441252, 0.00564337, -0.206535, 68.7543, 34.9708, 7.59277, 2.11139, 4.02713, -0.0951428, -0.000696099, -0.00363674, 0.00596793, 0.0140771, 0.00086317, 0.00374923, 0.00239211, 0.0155133, -0.0159048, -0.147727, 0.0908605, -0.073141, 0.470941, -0.543808, 0.335548, -2.08372, -2.16566, -0.129311, 0.467116, -0.543726, 0.329658, -2.07972, -2.15573, -0.114227, -0.0026165, -0.0163418, -0.0137086, -0.0186051, -0.0168917, -0.0293102
0.0831287, 1.69142, -1.23, -1.54638, -0.902291, -1.19712, 1.22484, -1.30246, 0.0310556, -0.00155292, -0.0676593, -0.00118361, -0.118252, -0.0414502, 0.00515092, -0.392998, 68.9368, 35.1572, 7.77924, 2.1178, 3.9841, -0.120778, -0.000697867, -0.00364145, 0.00599396, 0.0142065, 0.000780682, 0.00378408, 0.00045359, 0.0124904, -0.01858, -0.144636, 0.0853, -0.0678487, 0.470939, -0.543824, 0.335534, -2.08372, -2.16565, -0.129287, 0.467108, -0.54374, 0.329619, -2.07972, -2.15568, -0.113974, -0.00267698, -0.0167161, -0.0140346, -0.0158138, -0.0148171, -0.0320692
0.0841287, 1.69147, -1.23, -1.54645, -0.902288, -1.19724, 1.22483, -1.30246, 0.0354077, -0.00100511, -0.0685656, -0.00309553, -0.121703, -0.0351923, 0.0030513, -0.543754, 68.9368, 35.1969, 7.89032, 2.12421, 3.95572, -0.101552, -0.000698237, -0.00364377, 0.00600765, 0.0143207, 0.000680839, 0.00381374, -0.000978729, 0.00896736, -0.0182556, -0.14285, 0.0922999, -0.0618989, 0.470936, -0.543841, 0.33552, -2.08371, -2.16564, -0.129264, 0.467102, -0.543755, 0.329592, -2.07974, -2.15565, -0.11372, -0.00273778, -0.0170921, -0.0143627, -0.0123958, -0.013685, -0.0319624
0.0851287, 1.6915, -1.23, -1.54651, -0.902291, -1.19737, 1.22482, -1.30247, 0.0376682, -0.00324589, -0.0668667, -0.000837672, -0.127879, -0.0265804, 0.00475394, -0.658806, 69.0479, 35.2326, 8.11249, 2.09949, 3.94839, -0.0420422, -0.000699095, -0.00364464, 0.00602483, 0.0144266, 0.000585573, 0.00383532, 0.000238883, 0.00690859, -0.017759, -0.135949, 0.099347, -0.0650568, 0.470933, -0.543858, 0.335506, -2.08371, -2.16563, -0.129239, 0.467098, -0.543771, 0.32956, -2.07975, -2.15563, -0.11348, -0.00279888, -0.0174699, -0.0146928, -0.0103396, -0.015257, -0.032054
0.0861287, 1.69154, -1.23002, -1.54658, -0.902284, -1.1975, 1.22482, -1.30247, 0.039505, -0.014472, -0.0678114, 0.00368418, -0.129006, -0.0123974, 0.00374432, -0.76989, 69.3057, 35.3834, 8.22754, 2.09949, 3.99142, -0.0420422, -0.000707747, -0.0036492, 0.00605021, 0.014539, 0.000490428, 0.00388281, 0.00324051, 0.00431064, -0.022684, -0.123798, 0.0960083, -0.0672472, 0.470931, -0.543875, 0.335491, -2.0837, -2.16563, -0.129214, 0.46709, -0.543793, 0.329519, -2.07978, -2.15559, -0.11323, -0.00286026, -0.0178492, -0.015025, -0.00787987, -0.0177361, -0.0377942
0.0871287, 1.69159, -1.23004, -1.54664, -0.902278, -1.19765, 1.22482, -1.30246, 0.041939, -0.0153566, -0.0693849, 0.00497693, -0.133559, -0.011486, 0.00462291, -0.920646, 69.5279, 35.4548, 8.29895, 2.08667, 4.04819, -0.0878186, -0.000713036, -0.00364947, 0.00607095, 0.0146458, 0.000386316, 0.00392252, 0.00351794, 0.00378149, -0.0233434, -0.126054, 0.0995548, -0.0696535, 0.470928, -0.543893, 0.335476, -2.0837, -2.16562, -0.129189, 0.467086, -0.543813, 0.329483, -2.07981, -2.15555, -0.112977, -0.00292192, -0.0182301, -0.0153591, -0.00742777, -0.0182679, -0.0388386
0.0881287, 1.69163, -1.23008, -1.5467, -0.902279, -1.19779, 1.22483, -1.30246, 0.0459335, -0.0226857, -0.063601, 0.00621202, -0.138019, -0.00541886, 0.00391402, -1.0357, 70.0436, 35.4548, 8.48541, 2.08667, 4.09122, -0.101552, -0.000715865, -0.00364382, 0.00610459, 0.0147468, 0.000305431, 0.00395026, 0.00266507, -3.47677e-05, -0.0248501, -0.118166, 0.098755, -0.0651498, 0.470925, -0.543911, 0.335461, -2.08369, -2.16561, -0.129163, 0.467088, -0.543828, 0.329434, -2.07982, -2.15552, -0.112754, -0.00298385, -0.0186124, -0.0156951, -0.00376455, -0.0174204, -0.0406471
0.0891287, 1.69168, -1.2301, -1.54677, -0.902277, -1.19794, 1.22484, -1.30246, 0.0488577, -0.0214438, -0.0666089, 0.00500946, -0.145436, -0.000111847, 0.00234331, -1.15075, 70.3015, 35.5301, 8.63617, 2.07477, 4.12051, -0.0878186, -0.000719351, -0.00364028, 0.00612782, 0.0148541, 0.000197817, 0.00398037, 0.00311792, -0.00158433, -0.0247523, -0.120268, 0.109261, -0.0641187, 0.470922, -0.54393, 0.335445, -2.08368, -2.1656, -0.129136, 0.467087, -0.543847, 0.329395, -2.07984, -2.1555, -0.112497, -0.00304602, -0.0189961, -0.016033, -0.00225996, -0.0182029, -0.0410062
0.0901287, 1.69173, -1.23014, -1.54683, -0.902277, -1.19809, 1.22485, -1.30247, 0.0481889, -0.025648, -0.0662034, 0.00419531, -0.14625, 0.00123265, -0.000188629, -1.15075, 70.7776, 35.6055, 8.78693, 2.05646, 4.09122, -0.0356336, -0.000726032, -0.00363696, 0.00616152, 0.0149594, 0.000104023, 0.00400748, 0.0033315, -0.00175931, -0.0267654, -0.119463, 0.106575, -0.0620594, 0.470919, -0.543949, 0.335429, -2.08368, -2.16559, -0.129109, 0.467086, -0.543867, 0.329344, -2.07986, -2.15547, -0.112256, -0.00310843, -0.019381, -0.0163726, -0.00221437, -0.0184821, -0.0433721
0.0911287, 1.69178, -1.23017, -1.5469, -0.90228, -1.19823, 1.22486, -1.30246, 0.0468597, -0.0284896, -0.0675681, -0.000379426, -0.151327, -9.67001e-05, 0.00123141, -1.22613, 71.2576, 35.6412, 8.97339, 2.02533, 4.12051, -0.0685925, -0.00072684, -0.00362914, 0.00619423, 0.0150675, 1.15562e-05, 0.0040328, 0.00353038, -0.00108556, -0.0293083, -0.126075, 0.10786, -0.0636205, 0.470916, -0.543968, 0.335413, -2.08367, -2.16558, -0.129081, 0.46709, -0.543882, 0.329295, -2.07987, -2.15544, -0.112013, -0.00317106, -0.0197671, -0.0167139, -0.0030367, -0.0187012, -0.0462345
0.0921287, 1.69183, -1.2302, -1.54697, -0.902283, -1.19838, 1.22488, -1.30246, 0.0472151, -0.026817, -0.0686656, -0.0037256, -0.149481, 0.00515757, 0.00163536, -1.22613, 71.5869, 35.6809, 9.15985, 1.9823, 4.11319, -0.0878186, -0.000727323, -0.00362109, 0.00622176, 0.0151716, -9.12552e-05, 0.00405786, 0.00221279, -0.00304642, -0.0284617, -0.122795, 0.11117, -0.0612405, 0.470912, -0.543988, 0.335396, -2.08366, -2.16557, -0.129052, 0.467094, -0.543898, 0.329251, -2.07988, -2.15543, -0.111762, -0.00323391, -0.0201544, -0.0170569, -0.00115783, -0.0178377, -0.0455975
0.0931287, 1.69188, -1.23023, -1.54704, -0.902286, -1.19852, 1.22488, -1.30246, 0.0475387, -0.0257645, -0.0710364, -0.00132678, -0.152074, 0.00676256, 0.00143826, -1.22613, 71.9202, 35.7523, 9.27094, 1.93378, 4.16354, -0.0951428, -0.000727522, -0.00361463, 0.00625138, 0.0152808, -0.00018749, 0.004083, 0.00341651, -0.00231486, -0.0279322, -0.123201, 0.115266, -0.065417, 0.470909, -0.544008, 0.335379, -2.08366, -2.16556, -0.129023, 0.467096, -0.543913, 0.329205, -2.07989, -2.1554, -0.111513, -0.00329695, -0.0205426, -0.0174015, -0.00188973, -0.0195258, -0.0455835
0.0941287, 1.69194, -1.23025, -1.5471, -0.902284, -1.19867, 1.22489, -1.30246, 0.0469614, -0.027379, -0.0674328, -0.000962266, -0.15043, 0.0078568, -0.00118764, -1.18645, 72.2137, 35.7523, 9.30664, 1.89075, 4.2203, -0.0356336, -0.000729659, -0.00361011, 0.00627861, 0.01539, -0.000290533, 0.00410974, 0.00253166, -0.00304027, -0.0271503, -0.11789, 0.112728, -0.0619401, 0.470906, -0.544029, 0.335362, -2.08365, -2.16555, -0.128993, 0.467096, -0.543932, 0.32916, -2.07991, -2.15538, -0.111255, -0.00336018, -0.0209318, -0.0177477, -0.00123196, -0.0191321, -0.0450427
0.0951287, 1.69199, -1.23028, -1.54717, -0.902289, -1.19882, 1.2249, -1.30246, 0.0464031, -0.0280419, -0.0641483, -0.00359988, -0.143858, 0.00769743, -2.59667e-06, -1.15075, 72.6184, 35.7166, 9.4574, 1.82941, 4.30636, -0.0557752, -0.000727515, -0.00360275, 0.00630833, 0.0154991, -0.00038381, 0.00412972, -0.000372612, -0.00470121, -0.0264533, -0.112982, 0.106792, -0.0581684, 0.470903, -0.54405, 0.335344, -2.08364, -2.16554, -0.128963, 0.467098, -0.543946, 0.329113, -2.07991, -2.15536, -0.111008, -0.00342359, -0.0213219, -0.0180953, 0.00028481, -0.0166942, -0.0443031
0.0961287, 1.69205, -1.23029, -1.54725, -0.902295, -1.19897, 1.2249, -1.30246, 0.0480992, -0.0198652, -0.0663532, -0.0045723, -0.144155, 0.00383664, 0.00026801, -1.18645, 72.6581, 35.8674, 9.56848, 1.77997, 4.37137, -0.0621838, -0.000723519, -0.00359441, 0.00633038, 0.0156217, -0.000504437, 0.00415118, -0.00246481, -0.00465122, -0.0226689, -0.1181, 0.113738, -0.0578744, 0.470899, -0.544071, 0.335326, -2.08363, -2.16553, -0.128932, 0.467102, -0.543959, 0.329074, -2.07992, -2.15534, -0.110718, -0.00348715, -0.0217127, -0.0184443, 0.000235411, -0.0156035, -0.0405895
0.0971287, 1.69209, -1.2303, -1.54732, -0.9023, -1.19912, 1.22491, -1.30246, 0.04868, -0.0160239, -0.0697463, -0.0013289, -0.144466, 0.00101855, 0.0011524, -1.07537, 72.7692, 35.8674, 9.64386, 1.73694, 4.43545, -0.0878186, -0.00072325, -0.00358981, 0.00635006, 0.0157332, -0.000625555, 0.00418267, -0.00207889, -0.00308701, -0.0211261, -0.121566, 0.116566, -0.0634546, 0.470896, -0.544093, 0.335307, -2.08363, -2.16552, -0.1289, 0.467102, -0.543978, 0.329036, -2.07995, -2.15532, -0.110437, -0.00355087, -0.0221042, -0.0187947, -0.00132041, -0.0166774, -0.0394281
0.0981287, 1.69215, -1.23031, -1.5474, -0.90231, -1.19927, 1.22492, -1.30246, 0.0515374, -0.0133247, -0.0699043, -0.00390916, -0.149461, -0.00134003, -0.000908942, -1.0357, 72.8763, 35.9784, 9.79462, 1.6875, 4.50686, -0.0420422, -0.00071986, -0.00358403, 0.00637301, 0.0158622, -0.000747994, 0.00420135, -0.00401069, -0.00425954, -0.0199908, -0.127184, 0.122695, -0.0587185, 0.470892, -0.544115, 0.335289, -2.08362, -2.16551, -0.128868, 0.467103, -0.543993, 0.328995, -2.07995, -2.15531, -0.110137, -0.00361472, -0.0224964, -0.0191465, -0.000240815, -0.015289, -0.0383957
0.0991287, 1.6922, -1.23031, -1.54749, -0.90232, -1.19942, 1.22493, -1.30246, 0.0526332, -0.00815028, -0.0741571, -0.00798886, -0.148509, -0.00337405, -0.000592301, -0.960319, 72.8406, 36.0538, 9.9057, 1.64447, 4.58652, -0.0420422, -0.000716123, -0.00357862, 0.00638951, 0.0159836, -0.000878901, 0.00422988, -0.00612388, -0.00472883, -0.0189406, -0.133549, 0.126919, -0.0568294, 0.470888, -0.544138, 0.335269, -2.08361, -2.1655, -0.128835, 0.467104, -0.544009, 0.32896, -2.07997, -2.15529, -0.109834, -0.00367869, -0.0228891, -0.0194995, 0.000126783, -0.0137378, -0.0373987
0.100129, 1.69225, -1.23031, -1.54757, -0.902328, -1.19956, 1.22493, -1.30246, 0.0514638, -0.00467506, -0.0827346, -0.0101752, -0.147679, -0.000376642, -0.000147262, -0.920646, 72.8049, 36.2363, 9.98108, 1.60144, 4.67257, -0.0484509, -0.000711456, -0.00357488, 0.00640636, 0.0161116, -0.0010054, 0.00425619, -0.00508512, -0.00366388, -0.0196084, -0.138292, 0.132072, -0.0610116, 0.470885, -0.54416, 0.33525, -2.0836, -2.16549, -0.128801, 0.467103, -0.544024, 0.328924, -2.07999, -2.15528, -0.109528, -0.00374278, -0.0232822, -0.0198537, -0.000988962, -0.0150975, -0.0385405
0.101129, 1.69231, -1.23031, -1.54765, -0.902339, -1.19971, 1.22493, -1.30246, 0.0531845, -0.00317428, -0.0795045, -0.0118698, -0.152595, -0.00274823, 0.00136757, -0.996025, 72.8049, 36.2363, 10.0565, 1.57123, 4.75772, -0.0878186, -0.000700842, -0.00356504, 0.006422, 0.0162347, -0.00112937, 0.00427708, -0.00686313, -0.00463785, -0.017798, -0.140412, 0.136636, -0.0600857, 0.470881, -0.544184, 0.33523, -2.08359, -2.16547, -0.128767, 0.467108, -0.544034, 0.328891, -2.08, -2.15526, -0.109231, -0.00380697, -0.0236758, -0.020209, -7.74653e-05, -0.0139742, -0.0368629
0.102129, 1.69236, -1.2303, -1.54774, -0.902345, -1.19986, 1.22493, -1.30246, 0.0494272, 0.00127431, -0.0824651, -0.0100233, -0.152038, -0.00479855, -0.000777943, -0.884941, 72.6581, 36.2363, 10.1279, 1.55932, 4.8511, -0.0420422, -0.000697494, -0.00356599, 0.00643243, 0.0163637, -0.00126473, 0.00430451, -0.00520857, -0.00125066, -0.0156407, -0.142351, 0.139649, -0.0652326, 0.470877, -0.544207, 0.33521, -2.08358, -2.16546, -0.128732, 0.467103, -0.544053, 0.328861, -2.08002, -2.15525, -0.108914, -0.00387125, -0.0240696, -0.0205654, -0.00338619, -0.0164718, -0.0352407
0.103129, 1.69241, -1.23031, -1.54783, -0.902349, -1.2, 1.22493, -1.30247, 0.0475577, -0.0017813, -0.0881427, -0.00793995, -0.151394, -0.00523734, -0.00122638, -0.920646, 72.7692, 36.3514, 10.1675, 1.5401, 4.91611, -0.0228162, -0.000697017, -0.00356602, 0.00645672, 0.0164972, -0.00138281, 0.00433975, -0.00294418, 0.0011753, -0.0187954, -0.146059, 0.136161, -0.0714863, 0.470873, -0.544231, 0.335189, -2.08357, -2.16545, -0.128697, 0.467098, -0.544073, 0.328816, -2.08003, -2.15521, -0.108608, -0.00393561, -0.0244637, -0.0209229, -0.00590975, -0.0187159, -0.038989
0.104129, 1.69246, -1.23029, -1.54792, -0.902357, -1.20015, 1.22492, -1.30247, 0.048203, 0.00398509, -0.0889418, -0.00813907, -0.151856, -0.000515824, -0.000339629, -0.920646, 72.547, 36.3514, 10.2786, 1.54651, 4.97287, -0.0356336, -0.000690553, -0.00356516, 0.00646636, 0.0166284, -0.00151838, 0.00437237, -0.00349016, 0.000135134, -0.0150282, -0.142224, 0.144927, -0.0728408, 0.470869, -0.544256, 0.335168, -2.08357, -2.16544, -0.128661, 0.467094, -0.54409, 0.328787, -2.08006, -2.15519, -0.108286, -0.00400003, -0.0248579, -0.0212814, -0.00481586, -0.0191077, -0.0355753
0.105129, 1.69252, -1.23029, -1.54802, -0.902367, -1.20029, 1.22493, -1.30246, 0.048307, 0.00347373, -0.0895004, -0.00820998, -0.145822, -0.000549916, 0.000759356, -1.0357, 72.5113, 36.3514, 10.3897, 1.52179, 4.99484, -0.0621838, -0.0006824, -0.00355952, 0.00648353, 0.0167605, -0.00164663, 0.00439968, -0.00503522, -0.000592116, -0.0152522, -0.139673, 0.139714, -0.0726371, 0.470865, -0.544281, 0.335147, -2.08356, -2.16543, -0.128624, 0.467095, -0.544104, 0.32875, -2.08007, -2.15517, -0.107971, -0.0040645, -0.0252522, -0.0216408, -0.00421781, -0.0179125, -0.0359389
0.106129, 1.69257, -1.23028, -1.54811, -0.902371, -1.20044, 1.22492, -1.30246, 0.0498091, 0.00582863, -0.0903146, -0.00737567, -0.14688, -0.000690678, -5.65288e-07, -1.11108, 72.3605, 36.3117, 10.4651, 1.50989, 5.0159, -0.0484509, -0.000677316, -0.00356028, 0.00649514, 0.0168911, -0.00177731, 0.00443781, -0.00574165, -0.000980846, -0.0138139, -0.140287, 0.143095, -0.07255, 0.470861, -0.544306, 0.335125, -2.08355, -2.16541, -0.128586, 0.467089, -0.544122, 0.328718, -2.0801, -2.15514, -0.107653, -0.00412902, -0.0256465, -0.022001, -0.00386637, -0.0178145, -0.0347816
0.107129, 1.69262, -1.23028, -1.54821, -0.902375, -1.20057, 1.22492, -1.30247, 0.0500388, 0.00211227, -0.0938102, -0.00585666, -0.141913, -0.000932384, -0.00142316, -1.26183, 72.4359, 36.3117, 10.5008, 1.47327, 5.03787, -0.00999879, -0.000671798, -0.00355886, 0.00651881, 0.0170256, -0.00188745, 0.00446472, -0.00579642, -0.000792906, -0.016765, -0.140535, 0.135497, -0.0727743, 0.470857, -0.544332, 0.335103, -2.08354, -2.1654, -0.128548, 0.467085, -0.544139, 0.328673, -2.0801, -2.15511, -0.107353, -0.00419356, -0.0260407, -0.0223621, -0.00423049, -0.0177088, -0.0380424
0.108129, 1.69267, -1.23026, -1.5483, -0.902374, -1.20071, 1.22491, -1.30247, 0.050907, 0.00659741, -0.0947117, 0.00141277, -0.138636, -0.00195888, -0.000235673, -1.45226, 72.2137, 36.2006, 10.5405, 1.44214, 5.0809, -0.0292249, -0.000664036, -0.00355904, 0.00652623, 0.0171553, -0.00201914, 0.00450244, -0.0054418, 0.000339109, -0.0132568, -0.136647, 0.136446, -0.0795758, 0.470853, -0.544358, 0.335081, -2.08353, -2.16539, -0.128509, 0.46708, -0.544156, 0.328645, -2.08013, -2.15507, -0.107033, -0.00425812, -0.0264347, -0.0227239, -0.0052831, -0.0190386, -0.0349598
0.109129, 1.69273, -1.23026, -1.5484, -0.902373, -1.20084, 1.2249, -1.30246, 0.0512439, 0.00439251, -0.0949447, 0.00141011, -0.14036, -0.00297858, 0.00130172, -1.63873, 72.2137, 36.0895, 10.5405, 1.39911, 5.13125, -0.0685925, -0.00065568, -0.0035578, 0.00654263, 0.0172782, -0.00212588, 0.00453946, -0.00555839, 0.000468333, -0.0144316, -0.138428, 0.135413, -0.0820371, 0.470849, -0.544384, 0.335058, -2.08352, -2.16537, -0.12847, 0.467076, -0.544172, 0.328607, -2.08014, -2.15503, -0.106747, -0.00432269, -0.0268285, -0.0230865, -0.00552494, -0.0191421, -0.0364603
0.110129, 1.69278, -1.23026, -1.54849, -0.902367, -1.20097, 1.2249, -1.30246, 0.0492369, 0.001996, -0.0912555, 0.0022193, -0.136133, -0.0018415, 0.000122403, -1.86486, 72.2534, 35.9388, 10.5008, 1.33777, 5.13125, -0.0484509, -0.000648144, -0.00355611, 0.00655866, 0.0173939, -0.0022315, 0.00457197, -0.00614063, 0.00031459, -0.0139328, -0.131397, 0.129944, -0.0809424, 0.470844, -0.544411, 0.335035, -2.08351, -2.16536, -0.12843, 0.467072, -0.544189, 0.32857, -2.08016, -2.155, -0.106469, -0.00438725, -0.027222, -0.0234497, -0.00543857, -0.0190312, -0.0362456
0.111129, 1.69283, -1.23026, -1.54858, -0.902373, -1.20111, 1.2249, -1.30246, 0.0520139, 0.00392588, -0.0904631, -0.000948325, -0.138032, -0.000848227, -0.000392683, -2.01562, 72.1423, 35.8277, 10.6158, 1.30755, 5.12393, -0.0356336, -0.000639675, -0.00355484, 0.00657011, 0.0175139, -0.00235366, 0.00460624, -0.00859915, -0.0020961, -0.0126983, -0.13212, 0.134467, -0.0758394, 0.47084, -0.544438, 0.335012, -2.08349, -2.16534, -0.128389, 0.467068, -0.544206, 0.328536, -2.08018, -2.15497, -0.106168, -0.00445179, -0.0276151, -0.0238135, -0.00313761, -0.0170882, -0.0350848
0.112129, 1.69287, -1.23025, -1.54867, -0.90237, -1.20123, 1.2249, -1.30247, 0.0486748, 0.00354284, -0.088974, 0.00189186, -0.140352, 5.81777e-05, -0.000973541, -2.20605, 72.1027, 35.7166, 10.6516, 1.27002, 5.10928, -0.0164075, -0.000632874, -0.00355474, 0.00658295, 0.0176255, -0.00246528, 0.00464009, -0.00644838, 0.0001727, -0.0114391, -0.128929, 0.136174, -0.0817279, 0.470836, -0.544466, 0.334988, -2.08348, -2.16533, -0.128348, 0.467063, -0.544225, 0.328501, -2.0802, -2.15494, -0.105887, -0.00451631, -0.0280078, -0.0241779, -0.00534479, -0.0198907, -0.0344683
0.113129, 1.69293, -1.23025, -1.54875, -0.902368, -1.20137, 1.2249, -1.30246, 0.0510269, 0.00486572, -0.0852861, 0.000837661, -0.137871, 0.000370898, 0.00152135, -2.47185, 71.9955, 35.4944, 10.6873, 1.25812, 5.10196, -0.0750012, -0.000620241, -0.00354916, 0.00658899, 0.0177293, -0.0025842, 0.00467214, -0.0095734, -0.00243252, -0.0092939, -0.124643, 0.135811, -0.0790638, 0.470831, -0.544494, 0.334964, -2.08347, -2.16531, -0.128305, 0.467063, -0.544239, 0.328473, -2.08023, -2.15491, -0.105607, -0.00458078, -0.0283999, -0.0245428, -0.00283908, -0.0174206, -0.0323123
0.114129, 1.69297, -1.23025, -1.54884, -0.90237, -1.2015, 1.2249, -1.30246, 0.0490957, 0.00240723, -0.0872963, 0.00217694, -0.137201, -0.000249635, 0.000302342, -2.58294, 72.0312, 35.4548, 10.7626, 1.27002, 5.11661, -0.0557752, -0.0006139, -0.0035511, 0.00660478, 0.0178454, -0.00269238, 0.00470882, -0.00833345, -0.000756294, -0.0109115, -0.125553, 0.132652, -0.0822399, 0.470826, -0.544522, 0.334939, -2.08346, -2.1653, -0.128263, 0.467055, -0.544259, 0.328434, -2.08025, -2.15488, -0.105323, -0.00464521, -0.0287914, -0.0249081, -0.00459405, -0.0188564, -0.0344145
0.115129, 1.69301, -1.23025, -1.54892, -0.902372, -1.20163, 1.2249, -1.30246, 0.0487797, 0.00160379, -0.0829469, 0.000175685, -0.136083, 0.000139069, 0.000439057, -2.7337, 72.0312, 35.308, 10.838, 1.27643, 5.10928, -0.0621838, -0.000604287, -0.00354963, 0.00661463, 0.0179525, -0.00280739, 0.00474223, -0.0102303, -0.00208967, -0.00977219, -0.121478, 0.131241, -0.0791039, 0.470822, -0.544551, 0.334914, -2.08345, -2.16528, -0.128219, 0.467051, -0.544277, 0.328401, -2.08027, -2.15485, -0.105041, -0.00470957, -0.0291822, -0.0252738, -0.00335208, -0.0174951, -0.0334033
0.116129, 1.69306, -1.23024, -1.54901, -0.902364, -1.20176, 1.2249, -1.30247, 0.0453704, 0.00283166, -0.0831553, 0.00447732, -0.135497, 0.000660917, -0.00163997, -2.88445, 71.9559, 35.2683, 10.8023, 1.28833, 5.09463, -0.00999879, -0.00059674, -0.0035502, 0.00662283, 0.0180539, -0.00291962, 0.00477765, -0.0080215, 0.000622688, -0.00799258, -0.117909, 0.131951, -0.0847468, 0.470817, -0.54458, 0.334889, -2.08344, -2.16527, -0.128175, 0.467045, -0.544297, 0.328369, -2.0803, -2.15482, -0.104768, -0.00477385, -0.0295723, -0.0256399, -0.00598022, -0.0204503, -0.0322692
0.117129, 1.6931, -1.23024, -1.5491, -0.902358, -1.20189, 1.2249, -1.30247, 0.0442383, 0.00272242, -0.0803246, 0.00352245, -0.135095, -0.00371005, -0.00136451, -2.95983, 71.9202, 35.2683, 10.8023, 1.30115, 5.0809, -0.00267457, -0.000590851, -0.00355367, 0.00663176, 0.0181571, -0.0030309, 0.00482266, -0.00935275, 0.00122661, -0.00719366, -0.118948, 0.129433, -0.0844876, 0.470812, -0.54461, 0.334863, -2.08342, -2.16525, -0.12813, 0.467036, -0.54432, 0.328335, -2.08033, -2.15477, -0.104492, -0.00483806, -0.0299616, -0.0260062, -0.00666524, -0.0196728, -0.0316213
0.118129, 1.69314, -1.23024, -1.54917, -0.902358, -1.20201, 1.22491, -1.30246, 0.0436006, 0.00181451, -0.0803754, 0.00326476, -0.129744, -0.00230627, 0.00153179, -3.03521, 71.9202, 35.1215, 10.9134, 1.31305, 5.06625, -0.0685925, -0.000579528, -0.00355276, 0.00663818, 0.0182479, -0.00313498, 0.00486275, -0.010405, 0.000588985, -0.00733372, -0.115, 0.125099, -0.0866502, 0.470808, -0.54464, 0.334837, -2.08341, -2.16524, -0.128084, 0.467031, -0.544338, 0.328305, -2.08037, -2.15474, -0.104237, -0.00490216, -0.0303499, -0.0263728, -0.00613549, -0.0189746, -0.0319832
0.119129, 1.69319, -1.23023, -1.54926, -0.902344, -1.20213, 1.22491, -1.30246, 0.0466927, 0.00380781, -0.0819222, 0.00978707, -0.129491, -0.00131047, 0.000546521, -3.26134, 71.8091, 35.1215, 10.8777, 1.29474, 5.05252, -0.0557752, -0.000568021, -0.00355125, 0.00664245, 0.0183387, -0.0032398, 0.00490022, -0.0100865, 0.000346821, -0.00555738, -0.112224, 0.127253, -0.0896925, 0.470803, -0.54467, 0.334811, -2.0834, -2.16522, -0.128038, 0.467027, -0.544356, 0.328276, -2.0804, -2.15471, -0.10398, -0.00496616, -0.0307373, -0.0267396, -0.00587988, -0.0199395, -0.0306531
0.120129, 1.69323, -1.23023, -1.54934, -0.902334, -1.20225, 1.2249, -1.30247, 0.042301, 0.00253829, -0.0850441, 0.0104978, -0.126447, -0.000813564, -0.00160231, -3.33672, 71.8091, 35.1215, 10.8777, 1.31946, 5.04519, -0.00267457, -0.000561304, -0.00355573, 0.00665157, 0.0184383, -0.0033427, 0.00494213, -0.00816847, 0.00301611, -0.00673633, -0.111838, 0.123914, -0.0935972, 0.470798, -0.544701, 0.334784, -2.08339, -2.1652, -0.127991, 0.467017, -0.544379, 0.328242, -2.08043, -2.15466, -0.103715, -0.00503004, -0.0311236, -0.0271065, -0.00858569, -0.0221477, -0.0323969
0.121129, 1.69328, -1.23023, -1.54943, -0.902317, -1.20237, 1.22491, -1.30247, 0.0416249, 0.000856795, -0.0841285, 0.0183252, -0.127638, -0.00015823, -0.00130554, -3.52715, 71.8448, 35.0858, 10.838, 1.31946, 5.03055, 0.00373412, -0.000551818, -0.00355614, 0.00666015, 0.0185269, -0.00343788, 0.00498493, -0.00573363, 0.00490118, -0.0059122, -0.106998, 0.123013, -0.101996, 0.470793, -0.544732, 0.334757, -2.08337, -2.16519, -0.127943, 0.46701, -0.544399, 0.328208, -2.08046, -2.15462, -0.103469, -0.0050938, -0.0315088, -0.0274735, -0.0104146, -0.0251406, -0.0322677
0.122129, 1.69332, -1.23024, -1.54952, -0.902299, -1.20249, 1.22491, -1.30246, 0.0402124, -0.00119218, -0.0882697, 0.0168198, -0.124114, 0.000555616, 0.00157106, -3.67791, 71.9202, 35.1572, 10.838, 1.31946, 5.00949, -0.0621838, -0.000545375, -0.00355932, 0.00667365, 0.0186193, -0.0035279, 0.00504246, -0.00557743, 0.00547434, -0.00835501, -0.108651, 0.119047, -0.106345, 0.470788, -0.544764, 0.33473, -2.08336, -2.16517, -0.127895, 0.467001, -0.544423, 0.328168, -2.0805, -2.15455, -0.103222, -0.00515741, -0.0318928, -0.0278405, -0.0111372, -0.0253271, -0.0350527
0.123129, 1.69336, -1.23024, -1.5496, -0.902281, -1.2026, 1.22491, -1.30247, 0.0365727, 0.00096835, -0.085679, 0.0188574, -0.121587, 0.00136639, 6.40458e-05, -3.71758, 71.8448, 35.1215, 10.838, 1.33136, 4.98019, -0.0356336, -0.000539081, -0.00356471, 0.00667651, 0.0187013, -0.00363015, 0.00509343, -0.00493949, 0.00705099, -0.00532117, -0.10241, 0.119266, -0.10886, 0.470782, -0.544796, 0.334702, -2.08335, -2.16515, -0.127846, 0.46699, -0.544448, 0.328139, -2.08055, -2.15451, -0.102974, -0.00522087, -0.0322756, -0.0282076, -0.0126385, -0.0268703, -0.0324726
0.124129, 1.69341, -1.23023, -1.54969, -0.902257, -1.20272, 1.22492, -1.30247, 0.0412686, 0.00231593, -0.0864675, 0.0212523, -0.123618, 0.00294643, -0.001178, -3.94372, 71.7734, 35.1572, 10.8023, 1.33777, 4.92343, -0.00267457, -0.000529557, -0.00356353, 0.00667969, 0.0187826, -0.0037378, 0.00513768, -0.00612891, 0.00498801, -0.00425674, -0.101767, 0.12333, -0.106824, 0.470777, -0.544828, 0.334674, -2.08333, -2.16513, -0.127796, 0.466985, -0.544471, 0.328109, -2.08059, -2.15447, -0.102721, -0.00528417, -0.032657, -0.0285745, -0.0106439, -0.0261565, -0.0316696
0.125129, 1.69344, -1.23023, -1.54978, -0.902236, -1.20284, 1.22493, -1.30247, 0.0412772, 0.00154389, -0.0842829, 0.0213512, -0.121805, 0.00459293, -0.00102268, -4.0191, 71.7734, 35.1215, 10.838, 1.36249, 4.8511, 0.00373412, -0.000524393, -0.00356881, 0.00668394, 0.0188629, -0.00384093, 0.00519387, -0.00710233, 0.00402425, -0.00348152, -0.0972119, 0.121996, -0.106044, 0.470772, -0.54486, 0.334645, -2.08332, -2.16511, -0.127746, 0.466974, -0.544498, 0.328077, -2.08065, -2.15442, -0.102472, -0.0053473, -0.0330371, -0.0289414, -0.00975006, -0.0256551, -0.0311507
0.126129, 1.69349, -1.23022, -1.54986, -0.902211, -1.20296, 1.22494, -1.30246, 0.043172, 0.00539091, -0.0850816, 0.0245345, -0.120345, 0.00539796, 0.001251, -4.16985, 71.5869, 35.1572, 10.8777, 1.3808, 4.78702, -0.0484509, -0.000515124, -0.00356931, 0.00668227, 0.0189391, -0.00395442, 0.00525072, -0.00780638, 0.00350933, -0.000766193, -0.0945897, 0.125157, -0.109905, 0.470766, -0.544894, 0.334616, -2.0833, -2.1651, -0.127694, 0.466968, -0.544522, 0.328052, -2.08071, -2.15437, -0.102215, -0.00541024, -0.0334157, -0.0293081, -0.00922127, -0.0257346, -0.0287434
0.127129, 1.69353, -1.23021, -1.54995, -0.902186, -1.20308, 1.22494, -1.30246, 0.0419622, 0.00526434, -0.0850997, 0.0261735, -0.119696, 0.00621531, 0.00157999, -4.20556, 71.5155, 35.1969, 10.9491, 1.41192, 4.7156, -0.0685925, -0.000509887, -0.00357455, 0.00668393, 0.019018, -0.00406326, 0.00531328, -0.00724443, 0.00427177, -0.000175958, -0.0922557, 0.124971, -0.113317, 0.470761, -0.544927, 0.334587, -2.08329, -2.16508, -0.127643, 0.466957, -0.54455, 0.328022, -2.08077, -2.15432, -0.10196, -0.00547299, -0.0337927, -0.0296745, -0.0100031, -0.0267883, -0.0285897
0.128129, 1.69358, -1.2302, -1.55005, -0.902153, -1.20319, 1.22496, -1.30246, 0.0464224, 0.00694321, -0.0864516, 0.0283353, -0.114017, 0.00707243, 6.99846e-05, -4.35632, 71.3687, 35.308, 10.9888, 1.44214, 4.63595, -0.0420422, -0.000503495, -0.00357681, 0.00668319, 0.0190938, -0.00417771, 0.00537084, -0.00990314, 0.0016558, 0.000782978, -0.0891728, 0.122741, -0.108769, 0.470756, -0.544961, 0.334557, -2.08327, -2.16506, -0.12759, 0.466948, -0.544578, 0.327994, -2.08083, -2.15427, -0.101702, -0.00553554, -0.0341681, -0.0300408, -0.00751134, -0.0245789, -0.0276806
0.129129, 1.69362, -1.2302, -1.55013, -0.902118, -1.20332, 1.22497, -1.30247, 0.0444509, 0.00462879, -0.0847715, 0.0268765, -0.118736, 0.00734395, -0.00188612, -4.39599, 71.3687, 35.2683, 11.0245, 1.47327, 4.56454, 0.0101428, -0.000498717, -0.00358137, 0.0066843, 0.0191629, -0.00428147, 0.00542835, -0.00907055, 0.00251677, 0.000256018, -0.0898661, 0.12462, -0.108846, 0.47075, -0.544995, 0.334527, -2.08326, -2.16504, -0.127537, 0.466938, -0.544607, 0.327964, -2.08089, -2.15422, -0.101462, -0.00559787, -0.0345419, -0.0304067, -0.0084238, -0.025729, -0.0286682
0.130129, 1.69368, -1.2302, -1.55022, -0.902081, -1.20344, 1.22497, -1.30246, 0.0465825, 0.00401387, -0.0876116, 0.028862, -0.117343, 0.00647777, 0.000675368, -4.58245, 71.329, 35.308, 11.0641, 1.47876, 4.52151, -0.0420422, -0.000489809, -0.00358114, 0.00668577, 0.0192363, -0.00438681, 0.00549072, -0.00957659, 0.00220284, -0.00070427, -0.0915003, 0.122822, -0.112595, 0.470744, -0.545029, 0.334497, -2.08324, -2.16502, -0.127483, 0.466932, -0.544633, 0.327934, -2.08096, -2.15416, -0.101214, -0.00565998, -0.0349139, -0.0307722, -0.00822678, -0.0254411, -0.0299136
0.131129, 1.69373, -1.2302, -1.5503, -0.902037, -1.20356, 1.22498, -1.30246, 0.0509413, 0.0026759, -0.0861916, 0.0343984, -0.12039, 0.0112564, 0.000958873, -4.62212, 71.329, 35.1969, 11.0641, 1.47327, 4.46383, -0.0557752, -0.000484566, -0.00358397, 0.00668423, 0.0192985, -0.00449373, 0.00556038, -0.00936408, 0.00011243, 0.000281229, -0.0853084, 0.126239, -0.114371, 0.470739, -0.545064, 0.334466, -2.08323, -2.165, -0.127428, 0.466923, -0.544663, 0.327906, -2.08103, -2.15411, -0.100975, -0.00572185, -0.0352841, -0.0311374, -0.00615604, -0.0260868, -0.0294056
0.132129, 1.69378, -1.2302, -1.55039, -0.901991, -1.20369, 1.22499, -1.30246, 0.0506972, 0.00178393, -0.0827437, 0.0352857, -0.122541, 0.0136209, 0.000876609, -4.77288, 71.329, 35.1969, 11.0641, 1.45404, 4.43545, -0.0621838, -0.00047689, -0.00358401, 0.00668493, 0.0193686, -0.00460023, 0.00562081, -0.00937398, -0.000443098, 0.00162538, -0.0804612, 0.128248, -0.11501, 0.470733, -0.5451, 0.334435, -2.08321, -2.16498, -0.127372, 0.466916, -0.544691, 0.327875, -2.0811, -2.15405, -0.100728, -0.00578347, -0.0356524, -0.0315021, -0.00561203, -0.026629, -0.0284594
0.133129, 1.69384, -1.2302, -1.55047, -0.901944, -1.20381, 1.225, -1.30247, 0.0525243, 0.000261258, -0.0813772, 0.0422771, -0.123568, 0.0119017, -0.00161964, -4.88793, 71.3687, 35.1572, 11.0641, 1.42383, 4.37778, -0.00267457, -0.000469481, -0.00358318, 0.00668743, 0.019434, -0.00470282, 0.00567517, -0.00866246, 0.000190629, 0.00225561, -0.0779628, 0.126345, -0.117178, 0.470727, -0.545135, 0.334403, -2.08319, -2.16496, -0.127316, 0.466911, -0.544719, 0.327842, -2.08115, -2.15401, -0.10049, -0.00584484, -0.0360188, -0.0318663, -0.00625686, -0.0278206, -0.0282912
0.134129, 1.6939, -1.23021, -1.55055, -0.901888, -1.20395, 1.22501, -1.30247, 0.0552828, -0.00325951, -0.0795224, 0.0460603, -0.125096, 0.0144602, -9.64158e-05, -4.92364, 71.5155, 35.0461, 10.9888, 1.40552, 4.34207, -0.0292249, -0.000466007, -0.00358589, 0.00668855, 0.0194965, -0.0048084, 0.0057493, -0.00868593, -0.00127417, 0.00174757, -0.0733759, 0.125318, -0.119477, 0.470721, -0.545171, 0.334371, -2.08318, -2.16494, -0.127259, 0.466902, -0.544751, 0.32781, -2.08123, -2.15394, -0.10025, -0.00590595, -0.0363832, -0.0322299, -0.00487522, -0.0280237, -0.0292001
0.135129, 1.69396, -1.23022, -1.55064, -0.901833, -1.20409, 1.22503, -1.30247, 0.0616455, -0.00477146, -0.0793944, 0.0469514, -0.131437, 0.0171897, 0.000173082, -4.99902, 71.6266, 35.0104, 10.9888, 1.39911, 4.28531, -0.0356336, -0.000460286, -0.00358309, 0.00669273, 0.0195617, -0.00491851, 0.00581477, -0.0100043, -0.00455009, 0.00126354, -0.0741348, 0.130832, -0.116902, 0.470716, -0.545208, 0.334339, -2.08316, -2.16492, -0.127202, 0.466898, -0.544781, 0.327775, -2.08131, -2.15388, -0.100002, -0.00596678, -0.0367455, -0.032593, -0.00172975, -0.0268759, -0.0299426
0.136129, 1.69403, -1.23023, -1.55072, -0.901779, -1.20423, 1.22505, -1.30246, 0.0625242, -0.00485141, -0.0820301, 0.0508296, -0.130385, 0.0188544, 0.000861374, -5.03869, 71.698, 34.9708, 10.9888, 1.3689, 4.24228, -0.0557752, -0.000452858, -0.00357769, 0.00669294, 0.01962, -0.00503576, 0.0058787, -0.00914495, -0.00418592, 0.0012336, -0.0724194, 0.130872, -0.121694, 0.47071, -0.545245, 0.334306, -2.08314, -2.16489, -0.127143, 0.466897, -0.544811, 0.327743, -2.08138, -2.15384, -0.0997542, -0.00602732, -0.0371056, -0.0329554, -0.00212451, -0.0280947, -0.0304562
0.137129, 1.6941, -1.23023, -1.5508, -0.901715, -1.20438, 1.22507, -1.30247, 0.0627232, -0.00742958, -0.0820156, 0.0576449, -0.135682, 0.0152943, -0.00112117, -5.07439, 71.7377, 34.9351, 10.9491, 1.3689, 4.19925, -0.00999879, -0.000447939, -0.00357415, 0.00669046, 0.0196758, -0.00515838, 0.00594339, -0.00673841, -0.00162335, 0.000678565, -0.0746216, 0.130553, -0.127877, 0.470704, -0.545282, 0.334273, -2.08313, -2.16487, -0.127084, 0.466894, -0.544843, 0.327714, -2.08147, -2.15379, -0.0995027, -0.00608756, -0.0374636, -0.0333171, -0.00467958, -0.0308484, -0.031656
0.138129, 1.69417, -1.23024, -1.55089, -0.901653, -1.20452, 1.22509, -1.30247, 0.0668433, -0.00689577, -0.0849774, 0.0605954, -0.138848, 0.0167215, -0.00027273, -4.99902, 71.8091, 34.9351, 10.9888, 1.34967, 4.16995, -0.0228162, -0.000442957, -0.00357067, 0.00668864, 0.0197314, -0.00528064, 0.0060147, -0.00675908, -0.00269701, 0.000596666, -0.0762397, 0.134793, -0.130391, 0.470697, -0.545319, 0.33424, -2.08311, -2.16485, -0.127025, 0.466891, -0.544876, 0.327683, -2.08155, -2.15374, -0.0992504, -0.0061475, -0.0378192, -0.0336781, -0.00367112, -0.0311271, -0.0321296
0.139129, 1.69424, -1.23024, -1.55097, -0.901587, -1.20468, 1.22511, -1.30246, 0.0680937, -0.011975, -0.083965, 0.0634847, -0.145995, 0.0223367, 0.000530257, -4.96331, 71.8448, 34.8993, 11.0245, 1.33136, 4.14889, -0.0420422, -0.000438119, -0.00356469, 0.00668365, 0.0197821, -0.00541466, 0.0060871, -0.00463176, -0.0033109, -0.000900419, -0.0726884, 0.138418, -0.134874, 0.470691, -0.545357, 0.334206, -2.08309, -2.16483, -0.126964, 0.46689, -0.54491, 0.327655, -2.08165, -2.1537, -0.0989907, -0.00620712, -0.0381726, -0.0340383, -0.00309965, -0.0333257, -0.0343175
0.140129, 1.69431, -1.23024, -1.55106, -0.901518, -1.20483, 1.22514, -1.30246, 0.0672715, -0.00866471, -0.087437, 0.0655161, -0.151739, 0.024718, 0.00157421, -4.84826, 71.8448, 34.9351, 11.0641, 1.31946, 4.17727, -0.0750012, -0.00043521, -0.00356157, 0.0066806, 0.0198399, -0.00554776, 0.00616782, -0.00226523, -0.00154186, 0.000694255, -0.074559, 0.147922, -0.14283, 0.470685, -0.545395, 0.334172, -2.08307, -2.1648, -0.126903, 0.466887, -0.544945, 0.327624, -2.08175, -2.15364, -0.0987226, -0.00626642, -0.0385235, -0.0343977, -0.00478034, -0.0363304, -0.0334115
0.141129, 1.6944, -1.23025, -1.55115, -0.901444, -1.20498, 1.22517, -1.30247, 0.0747761, -0.00721551, -0.0916775, 0.065812, -0.145682, 0.0272751, -0.000883308, -4.81255, 71.8845, 34.9351, 11.0245, 1.29474, 4.19192, -0.0228162, -0.000429811, -0.00355391, 0.00667777, 0.0198955, -0.00568192, 0.00623437, -0.00607423, -0.00612353, 0.000229806, -0.0737002, 0.146514, -0.13393, 0.470679, -0.545434, 0.334138, -2.08305, -2.16478, -0.126841, 0.466888, -0.544979, 0.327594, -2.08184, -2.1536, -0.0984565, -0.00632538, -0.038872, -0.0347562, -0.000416827, -0.0326592, -0.033788
0.142129, 1.69448, -1.23025, -1.55124, -0.901378, -1.20514, 1.2252, -1.30247, 0.0753871, -0.00426558, -0.091298, 0.0645455, -0.153338, 0.0322381, -0.00157222, -4.6975, 71.8448, 34.8597, 11.1752, 1.23981, 4.25601, 0.00373412, -0.000421734, -0.00354394, 0.00667261, 0.0199448, -0.00581842, 0.00629657, -0.00542104, -0.00686206, 0.00266198, -0.0726459, 0.158601, -0.134613, 0.470673, -0.545473, 0.334103, -2.08303, -2.16476, -0.126778, 0.466891, -0.54501, 0.327565, -2.08193, -2.15356, -0.0981947, -0.006384, -0.0392179, -0.0351138, 0.000379018, -0.033993, -0.0318697
0.143129, 1.69456, -1.23024, -1.55134, -0.901305, -1.20529, 1.22523, -1.30247, 0.0791276, -0.000625515, -0.0947122, 0.0676667, -0.156587, 0.0360411, 0.000409918, -4.58245, 71.7377, 34.8597, 11.2863, 1.20868, 4.32101, -0.0356336, -0.000415356, -0.00353512, 0.00666606, 0.0200021, -0.00596564, 0.00637385, -0.00512462, -0.00796632, 0.00450704, -0.0722089, 0.167211, -0.139101, 0.470666, -0.545512, 0.334068, -2.08301, -2.16473, -0.126715, 0.466893, -0.545044, 0.327537, -2.08204, -2.15352, -0.0979109, -0.00644226, -0.0395612, -0.0354704, 0.00150538, -0.0348669, -0.0304869
0.144129, 1.69464, -1.23025, -1.55144, -0.901224, -1.20545, 1.22526, -1.30246, 0.0804274, -0.000632595, -0.0944465, 0.0739227, -0.153662, 0.0378596, 0.00173134, -4.43169, 71.7377, 34.8597, 11.2506, 1.16015, 4.4208, -0.0750012, -0.000413364, -0.00352909, 0.00666302, 0.0200542, -0.00610584, 0.00646069, -0.00468867, -0.00806499, 0.00585673, -0.0658696, 0.165519, -0.144199, 0.47066, -0.545551, 0.334033, -2.08299, -2.16471, -0.126651, 0.466893, -0.545082, 0.327505, -2.08215, -2.15346, -0.0976382, -0.00650015, -0.0399019, -0.035826, 0.00161389, -0.035841, -0.029581
0.145129, 1.69472, -1.23024, -1.55153, -0.901156, -1.2056, 1.2253, -1.30246, 0.0817475, -0.00199439, -0.0991817, 0.0699432, -0.151975, 0.0408636, -6.64759e-05, -4.24523, 71.6623, 34.824, 11.4371, 1.12262, 4.47848, -0.0420422, -0.000406632, -0.00351941, 0.00665599, 0.0201051, -0.00625501, 0.00652777, -0.00575903, -0.00966836, 0.00332745, -0.068409, 0.165282, -0.139908, 0.470653, -0.545591, 0.333997, -2.08297, -2.16469, -0.126586, 0.466895, -0.545116, 0.327477, -2.08225, -2.15343, -0.0973591, -0.00655767, -0.0402399, -0.0361806, 0.00302202, -0.0346683, -0.0323202
0.146129, 1.69481, -1.23024, -1.55163, -0.901083, -1.20575, 1.22534, -1.30247, 0.0826664, -0.00304787, -0.0958502, 0.0723931, -0.150864, 0.0377932, -0.00150238, -4.0548, 71.5869, 34.7486, 11.5482, 1.0979, 4.55722, -0.00267457, -0.00039841, -0.00350739, 0.00665018, 0.0201521, -0.00639855, 0.0065919, -0.00696383, -0.0098755, 0.00421587, -0.0662999, 0.161703, -0.138432, 0.470647, -0.545631, 0.333961, -2.08295, -2.16466, -0.12652, 0.4669, -0.545148, 0.327448, -2.08234, -2.15339, -0.0970895, -0.00661481, -0.0405751, -0.036534, 0.00316368, -0.0339418, -0.0316173
0.147129, 1.6949, -1.23023, -1.55173, -0.900998, -1.20591, 1.22537, -1.30247, 0.0872374, 0.000854446, -0.0952914, 0.0745681, -0.150277, 0.0361876, -1.8242e-05, -3.94372, 71.4401, 34.7129, 11.5085, 1.0741, 4.6149, -0.0292249, -0.000393674, -0.00349822, 0.00663968, 0.0201996, -0.00655398, 0.00667597, -0.00946489, -0.0118136, 0.00696744, -0.0658205, 0.16461, -0.137659, 0.47064, -0.545672, 0.333924, -2.08293, -2.16464, -0.126454, 0.466903, -0.545185, 0.327422, -2.08246, -2.15335, -0.0968045, -0.00667155, -0.0409074, -0.0368864, 0.00506075, -0.0321475, -0.0289298
0.148129, 1.69498, -1.23023, -1.55183, -0.900916, -1.20607, 1.22541, -1.30246, 0.0804209, 0.0027576, -0.0968544, 0.0750546, -0.149171, 0.0350738, 0.00120854, -3.75329, 71.329, 34.6732, 11.5085, 1.03107, 4.67257, -0.0621838, -0.000392153, -0.00349293, 0.00663171, 0.0202452, -0.00670404, 0.00676729, -0.0068709, -0.00751529, 0.00816881, -0.0657816, 0.165139, -0.147165, 0.470633, -0.545713, 0.333887, -2.08291, -2.16461, -0.126387, 0.466901, -0.545226, 0.327393, -2.08259, -2.15329, -0.0965256, -0.00672789, -0.0412368, -0.0372375, 0.000851098, -0.0353985, -0.0283555
0.149129, 1.69507, -1.23023, -1.55193, -0.900841, -1.20622, 1.22545, -1.30246, 0.0772379, 0.00153053, -0.0955721, 0.0757582, -0.148217, 0.0332194, 0.00104305, -3.6422, 71.329, 34.5264, 11.6235, 0.993529, 4.75772, -0.0685925, -0.00038285, -0.00348049, 0.00662802, 0.0202948, -0.00684393, 0.00683667, -0.00617446, -0.00563841, 0.00829928, -0.064695, 0.162249, -0.150491, 0.470627, -0.545754, 0.33385, -2.08289, -2.16458, -0.126319, 0.466906, -0.545258, 0.327361, -2.08268, -2.15325, -0.096254, -0.00678382, -0.0415633, -0.0375874, -0.00104887, -0.0365094, -0.0286229
0.150129, 1.69516, -1.23023, -1.55204, -0.90075, -1.20637, 1.22548, -1.30247, 0.0790721, 0.00329511, -0.09931, 0.0806695, -0.151796, 0.0319175, -0.000525334, -3.56683, 71.2219, 34.5264, 11.5482, 0.938597, 4.83737, -0.0356336, -0.00037848, -0.00347348, 0.00662154, 0.020349, -0.00698989, 0.00691949, -0.00472778, -0.00426052, 0.00883217, -0.0681656, 0.166492, -0.155134, 0.47062, -0.545796, 0.333812, -2.08287, -2.16456, -0.126251, 0.466906, -0.545296, 0.327331, -2.08279, -2.15319, -0.0959693, -0.00683932, -0.0418868, -0.0379361, -0.00240785, -0.0383994, -0.0286242
0.151129, 1.69525, -1.23021, -1.55214, -0.900669, -1.20654, 1.22552, -1.30247, 0.0840622, 0.00404125, -0.10022, 0.0818052, -0.154998, 0.0270583, -0.0010623, -3.52715, 70.9998, 34.3757, 11.5839, 0.895568, 4.90146, -0.0164075, -0.000370605, -0.00346342, 0.00660674, 0.0203994, -0.0071553, 0.00699507, -0.00672377, -0.0054303, 0.00876953, -0.0744009, 0.167941, -0.152903, 0.470613, -0.545838, 0.333774, -2.08285, -2.16453, -0.126182, 0.46691, -0.545332, 0.327308, -2.0829, -2.15316, -0.0956688, -0.0068944, -0.0422071, -0.0382834, -0.00136737, -0.0366914, -0.0287633
0.152129, 1.69534, -1.23021, -1.55224, -0.900578, -1.2067, 1.22555, -1.30246, 0.0829373, 0.00406259, -0.0991188, 0.0852195, -0.157657, 0.0285996, 0.000987221, -3.4121, 70.9244, 34.2289, 11.5085, 0.858946, 4.95181, -0.0621838, -0.000368625, -0.00345853, 0.00659794, 0.0204449, -0.0073052, 0.00709104, -0.00513234, -0.00425735, 0.0101489, -0.0711291, 0.170836, -0.16009, 0.470606, -0.54588, 0.333736, -2.08282, -2.1645, -0.126112, 0.466907, -0.545373, 0.327279, -2.08303, -2.1531, -0.0953867, -0.00694903, -0.0425243, -0.0386293, -0.00248251, -0.0388395, -0.0279552
0.153129, 1.69543, -1.23021, -1.55235, -0.900491, -1.20687, 1.22558, -1.30246, 0.0870715, 0.00408272, -0.103027, 0.0847976, -0.160343, 0.0301975, 0.000658148, -3.3764, 70.853, 34.1892, 11.5482, 0.834227, 4.98752, -0.0621838, -0.000364189, -0.00345179, 0.00659253, 0.0205012, -0.00745411, 0.00717761, -0.00594875, -0.00600956, 0.00897493, -0.0748174, 0.174658, -0.158723, 0.470599, -0.545922, 0.333697, -2.0828, -2.16448, -0.126041, 0.466907, -0.545412, 0.327246, -2.08314, -2.15304, -0.095094, -0.00700322, -0.0428383, -0.0389739, -0.000861169, -0.0380954, -0.029391
0.154129, 1.69552, -1.2302, -1.55245, -0.900398, -1.20703, 1.22561, -1.30247, 0.0865852, 0.00509818, -0.102318, 0.0865452, -0.162301, 0.026809, -0.0010193, -3.33672, 70.7419, 34.0027, 11.5085, 0.822325, 5.0159, -0.0228162, -0.000360086, -0.00344633, 0.00657954, 0.0205472, -0.0076095, 0.0072632, -0.00578405, -0.00465246, 0.0101194, -0.0766382, 0.175683, -0.160113, 0.470592, -0.545965, 0.333659, -2.08278, -2.16445, -0.12597, 0.466905, -0.545453, 0.327221, -2.08326, -2.15299, -0.0948054, -0.00705695, -0.0431491, -0.039317, -0.00221883, -0.0387999, -0.0285848
0.155129, 1.69561, -1.2302, -1.55255, -0.900309, -1.2072, 1.22564, -1.30247, 0.0880829, 0.00583068, -0.102909, 0.0856708, -0.165522, 0.0241066, -0.00115425, -3.3764, 70.6308, 33.9313, 11.5482, 0.852538, 5.04519, -0.00999879, -0.000355595, -0.00344193, 0.00657116, 0.0206105, -0.00776559, 0.0073486, -0.00665137, -0.00475415, 0.010239, -0.0811425, 0.178226, -0.159806, 0.470585, -0.546008, 0.333619, -2.08275, -2.16442, -0.125898, 0.466902, -0.545493, 0.327191, -2.08337, -2.15293, -0.0944964, -0.00711021, -0.0434565, -0.0396587, -0.0021959, -0.0382651, -0.0286778
0.156129, 1.69569, -1.23018, -1.55266, -0.900219, -1.20738, 1.22566, -1.30247, 0.0872072, 0.00895911, -0.105852, 0.0911843, -0.168777, 0.0265412, -0.000532141, -3.33672, 70.4086, 33.8917, 11.5839, 0.908385, 5.0809, -0.0164075, -0.000354568, -0.00344308, 0.00655868, 0.0206784, -0.0079325, 0.00745186, -0.00376639, -0.00254766, 0.012396, -0.0796907, 0.185233, -0.169371, 0.470578, -0.546052, 0.33358, -2.08273, -2.16439, -0.125825, 0.466894, -0.545537, 0.327164, -2.0835, -2.15286, -0.0941686, -0.007163, -0.0437605, -0.0399988, -0.00426451, -0.0418388, -0.0272613
0.157129, 1.69577, -1.23017, -1.55277, -0.90013, -1.20755, 1.22568, -1.30246, 0.0844118, 0.0101479, -0.107291, 0.0918409, -0.16938, 0.0255012, 0.00181538, -3.33672, 70.2261, 33.8202, 11.6592, 0.926695, 5.06625, -0.0750012, -0.000352586, -0.00344329, 0.00654629, 0.0207431, -0.00809714, 0.00755458, -0.00248747, -0.000323536, 0.0130472, -0.0808527, 0.186672, -0.176666, 0.470571, -0.546096, 0.33354, -2.08271, -2.16437, -0.125751, 0.466887, -0.545581, 0.327137, -2.08364, -2.15279, -0.093846, -0.0072153, -0.0440611, -0.0403373, -0.00646614, -0.0435931, -0.0270806
0.158129, 1.69585, -1.23017, -1.55288, -0.900035, -1.20773, 1.22571, -1.30247, 0.0797765, 0.00845826, -0.107351, 0.090061, -0.170049, 0.0266352, 0.000226908, -3.22564, 70.1508, 33.7052, 11.6989, 0.945006, 4.99484, -0.0484509, -0.000356943, -0.00344838, 0.0065372, 0.0207998, -0.00825478, 0.00766554, -0.000902205, 0.00169333, 0.0124131, -0.080098, 0.186387, -0.178959, 0.470564, -0.54614, 0.333499, -2.08268, -2.16434, -0.125677, 0.466875, -0.545631, 0.327105, -2.08378, -2.1527, -0.0935378, -0.0072671, -0.0443582, -0.0406742, -0.00850011, -0.0454408, -0.0282214
0.159129, 1.69594, -1.23015, -1.553, -0.899937, -1.2079, 1.22573, -1.30247, 0.0830558, 0.0124535, -0.109799, 0.0920277, -0.168902, 0.0214785, -0.00178151, -3.26134, 69.8572, 33.7052, 11.7346, 0.926695, 4.95181, 0.00373412, -0.000356647, -0.00345135, 0.00652082, 0.0208657, -0.00842589, 0.00776879, -0.0027256, 0.0015842, 0.0138937, -0.0849581, 0.187316, -0.177072, 0.470556, -0.546184, 0.333458, -2.08266, -2.16431, -0.125602, 0.466865, -0.545678, 0.327081, -2.08391, -2.15263, -0.0932057, -0.00731841, -0.0446518, -0.0410095, -0.00844759, -0.0441566, -0.0268161
0.160129, 1.69602, -1.23015, -1.5531, -0.899837, -1.20807, 1.22574, -1.30247, 0.0821555, 0.00993323, -0.106412, 0.0941295, -0.172864, 0.0212776, -0.000950313, -3.30102, 69.7858, 33.5584, 11.7346, 0.932189, 4.93716, -0.00267457, -0.00035544, -0.00345576, 0.00650798, 0.0209215, -0.00857224, 0.00787588, -0.00176753, 0.00234769, 0.0142257, -0.0826786, 0.187861, -0.18095, 0.470549, -0.546229, 0.333417, -2.08263, -2.16428, -0.125526, 0.466853, -0.545723, 0.327053, -2.08404, -2.15255, -0.092909, -0.0073692, -0.0449417, -0.0413431, -0.00921287, -0.0454746, -0.0269443
0.161129, 1.6961, -1.23013, -1.5532, -0.899731, -1.20824, 1.22575, -1.30246, 0.0788082, 0.0117894, -0.103679, 0.0976716, -0.171993, 0.0146987, 0.00157051, -3.3764, 69.5636, 33.4473, 11.6592, 0.932189, 4.96646, -0.0621838, -0.00035403, -0.00346219, 0.00648845, 0.0209802, -0.00872822, 0.00799419, -0.00116737, 0.00564341, 0.0166835, -0.0827926, 0.185451, -0.189102, 0.470542, -0.546274, 0.333376, -2.08261, -2.16425, -0.12545, 0.46684, -0.54577, 0.327032, -2.08418, -2.15246, -0.0925972, -0.00741948, -0.0452279, -0.0416749, -0.0124346, -0.0468655, -0.0248311
0.162129, 1.69618, -1.23012, -1.55331, -0.899626, -1.20841, 1.22575, -1.30246, 0.0800552, 0.00625339, -0.106547, 0.0991264, -0.169659, 0.00994696, 0.000301018, -3.48748, 69.4882, 33.4076, 11.6235, 0.883666, 4.99484, -0.0420422, -0.000352555, -0.00346906, 0.00647769, 0.0210474, -0.00886947, 0.00810278, -0.00150957, 0.006246, 0.0124181, -0.087921, 0.176118, -0.18902, 0.470534, -0.546319, 0.333334, -2.08258, -2.16422, -0.125373, 0.466825, -0.545816, 0.327001, -2.08431, -2.15236, -0.0922915, -0.00746922, -0.0455105, -0.042005, -0.0132665, -0.0461807, -0.029299
0.163129, 1.69625, -1.23012, -1.55342, -0.899522, -1.20857, 1.22576, -1.30247, 0.0759403, 0.00554375, -0.105927, 0.099115, -0.168151, 0.00780183, -0.000274039, -3.52715, 69.4168, 33.3719, 11.6235, 0.834227, 4.98752, -0.0292249, -0.000354667, -0.00347994, 0.00646643, 0.0211111, -0.00901183, 0.00822011, -0.000612682, 0.00862202, 0.0125277, -0.0875476, 0.173231, -0.192383, 0.470527, -0.546364, 0.333292, -2.08255, -2.16419, -0.125295, 0.466807, -0.545866, 0.326971, -2.08444, -2.15226, -0.0919868, -0.00751843, -0.0457892, -0.0423333, -0.0156515, -0.0474592, -0.029577
0.164129, 1.69633, -1.23011, -1.55352, -0.899408, -1.20874, 1.22576, -1.30247, 0.0732727, 0.00371342, -0.103246, 0.102971, -0.167524, 0.00665555, -0.000657411, -3.56683, 69.27, 33.2609, 11.4728, 0.804015, 4.96646, -0.0164075, -0.00035825, -0.0034924, 0.00645022, 0.0211697, -0.00915965, 0.00834401, 0.000738432, 0.0105738, 0.0132469, -0.0834175, 0.170035, -0.197178, 0.470519, -0.54641, 0.33325, -2.08253, -2.16416, -0.125216, 0.466787, -0.545918, 0.326944, -2.08458, -2.15216, -0.0916808, -0.00756709, -0.0460641, -0.0426597, -0.0175719, -0.0492585, -0.0293356
0.165129, 1.69633, -1.23011, -1.55352, -0.899408, -1.20874, 1.22576, -1.30247, 0.0732727, 0.00371342, -0.103246, 0.102971, -0.167524, 0.00665555, -0.000657411, -3.56683, 69.27, 33.2609, 11.4728, 0.804015, 4.96646, -0.0164075, -0.000306427, -0.00348396, 0.00641509, 0.0211019, -0.00915588, 0.00833745, 0.000422444, 0.0105266, 0.0135269, -0.0829637, 0.170386, -0.197861, 0.470512, -0.546456, 0.333207, -2.0825, -2.16412, -0.125137, 0.466787, -0.545918, 0.326944, -2.08458, -2.15216, -0.0916808, -0.0076152, -0.0463352, -0.0429842, -0.0175719, -0.0492585, -0.0293356
0.166129, 1.69648, -1.2301, -1.55372, -0.899202, -1.20909, 1.22577, -1.30246, 0.073955, 0.00561596, -0.0983748, 0.101916, -0.166463, 0.00609342, 0.000838098, -3.60253, 69.0121, 33.0387, 11.5839, 0.723448, 4.88681, -0.0621838, -0.000359133, -0.00351402, 0.00641955, 0.0212938, -0.00945611, 0.00858207, -0.00194673, 0.00901183, 0.0164408, -0.0786593, 0.171309, -0.195834, 0.470504, -0.546503, 0.333164, -2.08247, -2.16409, -0.125057, 0.466751, -0.546017, 0.32689, -2.08486, -2.15196, -0.091059, -0.00766275, -0.0466022, -0.0433068, -0.0160731, -0.0475709, -0.0264655
0.167129, 1.69656, -1.23009, -1.55383, -0.899091, -1.20927, 1.22577, -1.30246, 0.0785737, 0.00609916, -0.0986312, 0.105568, -0.171486, 0.0051267, 5.01058e-05, -3.67791, 68.9011, 32.9633, 11.5482, 0.705138, 4.86575, -0.0484509, -0.000360931, -0.00352579, 0.00640501, 0.0213554, -0.0096017, 0.0087039, -0.00232613, 0.00799983, 0.0171464, -0.0805639, 0.175682, -0.196187, 0.470496, -0.546549, 0.333121, -2.08245, -2.16406, -0.124976, 0.466732, -0.546068, 0.326862, -2.085, -2.15185, -0.09075, -0.00770973, -0.0468653, -0.0436274, -0.0150934, -0.047526, -0.0260646
0.168129, 1.69663, -1.23009, -1.55394, -0.898979, -1.20943, 1.22577, -1.30247, 0.0787615, 0.00388366, -0.102417, 0.111156, -0.170216, 0.00417373, -0.00139075, -3.6422, 68.9011, 32.999, 11.5085, 0.674925, 4.8511, -0.00999879, -0.000365705, -0.00354125, 0.00639643, 0.0214171, -0.00973342, 0.00882892, -0.000454057, 0.00979238, 0.0154732, -0.0812977, 0.172077, -0.201465, 0.470489, -0.546596, 0.333077, -2.08242, -2.16403, -0.124894, 0.466709, -0.546122, 0.326826, -2.08513, -2.15173, -0.0904539, -0.00775613, -0.0471243, -0.043946, -0.0169296, -0.0494504, -0.0282631
0.169129, 1.6967, -1.23009, -1.55404, -0.898866, -1.20961, 1.22578, -1.30246, 0.0715686, 0.00505072, -0.103426, 0.112289, -0.171562, 0.00372243, 0.000496987, -3.6422, 68.79, 32.8879, 11.4728, 0.711547, 4.83005, -0.0484509, -0.000370321, -0.0035564, 0.00637946, 0.0214734, -0.00988247, 0.00896312, 0.00307348, 0.0145184, 0.0165834, -0.081031, 0.174142, -0.213098, 0.470481, -0.546643, 0.333034, -2.08239, -2.164, -0.124812, 0.466686, -0.546177, 0.326799, -2.08529, -2.15162, -0.0901444, -0.00780194, -0.0473792, -0.0442625, -0.0215245, -0.0535523, -0.0278666
0.170129, 1.69677, -1.23008, -1.55415, -0.898747, -1.20979, 1.22578, -1.30246, 0.0719091, 0.00353397, -0.105769, 0.113075, -0.171145, 0.00368672, 0.00131467, -3.6422, 68.6432, 32.9236, 11.4371, 0.711547, 4.80075, -0.0750012, -0.000377548, -0.00357357, 0.00636574, 0.021536, -0.0100309, 0.00910385, 0.00338062, 0.014826, 0.0152372, -0.0822972, 0.172755, -0.215872, 0.470473, -0.546691, 0.332989, -2.08236, -2.16396, -0.124729, 0.466662, -0.546234, 0.326768, -2.08545, -2.15149, -0.0898272, -0.00784715, -0.04763, -0.044577, -0.021919, -0.0539125, -0.0295462
0.171129, 1.69685, -1.23008, -1.55425, -0.898635, -1.20997, 1.22579, -1.30246, 0.0753658, 0.00544899, -0.105041, 0.111855, -0.175389, 0.00465017, 0.000164369, -3.75329, 68.4964, 32.7768, 11.4728, 0.705138, 4.74399, -0.0557752, -0.000376427, -0.00358125, 0.00634859, 0.0215907, -0.0101822, 0.00921964, 0.00182073, 0.0127812, 0.0166771, -0.0832726, 0.179196, -0.212026, 0.470465, -0.546738, 0.332945, -2.08233, -2.16393, -0.124645, 0.466646, -0.546284, 0.326741, -2.08559, -2.1514, -0.0895176, -0.00789177, -0.0478765, -0.0448893, -0.0199176, -0.0527557, -0.0282648
0.172129, 1.69693, -1.23008, -1.55437, -0.898515, -1.21015, 1.22579, -1.30247, 0.0751715, 0.00276852, -0.109071, 0.11611, -0.179783, 0.00398143, -0.00158584, -3.75329, 68.3853, 32.8126, 11.4371, 0.741759, 4.72201, -0.00999879, -0.00038312, -0.00359685, 0.00633672, 0.0216584, -0.0103343, 0.00935145, 0.00472117, 0.0151249, 0.0145213, -0.0872337, 0.180037, -0.218173, 0.470457, -0.546786, 0.3329, -2.0823, -2.16389, -0.124561, 0.466623, -0.546341, 0.326708, -2.08573, -2.15128, -0.0891906, -0.00793577, -0.0481188, -0.0451995, -0.0222856, -0.0556274, -0.0310706
0.173129, 1.69701, -1.23008, -1.55448, -0.898393, -1.21033, 1.22579, -1.30246, 0.0782008, -0.000931048, -0.112096, 0.117979, -0.177929, 0.00321355, 0.000366926, -3.75329, 68.3496, 32.8126, 11.4371, 0.766478, 4.70828, -0.0484509, -0.000390487, -0.00361259, 0.00632595, 0.0217201, -0.0104809, 0.00949425, 0.00414221, 0.0142109, 0.0115833, -0.0891549, 0.175031, -0.220158, 0.470449, -0.546834, 0.332855, -2.08227, -2.16386, -0.124476, 0.4666, -0.546399, 0.326673, -2.08589, -2.15115, -0.0888739, -0.00797915, -0.0483568, -0.0455074, -0.0215545, -0.0548058, -0.0342203
0.174129, 1.69709, -1.23008, -1.55459, -0.898266, -1.21051, 1.2258, -1.30246, 0.0781915, -0.00265495, -0.111283, 0.123225, -0.175604, 0.00272288, 0.00122796, -3.79296, 68.2742, 32.7372, 11.3974, 0.760985, 4.69363, -0.0750012, -0.000392921, -0.00362378, 0.00631096, 0.021772, -0.0106238, 0.00962737, 0.00487803, 0.0150126, 0.011801, -0.0850303, 0.171034, -0.225105, 0.470441, -0.546883, 0.332809, -2.08224, -2.16383, -0.12439, 0.466581, -0.546452, 0.326643, -2.08604, -2.15103, -0.088572, -0.00802191, -0.0485903, -0.0458132, -0.0223622, -0.0558322, -0.0343961
0.175129, 1.69717, -1.23008, -1.5547, -0.898135, -1.21069, 1.2258, -1.30246, 0.0796768, -0.00377963, -0.111032, 0.12765, -0.174536, 0.00184374, 0.000581282, -3.75329, 68.1989, 32.7768, 11.3617, 0.779296, 4.69363, -0.0685925, -0.000400472, -0.00364079, 0.0062965, 0.0218309, -0.0107716, 0.00977028, 0.00498692, 0.0151162, 0.0119616, -0.0828831, 0.168634, -0.227052, 0.470433, -0.546931, 0.332763, -2.08221, -2.16379, -0.124304, 0.466556, -0.546511, 0.326611, -2.0862, -2.15091, -0.0882557, -0.00806403, -0.0488195, -0.0461166, -0.0224965, -0.0561977, -0.0345531
0.176129, 1.69726, -1.23008, -1.5548, -0.897997, -1.21087, 1.22579, -1.30247, 0.0817072, -0.00397968, -0.109876, 0.132568, -0.177226, 0.00179306, -0.00178262, -3.75329, 68.0917, 32.6658, 11.2506, 0.760985, 4.67898, -0.00999879, -0.000402421, -0.00365223, 0.00627767, 0.0218742, -0.0109106, 0.00989758, 0.00556557, 0.0151557, 0.013115, -0.0807527, 0.170552, -0.228017, 0.470425, -0.54698, 0.332717, -2.08218, -2.16375, -0.124217, 0.466537, -0.546565, 0.326584, -2.08635, -2.15079, -0.0879663, -0.00810551, -0.0490442, -0.0464177, -0.0225091, -0.0571721, -0.0338025
0.177129, 1.69735, -1.23008, -1.55491, -0.897863, -1.21105, 1.22579, -1.30247, 0.0814262, -0.00492089, -0.112306, 0.134664, -0.174393, 0.000126326, -0.000951053, -3.67791, 68.0164, 32.7015, 11.2109, 0.748168, 4.70828, -0.0164075, -0.000406938, -0.00366685, 0.00626617, 0.021935, -0.0110488, 0.0100341, 0.00588361, 0.0161669, 0.0121305, -0.0816177, 0.166825, -0.231836, 0.470417, -0.547029, 0.332671, -2.08215, -2.16372, -0.124129, 0.466514, -0.546621, 0.326549, -2.0865, -2.15067, -0.087657, -0.00814634, -0.0492643, -0.0467165, -0.0235877, -0.057597, -0.0350861
0.178129, 1.69743, -1.23009, -1.55502, -0.897723, -1.21123, 1.2258, -1.30246, 0.0845233, -0.0066377, -0.111486, 0.136703, -0.186161, 0.0011813, 0.0015361, -3.6422, 67.9807, 32.7015, 11.1356, 0.748168, 4.67898, -0.0750012, -0.000413118, -0.0036787, 0.0062534, 0.021983, -0.0111929, 0.0101835, 0.00725704, 0.0158227, 0.0119474, -0.0846883, 0.175611, -0.237173, 0.470409, -0.547078, 0.332624, -2.08211, -2.16368, -0.12404, 0.466495, -0.546679, 0.326514, -2.08667, -2.15053, -0.0873535, -0.00818651, -0.0494799, -0.0470129, -0.0232423, -0.0591264, -0.0357866
0.179129, 1.69753, -1.23009, -1.55512, -0.897579, -1.21142, 1.2258, -1.30246, 0.0884854, -0.00914593, -0.109779, 0.135266, -0.185946, 0.000254014, 0.000311992, -3.6422, 67.8696, 32.5904, 11.0641, 0.729857, 4.69363, -0.0557752, -0.000415404, -0.00368779, 0.00623616, 0.022031, -0.0113409, 0.0103172, 0.00455295, 0.0130185, 0.0108531, -0.0849482, 0.173054, -0.230486, 0.470401, -0.547128, 0.332577, -2.08208, -2.16365, -0.123951, 0.466478, -0.546734, 0.326485, -2.08682, -2.15042, -0.087047, -0.00822601, -0.0496909, -0.0473069, -0.0206208, -0.0563845, -0.0368396
0.180129, 1.69762, -1.23009, -1.55523, -0.897435, -1.21161, 1.2258, -1.30247, 0.0897909, -0.00391073, -0.1114, 0.138348, -0.187949, 0.000176102, -0.00101271, -3.45177, 67.7228, 32.5904, 10.9491, 0.760985, 4.69363, -0.0228162, -0.000423339, -0.00370378, 0.00621843, 0.0220831, -0.0114947, 0.0104626, 0.00489134, 0.0136009, 0.0140381, -0.0851864, 0.180143, -0.232852, 0.470393, -0.547178, 0.33253, -2.08205, -2.16361, -0.123861, 0.466454, -0.546795, 0.326454, -2.08699, -2.15029, -0.0867281, -0.00826484, -0.0498971, -0.0475984, -0.0210978, -0.0574369, -0.0340174
0.181129, 1.69772, -1.2301, -1.55535, -0.897291, -1.2118, 1.22579, -1.30247, 0.0907239, -0.00354249, -0.114758, 0.140207, -0.188666, -0.000148796, -0.00142112, -3.3764, 67.7228, 32.6658, 10.838, 0.779296, 4.70096, -0.00267457, -0.000427829, -0.00371506, 0.00621099, 0.0221459, -0.0116334, 0.010601, 0.00553918, 0.0142327, 0.0135406, -0.0875348, 0.181437, -0.235664, 0.470384, -0.547228, 0.332482, -2.08201, -2.16357, -0.12377, 0.466435, -0.546851, 0.326414, -2.08714, -2.15015, -0.086413, -0.00830299, -0.0500987, -0.0478874, -0.0217634, -0.0582279, -0.0348745
0.182129, 1.69782, -1.23012, -1.55545, -0.897141, -1.212, 1.22579, -1.30246, 0.0939378, -0.00546236, -0.110262, 0.142766, -0.194419, -9.5395e-05, 0.00125663, -3.26134, 67.6831, 32.5904, 10.6873, 0.815917, 4.70096, -0.0621838, -0.000432611, -0.00372544, 0.00619883, 0.0221966, -0.0117767, 0.0107492, 0.00500663, 0.0127658, 0.0144693, -0.0852257, 0.184315, -0.237796, 0.470376, -0.547278, 0.332434, -2.08198, -2.16353, -0.123678, 0.466416, -0.546908, 0.326378, -2.0873, -2.15002, -0.0861048, -0.00834046, -0.0502955, -0.0481739, -0.0203155, -0.0579808, -0.0342123
0.183129, 1.69793, -1.23012, -1.55556, -0.896994, -1.21219, 1.22579, -1.30246, 0.101408, -0.00497441, -0.105866, 0.140933, -0.19358, -0.000840639, 0.00154983, -3.26134, 67.576, 32.5547, 10.6873, 0.834227, 4.72201, -0.0814099, -0.000429351, -0.00372689, 0.00618335, 0.0222466, -0.0119267, 0.0108759, -0.000256562, 0.00735709, 0.0158779, -0.0830822, 0.184366, -0.227422, 0.470368, -0.547328, 0.332386, -2.08195, -2.1635, -0.123586, 0.466406, -0.546958, 0.326346, -2.08745, -2.14991, -0.0857919, -0.00837722, -0.0504874, -0.0484579, -0.0150774, -0.0529696, -0.0324814
0.184129, 1.69803, -1.23013, -1.55568, -0.896832, -1.21239, 1.22579, -1.30246, 0.103442, -0.00157329, -0.109286, 0.148099, -0.198407, -0.000320928, 0.000795862, -3.07488, 67.4649, 32.5904, 10.4651, 0.877257, 4.7156, -0.0750012, -0.000437136, -0.00373913, 0.00616877, 0.0222967, -0.0120768, 0.0110285, 0.00212557, 0.00896169, 0.0179329, -0.0840677, 0.192053, -0.234951, 0.470359, -0.547378, 0.332338, -2.08191, -2.16346, -0.123493, 0.466386, -0.547019, 0.326312, -2.08762, -2.14977, -0.0854754, -0.00841329, -0.0506745, -0.0487392, -0.0165456, -0.0558895, -0.031045
0.185129, 1.69815, -1.23014, -1.55579, -0.896676, -1.21258, 1.22579, -1.30246, 0.103929, -0.000762443, -0.109952, 0.148985, -0.19651, -0.000212348, -0.00045277, -2.9995, 67.4252, 32.5547, 10.4294, 0.908385, 4.7156, -0.0484509, -0.000438484, -0.00374467, 0.00615846, 0.0223568, -0.0122244, 0.011163, 0.0016445, 0.00876891, 0.0185466, -0.0828014, 0.191748, -0.234369, 0.470351, -0.547429, 0.332289, -2.08188, -2.16342, -0.1234, 0.466372, -0.547073, 0.326274, -2.08777, -2.14965, -0.0851517, -0.00844864, -0.0508567, -0.0490179, -0.0163785, -0.0556828, -0.0306494
