alisrour97/Franka_experiments/Real_Robot_scripts/servo-franka/Data2/log_dyn_PI2_6.csv
Time,q1,q2,q3,q4,q5,q6,q7,dq1,dq2,dq3,dq4,dq5,dq6,dq7,t1,t2,t3,t4,t5,t6,t7,ex1,ex2,ex3,ex4,ex5,ex6,ev1,ev2,ev3,ev4,ev5,ev6,xd,yd,zd,uxd,uyd,uzd,x,y,z,ux,uy,uz,vxd,vyd,vzd,vx,vy,vz
4.88281e-07, 1.69129, -1.22707, -1.53927, -0.900278, -1.19254, 1.22809, -1.30253, -0.00691457, -0.00189305, -0.00966364, 0.0017513, 0.000764503, -0.00237298, -0.00277527, -0.0161054, 61.9028, 31.4716, 7.25555, 3.16791, 3.88339, -0.311207, 0.000472063, -0.00191648, 0.00148328, 0.00226114, 0.000554218, 0.000785757, 0.00527461, 0.00627418, -0.00408718, -0.00837369, -0.00344056, -0.0100322, 0.471008, -0.543389, 0.335894, -2.08385, -2.16584, -0.129887, 0.469034, -0.54277, 0.334575, -2.08321, -2.16384, -0.127884, -1.41255e-05, -9.11997e-05, -6.59526e-05, -0.00623913, -0.00492607, -0.00473127
0.0121726, 1.69125, -1.22709, -1.53934, -0.900299, -1.19253, 1.22804, -1.30253, -0.000387837, -0.000631763, -0.00946044, -0.0027237, -0.00187457, -0.00601578, 0.000515017, -0.166862, 61.9742, 31.5113, 7.29126, 3.13129, 3.9191, -0.336842, 0.000450652, -0.00195425, 0.00152106, 0.00236749, 0.000588597, 0.000838162, 0.000984506, 0.0025548, -0.00452714, -0.0156026, -0.0012292, -0.0038269, 0.471008, -0.543389, 0.335894, -2.08385, -2.16584, -0.129887, 0.468985, -0.54279, 0.334521, -2.08318, -2.1637, -0.127771, -2.13283e-05, -0.000136675, -0.000102379, -0.00270104, -0.000516329, -0.00464839
0.0131726, 1.69125, -1.22709, -1.53934, -0.900299, -1.19253, 1.22804, -1.30253, -0.000387837, -0.000631763, -0.00946044, -0.0027237, -0.00187457, -0.00601578, 0.000515017, -0.166862, 61.9742, 31.5113, 7.29126, 3.13129, 3.9191, -0.336842, 0.000450663, -0.00195425, 0.00152106, 0.00236748, 0.000588599, 0.000838161, 0.000929625, 0.00254612, -0.00449519, -0.0155743, -0.00121956, -0.00388773, 0.471008, -0.543389, 0.335894, -2.08385, -2.16584, -0.129887, 0.468985, -0.54279, 0.334521, -2.08318, -2.1637, -0.127771, -2.91898e-05, -0.000186294, -0.000142179, -0.00270104, -0.000516329, -0.00464839
0.0141726, 1.69125, -1.22709, -1.53934, -0.900299, -1.19253, 1.22804, -1.30253, -0.000387837, -0.000631763, -0.00946044, -0.0027237, -0.00187457, -0.00601578, 0.000515017, -0.166862, 61.9742, 31.5113, 7.29126, 3.13129, 3.9191, -0.336842, 0.000450694, -0.00195425, 0.00152104, 0.00236745, 0.000588606, 0.000838156, 0.000869996, 0.00253669, -0.00446043, -0.0155434, -0.00120892, -0.00395398, 0.471008, -0.543389, 0.335894, -2.08385, -2.16584, -0.129887, 0.468985, -0.54279, 0.334521, -2.08318, -2.1637, -0.127771, -3.77325e-05, -0.000240197, -0.00018547, -0.00270104, -0.000516329, -0.00464839
0.0151726, 1.69125, -1.22709, -1.53934, -0.900299, -1.19253, 1.22804, -1.30253, -0.000387837, -0.000631763, -0.00946044, -0.0027237, -0.00187457, -0.00601578, 0.000515017, -0.166862, 61.9742, 31.5113, 7.29126, 3.13129, 3.9191, -0.336842, 0.000450754, -0.00195424, 0.00152101, 0.0023674, 0.000588619, 0.000838148, 0.000805468, 0.00252648, -0.00442277, -0.0155098, -0.00119724, -0.00402585, 0.471008, -0.543389, 0.335894, -2.08385, -2.16584, -0.129887, 0.468985, -0.54279, 0.334521, -2.08318, -2.1637, -0.127771, -4.69786e-05, -0.000298522, -0.00023237, -0.00270104, -0.000516329, -0.00464839
0.0161726, 1.69125, -1.22709, -1.53934, -0.900299, -1.19253, 1.22804, -1.30253, -0.000387837, -0.000631763, -0.00946044, -0.0027237, -0.00187457, -0.00601578, 0.000515017, -0.166862, 61.9742, 31.5113, 7.29126, 3.13129, 3.9191, -0.336842, 0.000450852, -0.00195422, 0.00152095, 0.00236732, 0.00058864, 0.000838135, 0.000735888, 0.00251547, -0.0043821, -0.0154734, -0.00118448, -0.00410352, 0.471008, -0.54339, 0.335894, -2.08385, -2.16584, -0.129887, 0.468985, -0.54279, 0.334521, -2.08318, -2.1637, -0.127771, -5.69498e-05, -0.000361405, -0.000282992, -0.00270104, -0.000516329, -0.00464839
0.0171726, 1.69125, -1.22709, -1.53934, -0.900299, -1.19253, 1.22804, -1.30253, -0.000387837, -0.000631763, -0.00946044, -0.0027237, -0.00187457, -0.00601578, 0.000515017, -0.166862, 61.9742, 31.5113, 7.29126, 3.13129, 3.9191, -0.336842, 0.000450998, -0.0019542, 0.00152086, 0.0023672, 0.000588671, 0.000838116, 0.000661112, 0.00250365, -0.00433834, -0.0154341, -0.00117059, -0.00418716, 0.471008, -0.54339, 0.335894, -2.08385, -2.16584, -0.129886, 0.468985, -0.54279, 0.334521, -2.08318, -2.1637, -0.127771, -6.7667e-05, -0.000428975, -0.000337449, -0.00270104, -0.000516329, -0.00464839
0.0181726, 1.69125, -1.22709, -1.53934, -0.900299, -1.19253, 1.22804, -1.30253, -0.000387837, -0.000631763, -0.00946044, -0.0027237, -0.00187457, -0.00601578, 0.000515017, -0.166862, 61.9742, 31.5113, 7.29126, 3.13129, 3.9191, -0.336842, 0.000451201, -0.00195417, 0.00152075, 0.00236703, 0.000588715, 0.000838088, 0.000580996, 0.00249098, -0.0042914, -0.0153918, -0.00115553, -0.00427697, 0.471008, -0.54339, 0.335893, -2.08385, -2.16584, -0.129886, 0.468985, -0.54279, 0.334521, -2.08318, -2.1637, -0.127771, -7.91509e-05, -0.000501362, -0.000395848, -0.00270104, -0.000516329, -0.00464839
0.0191729, 1.69125, -1.22709, -1.53934, -0.900299, -1.19253, 1.22804, -1.30253, -0.000387837, -0.000631763, -0.00946044, -0.0027237, -0.00187457, -0.00601578, 0.000515017, -0.166862, 61.9742, 31.5113, 7.29126, 3.13129, 3.9191, -0.336842, 0.00045147, -0.00195412, 0.00152059, 0.0023668, 0.000588772, 0.000838052, 0.000495404, 0.00247744, -0.0042412, -0.0153465, -0.00113924, -0.0043731, 0.471008, -0.54339, 0.335893, -2.08385, -2.16584, -0.129886, 0.468985, -0.54279, 0.334521, -2.08318, -2.1637, -0.127771, -9.14213e-05, -0.000578688, -0.000458296, -0.00270104, -0.000516329, -0.00464839
0.0201729, 1.69125, -1.22709, -1.53934, -0.900299, -1.19253, 1.22804, -1.30253, -0.000387837, -0.000631763, -0.00946044, -0.0027237, -0.00187457, -0.00601578, 0.000515017, -0.166862, 61.9742, 31.5113, 7.29126, 3.13129, 3.9191, -0.336842, 0.000451813, -0.00195407, 0.00152039, 0.00236651, 0.000588846, 0.000838006, 0.000404202, 0.00246301, -0.00418765, -0.015298, -0.0011217, -0.00447574, 0.471008, -0.54339, 0.335893, -2.08385, -2.16584, -0.129885, 0.468985, -0.54279, 0.334521, -2.08318, -2.1637, -0.127771, -0.000104498, -0.000661074, -0.000524897, -0.00270104, -0.000516329, -0.00464839
0.0211729, 1.69125, -1.22709, -1.53934, -0.900299, -1.19253, 1.22804, -1.30253, -0.000387837, -0.000631763, -0.00946044, -0.0027237, -0.00187457, -0.00601578, 0.000515017, -0.166862, 61.9742, 31.5113, 7.29126, 3.13129, 3.9191, -0.336842, 0.00045224, -0.001954, 0.00152014, 0.00236615, 0.000588937, 0.000837949, 0.00030726, 0.00244768, -0.00413066, -0.0152463, -0.00110285, -0.00458504, 0.471008, -0.543391, 0.335893, -2.08385, -2.16584, -0.129885, 0.468985, -0.54279, 0.334521, -2.08318, -2.1637, -0.127771, -0.000118398, -0.000748633, -0.000595748, -0.00270104, -0.000516329, -0.00464839
0.0221729, 1.69122, -1.22712, -1.53942, -0.900316, -1.19252, 1.228, -1.30254, -0.00129505, -0.00243331, -0.0139415, -0.00443834, 0.000967539, -0.00525105, 0.000582465, -0.166862, 62.2321, 31.5867, 7.36664, 3.03882, 3.97677, -0.336842, 0.000433619, -0.00198491, 0.0015674, 0.00246329, 0.000645265, 0.000877481, 0.000716206, 0.00285547, -0.00684034, -0.0179442, -0.00441686, -0.00533296, 0.471008, -0.543391, 0.335892, -2.08385, -2.16584, -0.129884, 0.468953, -0.542803, 0.334472, -2.08314, -2.16359, -0.127716, -0.000133141, -0.000841478, -0.000670947, -0.00320623, -0.000612522, -0.00745037
0.0231729, 1.69122, -1.22711, -1.53942, -0.900312, -1.19252, 1.228, -1.30254, -0.00174637, -0.00078739, -0.0138648, -0.0015724, 0.000630938, -0.00468305, 0.000387377, -0.131157, 62.1964, 31.5867, 7.29126, 3.03882, 3.99783, -0.336842, 0.000432116, -0.00198797, 0.00156794, 0.00246722, 0.000647632, 0.000884278, 0.00161233, 0.00368196, -0.0053111, -0.0159123, -0.00246928, -0.00832193, 0.471008, -0.543392, 0.335892, -2.08385, -2.16584, -0.129884, 0.46895, -0.542805, 0.334471, -2.08314, -2.16358, -0.127713, -0.000148743, -0.000939713, -0.000750586, -0.00396002, -0.00186463, -0.00613417
0.0241729, 1.69122, -1.22712, -1.53943, -0.900318, -1.19252, 1.22799, -1.30254, -0.00120009, -0.00761153, -0.0137038, -0.00225884, -0.0015311, -0.00678183, -0.00289593, -0.131157, 62.0496, 31.4359, 7.33093, 2.96466, 3.96213, -0.251698, 0.000433103, -0.0019886, 0.0015752, 0.00248055, 0.00065649, 0.000875924, 0.00186741, 0.00368021, -0.00950264, -0.0195214, -0.00845061, -0.00454927, 0.471008, -0.543393, 0.335891, -2.08385, -2.16584, -0.129883, 0.468949, -0.542804, 0.334463, -2.08312, -2.16357, -0.127707, -0.00016522, -0.00104344, -0.000834754, -0.00411694, -0.00157496, -0.0103968
0.0251729, 1.69123, -1.22712, -1.53945, -0.900316, -1.19252, 1.22799, -1.30254, 8.27576e-06, -0.00707028, -0.0158138, -0.00134912, -0.00021067, -0.00768829, -0.00338921, -0.166862, 61.4981, 31.2137, 7.18018, 2.80536, 3.90536, -0.21233, 0.000431261, -0.00199119, 0.00158072, 0.00249861, 0.000655318, 0.000886294, 0.00151189, 0.00358509, -0.00987787, -0.0211833, -0.0093232, -0.00437987, 0.471007, -0.543393, 0.335891, -2.08385, -2.16584, -0.129882, 0.468946, -0.542806, 0.334457, -2.08312, -2.16356, -0.127684, -0.000182589, -0.00115275, -0.000923534, -0.00406558, -0.00127166, -0.0108038
0.0261729, 1.69123, -1.22713, -1.53946, -0.900318, -1.19253, 1.22798, -1.30254, -1.46437e-05, -0.00930449, -0.0151168, -0.001896, -0.00450183, -0.00864429, 0.00223143, -0.166862, 61.0181, 30.7297, 7.06909, 2.65155, 3.84768, -0.205922, 0.000426089, -0.00199594, 0.00159604, 0.00252624, 0.000662972, 0.000901577, 0.00204645, 0.00395141, -0.0110258, -0.0237806, -0.00847295, -0.0107499, 0.471007, -0.543394, 0.33589, -2.08385, -2.16584, -0.129881, 0.468941, -0.54281, 0.33444, -2.08312, -2.16353, -0.127658, -0.000200863, -0.00126774, -0.00101701, -0.00447203, -0.00175269, -0.0121026
0.0271729, 1.69123, -1.22714, -1.5395, -0.900319, -1.19254, 1.22797, -1.30253, 0.000903137, -0.00357074, -0.0257156, -0.0046156, -0.00309067, -0.00988383, 0.00530821, -0.206535, 60.3555, 30.3925, 6.91833, 2.49225, 3.80466, -0.172963, 0.000419431, -0.00200313, 0.00161284, 0.00257142, 0.000662063, 0.000920111, 0.00195607, 0.00484906, -0.0118686, -0.0343513, -0.00354833, -0.0154243, 0.471007, -0.543395, 0.335889, -2.08384, -2.16584, -0.129879, 0.468933, -0.542815, 0.334422, -2.08311, -2.16349, -0.127604, -0.000220057, -0.00138849, -0.00111525, -0.00542138, -0.00169121, -0.012992
0.0281729, 1.69124, -1.22716, -1.53954, -0.900329, -1.19256, 1.22796, -1.30254, 0.00638739, -0.00872467, -0.0285719, -0.00552269, -0.00511885, -0.0113447, 0.00157656, -0.317619, 59.9152, 29.9839, 6.84296, 2.4126, 3.77627, -0.101552, 0.000413585, -0.0020079, 0.00163867, 0.0026329, 0.000661601, 0.000924637, 0.000440008, 0.00245353, -0.0163673, -0.0407005, -0.00728512, -0.00760113, 0.471007, -0.543396, 0.335888, -2.08384, -2.16584, -0.129878, 0.468928, -0.542818, 0.334395, -2.08309, -2.16346, -0.127533, -0.000240182, -0.00151507, -0.00121833, -0.00326571, 0.000469327, -0.0173742
0.0291729, 1.69125, -1.22718, -1.53959, -0.900341, -1.19259, 1.22795, -1.30254, 0.00627951, -0.0115837, -0.0327778, -0.00694694, -0.0119524, -0.0116376, 0.00302107, -0.392998, 59.5819, 29.6506, 6.80725, 2.35126, 3.72592, -0.140919, 0.000406791, -0.00201222, 0.00166996, 0.00270333, 0.00066028, 0.000940425, 0.00238196, 0.00368831, -0.0196668, -0.0486371, -0.00425768, -0.0123307, 0.471007, -0.543398, 0.335887, -2.08384, -2.16584, -0.129876, 0.468922, -0.542821, 0.334362, -2.08307, -2.16342, -0.12745, -0.000261251, -0.00164757, -0.00132632, -0.00456967, -0.00112302, -0.0210043
0.0301729, 1.69125, -1.2272, -1.53964, -0.900342, -1.19262, 1.22795, -1.30254, 0.00261661, -0.0159495, -0.0384944, -0.0075901, -0.0227088, -0.00536521, 0.00165203, -0.317619, 59.3597, 29.2777, 6.62079, 2.32013, 3.62521, -0.120778, 0.000390379, -0.00202314, 0.00169882, 0.00276052, 0.000652574, 0.000970328, 0.00804073, 0.00657241, -0.0235131, -0.0532155, 0.0036437, -0.0204571, 0.471007, -0.543399, 0.335886, -2.08384, -2.16584, -0.129874, 0.468911, -0.542835, 0.33433, -2.08307, -2.16337, -0.127374, -0.000283275, -0.00178604, -0.00143928, -0.00740863, -0.00637404, -0.0257064
0.0311729, 1.69125, -1.22722, -1.53968, -0.900358, -1.19266, 1.22795, -1.30253, 0.00188954, -0.015659, -0.0358261, -0.0071736, -0.0214671, -0.000883345, -0.00505531, -0.317619, 59.1415, 28.9048, 6.65649, 2.29541, 3.52542, -0.199513, 0.000380427, -0.0020281, 0.00172659, 0.00282694, 0.000632928, 0.000994393, 0.00796565, 0.00562305, -0.0218138, -0.0459837, 0.00492768, -0.0133186, 0.471006, -0.543401, 0.335885, -2.08384, -2.16584, -0.129872, 0.468905, -0.542842, 0.3343, -2.08307, -2.16332, -0.127276, -0.000306264, -0.00193055, -0.00155726, -0.00642486, -0.00666713, -0.0241635
0.0321729, 1.69126, -1.22724, -1.53973, -0.900373, -1.1927, 1.22795, -1.30253, 0.00229656, -0.0205505, -0.0415494, -0.00885411, -0.0251286, 0.00157531, -0.00464636, -0.357292, 59.1415, 28.5715, 6.65649, 2.27161, 3.44668, -0.180287, 0.000370456, -0.00203201, 0.00176143, 0.00289753, 0.000624236, 0.00100582, 0.00974715, 0.00587873, -0.0266559, -0.0517377, 0.00483402, -0.0159296, 0.471006, -0.543402, 0.335883, -2.08384, -2.16584, -0.12987, 0.4689, -0.542849, 0.334263, -2.08305, -2.16329, -0.127186, -0.000330225, -0.00208114, -0.00168032, -0.00681534, -0.0078417, -0.0293364
0.0331729, 1.69127, -1.22725, -1.53978, -0.900378, -1.19275, 1.22795, -1.30253, 0.00479568, -0.016543, -0.0444963, -0.00741672, -0.0317946, 0.00207997, 0.00581082, -0.357292, 58.9908, 28.3097, 6.54541, 2.23407, 3.40365, -0.180287, 0.000355937, -0.00204156, 0.00178303, 0.00296324, 0.000590193, 0.00103545, 0.0104989, 0.00602264, -0.0251282, -0.0562612, 0.0147314, -0.0290998, 0.471006, -0.543404, 0.335882, -2.08384, -2.16584, -0.129868, 0.46889, -0.542862, 0.334238, -2.08306, -2.16325, -0.127073, -0.000355167, -0.00223786, -0.0018085, -0.00690202, -0.00898157, -0.0280685
0.0341729, 1.69127, -1.22727, -1.53984, -0.900389, -1.19279, 1.22795, -1.30253, 0.00823145, -0.0144043, -0.0478813, -0.00825645, -0.0361072, 0.000726332, 0.0031135, -0.281914, 59.0305, 28.2343, 6.5097, 2.17914, 3.41006, -0.147328, 0.000340046, -0.00205235, 0.00181578, 0.00304573, 0.00056638, 0.00106564, 0.00975995, 0.00524979, -0.0253773, -0.0630613, 0.0201602, -0.025593, 0.471005, -0.543406, 0.33588, -2.08384, -2.16584, -0.129865, 0.468878, -0.542875, 0.334202, -2.08306, -2.1632, -0.126952, -0.000381096, -0.00240075, -0.00194184, -0.00619156, -0.00834503, -0.0283564
0.0351729, 1.69128, -1.22727, -1.53989, -0.900392, -1.19284, 1.22796, -1.30253, 0.0102887, -0.00967531, -0.045912, -0.0101466, -0.0396531, 0.0009469, 0.000488132, -0.317619, 58.9551, 28.0121, 6.39465, 2.12421, 3.38901, -0.0951428, 0.000327944, -0.00205784, 0.00183339, 0.0031086, 0.000521705, 0.00108976, 0.00797264, 0.00374134, -0.0221382, -0.0635176, 0.0280267, -0.019825, 0.471005, -0.543408, 0.335878, -2.08384, -2.16584, -0.129862, 0.468872, -0.542887, 0.334181, -2.08308, -2.16317, -0.126831, -0.000408018, -0.00256985, -0.00208038, -0.00465897, -0.00718648, -0.0250646
0.0361729, 1.69129, -1.22727, -1.53995, -0.900409, -1.19289, 1.22796, -1.30253, 0.0140309, -1.28925e-05, -0.0479403, -0.00897614, -0.0421538, 0.00120716, 0.00251713, -0.317619, 58.9194, 27.9368, 6.43433, 2.06836, 3.36703, -0.147328, 0.000318338, -0.00206162, 0.00185229, 0.00318335, 0.000467152, 0.00111458, 0.00650479, 0.00263949, -0.0170727, -0.065339, 0.0400247, -0.0214016, 0.471005, -0.543411, 0.335877, -2.08384, -2.16583, -0.129859, 0.468867, -0.542896, 0.334159, -2.08309, -2.16315, -0.126687, -0.000435936, -0.00274516, -0.00222414, -0.00345605, -0.00664725, -0.020012
0.0371729, 1.6913, -1.22726, -1.54, -0.900422, -1.19295, 1.22797, -1.30252, 0.0119289, 0.00213886, -0.0479242, -0.0109513, -0.0436635, 0.00581351, 0.00210965, -0.242241, 58.8083, 27.8257, 6.47003, 2.00061, 3.3533, -0.153737, 0.000308132, -0.00206645, 0.00186224, 0.00324869, 0.000399689, 0.00113697, 0.00722491, 0.0027106, -0.0154416, -0.0623439, 0.0458346, -0.022107, 0.471004, -0.543413, 0.335874, -2.08384, -2.16583, -0.129855, 0.468862, -0.542907, 0.334146, -2.08311, -2.16314, -0.126541, -0.000464854, -0.00292672, -0.00237315, -0.00347137, -0.0077937, -0.01866
0.0381729, 1.69131, -1.22724, -1.54004, -0.90044, -1.19302, 1.22798, -1.30252, 0.00965378, 0.00192287, -0.0466309, -0.0132536, -0.0457841, 0.0101053, 0.00131472, -0.131157, 58.7726, 27.79, 6.54541, 1.95758, 3.31759, -0.147328, 0.000296965, -0.00207193, 0.00187343, 0.00331849, 0.000327371, 0.00116124, 0.00796204, 0.00266288, -0.0148087, -0.0591127, 0.0495724, -0.0218631, 0.471004, -0.543416, 0.335872, -2.08384, -2.16583, -0.129852, 0.468856, -0.542919, 0.334131, -2.08314, -2.16312, -0.126384, -0.000494774, -0.00311453, -0.00252743, -0.00340446, -0.00880471, -0.0183052
0.0391729, 1.69132, -1.22723, -1.54009, -0.900455, -1.19308, 1.22799, -1.30253, 0.00805038, 0.00905819, -0.0480673, -0.0107704, -0.0516934, 0.012164, -0.00094706, -0.0161054, 58.7329, 27.8614, 6.58508, 1.90265, 3.31027, -0.0951428, 0.000286743, -0.00207768, 0.00188299, 0.00339183, 0.000253136, 0.00117873, 0.0102087, 0.00475723, -0.0103831, -0.059186, 0.0624094, -0.0264096, 0.471003, -0.543419, 0.33587, -2.08384, -2.16583, -0.129848, 0.46885, -0.542931, 0.334118, -2.08315, -2.16312, -0.126222, -0.000525695, -0.00330858, -0.00268698, -0.00528688, -0.0119835, -0.0143803
0.0401729, 1.69133, -1.22722, -1.54014, -0.90047, -1.19315, 1.22799, -1.30252, 0.00528342, 0.0141252, -0.0441515, -0.0151213, -0.0575506, 0.0109591, 0.000162631, 0.170357, 58.6972, 27.9011, 6.62079, 1.89075, 3.38168, -0.114369, 0.000276137, -0.0020869, 0.0018902, 0.00346875, 0.000178811, 0.00120956, 0.00967046, 0.00558552, -0.00644442, -0.0606251, 0.071752, -0.0268737, 0.471003, -0.543422, 0.335867, -2.08384, -2.16583, -0.129843, 0.46884, -0.542944, 0.334107, -2.08318, -2.1631, -0.126054, -0.000557617, -0.00350887, -0.00285182, -0.006023, -0.0122926, -0.0105474
0.0411729, 1.69133, -1.2272, -1.54017, -0.900491, -1.19322, 1.22798, -1.30252, 0.0045864, 0.0153326, -0.0402157, -0.0169515, -0.0616217, 0.0106735, 0.00139057, 0.436165, 58.6258, 27.9011, 6.73187, 1.87793, 3.44668, -0.147328, 0.000266678, -0.00209637, 0.00189228, 0.00353875, 9.90209e-05, 0.0012363, 0.00905346, 0.00537047, -0.00444186, -0.0598582, 0.0760879, -0.0269471, 0.471002, -0.543426, 0.335864, -2.08384, -2.16583, -0.129839, 0.468831, -0.542957, 0.334101, -2.08321, -2.16308, -0.125888, -0.000590537, -0.00371538, -0.00302192, -0.00579088, -0.0121894, -0.00865088
0.0421729, 1.69133, -1.22719, -1.54021, -0.900501, -1.1933, 1.22798, -1.30252, 0.00134923, 0.0162771, -0.0373117, -0.0137371, -0.0656122, 0.0108503, 0.000735773, 0.701973, 58.6972, 28.0478, 6.65649, 1.88434, 3.50345, -0.140919, 0.000250104, -0.00211073, 0.00189904, 0.00361074, 2.1904e-05, 0.00127401, 0.0113214, 0.00779161, -0.00208074, -0.0567824, 0.0798669, -0.032535, 0.471002, -0.543429, 0.335861, -2.08384, -2.16583, -0.129834, 0.468816, -0.542977, 0.334089, -2.08325, -2.16306, -0.125721, -0.000624453, -0.00392809, -0.0031973, -0.00807643, -0.0151035, -0.0067737
0.0431729, 1.69133, -1.22717, -1.54024, -0.900519, -1.19338, 1.22799, -1.30252, 0.000995519, 0.0189552, -0.0338565, -0.0175584, -0.0727336, 0.0115545, -0.000695625, 0.888436, 58.6972, 28.1589, 6.69617, 1.87793, 3.54648, -0.10796, 0.00024169, -0.00211697, 0.00189995, 0.00367605, -6.328e-05, 0.00129316, 0.0106174, 0.00721107, 0.000418161, -0.0578643, 0.0888717, -0.0291627, 0.471001, -0.543433, 0.335858, -2.08384, -2.16582, -0.129829, 0.46881, -0.542989, 0.334084, -2.08328, -2.16306, -0.125556, -0.000659358, -0.00414696, -0.00337792, -0.00746641, -0.0149883, -0.00439508
0.0441729, 1.69134, -1.22716, -1.54027, -0.90053, -1.19346, 1.22799, -1.30252, 0.00139724, 0.0150449, -0.0320013, -0.0145116, -0.0728726, 0.00821709, 0.00180299, 1.03919, 58.8083, 28.3097, 6.62079, 1.85962, 3.56845, -0.0420422, 0.000231806, -0.00212412, 0.00190349, 0.00373727, -0.000138119, 0.00131348, 0.0107518, 0.00785565, -0.000960157, -0.0580061, 0.0831291, -0.0333071, 0.471, -0.543437, 0.335855, -2.08383, -2.16582, -0.129823, 0.468802, -0.543002, 0.334076, -2.08331, -2.16305, -0.125404, -0.000695248, -0.00437195, -0.00356376, -0.00819107, -0.0151601, -0.00594327
0.0451729, 1.69134, -1.22715, -1.54029, -0.90054, -1.19354, 1.22798, -1.30251, 0.00679928, 0.0151257, -0.0303893, -0.0122962, -0.0781249, 0.0056941, 0.00429038, 1.11457, 58.9551, 28.4565, 6.54541, 1.84772, 3.58951, -0.114369, 0.000222774, -0.00213097, 0.00190447, 0.00379754, -0.0002171, 0.00134505, 0.00918978, 0.00604872, -0.00037899, -0.0608668, 0.0862056, -0.0336881, 0.471, -0.543442, 0.335851, -2.08383, -2.16582, -0.129818, 0.468795, -0.543016, 0.33407, -2.08335, -2.16304, -0.125248, -0.000732114, -0.004603, -0.00375481, -0.00645819, -0.0138646, -0.00537255
0.0461729, 1.69135, -1.22714, -1.54031, -0.900548, -1.19363, 1.22798, -1.30251, 0.00325436, 0.0110069, -0.0290243, -0.0131204, -0.0822061, 0.00294933, 0.00293012, 1.22962, 59.1415, 28.6072, 6.43433, 1.84772, 3.63254, -0.10796, 0.000212642, -0.00213834, 0.0019046, 0.00385612, -0.000299011, 0.00136938, 0.0108768, 0.00846144, -0.00232139, -0.0639951, 0.084018, -0.0360483, 0.470999, -0.543446, 0.335848, -2.08383, -2.16582, -0.129812, 0.468787, -0.543031, 0.334065, -2.08338, -2.16304, -0.125092, -0.000769946, -0.00484006, -0.003951, -0.00891554, -0.0155669, -0.00767564
0.0471729, 1.69136, -1.22714, -1.54032, -0.900549, -1.19373, 1.22798, -1.30251, 0.00862233, 0.0132342, -0.0244776, -0.0120746, -0.0854538, 0.00171263, 0.0028959, 1.26533, 59.3994, 28.754, 6.24786, 1.84772, 3.65451, -0.127186, 0.000201565, -0.00214561, 0.00190307, 0.00390862, -0.000381253, 0.00140253, 0.00789725, 0.0054681, 0.000520664, -0.0625982, 0.0881401, -0.0308932, 0.470998, -0.543451, 0.335844, -2.08383, -2.16582, -0.129805, 0.468779, -0.543047, 0.334061, -2.08343, -2.16303, -0.12494, -0.000808735, -0.00508306, -0.00415231, -0.00596863, -0.0131834, -0.0046986
0.0481729, 1.69137, -1.22713, -1.54034, -0.900555, -1.19382, 1.22798, -1.30251, 0.0117231, 0.0168144, -0.0263698, -0.0110906, -0.087203, -0.000540407, 0.000407992, 1.34071, 59.5819, 28.9802, 6.17248, 1.8349, 3.71127, -0.0814099, 0.00019085, -0.00215325, 0.00190318, 0.00397114, -0.000468211, 0.00142545, 0.00670721, 0.00491294, 0.00190268, -0.0665777, 0.0922238, -0.0280981, 0.470997, -0.543456, 0.33584, -2.08383, -2.16582, -0.129798, 0.468771, -0.543063, 0.334055, -2.08347, -2.16302, -0.124774, -0.000848468, -0.00533191, -0.00435868, -0.00544649, -0.0124473, -0.00337239
0.0491729, 1.69138, -1.22712, -1.54035, -0.900552, -1.19392, 1.22797, -1.30251, 0.014739, 0.0136387, -0.0222576, -0.00850863, -0.0886242, -0.00163885, -7.31147e-05, 1.38038, 59.7287, 29.1269, 6.02173, 1.823, 3.7543, -0.0685925, 0.00018067, -0.0021606, 0.00189662, 0.0040223, -0.000558155, 0.00145633, 0.00546097, 0.00332917, 0.00177116, -0.0639399, 0.0893566, -0.0256744, 0.470997, -0.543461, 0.335835, -2.08383, -2.16581, -0.129791, 0.468764, -0.543079, 0.334056, -2.08352, -2.16302, -0.124616, -0.000889131, -0.00558652, -0.00457004, -0.00395473, -0.0113866, -0.00356802
0.0501729, 1.69139, -1.22711, -1.54036, -0.90056, -1.19402, 1.22797, -1.30251, 0.0149754, 0.0101443, -0.0210611, -0.00796448, -0.0915069, -0.00244992, -0.000697522, 1.38038, 59.9152, 29.3531, 6.0614, 1.85962, 3.79733, -0.0484509, 0.000171335, -0.00216731, 0.00189507, 0.00408727, -0.000651332, 0.00147965, 0.00579187, 0.00347201, 0.000312638, -0.0648432, 0.0877897, -0.0259589, 0.470996, -0.543467, 0.335831, -2.08383, -2.16581, -0.129784, 0.468757, -0.543095, 0.334052, -2.08355, -2.16302, -0.124439, -0.00093071, -0.0058468, -0.00478633, -0.00417988, -0.0117549, -0.0052715
0.0511729, 1.69139, -1.2271, -1.54037, -0.900564, -1.19413, 1.22797, -1.3025, 0.012922, 0.0104784, -0.0173389, -0.0071679, -0.0971515, -0.00277845, 0.0020493, 1.45576, 60.1334, 29.4642, 6.09711, 1.87244, 3.83304, -0.114369, 0.000158928, -0.00217711, 0.00189213, 0.00414422, -0.000742889, 0.00151834, 0.00692046, 0.00480206, 0.00220228, -0.063604, 0.0922881, -0.0318893, 0.470995, -0.543473, 0.335826, -2.08383, -2.16581, -0.129776, 0.468746, -0.543114, 0.334048, -2.08361, -2.16301, -0.124271, -0.000973186, -0.00611264, -0.00500747, -0.00544199, -0.0134802, -0.00376167
0.0521729, 1.6914, -1.22709, -1.54039, -0.900572, -1.19425, 1.22796, -1.3025, 0.0124122, 0.0089944, -0.017281, -0.00814433, -0.101895, -0.0030757, 0.00189559, 1.49146, 60.2802, 29.6863, 6.20819, 1.90906, 3.86966, -0.127186, 0.000146557, -0.00218695, 0.00189075, 0.0042141, -0.000843641, 0.00155119, 0.00758965, 0.00537588, 0.00140482, -0.0663525, 0.0946899, -0.0332736, 0.470994, -0.543479, 0.335821, -2.08382, -2.16581, -0.129768, 0.468736, -0.543133, 0.334043, -2.08365, -2.163, -0.12408, -0.00101654, -0.00638391, -0.00523338, -0.00606336, -0.0143128, -0.00486148
0.0531729, 1.69142, -1.22708, -1.5404, -0.900578, -1.19437, 1.22796, -1.30251, 0.0134929, 0.00877878, -0.0154408, -0.00238171, -0.105601, -0.00300192, -0.00161139, 1.45576, 60.3912, 29.8371, 6.32324, 1.93378, 3.89804, -0.0484509, 0.000136429, -0.002193, 0.00188682, 0.00428155, -0.000951895, 0.00156866, 0.00888828, 0.00608474, 0.00287208, -0.0636754, 0.0970306, -0.0344655, 0.470993, -0.543485, 0.335816, -2.08382, -2.1658, -0.129759, 0.46873, -0.54315, 0.33404, -2.08369, -2.16301, -0.123885, -0.00106076, -0.00666049, -0.00546395, -0.00671599, -0.0161263, -0.00382328
0.0541729, 1.69142, -1.22708, -1.54041, -0.90059, -1.1945, 1.22796, -1.30251, 0.0115217, 0.00752841, -0.0131875, -0.00492686, -0.109454, -0.00297766, -0.00128086, 1.53114, 60.538, 29.9482, 6.47003, 1.99512, 3.92642, -0.0420422, 0.000122441, -0.00220348, 0.00188581, 0.00435293, -0.0010609, 0.00160011, 0.00910847, 0.00658329, 0.00288396, -0.0642999, 0.0990492, -0.0350702, 0.470992, -0.543492, 0.33581, -2.08382, -2.1658, -0.12975, 0.468719, -0.543171, 0.334034, -2.08374, -2.16301, -0.123683, -0.00110581, -0.00694224, -0.0056991, -0.00725064, -0.0166476, -0.00406574
0.0551729, 1.69143, -1.22709, -1.54043, -0.900602, -1.19462, 1.22795, -1.30251, 0.0119236, 0.00491239, -0.0124467, -0.0075753, -0.115651, -0.00301409, 0.0049499, 1.53114, 60.7602, 30.095, 6.65649, 2.01984, 3.95572, -0.0685925, 0.00010929, -0.00221249, 0.00189143, 0.00442669, -0.00115688, 0.00163295, 0.00913951, 0.0062436, 0.00141834, -0.0679157, 0.101796, -0.0406324, 0.470991, -0.543499, 0.335805, -2.08382, -2.1658, -0.12974, 0.468709, -0.54319, 0.334021, -2.08378, -2.163, -0.123491, -0.00115168, -0.007229, -0.00593872, -0.0070092, -0.0167256, -0.00576758
0.0561729, 1.69144, -1.22708, -1.54044, -0.900611, -1.19475, 1.22795, -1.3025, 0.0121522, 0.00736181, -0.0137135, -0.00768823, -0.120176, -0.00220469, 0.00347965, 1.53114, 60.7959, 30.1703, 6.77154, 2.04364, 3.96213, -0.0621838, 9.73195e-05, -0.00222007, 0.00188806, 0.00449715, -0.00127293, 0.00166493, 0.00969405, 0.00667054, 0.00265824, -0.0701172, 0.108526, -0.0413965, 0.47099, -0.543506, 0.335799, -2.08382, -2.16579, -0.129731, 0.4687, -0.54321, 0.334017, -2.08384, -2.163, -0.123283, -0.00119834, -0.00752062, -0.00618267, -0.00741752, -0.0177729, -0.00486029
0.0571729, 1.69145, -1.22708, -1.54044, -0.900617, -1.19489, 1.22795, -1.3025, 0.0122792, 0.00450689, -0.00872221, -0.00675601, -0.128109, -0.00120089, 0.00239522, 1.53114, 60.8713, 30.1346, 6.84296, 2.05005, 3.95572, -0.0557752, 8.38733e-05, -0.00222784, 0.00188547, 0.00456003, -0.00138486, 0.001697, 0.0104876, 0.0065334, 0.0031686, -0.0681949, 0.112364, -0.0415994, 0.470988, -0.543514, 0.335793, -2.08381, -2.16579, -0.12972, 0.468692, -0.543232, 0.334011, -2.08389, -2.163, -0.123086, -0.00124576, -0.00781692, -0.00643084, -0.00728112, -0.0189256, -0.00473173
0.0581729, 1.69146, -1.22709, -1.54045, -0.900627, -1.19503, 1.22795, -1.3025, 0.0110416, -0.00117062, -0.00696133, -0.0103483, -0.133109, -0.00128556, 0.00328949, 1.45576, 61.0934, 30.1703, 6.95801, 2.03815, 3.96945, -0.0951428, 7.19173e-05, -0.00223305, 0.0018925, 0.00463447, -0.00148739, 0.00172735, 0.0107826, 0.00653858, 0.000225042, -0.0708447, 0.111017, -0.0416873, 0.470987, -0.543521, 0.335786, -2.08381, -2.16579, -0.12971, 0.468686, -0.543251, 0.333996, -2.08393, -2.16299, -0.122886, -0.00129392, -0.00811772, -0.00668309, -0.00743053, -0.0190649, -0.00793607
0.0591729, 1.69147, -1.22708, -1.54046, -0.900633, -1.19518, 1.22795, -1.3025, 0.0104883, 0.00174909, -0.00570958, -0.0111738, -0.132413, -0.000839292, 0.00040226, 1.49146, 61.0181, 30.206, 6.99371, 2.03815, 3.96945, -0.0420422, 5.43384e-05, -0.00224476, 0.00188863, 0.00470614, -0.00161511, 0.00176712, 0.00981988, 0.00628298, 0.00255065, -0.068893, 0.113637, -0.0382567, 0.470986, -0.54353, 0.335779, -2.08381, -2.16578, -0.129699, 0.468674, -0.543277, 0.333991, -2.084, -2.16299, -0.122661, -0.00134278, -0.00842284, -0.00693927, -0.00717427, -0.018767, -0.00575418
0.0601729, 1.69149, -1.2271, -1.54047, -0.90064, -1.19533, 1.22795, -1.3025, 0.0153994, -0.00252813, -0.00747396, -0.0118496, -0.137454, -0.00108875, -7.4577e-05, 1.305, 61.2006, 30.206, 7.02942, 2.05005, 3.9841, -0.0292249, 4.26016e-05, -0.00224899, 0.00189744, 0.00478695, -0.00172111, 0.00178964, 0.00883566, 0.0041689, -0.000742861, -0.0742307, 0.11381, -0.0352038, 0.470984, -0.543538, 0.335772, -2.08381, -2.16578, -0.129687, 0.468668, -0.543296, 0.333974, -2.08403, -2.16299, -0.122451, -0.00139231, -0.00873205, -0.00719924, -0.00526699, -0.0175112, -0.00917747
0.0611729, 1.69151, -1.2271, -1.54049, -0.900649, -1.19548, 1.22795, -1.3025, 0.0161226, -0.00218241, -0.0117087, -0.0126916, -0.140928, 0.000335307, 0.00198204, 1.22962, 61.2402, 30.3211, 7.06909, 2.05646, 3.95572, -0.0814099, 2.64886e-05, -0.00225685, 0.00190362, 0.00487285, -0.00184501, 0.00183429, 0.00959985, 0.00440728, -0.00184704, -0.0785819, 0.11818, -0.0394297, 0.470983, -0.543547, 0.335765, -2.0838, -2.16578, -0.129675, 0.468659, -0.54332, 0.333958, -2.0841, -2.16298, -0.122213, -0.00144249, -0.00904515, -0.00746282, -0.00556797, -0.0184186, -0.0106426
0.0621729, 1.69152, -1.22713, -1.5405, -0.90065, -1.19563, 1.22795, -1.3025, 0.015811, -0.0114976, -0.00907802, -0.00825247, -0.142475, 0.000502292, 0.00115823, 1.18995, 61.5338, 30.206, 7.02942, 2.03174, 3.94839, -0.0750012, 9.56293e-06, -0.00226505, 0.0019137, 0.00494179, -0.00194446, 0.00186823, 0.0113458, 0.00503006, -0.00552554, -0.0752721, 0.109777, -0.0422989, 0.470982, -0.543556, 0.335758, -2.0838, -2.16577, -0.129663, 0.46865, -0.543345, 0.333938, -2.08414, -2.16297, -0.12202, -0.00149327, -0.00936199, -0.00772991, -0.00631175, -0.0199186, -0.0147939
0.0631729, 1.69154, -1.22713, -1.54051, -0.900659, -1.19579, 1.22796, -1.3025, 0.0163408, -0.00854935, -0.0104113, -0.00696921, -0.149409, 0.000883011, 0.000590469, 1.11457, 61.5695, 30.206, 7.06909, 2.03174, 3.93374, -0.0685925, -3.66108e-06, -0.00226967, 0.00191691, 0.00501958, -0.0020698, 0.00189738, 0.0125463, 0.00596679, -0.0038486, -0.0783431, 0.118673, -0.0457843, 0.47098, -0.543565, 0.33575, -2.0838, -2.16577, -0.12965, 0.468644, -0.543367, 0.333925, -2.08419, -2.16297, -0.121791, -0.00154466, -0.00968246, -0.00800043, -0.007195, -0.0217207, -0.0135664
0.0641729, 1.69156, -1.22715, -1.54053, -0.90066, -1.19595, 1.22796, -1.3025, 0.0199667, -0.0109333, -0.0111446, -0.00412278, -0.149324, 0.00191531, -0.00102266, 1.03919, 61.7917, 30.206, 7.02942, 2.02533, 3.89804, -0.0292249, -2.15938e-05, -0.00227713, 0.0019268, 0.00509949, -0.0021867, 0.00193649, 0.0118861, 0.00439836, -0.00498832, -0.0772367, 0.116757, -0.043797, 0.470979, -0.543575, 0.335742, -2.0838, -2.16576, -0.129636, 0.468635, -0.543393, 0.333905, -2.08425, -2.16296, -0.121566, -0.00159663, -0.0100065, -0.00827433, -0.00574557, -0.0211533, -0.0149107
0.0651729, 1.69158, -1.22715, -1.54054, -0.900658, -1.1961, 1.22797, -1.3025, 0.0184774, -0.00731648, -0.0119637, -0.00138158, -0.15321, 0.00209384, 0.000570246, 1.00349, 61.7917, 30.206, 6.95801, 1.98871, 3.87607, -0.0621838, -3.71224e-05, -0.0022854, 0.00192568, 0.00517332, -0.00231402, 0.00198243, 0.0136121, 0.00640894, -0.00244237, -0.0775457, 0.123504, -0.0514745, 0.470977, -0.543585, 0.335734, -2.08379, -2.16576, -0.129623, 0.468626, -0.543419, 0.333896, -2.08432, -2.16295, -0.121337, -0.00164918, -0.0103339, -0.00855153, -0.00765209, -0.0236588, -0.0128807
0.0661729, 1.6916, -1.22715, -1.54055, -0.900664, -1.19627, 1.22797, -1.3025, 0.0202263, -0.00313512, -0.00985494, -0.00198389, -0.154928, 0.00163562, 0.000403651, 0.85273, 61.7163, 30.095, 6.99371, 1.92737, 3.86966, -0.0621838, -4.78672e-05, -0.00228974, 0.00192212, 0.00525133, -0.00244932, 0.00201308, 0.0117537, 0.00521455, 0.000784303, -0.0768685, 0.128934, -0.0491547, 0.470975, -0.543595, 0.335725, -2.08379, -2.16576, -0.129608, 0.46862, -0.54344, 0.333889, -2.08438, -2.16296, -0.121096, -0.00170228, -0.0106648, -0.00883197, -0.00646165, -0.0226026, -0.0097229
0.0671729, 1.69162, -1.22716, -1.54057, -0.900663, -1.19643, 1.22797, -1.30249, 0.0188649, -0.00470407, -0.0145297, -0.00065809, -0.156627, 0.00687054, 0.00198214, 0.813057, 61.8274, 30.095, 6.95801, 1.86603, 3.84036, -0.10796, -6.74705e-05, -0.00229935, 0.00192785, 0.00533168, -0.00257845, 0.00206569, 0.0143752, 0.0062513, -0.000843091, -0.0762617, 0.131611, -0.0564632, 0.470974, -0.543606, 0.335716, -2.08379, -2.16575, -0.129594, 0.46861, -0.54347, 0.333872, -2.08445, -2.16294, -0.120855, -0.00175593, -0.0109989, -0.0091156, -0.00751616, -0.0253168, -0.0119886
0.0681729, 1.69164, -1.22715, -1.54058, -0.900668, -1.1966, 1.22798, -1.30249, 0.0177334, -0.000549242, -0.0127818, -0.00140198, -0.158135, 0.00602396, 0.000113934, 0.777352, 61.7163, 30.0236, 6.99371, 1.81018, 3.81198, -0.0750012, -8.0347e-05, -0.00230567, 0.00192132, 0.00541119, -0.00272607, 0.00209889, 0.0137397, 0.00675367, 0.00234367, -0.0757611, 0.13659, -0.0552772, 0.470972, -0.543617, 0.335707, -2.08378, -2.16575, -0.129578, 0.468602, -0.543495, 0.333868, -2.08452, -2.16295, -0.120599, -0.0018101, -0.0113362, -0.00940234, -0.00797903, -0.0255375, -0.00901471
0.0691729, 1.69167, -1.22715, -1.5406, -0.900664, -1.19678, 1.22799, -1.3025, 0.0196795, -0.00213814, -0.0149218, -0.000195464, -0.163329, 0.00563273, 0.00306899, 0.626595, 61.7917, 29.9482, 6.95801, 1.74335, 3.77627, -0.0292249, -9.54401e-05, -0.00230912, 0.00192294, 0.00549106, -0.00286786, 0.0021358, 0.0144333, 0.00688009, 0.000930874, -0.0800106, 0.139288, -0.0605692, 0.47097, -0.543628, 0.335698, -2.08378, -2.16574, -0.129563, 0.468597, -0.543521, 0.333854, -2.08458, -2.16296, -0.120347, -0.00186479, -0.0116765, -0.00969213, -0.00818652, -0.0263504, -0.0108032
0.0701729, 1.69168, -1.22716, -1.54062, -0.900659, -1.19695, 1.22799, -1.3025, 0.0174102, -0.00143198, -0.0195173, 0.00703774, -0.168177, 0.00424717, 0.00196858, 0.626595, 61.7917, 29.9839, 6.91833, 1.6875, 3.76895, -0.0164075, -0.000115099, -0.00232009, 0.00192274, 0.00557465, -0.00301147, 0.00218817, 0.0188987, 0.0113448, 0.000971598, -0.0834188, 0.142972, -0.0723664, 0.470968, -0.54364, 0.335688, -2.08378, -2.16574, -0.129546, 0.468585, -0.543553, 0.333842, -2.08466, -2.16295, -0.120087, -0.00191999, -0.0120199, -0.00998491, -0.0125396, -0.0312912, -0.0116127
0.0711729, 1.69171, -1.22715, -1.54063, -0.900663, -1.19713, 1.228, -1.30249, 0.0187472, 0.00163889, -0.0156705, 0.00340058, -0.171846, 0.00899431, 0.00378051, 0.511544, 61.6806, 29.8728, 6.99371, 1.63898, 3.73324, -0.0750012, -0.000125666, -0.00232132, 0.00191669, 0.0056541, -0.00316776, 0.00222602, 0.016978, 0.00863876, 0.00423287, -0.0790535, 0.151633, -0.0695842, 0.470966, -0.543652, 0.335678, -2.08377, -2.16573, -0.12953, 0.468583, -0.543576, 0.333837, -2.08474, -2.16296, -0.11982, -0.00197567, -0.0123662, -0.0102806, -0.00984284, -0.0301323, -0.00847227
0.0721729, 1.69174, -1.22716, -1.54066, -0.900655, -1.19732, 1.22801, -1.30249, 0.0175827, -0.00150955, -0.0209075, 0.00438428, -0.175323, 0.00732375, 0.00372717, 0.475838, 61.7917, 29.9482, 6.91833, 1.61426, 3.71127, -0.101552, -0.000147014, -0.00233045, 0.00192193, 0.00574155, -0.00331404, 0.00228372, 0.0192895, 0.0110236, 0.00083325, -0.0860804, 0.150852, -0.0756409, 0.470964, -0.543664, 0.335668, -2.08377, -2.16572, -0.129512, 0.468572, -0.543609, 0.333818, -2.08482, -2.16294, -0.119551, -0.00203183, -0.0127153, -0.0105792, -0.0123218, -0.032338, -0.0124136
0.0731729, 1.69177, -1.22716, -1.54067, -0.900655, -1.1975, 1.22802, -1.30249, 0.022799, -0.00277237, -0.016634, 0.00318835, -0.183378, 0.00553907, 0.000956975, 0.325081, 61.8671, 29.8371, 6.91833, 1.60144, 3.70395, -0.0557752, -0.000159554, -0.00233049, 0.00192115, 0.00581871, -0.00346596, 0.00231265, 0.0168681, 0.00822023, 0.00127128, -0.0888672, 0.15543, -0.0677865, 0.470962, -0.543677, 0.335657, -2.08377, -2.16572, -0.129495, 0.468571, -0.543634, 0.333806, -2.08488, -2.16296, -0.119291, -0.00208844, -0.0130671, -0.0108805, -0.00964926, -0.0302519, -0.0119919
0.0741729, 1.6918, -1.22717, -1.54069, -0.900647, -1.19769, 1.22803, -1.30249, 0.0227786, -0.00268554, -0.0162159, 0.00408792, -0.17901, 0.00316789, 0.000763695, 0.325081, 61.9028, 29.8371, 6.84296, 1.57123, 3.72592, -0.0557752, -0.000176792, -0.00233675, 0.00192146, 0.00590298, -0.00361718, 0.00236077, 0.0155418, 0.00824052, 0.00163856, -0.0878325, 0.150784, -0.0672449, 0.47096, -0.54369, 0.335646, -2.08376, -2.16571, -0.129476, 0.468563, -0.543665, 0.333793, -2.08496, -2.16295, -0.119021, -0.00214551, -0.0134215, -0.0111846, -0.0097606, -0.0293544, -0.0117268
0.0751729, 1.69184, -1.22717, -1.54071, -0.900639, -1.19788, 1.22805, -1.30249, 0.0265591, -0.00179191, -0.0149972, 0.00370984, -0.181099, 0.00702646, 0.000332146, 0.170357, 61.9028, 29.7974, 6.80725, 1.55292, 3.72592, -0.0484509, -0.000190933, -0.00233666, 0.00191917, 0.00598095, -0.00377898, 0.00239979, 0.0138339, 0.00529881, 0.00294345, -0.0848092, 0.155508, -0.0633702, 0.470958, -0.543704, 0.335635, -2.08376, -2.16571, -0.129457, 0.468561, -0.543692, 0.333782, -2.08504, -2.16297, -0.118747, -0.00220301, -0.0137786, -0.0114914, -0.00689369, -0.0281057, -0.0105696
0.0761729, 1.69187, -1.22717, -1.54073, -0.900641, -1.19807, 1.22806, -1.30249, 0.0273552, -0.000360557, -0.014923, 0.000821995, -0.178432, 0.00975319, 0.00127549, 0.0949785, 61.8671, 29.7974, 6.88263, 1.54651, 3.73324, -0.0750012, -0.000201335, -0.0023363, 0.00191787, 0.00606602, -0.00393571, 0.00243562, 0.0118328, 0.00335391, 0.00386495, -0.0822326, 0.156515, -0.0605951, 0.470956, -0.543717, 0.335624, -2.08375, -2.1657, -0.129438, 0.46856, -0.543717, 0.33377, -2.08511, -2.16298, -0.118471, -0.00226092, -0.014138, -0.0118008, -0.00504711, -0.0265517, -0.00971782
0.0771729, 1.6919, -1.22719, -1.54074, -0.900628, -1.19825, 1.22807, -1.30249, 0.0286327, -0.00367492, -0.014101, 0.00323046, -0.17619, 0.0116855, 0.00548305, 0.134651, 62.0139, 29.7617, 6.77154, 1.54651, 3.74057, -0.0750012, -0.00021847, -0.00234062, 0.00192178, 0.00613963, -0.00407499, 0.00248394, 0.0114709, 0.0022995, 0.00289816, -0.0778522, 0.152257, -0.0649432, 0.470954, -0.543731, 0.335612, -2.08375, -2.16569, -0.129418, 0.468554, -0.543747, 0.333752, -2.08519, -2.16297, -0.118223, -0.00231925, -0.0144999, -0.0121127, -0.00410052, -0.0263645, -0.0109603
0.0781729, 1.69194, -1.22719, -1.54076, -0.900624, -1.19843, 1.22808, -1.30249, 0.0315492, -0.00688886, -0.0150591, 0.00221664, -0.179744, 0.0140089, 0.00336471, 0.0949785, 62.0496, 29.7974, 6.77154, 1.55932, 3.72592, -0.0557752, -0.00023005, -0.00234098, 0.00192338, 0.00622034, -0.00422233, 0.00252219, 0.0109144, 0.000456985, 0.000846231, -0.0792614, 0.1535, -0.0611433, 0.470951, -0.543746, 0.3356, -2.08374, -2.16569, -0.129398, 0.468551, -0.543773, 0.333736, -2.08526, -2.16297, -0.11796, -0.00237796, -0.014864, -0.0124272, -0.00241379, -0.0257881, -0.0132707
0.0791729, 1.69197, -1.2272, -1.54079, -0.900618, -1.19861, 1.2281, -1.30249, 0.0288756, -0.0083087, -0.0157344, 0.00152501, -0.176952, 0.014879, 0.00279656, 0.134651, 62.0496, 29.8371, 6.77154, 1.54651, 3.73324, -0.0621838, -0.000242971, -0.00234233, 0.00192446, 0.00629852, -0.00437117, 0.00256183, 0.0112961, 0.00136052, 0.000152783, -0.0775629, 0.150384, -0.0624854, 0.470949, -0.543761, 0.335587, -2.08374, -2.16568, -0.129377, 0.468548, -0.543801, 0.333721, -2.08533, -2.16298, -0.117697, -0.00243706, -0.0152304, -0.012744, -0.00338691, -0.0264617, -0.0143039
0.0801729, 1.69202, -1.22721, -1.5408, -0.900612, -1.19879, 1.22812, -1.30249, 0.0326936, -0.00688452, -0.0176053, 0.00105211, -0.175495, 0.0114335, 0.00159279, 0.059273, 62.0853, 29.7974, 6.77154, 1.55292, 3.72592, -0.0484509, -0.000251235, -0.0023369, 0.00192471, 0.00636993, -0.00452068, 0.00258934, 0.00866094, -0.000132369, 2.9396e-05, -0.0819266, 0.149333, -0.0580701, 0.470946, -0.543776, 0.335575, -2.08373, -2.16567, -0.129355, 0.468551, -0.543824, 0.333706, -2.08539, -2.163, -0.117441, -0.00249652, -0.0155988, -0.0130633, -0.00205404, -0.0241485, -0.0143817
0.0811729, 1.69205, -1.22721, -1.54083, -0.900608, -1.19897, 1.22813, -1.30249, 0.0318013, -0.00330188, -0.0208626, -0.000942447, -0.178652, 0.0119143, 0.00198563, 0.134651, 62.0139, 29.8371, 6.84296, 1.54651, 3.76163, -0.0685925, -0.00026056, -0.00233714, 0.00192281, 0.00644908, -0.00467047, 0.00262765, 0.00906804, 0.000769805, 0.00107492, -0.0860518, 0.156232, -0.0608136, 0.470944, -0.543792, 0.335562, -2.08373, -2.16567, -0.129333, 0.468549, -0.543849, 0.333694, -2.08546, -2.163, -0.117176, -0.00255634, -0.0159693, -0.0133848, -0.00296217, -0.0251186, -0.0137064
0.0821729, 1.69209, -1.22722, -1.54085, -0.900602, -1.19915, 1.22814, -1.30249, 0.0363748, -0.00248822, -0.01908, 0.00160507, -0.175861, 0.0074385, 0.000982376, 0.134651, 62.0139, 29.8371, 6.88263, 1.53461, 3.80466, -0.0557752, -0.000267044, -0.00233264, 0.00192249, 0.00652488, -0.00481699, 0.00265591, 0.00591483, -0.00109242, 0.00217515, -0.0862219, 0.152495, -0.0563072, 0.470941, -0.543808, 0.335548, -2.08372, -2.16566, -0.129311, 0.468551, -0.543871, 0.33368, -2.08552, -2.16302, -0.116917, -0.0026165, -0.0163418, -0.0137086, -0.0012349, -0.0224711, -0.0125116
0.0831729, 1.69214, -1.22723, -1.54087, -0.900593, -1.19933, 1.22816, -1.30249, 0.0396806, -0.00530772, -0.0216268, 0.00453357, -0.177949, 0.0095147, 0.00099228, 0.134651, 62.1606, 29.8371, 6.88263, 1.5282, 3.83304, -0.0621838, -0.000273535, -0.00232707, 0.00192849, 0.00660179, -0.00495134, 0.00268596, 0.00631726, -0.002104, 0.000305123, -0.0866963, 0.152593, -0.0580073, 0.470939, -0.543824, 0.335534, -2.08372, -2.16565, -0.129287, 0.468554, -0.543893, 0.333659, -2.08557, -2.16302, -0.116669, -0.00267698, -0.0167161, -0.0140346, -0.000339084, -0.0229136, -0.0147775
0.0841729, 1.69218, -1.22724, -1.54088, -0.900586, -1.19951, 1.22817, -1.30249, 0.0415933, -0.00522694, -0.0214194, 0.00266028, -0.181257, 0.0107848, -0.000721539, 0.170357, 62.0853, 29.7617, 6.91833, 1.54651, 3.86966, -0.0228162, -0.000279946, -0.0023235, 0.00192378, 0.0066725, -0.00510353, 0.00271638, 0.00522992, -0.00355903, 0.000459512, -0.0878376, 0.156379, -0.0543087, 0.470936, -0.543841, 0.33552, -2.08371, -2.16564, -0.129264, 0.468555, -0.543916, 0.333648, -2.08564, -2.16304, -0.116409, -0.00273778, -0.0170921, -0.0143627, 0.00102008, -0.0221804, -0.014829
0.0851729, 1.69222, -1.22724, -1.54091, -0.900582, -1.19969, 1.22818, -1.30249, 0.0406169, -0.00387988, -0.0214118, -0.000470096, -0.182543, 0.0119677, -0.00117076, 0.170357, 62.0853, 29.8371, 7.02942, 1.53461, 3.89804, -0.00267457, -0.000284624, -0.00231853, 0.00192546, 0.00675264, -0.00524733, 0.0027434, 0.00456371, -0.00382584, 0.00125666, -0.0883259, 0.159759, -0.0530758, 0.470933, -0.543858, 0.335506, -2.08371, -2.16563, -0.129239, 0.468558, -0.543938, 0.333632, -2.08569, -2.16306, -0.116147, -0.00279888, -0.0174699, -0.0146928, 0.00123081, -0.0220122, -0.014277
0.0861729, 1.69226, -1.22726, -1.54093, -0.900571, -1.19986, 1.22819, -1.30249, 0.0381637, -0.00810421, -0.0236572, 0.00307926, -0.179153, 0.0123283, 7.66861e-06, 0.245735, 62.1606, 29.8728, 7.02942, 1.5282, 3.94107, -0.0228162, -0.000294042, -0.00231901, 0.00192966, 0.00683015, -0.00538185, 0.00278601, 0.00650288, -0.00184445, -0.00110214, -0.0864132, 0.152859, -0.0601897, 0.470931, -0.543875, 0.335491, -2.0837, -2.16563, -0.129214, 0.468554, -0.543964, 0.333611, -2.08576, -2.16305, -0.115896, -0.00286026, -0.0178492, -0.015025, -0.000826487, -0.0240243, -0.0171784
0.0871729, 1.69231, -1.22726, -1.54095, -0.900557, -1.20005, 1.2282, -1.30249, 0.0389795, -0.00940273, -0.0211205, 0.00573421, -0.181897, 0.0136485, 0.00196953, 0.21003, 62.1606, 29.8728, 7.02942, 1.54651, 3.95572, -0.0750012, -0.000299496, -0.00231375, 0.00192862, 0.00690492, -0.00552932, 0.00282193, 0.00677414, -0.00217889, -0.000243923, -0.0830017, 0.154261, -0.0639003, 0.470928, -0.543893, 0.335476, -2.0837, -2.16562, -0.129189, 0.468557, -0.543987, 0.333596, -2.08582, -2.16305, -0.115634, -0.00292192, -0.0182301, -0.0153591, -0.000513073, -0.0247912, -0.0167174
0.0881729, 1.69236, -1.22727, -1.54098, -0.900547, -1.20022, 1.22822, -1.30249, 0.0415778, -0.00694214, -0.0236356, 0.00676057, -0.178017, 0.0148405, 0.000862036, 0.0949785, 62.1606, 29.9085, 7.06909, 1.52179, 3.96213, -0.0621838, -0.000301157, -0.00230536, 0.00192984, 0.00697843, -0.00566775, 0.00284484, 0.00514752, -0.00364277, 0.000702337, -0.0817644, 0.154443, -0.0616385, 0.470925, -0.543911, 0.335461, -2.08369, -2.16561, -0.129163, 0.468562, -0.544006, 0.333579, -2.08587, -2.16307, -0.115383, -0.00298385, -0.0186124, -0.0156951, 0.000863567, -0.0236533, -0.0159117
0.0891729, 1.69241, -1.22729, -1.541, -0.900534, -1.2004, 1.22822, -1.30249, 0.0436741, -0.0103069, -0.0202659, 0.0115087, -0.180365, 0.0146744, -0.00110293, 0.0949785, 62.2321, 29.8728, 7.06909, 1.5163, 3.99783, -0.0164075, -0.000305216, -0.00230163, 0.00193379, 0.00705749, -0.0057985, 0.00287448, 0.00525361, -0.00418644, 0.000732445, -0.0781201, 0.152519, -0.0614332, 0.470922, -0.54393, 0.335445, -2.08368, -2.1656, -0.129136, 0.468563, -0.544028, 0.333559, -2.08592, -2.16307, -0.115133, -0.00304602, -0.0189961, -0.016033, 0.00134924, -0.0241241, -0.0162531
0.0901729, 1.69245, -1.2273, -1.54102, -0.900519, -1.20058, 1.22823, -1.3025, 0.0454566, -0.0102146, -0.01938, 0.011031, -0.177012, 0.0158948, -0.00146792, 0.0949785, 62.1964, 29.9085, 7.1048, 1.50348, 3.99783, 0.00373412, -0.000310072, -0.00229867, 0.00193331, 0.00713315, -0.00593858, 0.00290608, 0.00316242, -0.00612159, 0.00132655, -0.0749069, 0.15068, -0.0579083, 0.470919, -0.543949, 0.335429, -2.08368, -2.16559, -0.129109, 0.468563, -0.544052, 0.333543, -2.08598, -2.16308, -0.114876, -0.00310843, -0.019381, -0.0163726, 0.00316663, -0.0224567, -0.0157413
0.0911729, 1.69251, -1.22731, -1.54104, -0.900514, -1.20075, 1.22824, -1.30249, 0.0469353, -0.011885, -0.0185453, 0.00717976, -0.169582, 0.0109922, -0.000731245, -0.0557783, 62.2321, 29.7974, 7.29126, 1.47876, 4.02713, -0.00267457, -0.000305646, -0.00228749, 0.00193439, 0.00720734, -0.00606889, 0.00292358, -0.00106091, -0.00800663, -0.000129173, -0.0768472, 0.141013, -0.0514811, 0.470916, -0.543968, 0.335413, -2.08367, -2.16558, -0.129081, 0.468571, -0.544066, 0.333526, -2.08602, -2.1631, -0.114632, -0.00317106, -0.0197671, -0.0167139, 0.00478249, -0.0183723, -0.0169232
0.0921729, 1.69256, -1.22731, -1.54106, -0.900498, -1.20091, 1.22825, -1.30249, 0.0460045, -0.00802903, -0.0200717, 0.00812094, -0.168602, 0.0127106, 0.0014867, -0.131157, 62.0496, 29.7617, 7.33093, 1.44855, 4.04086, -0.0557752, -0.000304744, -0.00228132, 0.00192629, 0.00727524, -0.00621075, 0.00295629, -0.000861567, -0.0074233, 0.00221886, -0.0749992, 0.145065, -0.0564985, 0.470912, -0.543988, 0.335396, -2.08366, -2.16557, -0.129052, 0.468574, -0.544086, 0.333517, -2.08608, -2.16311, -0.114381, -0.00323391, -0.0201544, -0.0170569, 0.00423041, -0.0193412, -0.0149608
0.0931729, 1.6926, -1.22731, -1.54109, -0.900477, -1.20109, 1.22825, -1.30249, 0.0435204, -0.00896054, -0.0272431, 0.0120178, -0.173303, 0.00916246, 0.00147148, -0.131157, 62.0139, 29.8371, 7.36664, 1.43573, 4.05551, -0.0685925, -0.000312564, -0.00228339, 0.00192684, 0.00735669, -0.00634885, 0.00300817, 0.0030907, -0.00278081, -0.000206443, -0.0841033, 0.146436, -0.0679303, 0.470909, -0.544008, 0.335379, -2.08366, -2.16556, -0.129023, 0.468569, -0.544114, 0.333498, -2.08615, -2.16309, -0.114116, -0.00329695, -0.0205426, -0.0174015, -0.000417132, -0.0234484, -0.0181703
0.0941729, 1.69265, -1.22733, -1.54112, -0.90047, -1.20126, 1.22826, -1.30249, 0.0422211, -0.0147998, -0.0264384, 0.0104227, -0.176091, 0.00703177, 0.000239227, -0.281914, 62.0496, 29.7974, 7.59277, 1.40552, 4.05551, -0.0484509, -0.000309967, -0.00227527, 0.00193027, 0.00743475, -0.00647637, 0.00302496, 0.00346377, -0.00202021, -0.00340635, -0.0872929, 0.142065, -0.067596, 0.470906, -0.544029, 0.335362, -2.08365, -2.16555, -0.128993, 0.468574, -0.544131, 0.333478, -2.08619, -2.1631, -0.113868, -0.00336018, -0.0209318, -0.0177477, -0.00134434, -0.023745, -0.0217105
0.0951729, 1.6927, -1.22734, -1.54114, -0.900453, -1.20144, 1.22826, -1.3025, 0.0430818, -0.0139913, -0.026035, 0.0131339, -0.178224, 0.00616034, -0.00177013, -0.392998, 62.0139, 29.7617, 7.66418, 1.38721, 4.03445, 0.00373412, -0.000312062, -0.00227262, 0.00192877, 0.00751047, -0.00661139, 0.00305488, 0.00361792, -0.00161888, -0.00223607, -0.0871607, 0.144117, -0.0682442, 0.470903, -0.54405, 0.335344, -2.08364, -2.16554, -0.128963, 0.468573, -0.544154, 0.333461, -2.08624, -2.1631, -0.113614, -0.00342359, -0.0213219, -0.0180953, -0.00176008, -0.0244836, -0.0209142
0.0961729, 1.69274, -1.22734, -1.54117, -0.900436, -1.20161, 1.22826, -1.30249, 0.0400026, -0.0114944, -0.0231174, 0.0141155, -0.17611, 0.00462634, 4.2994e-05, -0.468376, 61.9028, 29.7617, 7.77924, 1.3808, 4.03445, -0.0292249, -0.000315573, -0.00227257, 0.00192542, 0.00759099, -0.00675402, 0.00310312, 0.00341919, -0.000163195, 0.000718525, -0.0834802, 0.143913, -0.0725131, 0.470899, -0.544071, 0.335326, -2.08363, -2.16553, -0.128932, 0.46857, -0.54418, 0.333446, -2.08631, -2.16309, -0.113344, -0.00348715, -0.0217127, -0.0184443, -0.00317579, -0.0251921, -0.01827
0.0971729, 1.69278, -1.22735, -1.5412, -0.900422, -1.20179, 1.22826, -1.30249, 0.0429973, -0.0167399, -0.0268309, 0.013246, -0.17494, 0.00428762, 0.00125115, -0.508049, 61.9385, 29.722, 7.9657, 1.38721, 4.01248, -0.0621838, -0.000320793, -0.00227485, 0.00192664, 0.0076737, -0.00688862, 0.00315153, 0.00238669, -0.00161927, -0.00369927, -0.0874719, 0.138174, -0.0718645, 0.470896, -0.544093, 0.335307, -2.08363, -2.16552, -0.1289, 0.468564, -0.544206, 0.333425, -2.08638, -2.16307, -0.113079, -0.00355087, -0.0221042, -0.0187947, -0.00198492, -0.0238255, -0.0228676
0.0981729, 1.69283, -1.22736, -1.54122, -0.900406, -1.20197, 1.22827, -1.30249, 0.0466142, -0.0145117, -0.0245517, 0.0135801, -0.173132, 0.0039305, 0.000598076, -0.734184, 61.8671, 29.611, 8.11249, 1.37439, 3.99142, -0.0557752, -0.000318046, -0.00226892, 0.00192355, 0.00774915, -0.0070231, 0.00317694, -0.000632567, -0.00415, -0.00146117, -0.0848174, 0.138866, -0.0668881, 0.470892, -0.544115, 0.335289, -2.08362, -2.16551, -0.128868, 0.468567, -0.544226, 0.33341, -2.08643, -2.16308, -0.112823, -0.00361472, -0.0224964, -0.0191465, 0.000453399, -0.0214774, -0.0206195
0.0991729, 1.69288, -1.22736, -1.54126, -0.900386, -1.20214, 1.22827, -1.3025, 0.0489236, -0.0161736, -0.0263352, 0.0155382, -0.172735, 0.00392454, -0.00105834, -0.960319, 61.7917, 29.6506, 8.18787, 1.3808, 3.96213, -0.0164075, -0.000318595, -0.00226496, 0.00192126, 0.0078259, -0.00716204, 0.0032093, -0.00107309, -0.00483566, -0.00262447, -0.0854485, 0.137086, -0.0659522, 0.470888, -0.544138, 0.335269, -2.08361, -2.1655, -0.128835, 0.468567, -0.544249, 0.333393, -2.08648, -2.16308, -0.112561, -0.00367869, -0.0228891, -0.0194995, 0.00101552, -0.0212283, -0.0220742
0.100173, 1.69293, -1.22737, -1.54129, -0.900365, -1.20231, 1.22827, -1.3025, 0.0487362, -0.0150969, -0.0284093, 0.0201131, -0.170853, 0.00356061, -0.00168815, -1.11108, 61.756, 29.722, 8.26324, 1.35608, 3.94107, 0.0101428, -0.00031969, -0.00226402, 0.00192186, 0.00790874, -0.00729245, 0.00325039, -0.000159175, -0.00352854, -0.00181783, -0.0840992, 0.136341, -0.0705131, 0.470885, -0.54416, 0.33525, -2.0836, -2.16549, -0.128801, 0.468564, -0.544273, 0.333373, -2.08654, -2.16307, -0.112299, -0.00374278, -0.0232822, -0.0198537, -0.000291681, -0.0227012, -0.0217332
0.101173, 1.69298, -1.22737, -1.54132, -0.900353, -1.20248, 1.22827, -1.30249, 0.0455173, -0.0133051, -0.0257439, 0.0177467, -0.169284, 0.00249701, 0.00179125, -1.26183, 61.6806, 29.611, 8.44971, 1.33777, 3.94107, -0.0685925, -0.000315579, -0.00225926, 0.00191684, 0.00798014, -0.00742459, 0.00328913, -0.00101476, -0.00273973, 0.000223305, -0.0820824, 0.136445, -0.0739532, 0.470881, -0.544184, 0.33523, -2.08359, -2.16547, -0.128767, 0.468565, -0.544293, 0.333358, -2.0866, -2.16306, -0.112047, -0.00380697, -0.0236758, -0.020209, -0.00109877, -0.0225962, -0.0199161
0.102173, 1.69302, -1.22738, -1.54135, -0.900327, -1.20265, 1.22828, -1.30249, 0.0431208, -0.0094704, -0.025633, 0.0172667, -0.169529, 0.00257093, 0.00143195, -1.41259, 61.6449, 29.5752, 8.44971, 1.33777, 3.9191, -0.0750012, -0.000317355, -0.00225881, 0.00191319, 0.00805105, -0.00755683, 0.00333175, -0.000861039, -0.00150108, 0.0028897, -0.0812332, 0.140647, -0.0762664, 0.470877, -0.544207, 0.33521, -2.08358, -2.16546, -0.128732, 0.468562, -0.544319, 0.333342, -2.08667, -2.16305, -0.111795, -0.00387125, -0.0240696, -0.0205654, -0.002296, -0.0236023, -0.0176252
0.103173, 1.69307, -1.22739, -1.54138, -0.900307, -1.20283, 1.22828, -1.30249, 0.0452566, -0.0082255, -0.0254969, 0.0172468, -0.17025, 0.00229192, -2.83939e-05, -1.60302, 61.6806, 29.5395, 8.56079, 1.35608, 3.90536, -0.0484509, -0.000316223, -0.00225526, 0.00191407, 0.00812968, -0.00768638, 0.00336478, -0.00228761, -0.00264386, 0.00383744, -0.0815838, 0.142598, -0.0734989, 0.470873, -0.544231, 0.335189, -2.08357, -2.16545, -0.128697, 0.468561, -0.544342, 0.33332, -2.08671, -2.16305, -0.111537, -0.00393561, -0.0244637, -0.0209229, -0.00123477, -0.0226869, -0.0168612
0.104173, 1.69312, -1.2274, -1.5414, -0.900288, -1.20299, 1.22828, -1.3025, 0.0466233, -0.00890944, -0.0311128, 0.0180938, -0.169806, 0.00212248, -0.00218883, -1.78948, 61.6449, 29.4642, 8.63617, 1.34967, 3.89071, 0.0101428, -0.000313121, -0.00225189, 0.00190941, 0.00819912, -0.00781579, 0.00339606, -0.00196364, -0.00232563, 0.00178326, -0.0859802, 0.142, -0.0738676, 0.470869, -0.544256, 0.335168, -2.08357, -2.16544, -0.128661, 0.468561, -0.544364, 0.333304, -2.08677, -2.16305, -0.11129, -0.00400003, -0.0248579, -0.0212814, -0.00168141, -0.0230982, -0.0192884
0.105173, 1.69317, -1.22742, -1.54144, -0.900271, -1.20316, 1.22828, -1.3025, 0.0503604, -0.01293, -0.0312906, 0.0178595, -0.168987, 0.00172526, -0.0016964, -1.94024, 61.756, 29.4999, 8.74725, 1.33136, 3.88339, 0.0165515, -0.00031095, -0.00224911, 0.00191478, 0.00827752, -0.00793076, 0.00343247, -0.00392605, -0.0046129, -0.000611263, -0.0867787, 0.137498, -0.0708055, 0.470865, -0.544281, 0.335147, -2.08356, -2.16543, -0.128624, 0.468559, -0.544386, 0.333278, -2.08681, -2.16303, -0.111045, -0.0040645, -0.0252522, -0.0216408, 0.000379757, -0.0210934, -0.0217792
0.106173, 1.69322, -1.22741, -1.54146, -0.900251, -1.20332, 1.22828, -1.30249, 0.0530432, -0.00872304, -0.0307741, 0.018515, -0.169184, 0.00195932, 0.0012767, -2.091, 61.5695, 29.3531, 8.82263, 1.33136, 3.86233, -0.0484509, -0.000303838, -0.0022432, 0.00190217, 0.00834081, -0.00806936, 0.00346737, -0.00579994, -0.0060779, 0.00233012, -0.0855868, 0.142185, -0.0722411, 0.470861, -0.544306, 0.335125, -2.08355, -2.16541, -0.128586, 0.468561, -0.544405, 0.33327, -2.08688, -2.16303, -0.110793, -0.00412902, -0.0256465, -0.022001, 0.00182063, -0.0200298, -0.0189904
0.107173, 1.69326, -1.22743, -1.5415, -0.900228, -1.20349, 1.22829, -1.30249, 0.0517951, -0.0113736, -0.0346133, 0.0167629, -0.164124, 0.00159942, 0.00135986, -2.24175, 61.6092, 29.3888, 8.85834, 1.31305, 3.85501, -0.0621838, -0.00030155, -0.00224133, 0.00190263, 0.00841323, -0.00818803, 0.00351135, -0.00620351, -0.005712, -0.000506169, -0.0874265, 0.135796, -0.0727284, 0.470857, -0.544332, 0.335103, -2.08354, -2.1654, -0.128548, 0.468559, -0.544429, 0.333248, -2.08693, -2.16301, -0.11055, -0.00419356, -0.0260407, -0.0223621, 0.0012711, -0.0196046, -0.0220783
0.108173, 1.69331, -1.22742, -1.54152, -0.900215, -1.20365, 1.22829, -1.30249, 0.0523465, -0.00511721, -0.0322911, 0.0158465, -0.164833, 0.00213389, 0.000398021, -2.3211, 61.4584, 29.3531, 9.00909, 1.30115, 3.82663, -0.0484509, -0.000296725, -0.00223894, 0.00189407, 0.00848455, -0.00832664, 0.00354248, -0.00802973, -0.00660994, 0.00420526, -0.0848807, 0.143029, -0.070315, 0.470853, -0.544358, 0.335081, -2.08353, -2.16539, -0.128509, 0.468557, -0.544451, 0.333235, -2.08699, -2.16301, -0.110288, -0.00425812, -0.0264347, -0.0227239, 0.00221326, -0.018883, -0.0175331
0.109173, 1.69336, -1.22744, -1.54156, -0.900192, -1.20382, 1.22829, -1.3025, 0.0542499, -0.00942861, -0.0278938, 0.0187473, -0.164904, 0.00092631, -0.00166738, -2.43218, 61.5338, 29.3531, 9.00909, 1.26453, 3.84036, 0.00373412, -0.00029289, -0.00223607, 0.00189191, 0.00855394, -0.00844909, 0.00357442, -0.00908272, -0.00772909, 0.00371702, -0.0810614, 0.137915, -0.0673829, 0.470849, -0.544384, 0.335058, -2.08352, -2.16537, -0.12847, 0.468556, -0.544474, 0.333215, -2.08704, -2.16301, -0.110044, -0.00432269, -0.0268285, -0.0230865, 0.00321086, -0.0181163, -0.0182498
0.110173, 1.6934, -1.22744, -1.54158, -0.900173, -1.20399, 1.22829, -1.3025, 0.0552052, -0.00540763, -0.0252136, 0.0213824, -0.165634, 0.000626796, -0.00158626, -2.54723, 61.4584, 29.238, 9.12018, 1.2453, 3.84036, 0.0165515, -0.000286581, -0.00223183, 0.00188136, 0.00862228, -0.00858988, 0.00361014, -0.00998701, -0.00800561, 0.0076342, -0.077509, 0.142203, -0.0685281, 0.470844, -0.544411, 0.335035, -2.08351, -2.16536, -0.12843, 0.468556, -0.544496, 0.333203, -2.0871, -2.16301, -0.109781, -0.00438725, -0.027222, -0.0234497, 0.00353616, -0.0182077, -0.0146139
0.111173, 1.69346, -1.22744, -1.54161, -0.900152, -1.20418, 1.22829, -1.30249, 0.0578935, -0.0062031, -0.0252942, 0.0218916, -0.171595, -0.000388997, 0.00162129, -2.7337, 61.387, 29.2023, 9.15985, 1.23981, 3.86233, -0.0557752, -0.000280972, -0.00222819, 0.00187221, 0.008699, -0.00873508, 0.0036562, -0.0103088, -0.00861138, 0.00730387, -0.0810996, 0.14608, -0.0721849, 0.47084, -0.544438, 0.335012, -2.08349, -2.16534, -0.128389, 0.468555, -0.544519, 0.333189, -2.08717, -2.16299, -0.109503, -0.00445179, -0.0276151, -0.0238135, 0.0040531, -0.0182075, -0.0152733
0.112173, 1.6935, -1.22745, -1.54164, -0.900132, -1.20436, 1.22829, -1.30249, 0.0522744, -0.00753212, -0.0297309, 0.0222302, -0.176079, -0.000254125, 0.000572258, -2.7337, 61.4981, 29.2023, 9.19556, 1.23981, 3.86233, -0.0420422, -0.000280562, -0.00222877, 0.00186962, 0.00877207, -0.00886913, 0.00369794, -0.00621861, -0.00419283, 0.00562385, -0.0857156, 0.148771, -0.0812076, 0.470836, -0.544466, 0.334988, -2.08348, -2.16533, -0.128348, 0.46855, -0.544547, 0.333168, -2.08723, -2.16298, -0.10924, -0.00451631, -0.0280078, -0.0241779, -0.000340826, -0.0225609, -0.0177923
0.113173, 1.69354, -1.22744, -1.54167, -0.900115, -1.20454, 1.22829, -1.30249, 0.048959, -0.000423204, -0.0293303, 0.0216047, -0.183126, -0.000436779, -0.00107654, -2.77337, 61.2759, 29.2023, 9.27094, 1.22699, 3.86966, -0.00267457, -0.000275122, -0.00222826, 0.0018527, 0.00884548, -0.00902615, 0.00373715, -0.0047465, -0.00164008, 0.0103613, -0.0876239, 0.16166, -0.0852591, 0.470831, -0.544494, 0.334964, -2.08347, -2.16531, -0.128305, 0.468546, -0.544572, 0.333162, -2.0873, -2.16299, -0.108953, -0.00458078, -0.0283999, -0.0245428, -0.00272528, -0.0252388, -0.0136276
0.114173, 1.69359, -1.22745, -1.5417, -0.900098, -1.20472, 1.22829, -1.3025, 0.0505296, -0.0024944, -0.0292152, 0.0171616, -0.184371, -0.000525617, -0.000717679, -2.84875, 61.3513, 29.2023, 9.38202, 1.2215, 3.87607, -0.00267457, -0.000270295, -0.00222572, 0.00184851, 0.00892505, -0.00916639, 0.00377321, -0.00679266, -0.00349323, 0.00879211, -0.0903211, 0.161253, -0.0811259, 0.470826, -0.544522, 0.334939, -2.08346, -2.1653, -0.128263, 0.468544, -0.544596, 0.333142, -2.08735, -2.16298, -0.108676, -0.00464521, -0.0287914, -0.0249081, -0.00107008, -0.0232932, -0.0152835
0.115173, 1.69364, -1.22744, -1.54173, -0.900072, -1.20491, 1.2283, -1.30249, 0.0525008, -0.00107168, -0.0289987, 0.0205948, -0.184508, -0.000348215, 0.000979619, -2.95983, 61.3116, 29.2023, 9.34631, 1.19678, 3.87607, -0.0420422, -0.000266736, -0.00222402, 0.0018359, 0.00899561, -0.00931972, 0.00382218, -0.00722474, -0.0039262, 0.0104086, -0.0882235, 0.16285, -0.0845123, 0.470822, -0.544551, 0.334914, -2.08345, -2.16528, -0.128219, 0.468542, -0.544623, 0.33313, -2.08743, -2.16297, -0.108393, -0.00470957, -0.0291822, -0.0252738, -0.000656686, -0.023488, -0.0139999
0.116173, 1.69369, -1.22744, -1.54176, -0.900055, -1.2051, 1.2283, -1.30249, 0.0501046, 0.00163142, -0.0278808, 0.0202479, -0.18425, -0.000773031, 0.00139907, -3.03521, 61.2006, 29.1666, 9.42169, 1.16015, 3.89071, -0.0621838, -0.000259326, -0.00222109, 0.00182124, 0.00906982, -0.0094753, 0.00386177, -0.0072837, -0.00282104, 0.0127501, -0.0866863, 0.165223, -0.0870924, 0.470817, -0.54458, 0.334889, -2.08344, -2.16527, -0.128175, 0.46854, -0.544647, 0.33312, -2.0875, -2.16297, -0.108104, -0.00477385, -0.0295723, -0.0256399, -0.00173876, -0.0242248, -0.0120102
0.117173, 1.69369, -1.22744, -1.54176, -0.900055, -1.2051, 1.2283, -1.30249, 0.0501046, 0.00163142, -0.0278808, 0.0202479, -0.18425, -0.000773031, 0.00139907, -3.03521, 61.2006, 29.1666, 9.42169, 1.16015, 3.89071, -0.0621838, -0.000226319, -0.00221586, 0.00180037, 0.00903386, -0.00947074, 0.00385754, -0.00772244, -0.00288906, 0.0130546, -0.0863148, 0.165453, -0.0877464, 0.470812, -0.54461, 0.334863, -2.08342, -2.16525, -0.12813, 0.46854, -0.544647, 0.33312, -2.0875, -2.16297, -0.108104, -0.00483806, -0.0299616, -0.0260062, -0.00173876, -0.0242248, -0.0120102
0.118173, 1.69378, -1.22744, -1.54181, -0.90001, -1.20547, 1.22829, -1.3025, 0.0503696, 0.00187968, -0.0258068, 0.0184756, -0.184287, -0.000613086, -0.000937969, -3.11059, 61.1649, 29.0555, 9.4931, 1.10431, 3.90536, -0.00267457, -0.000251969, -0.00222349, 0.00179711, 0.00921715, -0.00977416, 0.00394963, -0.00923308, -0.00389092, 0.0140114, -0.0848648, 0.166069, -0.0832762, 0.470808, -0.54464, 0.334837, -2.08341, -2.16524, -0.128084, 0.468529, -0.544704, 0.333094, -2.08764, -2.16295, -0.107537, -0.00490216, -0.0303499, -0.0263728, -0.000819725, -0.0232276, -0.0112296
0.119173, 1.69383, -1.22744, -1.54184, -0.899988, -1.20566, 1.22829, -1.3025, 0.052748, -0.00220057, -0.0259722, 0.0195226, -0.188785, -0.000136762, -0.00110003, -3.22564, 61.1649, 29.0159, 9.53278, 1.09241, 3.89804, 0.0101428, -0.000245594, -0.00222025, 0.00178555, 0.00928907, -0.00992596, 0.00399317, -0.00906546, -0.004686, 0.0119344, -0.0865382, 0.166166, -0.0838247, 0.470803, -0.54467, 0.334811, -2.0834, -2.16522, -0.128038, 0.468527, -0.544729, 0.33308, -2.08771, -2.16295, -0.107253, -0.00496616, -0.0307373, -0.0267396, -0.000161128, -0.0234287, -0.0136985
0.120184, 1.69383, -1.22744, -1.54184, -0.899988, -1.20566, 1.22829, -1.3025, 0.052748, -0.00220057, -0.0259722, 0.0195226, -0.188785, -0.000136762, -0.00110003, -3.22564, 61.1649, 29.0159, 9.53278, 1.09241, 3.89804, 0.0101428, -0.000211273, -0.0022148, 0.00176377, 0.0092513, -0.00992133, 0.00398878, -0.00950142, -0.00475352, 0.01224, -0.0861602, 0.166405, -0.0844847, 0.470798, -0.544701, 0.334784, -2.08339, -2.1652, -0.127991, 0.468527, -0.544729, 0.33308, -2.08771, -2.16295, -0.107253, -0.00503004, -0.0311236, -0.0271065, -0.000161128, -0.0234287, -0.0136985
0.121184, 1.69393, -1.22744, -1.5419, -0.899939, -1.20604, 1.22829, -1.30249, 0.0526461, -0.00537469, -0.0295313, 0.0274305, -0.188861, -0.000150467, 0.00185078, -3.45177, 61.0538, 28.9802, 9.56848, 1.09241, 3.89804, -0.0750012, -0.000234946, -0.00221846, 0.001759, 0.00943579, -0.0102362, 0.00409267, -0.0065123, -0.00239599, 0.0105281, -0.0854815, 0.163067, -0.0967849, 0.470793, -0.544732, 0.334757, -2.08337, -2.16519, -0.127943, 0.468519, -0.544785, 0.333054, -2.08787, -2.16293, -0.10667, -0.0050938, -0.0315088, -0.0274735, -0.00253679, -0.0265985, -0.0161447
0.122184, 1.69398, -1.22744, -1.54194, -0.899922, -1.20624, 1.2283, -1.30249, 0.0498635, -0.00430234, -0.0317212, 0.0235414, -0.193485, 0.000442516, 1.31537e-05, -3.52715, 61.0538, 28.9405, 9.71924, 1.086, 3.88339, -0.0420422, -0.000229205, -0.00221733, 0.00174902, 0.009513, -0.0103906, 0.00413246, -0.00553401, -0.00094506, 0.0103773, -0.0899848, 0.168851, -0.0975539, 0.470788, -0.544764, 0.33473, -2.08336, -2.16517, -0.127895, 0.468515, -0.544812, 0.333037, -2.08794, -2.16292, -0.106374, -0.00515741, -0.0318928, -0.0278405, -0.00401984, -0.0279846, -0.0167663
0.123184, 1.69403, -1.22744, -1.54197, -0.899888, -1.20644, 1.2283, -1.3025, 0.0472693, -0.00257242, -0.0334703, 0.0229746, -0.191635, -0.000247304, -0.00168665, -3.56683, 61.0181, 28.9048, 9.64386, 1.0741, 3.89804, 0.00373412, -0.000229702, -0.00222269, 0.00173452, 0.0095859, -0.0105498, 0.00419007, -0.00522084, 0.000584297, 0.0110872, -0.0906098, 0.169026, -0.0988444, 0.470782, -0.544796, 0.334702, -2.08335, -2.16515, -0.127846, 0.468505, -0.544847, 0.333024, -2.08802, -2.1629, -0.106077, -0.00522087, -0.0322756, -0.0282076, -0.00557229, -0.0288481, -0.0164324
0.124184, 1.69408, -1.22743, -1.542, -0.899865, -1.20665, 1.2283, -1.3025, 0.0481012, -0.000410508, -0.031376, 0.0219178, -0.199145, -0.000164704, -0.000141089, -3.71758, 60.7959, 28.8691, 9.71924, 1.04297, 3.89804, -0.0228162, -0.000225206, -0.00222304, 0.00171625, 0.00966969, -0.0107302, 0.00424439, -0.00547732, 0.000318393, 0.013263, -0.092235, 0.177619, -0.100872, 0.470777, -0.544828, 0.334674, -2.08333, -2.16513, -0.127796, 0.4685, -0.544878, 0.333015, -2.08811, -2.1629, -0.105745, -0.00528417, -0.032657, -0.0285745, -0.00529663, -0.0292996, -0.0146197
0.125184, 1.69413, -1.22744, -1.54203, -0.899836, -1.20686, 1.22829, -1.30249, 0.0477161, -0.00436324, -0.0313978, 0.0230578, -0.205786, -0.000380947, 0.000380659, -3.82867, 60.7959, 28.754, 9.71924, 1.03107, 3.90536, -0.0356336, -0.000222472, -0.00222438, 0.00170414, 0.00974471, -0.0108903, 0.00429995, -0.00374158, 0.00144949, 0.0114157, -0.0949004, 0.179155, -0.105582, 0.470772, -0.54486, 0.334645, -2.08332, -2.16511, -0.127746, 0.468494, -0.544909, 0.332999, -2.0882, -2.16288, -0.105443, -0.0053473, -0.0330371, -0.0289414, -0.00649682, -0.0311558, -0.0170436
0.126184, 1.69418, -1.22743, -1.54205, -0.899808, -1.20707, 1.2283, -1.30249, 0.0462771, -0.00453514, -0.0274724, 0.0261629, -0.210178, 0.00055993, 0.00123712, -3.90404, 60.6848, 28.6072, 9.75494, 1.02466, 3.88339, -0.0621838, -0.000220398, -0.00222626, 0.00168565, 0.00981921, -0.0110684, 0.00435991, -0.00244965, 0.00252094, 0.0136139, -0.0906348, 0.18271, -0.110847, 0.470766, -0.544894, 0.334616, -2.0833, -2.1651, -0.127694, 0.468487, -0.544943, 0.332988, -2.0883, -2.16287, -0.105122, -0.00541024, -0.0334157, -0.0293081, -0.00750026, -0.0331913, -0.0154057
0.127184, 1.69423, -1.22743, -1.54209, -0.899784, -1.20729, 1.2283, -1.30249, 0.049364, -0.00220871, -0.0349814, 0.0266475, -0.213909, 0.000881983, 7.876e-05, -4.0191, 60.4666, 28.6072, 9.87, 1.01276, 3.86966, -0.0420422, -0.000218405, -0.00222963, 0.00166946, 0.00991065, -0.0112537, 0.00441617, -0.00199261, 0.00257107, 0.0126081, -0.0983227, 0.189062, -0.112609, 0.470761, -0.544927, 0.334587, -2.08329, -2.16508, -0.127643, 0.468479, -0.544977, 0.332976, -2.08839, -2.16286, -0.104774, -0.00547299, -0.0337927, -0.0296745, -0.00763431, -0.0338671, -0.0168344
0.128184, 1.69428, -1.22743, -1.54213, -0.89975, -1.20752, 1.2283, -1.30249, 0.0501756, -0.00415038, -0.0385336, 0.0307827, -0.216882, 0.00194438, 5.25069e-05, -4.20556, 60.3912, 28.5319, 9.83032, 1.00635, 3.83304, -0.0420422, -0.000218412, -0.00223012, 0.00165534, 0.00999128, -0.0114376, 0.00448105, 5.47755e-05, 0.00372021, 0.0111572, -0.0998611, 0.190238, -0.118713, 0.470756, -0.544961, 0.334557, -2.08327, -2.16506, -0.12759, 0.468474, -0.545014, 0.33296, -2.08849, -2.16284, -0.104438, -0.00553554, -0.0341681, -0.0300408, -0.00882611, -0.036088, -0.0189137
0.129184, 1.69434, -1.22742, -1.54217, -0.899718, -1.20775, 1.2283, -1.3025, 0.0528815, -0.00310146, -0.0421018, 0.0295718, -0.224165, 0.00180492, -0.00142306, -4.35632, 60.2087, 28.4961, 9.83032, 1.00635, 3.8193, -0.00267457, -0.000219017, -0.00223319, 0.00163946, 0.0100811, -0.0116302, 0.00453959, 0.000137889, 0.00336657, 0.0105457, -0.106998, 0.197885, -0.118333, 0.47075, -0.544995, 0.334527, -2.08326, -2.16504, -0.127537, 0.468465, -0.545051, 0.332946, -2.08858, -2.16283, -0.104083, -0.00559787, -0.0345419, -0.0304067, -0.00855503, -0.0364354, -0.0199074
0.130184, 1.69439, -1.22743, -1.54219, -0.899689, -1.20798, 1.22831, -1.30249, 0.0542633, -0.00134348, -0.0371707, 0.0299827, -0.224219, 0.00228838, 3.46395e-05, -4.47137, 60.1334, 28.274, 9.9057, 0.988036, 3.79001, -0.0292249, -0.000215832, -0.00223245, 0.00162588, 0.0101588, -0.0118072, 0.00459656, -0.00190096, 0.00169268, 0.0136697, -0.101731, 0.199878, -0.117172, 0.470744, -0.545029, 0.334497, -2.08324, -2.16502, -0.127483, 0.468461, -0.545084, 0.332929, -2.08868, -2.16282, -0.103757, -0.00565998, -0.0349139, -0.0307722, -0.00689886, -0.0352055, -0.016926
0.131184, 1.69444, -1.22743, -1.54223, -0.899652, -1.20821, 1.22831, -1.30249, 0.0529053, -0.00255538, -0.0372179, 0.0322691, -0.224359, 0.00257677, 2.30931e-05, -4.47137, 60.0223, 28.1986, 9.9057, 0.988036, 3.76163, -0.0292249, -0.000219767, -0.00223842, 0.00161072, 0.0102397, -0.0119944, 0.00467002, -0.00086668, 0.00286083, 0.0136656, -0.100025, 0.198938, -0.121224, 0.470739, -0.545064, 0.334466, -2.08323, -2.165, -0.127428, 0.46845, -0.545126, 0.332913, -2.08879, -2.16279, -0.103415, -0.00572185, -0.0352841, -0.0311374, -0.0080901, -0.036644, -0.0174179
0.132184, 1.69449, -1.22744, -1.54227, -0.899612, -1.20843, 1.22832, -1.30249, 0.0533279, -0.00604635, -0.0391894, 0.0346473, -0.224136, 0.00331156, 0.0012361, -4.54675, 60.0223, 28.0478, 9.87, 0.963317, 3.7186, -0.0621838, -0.00022328, -0.00224305, 0.00160043, 0.0103165, -0.0121681, 0.00474579, -8.47156e-06, 0.00322178, 0.0115935, -0.0998658, 0.195847, -0.125556, 0.470733, -0.5451, 0.334435, -2.08321, -2.16498, -0.127372, 0.46844, -0.545166, 0.332892, -2.0889, -2.16276, -0.103089, -0.00578347, -0.0356524, -0.0315021, -0.00855995, -0.0375562, -0.0199498
0.133184, 1.69455, -1.22744, -1.54231, -0.899574, -1.20868, 1.22833, -1.30249, 0.051517, 0.000128386, -0.0386434, 0.0378986, -0.230429, 0.00325888, 0.000824066, -4.65783, 59.8041, 27.9725, 9.9057, 0.988036, 3.69021, -0.0621838, -0.000226124, -0.0022468, 0.00158399, 0.0104051, -0.0123698, 0.00481839, 0.00188681, 0.00566175, 0.0163148, -0.0996236, 0.206993, -0.132465, 0.470727, -0.545135, 0.334403, -2.08319, -2.16496, -0.127316, 0.468431, -0.545207, 0.332876, -2.08901, -2.16274, -0.102722, -0.00584484, -0.0360188, -0.0318663, -0.0108102, -0.0406186, -0.015867
0.134184, 1.69461, -1.22745, -1.54235, -0.899527, -1.20892, 1.22833, -1.3025, 0.0522853, -0.0030552, -0.0417501, 0.0398315, -0.239001, 0.00817724, -0.000671326, -4.73321, 59.7644, 27.9011, 9.83032, 0.988036, 3.65451, -0.0292249, -0.000233078, -0.00225208, 0.00157381, 0.0104913, -0.0125617, 0.00489551, 0.00484079, 0.00616847, 0.0143442, -0.101173, 0.213612, -0.136812, 0.470721, -0.545171, 0.334371, -2.08318, -2.16494, -0.127259, 0.468421, -0.545252, 0.332854, -2.08913, -2.16271, -0.102367, -0.00590595, -0.0363832, -0.0322299, -0.0113469, -0.0436175, -0.0186175
0.135184, 1.69467, -1.22745, -1.5424, -0.899489, -1.20917, 1.22834, -1.3025, 0.0532563, -0.00204328, -0.0435551, 0.0375828, -0.24038, 0.00743538, -0.00143089, -4.81255, 59.5819, 27.8257, 9.9057, 0.981627, 3.61148, -0.00267457, -0.000237337, -0.0022563, 0.00155908, 0.0105809, -0.0127661, 0.00496832, 0.00380746, 0.00568775, 0.0142079, -0.104755, 0.216019, -0.135146, 0.470716, -0.545208, 0.334339, -2.08316, -2.16492, -0.127202, 0.468411, -0.545295, 0.332836, -2.08924, -2.16269, -0.101994, -0.00596678, -0.0367455, -0.032593, -0.0109689, -0.0429189, -0.0189702
0.136184, 1.69473, -1.22746, -1.54245, -0.899445, -1.20942, 1.22836, -1.30249, 0.0537914, -0.00387251, -0.0429352, 0.0378135, -0.240789, 0.00657199, 0.00125012, -4.88793, 59.5065, 27.79, 9.9057, 0.975218, 3.57577, -0.0621838, -0.000244713, -0.00226064, 0.0015501, 0.0106726, -0.0129678, 0.00505633, 0.00325744, 0.0054389, 0.0135944, -0.104864, 0.214356, -0.137983, 0.47071, -0.545245, 0.334306, -2.08314, -2.16489, -0.127143, 0.468401, -0.545341, 0.332811, -2.08937, -2.16265, -0.10162, -0.00602732, -0.0371056, -0.0329554, -0.0108233, -0.0426315, -0.019861
0.137184, 1.69479, -1.22746, -1.54249, -0.899396, -1.20968, 1.22837, -1.30249, 0.0534109, -0.00357668, -0.0434448, 0.0410876, -0.254031, 0.00568588, 0.000596053, -4.92364, 59.3597, 27.6392, 9.9057, 0.963317, 3.54648, -0.0557752, -0.000253611, -0.00226715, 0.0015347, 0.0107558, -0.0131768, 0.00514254, 0.00658117, 0.0080981, 0.0143521, -0.11023, 0.225057, -0.145948, 0.470704, -0.545282, 0.334273, -2.08313, -2.16487, -0.127084, 0.46839, -0.545389, 0.332792, -2.0895, -2.16262, -0.101247, -0.00608756, -0.0374636, -0.0333171, -0.0133915, -0.0464962, -0.019903
0.138184, 1.69485, -1.22747, -1.54253, -0.89935, -1.20994, 1.22838, -1.30249, 0.0564899, 4.39618e-05, -0.044397, 0.0395432, -0.260461, 0.0091387, 0.00110945, -4.96331, 59.213, 27.5281, 9.94141, 0.945006, 3.53274, -0.0750012, -0.000260555, -0.00227123, 0.00152, 0.0108436, -0.0133905, 0.00522738, 0.00584209, 0.00629314, 0.0164363, -0.111509, 0.236258, -0.145407, 0.470697, -0.545319, 0.33424, -2.08311, -2.16485, -0.127025, 0.46838, -0.545436, 0.332773, -2.08963, -2.16259, -0.100863, -0.0061475, -0.0378192, -0.0336781, -0.0115945, -0.0463681, -0.0181496
0.139184, 1.69491, -1.22748, -1.54258, -0.899295, -1.21022, 1.2284, -1.30249, 0.0598409, -0.00149221, -0.0466092, 0.0433673, -0.260938, 0.0118174, -0.00119315, -4.92364, 59.1019, 27.4885, 9.9057, 0.938597, 3.5181, -0.0228162, -0.00027444, -0.00228008, 0.00150843, 0.0109341, -0.0136075, 0.0053229, 0.00605165, 0.00513865, 0.0156599, -0.109801, 0.236646, -0.144982, 0.470691, -0.545357, 0.334206, -2.08309, -2.16483, -0.126964, 0.468366, -0.54549, 0.332749, -2.08978, -2.16256, -0.100471, -0.00620712, -0.0381726, -0.0340383, -0.0105228, -0.0467617, -0.0193461
0.140184, 1.69497, -1.22749, -1.54263, -0.899244, -1.21048, 1.22841, -1.3025, 0.0622702, 0.000757684, -0.0473978, 0.0484109, -0.260839, 0.0138751, -0.00177878, -4.99902, 58.9908, 27.417, 9.9057, 0.913878, 3.50345, 0.00373412, -0.000282213, -0.00228301, 0.00149793, 0.0110222, -0.0138172, 0.00540296, 0.00620843, 0.00464815, 0.0177825, -0.106054, 0.239793, -0.147489, 0.470685, -0.545395, 0.334172, -2.08307, -2.1648, -0.126903, 0.468358, -0.545537, 0.332724, -2.0899, -2.16253, -0.100091, -0.00626642, -0.0385235, -0.0343977, -0.0100044, -0.0475731, -0.0176495
0.141184, 1.69504, -1.22749, -1.54268, -0.899186, -1.21075, 1.22843, -1.3025, 0.0652675, 0.000517733, -0.0524003, 0.0531007, -0.265711, 0.0102205, -0.000439866, -4.99902, 58.8083, 27.3774, 9.87, 0.901976, 3.50345, -0.0164075, -0.000293685, -0.00228848, 0.00148268, 0.0111065, -0.0140402, 0.00549996, 0.00750251, 0.00607224, 0.0163914, -0.113737, 0.242048, -0.154698, 0.470679, -0.545434, 0.334138, -2.08305, -2.16478, -0.126841, 0.468347, -0.54559, 0.332703, -2.09005, -2.1625, -0.0996981, -0.00632538, -0.038872, -0.0347562, -0.0114922, -0.0490439, -0.0195354
0.142184, 1.69509, -1.2275, -1.54273, -0.899137, -1.21102, 1.22846, -1.30249, 0.065147, 0.000340882, -0.0508901, 0.052211, -0.263743, 0.0172307, 0.00140218, -4.88793, 58.6258, 27.2663, 10.0168, 0.858946, 3.48971, -0.0621838, -0.000306833, -0.00229738, 0.00146695, 0.0111903, -0.0142659, 0.00560183, 0.00693715, 0.00410411, 0.0176273, -0.105402, 0.244024, -0.155118, 0.470673, -0.545473, 0.334103, -2.08303, -2.16476, -0.126778, 0.468333, -0.545644, 0.332682, -2.09021, -2.16246, -0.0993021, -0.006384, -0.0392179, -0.0351138, -0.00955702, -0.0489406, -0.0186489
0.143184, 1.69516, -1.22751, -1.54277, -0.899079, -1.2113, 1.22848, -1.30249, 0.0678885, -0.00320417, -0.0498737, 0.0551969, -0.273056, 0.0225434, 0.0014095, -4.88793, 58.5861, 27.1552, 10.0168, 0.840636, 3.48239, -0.0750012, -0.000318513, -0.00230046, 0.00145688, 0.0112711, -0.0144839, 0.00569573, 0.00871288, 0.00301375, 0.0169788, -0.103151, 0.250824, -0.158216, 0.470666, -0.545512, 0.334068, -2.08301, -2.16473, -0.126715, 0.468324, -0.545697, 0.332655, -2.09035, -2.16242, -0.0989174, -0.00644226, -0.0395612, -0.0354704, -0.0084876, -0.0508928, -0.0199562
0.144184, 1.69523, -1.22752, -1.54283, -0.899013, -1.2116, 1.2285, -1.30249, 0.0668861, -0.00231055, -0.051899, 0.0582388, -0.275252, 0.0209459, -0.00146783, -4.88793, 58.4036, 27.1552, 9.98108, 0.840636, 3.49612, -0.00999879, -0.000336591, -0.00230895, 0.00144168, 0.0113601, -0.0147265, 0.00580189, 0.0102638, 0.00513583, 0.0174538, -0.105298, 0.25282, -0.161417, 0.47066, -0.545551, 0.334033, -2.08299, -2.16471, -0.126651, 0.46831, -0.545757, 0.332633, -2.09052, -2.16239, -0.0984963, -0.00650015, -0.0399019, -0.035826, -0.0105905, -0.0529245, -0.0200134
0.145184, 1.6953, -1.22754, -1.54288, -0.898951, -1.21189, 1.22853, -1.3025, 0.0690882, -0.00599946, -0.0532474, 0.0595814, -0.281838, 0.0196648, -0.00124982, -4.88793, 58.4036, 27.1552, 9.98108, 0.834227, 3.5181, -0.00267457, -0.00035246, -0.0023152, 0.00143466, 0.0114536, -0.0149541, 0.00590207, 0.0110788, 0.00529679, 0.015102, -0.110276, 0.254263, -0.164079, 0.470653, -0.545591, 0.333997, -2.08297, -2.16469, -0.126586, 0.468298, -0.545814, 0.332602, -2.09067, -2.16234, -0.0980856, -0.00655767, -0.0402399, -0.0361806, -0.01087, -0.0537128, -0.0228107
0.146184, 1.69536, -1.22755, -1.54293, -0.898887, -1.21219, 1.22855, -1.3025, 0.066735, -0.00740121, -0.0522603, 0.0637884, -0.281184, 0.0184013, -8.72283e-05, -4.84826, 58.2172, 27.0798, 9.98108, 0.809508, 3.54648, -0.0228162, -0.000368298, -0.00232228, 0.00141764, 0.0115396, -0.0151987, 0.0060091, 0.0126381, 0.00747972, 0.0155219, -0.107593, 0.251466, -0.171238, 0.470647, -0.545631, 0.333961, -2.08295, -2.16466, -0.12652, 0.468286, -0.545873, 0.33258, -2.09084, -2.16231, -0.0976643, -0.00661481, -0.0405751, -0.036534, -0.0130347, -0.0557413, -0.022919
0.147184, 1.69543, -1.22757, -1.54298, -0.89882, -1.2125, 1.22858, -1.30249, 0.0681977, -0.0132496, -0.051509, 0.0669142, -0.291498, 0.0175331, 0.00187463, -4.81255, 58.2172, 27.0084, 9.98108, 0.815917, 3.57577, -0.0750012, -0.000387404, -0.00232993, 0.00140924, 0.01163, -0.0154351, 0.00612532, 0.0148546, 0.00839546, 0.0129632, -0.111345, 0.253698, -0.178134, 0.47064, -0.545672, 0.333924, -2.08293, -2.16464, -0.126454, 0.468272, -0.545934, 0.332549, -2.09101, -2.16226, -0.0972447, -0.00667155, -0.0409074, -0.0368864, -0.0140259, -0.0579068, -0.0261104
0.148184, 1.6955, -1.22759, -1.54303, -0.898753, -1.2128, 1.22861, -1.30249, 0.0674649, -0.0156944, -0.0544139, 0.0652843, -0.293969, 0.0172191, 0.00124975, -4.81255, 58.1458, 26.933, 10.0168, 0.809508, 3.59683, -0.0750012, -0.00040426, -0.00233576, 0.00139626, 0.0117098, -0.0156728, 0.00623219, 0.0155971, 0.00919818, 0.0106062, -0.115786, 0.25376, -0.179625, 0.470633, -0.545713, 0.333887, -2.08291, -2.16461, -0.126387, 0.468261, -0.545994, 0.332523, -2.09118, -2.16222, -0.0968358, -0.00672789, -0.0412368, -0.0372375, -0.0149485, -0.0586405, -0.0288768
0.149184, 1.69557, -1.2276, -1.54308, -0.89868, -1.2131, 1.22863, -1.30249, 0.0643282, -0.0149594, -0.0550498, 0.0681943, -0.290903, 0.0174693, 0.00035845, -4.73321, 57.9633, 26.933, 10.0168, 0.815917, 3.60415, -0.0621838, -0.00042511, -0.00234616, 0.00138184, 0.011795, -0.0159182, 0.0063498, 0.0169487, 0.0113128, 0.0117011, -0.112407, 0.25206, -0.184367, 0.470627, -0.545754, 0.33385, -2.08289, -2.16458, -0.126319, 0.468245, -0.546058, 0.332497, -2.09136, -2.16217, -0.0964113, -0.00678382, -0.0415633, -0.0375874, -0.0170251, -0.0605561, -0.0282845
0.150184, 1.69564, -1.22762, -1.54313, -0.898607, -1.21339, 1.22866, -1.30249, 0.0661802, -0.0170618, -0.0540482, 0.0707255, -0.292645, 0.0218026, -0.0012191, -4.6975, 57.8879, 26.8577, 10.0168, 0.784789, 3.62521, -0.0228162, -0.000442254, -0.00235217, 0.00137182, 0.0118714, -0.0161453, 0.00645878, 0.017277, 0.00997691, 0.0117622, -0.107458, 0.253623, -0.183877, 0.47062, -0.545796, 0.333812, -2.08287, -2.16456, -0.126251, 0.468233, -0.546118, 0.332467, -2.09152, -2.16212, -0.0960153, -0.00683932, -0.0418868, -0.0379361, -0.015732, -0.0611583, -0.0286672
0.151184, 1.69571, -1.22764, -1.54319, -0.898524, -1.2137, 1.22869, -1.30249, 0.0637083, -0.0174852, -0.0591094, 0.0739577, -0.295043, 0.0202332, -0.000100653, -4.62212, 57.7768, 26.8934, 9.94141, 0.784789, 3.65451, -0.0420422, -0.000467748, -0.00236519, 0.00136067, 0.0119572, -0.0163899, 0.00658965, 0.0203458, 0.0135132, 0.0104877, -0.112128, 0.254654, -0.194165, 0.470613, -0.545838, 0.333774, -2.08285, -2.16453, -0.126182, 0.468215, -0.546188, 0.332437, -2.09171, -2.16206, -0.095588, -0.0068944, -0.0422071, -0.0382834, -0.0192589, -0.0644578, -0.0306302
0.152184, 1.69578, -1.22766, -1.54324, -0.898447, -1.21402, 1.22873, -1.30249, 0.0646031, -0.022405, -0.0590272, 0.0744756, -0.301269, 0.0240547, 0.0011536, -4.65783, 57.7054, 26.7823, 9.94141, 0.772887, 3.67557, -0.0750012, -0.000488093, -0.00237223, 0.00134794, 0.012039, -0.0166382, 0.00670984, 0.0217917, 0.0129757, 0.00830281, -0.111551, 0.257067, -0.197545, 0.470606, -0.54588, 0.333736, -2.08282, -2.1645, -0.126112, 0.468202, -0.546252, 0.332408, -2.0919, -2.16201, -0.0951617, -0.00694903, -0.0425243, -0.0386293, -0.0188106, -0.0658453, -0.0333743
0.153184, 1.69585, -1.22768, -1.5433, -0.898359, -1.21433, 1.22875, -1.30249, 0.0706772, -0.0249743, -0.0613824, 0.0764557, -0.301454, 0.0258649, 0.000769067, -4.65783, 57.5943, 26.7823, 9.87, 0.772887, 3.72592, -0.0750012, -0.000512772, -0.00238406, 0.00133716, 0.0121234, -0.0168811, 0.00684058, 0.0202647, 0.010008, 0.00638837, -0.111926, 0.256097, -0.194669, 0.470599, -0.545922, 0.333697, -2.0828, -2.16448, -0.126041, 0.468184, -0.546321, 0.332377, -2.09209, -2.16195, -0.0947361, -0.00700322, -0.0428383, -0.0389739, -0.0160299, -0.0642364, -0.0354705
0.154184, 1.69593, -1.2277, -1.54336, -0.89828, -1.21465, 1.22878, -1.30249, 0.0750531, -0.0228803, -0.0592244, 0.0769155, -0.306046, 0.0279143, 0.000275353, -4.65783, 57.4475, 26.7466, 9.98108, 0.779296, 3.7543, -0.0685925, -0.0005365, -0.00239498, 0.00132621, 0.0122112, -0.0171317, 0.00696654, 0.0185748, 0.00740113, 0.00874538, -0.110214, 0.263271, -0.191482, 0.470592, -0.545965, 0.333659, -2.08278, -2.16445, -0.12597, 0.468167, -0.54639, 0.332346, -2.09228, -2.16189, -0.0942987, -0.00705695, -0.0431491, -0.039317, -0.0134474, -0.0631333, -0.0333109
0.155184, 1.696, -1.22773, -1.54341, -0.898189, -1.21497, 1.22882, -1.30249, 0.0776812, -0.0247938, -0.0608119, 0.083271, -0.310008, 0.0300882, -0.00198657, -4.62212, 57.4475, 26.7069, 9.98108, 0.779296, 3.76163, -0.00999879, -0.000563846, -0.00240775, 0.00131761, 0.0122891, -0.0173721, 0.00709893, 0.0204327, 0.00761373, 0.00831074, -0.108769, 0.265625, -0.194894, 0.470585, -0.546008, 0.333619, -2.08275, -2.16442, -0.125898, 0.468149, -0.546462, 0.332311, -2.09247, -2.16182, -0.0938813, -0.00711021, -0.0434565, -0.0396587, -0.0136639, -0.0652171, -0.0343616
0.156184, 1.69607, -1.22775, -1.54347, -0.898104, -1.21529, 1.22885, -1.30249, 0.0762774, -0.0242265, -0.0596528, 0.0830967, -0.309051, 0.0315705, -0.000374945, -4.58245, 57.2253, 26.7069, 10.0565, 0.809508, 3.77627, -0.0356336, -0.000587628, -0.00241894, 0.00130224, 0.0123723, -0.0176292, 0.00723002, 0.0203175, 0.00774869, 0.00953826, -0.105412, 0.266366, -0.19755, 0.470578, -0.546052, 0.33358, -2.08273, -2.16439, -0.125825, 0.468132, -0.546532, 0.332284, -2.09267, -2.16177, -0.0934402, -0.007163, -0.0437605, -0.0399988, -0.0138068, -0.0656012, -0.0334668
0.157184, 1.69614, -1.22778, -1.54353, -0.89801, -1.2156, 1.22888, -1.30249, 0.0791172, -0.0241298, -0.0569995, 0.0847708, -0.302625, 0.0325301, 0.000496022, -4.58245, 57.15, 26.6355, 10.0565, 0.822325, 3.79733, -0.0557752, -0.000611562, -0.00242832, 0.0012914, 0.0124452, -0.0178692, 0.00736282, 0.0174734, 0.00510292, 0.0109756, -0.0984553, 0.26179, -0.194355, 0.470571, -0.546096, 0.33354, -2.08271, -2.16437, -0.125751, 0.468117, -0.546601, 0.332251, -2.09286, -2.1617, -0.0930272, -0.0072153, -0.0440611, -0.0403373, -0.0112606, -0.0632056, -0.0320339
0.158184, 1.69622, -1.2278, -1.54359, -0.89791, -1.21591, 1.22891, -1.30249, 0.0773663, -0.0239689, -0.0607414, 0.0900882, -0.303436, 0.0289944, 0.00178874, -4.54675, 57.0786, 26.6712, 10.0168, 0.852538, 3.80466, -0.0951428, -0.000637674, -0.00244149, 0.00128028, 0.0125197, -0.0181058, 0.00750697, 0.020015, 0.00867026, 0.0105736, -0.102011, 0.260885, -0.204819, 0.470564, -0.54614, 0.333499, -2.08268, -2.16434, -0.125677, 0.468098, -0.546673, 0.332218, -2.09307, -2.16162, -0.0926139, -0.0072671, -0.0443582, -0.0406742, -0.0148001, -0.0660967, -0.0330412
0.159184, 1.69629, -1.22782, -1.54365, -0.897814, -1.21622, 1.22894, -1.30249, 0.0765952, -0.020276, -0.0630062, 0.0922035, -0.307076, 0.0304909, 0.00142985, -4.50707, 57.0032, 26.6712, 10.0565, 0.840636, 3.82663, -0.101552, -0.000663534, -0.00245501, 0.00126752, 0.0125952, -0.0183485, 0.00764637, 0.0216315, 0.0101662, 0.0127539, -0.102546, 0.268548, -0.210133, 0.470556, -0.546184, 0.333458, -2.08266, -2.16431, -0.125602, 0.468078, -0.546746, 0.332187, -2.09327, -2.16155, -0.0921929, -0.00731841, -0.0446518, -0.0410095, -0.0162013, -0.068382, -0.0314229
0.160184, 1.69637, -1.22786, -1.5437, -0.89771, -1.21654, 1.22897, -1.3025, 0.0755003, -0.0234227, -0.0590901, 0.0924329, -0.310463, 0.031751, -0.00243761, -4.47137, 57.0389, 26.5958, 10.0168, 0.840636, 3.84768, -0.00999879, -0.000689843, -0.00246667, 0.00125693, 0.0126668, -0.0185873, 0.00777598, 0.0221179, 0.0101924, 0.0127807, -0.0992315, 0.268799, -0.207412, 0.470549, -0.546229, 0.333417, -2.08263, -2.16428, -0.125526, 0.46806, -0.546818, 0.332153, -2.09346, -2.16148, -0.0917806, -0.0073692, -0.0449417, -0.0413431, -0.0162594, -0.0691574, -0.0318038
0.161184, 1.69644, -1.22788, -1.54376, -0.897605, -1.21686, 1.229, -1.30249, 0.075102, -0.0230216, -0.0576197, 0.0964823, -0.311723, 0.0330749, -0.00115035, -4.43169, 56.9675, 26.5601, 9.94141, 0.809508, 3.85501, -0.0228162, -0.000715557, -0.00247969, 0.00124136, 0.0127393, -0.0188333, 0.00792301, 0.0231908, 0.0109481, 0.0145361, -0.0949664, 0.270742, -0.21306, 0.470542, -0.546274, 0.333376, -2.08261, -2.16425, -0.12545, 0.468041, -0.546892, 0.332123, -2.09368, -2.16141, -0.0913573, -0.00741948, -0.0452279, -0.0416749, -0.016956, -0.0708032, -0.0305422
0.162184, 1.69652, -1.2279, -1.54382, -0.897505, -1.21717, 1.22903, -1.3025, 0.0726764, -0.027948, -0.0565306, 0.0998179, -0.312622, 0.0282639, -0.00175025, -4.32061, 56.9675, 26.5244, 9.98108, 0.791197, 3.89071, 0.00373412, -0.000741791, -0.00249465, 0.00122961, 0.0128196, -0.0190751, 0.00806114, 0.0248164, 0.0137316, 0.0124565, -0.096738, 0.264031, -0.218179, 0.470534, -0.546319, 0.333334, -2.08258, -2.16422, -0.125373, 0.46802, -0.546965, 0.33209, -2.09387, -2.16133, -0.0909299, -0.00746922, -0.0455105, -0.042005, -0.0198097, -0.0724859, -0.0330823
0.163184, 1.6966, -1.22793, -1.54388, -0.897397, -1.2175, 1.22906, -1.30249, 0.0769976, -0.0330762, -0.0588795, 0.0993056, -0.313523, 0.0260799, 0.00127458, -4.32061, 57.0389, 26.4847, 9.9057, 0.760985, 3.89071, -0.0621838, -0.000766139, -0.00250384, 0.00121751, 0.012891, -0.019319, 0.00820656, 0.0233275, 0.0119534, 0.00841381, -0.102007, 0.259331, -0.218453, 0.470527, -0.546364, 0.333292, -2.08255, -2.16419, -0.125295, 0.468005, -0.547037, 0.332057, -2.09408, -2.16125, -0.0905086, -0.00751843, -0.0457892, -0.0423333, -0.0182959, -0.0706017, -0.0372311
0.164184, 1.69668, -1.22796, -1.54394, -0.89729, -1.21781, 1.22909, -1.30249, 0.0741798, -0.0299865, -0.059249, 0.100585, -0.310508, 0.02409, 0.00207042, -4.20556, 57.1143, 26.5244, 9.87, 0.754576, 3.89804, -0.0951428, -0.000792748, -0.00251762, 0.00120796, 0.0129659, -0.0195551, 0.00835541, 0.0236132, 0.0139519, 0.0105438, -0.100934, 0.259089, -0.223113, 0.470519, -0.54641, 0.33325, -2.08253, -2.16416, -0.125216, 0.467985, -0.547111, 0.33202, -2.09429, -2.16116, -0.0900903, -0.00756709, -0.0460641, -0.0426597, -0.0202448, -0.0715674, -0.0354299
0.165184, 1.69676, -1.22798, -1.544, -0.897177, -1.21812, 1.22912, -1.30249, 0.0747299, -0.0250052, -0.057269, 0.104869, -0.308452, 0.0179093, 0.000871654, -4.0548, 57.0786, 26.4847, 9.83032, 0.754576, 3.90536, -0.0814099, -0.000816139, -0.00252918, 0.00119005, 0.013032, -0.019798, 0.00849642, 0.0223911, 0.0152272, 0.0145017, -0.100809, 0.259108, -0.224411, 0.470512, -0.546456, 0.333207, -2.0825, -2.16412, -0.125137, 0.467967, -0.547184, 0.331992, -2.0945, -2.16109, -0.0896749, -0.0076152, -0.0463352, -0.0429842, -0.021451, -0.071291, -0.0316131
0.166184, 1.69685, -1.22801, -1.54407, -0.897066, -1.21843, 1.22914, -1.3025, 0.0791725, -0.0220692, -0.0618458, 0.108007, -0.311979, 0.0177145, -0.0018264, -3.94372, 57.0786, 26.5601, 9.79462, 0.760985, 3.9191, -0.0164075, -0.000839461, -0.00254197, 0.00117636, 0.0131073, -0.0200347, 0.00863315, 0.0223758, 0.0147108, 0.0151462, -0.10516, 0.26536, -0.224184, 0.470504, -0.546503, 0.333164, -2.08247, -2.16409, -0.125057, 0.467948, -0.547256, 0.33196, -2.09469, -2.16101, -0.0892554, -0.00766275, -0.0466022, -0.0433068, -0.0209568, -0.0716206, -0.0313134
0.167184, 1.69693, -1.22803, -1.54413, -0.896943, -1.21875, 1.22917, -1.3025, 0.0774091, -0.0285935, -0.0602503, 0.115315, -0.314465, 0.0229152, -0.0012176, -3.75329, 57.15, 26.5601, 9.67957, 0.791197, 3.91269, -0.0164075, -0.00086795, -0.00255852, 0.00116101, 0.0131761, -0.0202742, 0.00879025, 0.0262905, 0.0162563, 0.0136793, -0.0969351, 0.262975, -0.233484, 0.470496, -0.546549, 0.333121, -2.08245, -2.16406, -0.124976, 0.467926, -0.547333, 0.331928, -2.09491, -2.16092, -0.0888373, -0.00770973, -0.0468653, -0.0436274, -0.0224667, -0.0755873, -0.0336343
0.168184, 1.69701, -1.22806, -1.54419, -0.89683, -1.21906, 1.22919, -1.30249, 0.0818298, -0.0316768, -0.0594104, 0.11554, -0.314628, 0.0216796, 0.00112105, -3.67791, 57.2968, 26.5601, 9.67957, 0.804015, 3.9191, -0.0685925, -0.000889448, -0.00256865, 0.00115097, 0.0132513, -0.0205044, 0.00893603, 0.0241007, 0.0138065, 0.0121377, -0.0977172, 0.259902, -0.231914, 0.470489, -0.546596, 0.333077, -2.08242, -2.16403, -0.124894, 0.467909, -0.547403, 0.331891, -2.09511, -2.16083, -0.0884221, -0.00775613, -0.0471243, -0.043946, -0.0202051, -0.0733473, -0.0352188
0.169184, 1.6971, -1.22808, -1.54427, -0.896708, -1.21938, 1.22922, -1.30249, 0.0774262, -0.0330176, -0.0611264, 0.116724, -0.316218, 0.0217744, 0.00145944, -3.52715, 57.261, 26.6712, 9.60815, 0.809508, 3.89804, -0.0878186, -0.000916301, -0.00258391, 0.00113612, 0.0133257, -0.0207477, 0.00909371, 0.0268893, 0.0169818, 0.0114293, -0.0983971, 0.260105, -0.239626, 0.470481, -0.546643, 0.333034, -2.08239, -2.164, -0.124812, 0.467887, -0.54748, 0.331859, -2.09533, -2.16074, -0.0879924, -0.00780194, -0.0473792, -0.0442625, -0.023351, -0.0763773, -0.0365563
0.170184, 1.69719, -1.22811, -1.54434, -0.896581, -1.21969, 1.22924, -1.30249, 0.0763074, -0.0306614, -0.0645331, 0.117636, -0.317419, 0.0206984, 2.3526e-05, -3.33672, 57.3721, 26.7466, 9.53278, 0.822325, 3.90536, -0.0621838, -0.000943694, -0.00259957, 0.00112266, 0.0133989, -0.0209857, 0.00924881, 0.0279585, 0.0187857, 0.0120189, -0.101672, 0.263354, -0.242862, 0.470473, -0.546691, 0.332989, -2.08236, -2.16396, -0.124729, 0.467865, -0.547557, 0.331824, -2.09554, -2.16064, -0.0875689, -0.00784715, -0.04763, -0.044577, -0.0251354, -0.0778482, -0.0363908
0.171184, 1.69727, -1.22813, -1.54441, -0.896457, -1.22001, 1.22926, -1.3025, 0.0825246, -0.0269622, -0.0693048, 0.116533, -0.314212, 0.0251483, -0.00167974, -3.15026, 57.4078, 26.7823, 9.53278, 0.846129, 3.89804, -0.0164075, -0.000969381, -0.00261489, 0.00110841, 0.0134747, -0.0212247, 0.00939892, 0.0250568, 0.0147335, 0.0127493, -0.10117, 0.267678, -0.235939, 0.470465, -0.546738, 0.332945, -2.08233, -2.16393, -0.124645, 0.467844, -0.547633, 0.33179, -2.09575, -2.16055, -0.0871414, -0.00789177, -0.0478765, -0.0448893, -0.0212058, -0.0751753, -0.0356711
0.172184, 1.69736, -1.22815, -1.54448, -0.896324, -1.22032, 1.22928, -1.30249, 0.0844589, -0.0243475, -0.0699819, 0.120812, -0.311064, 0.0226959, 6.697e-05, -2.9995, 57.4475, 26.822, 9.4574, 0.865355, 3.9191, -0.0484509, -0.000993484, -0.00263038, 0.00109187, 0.0135475, -0.0214565, 0.00955957, 0.024188, 0.014852, 0.0146103, -0.100024, 0.26658, -0.239589, 0.470457, -0.546786, 0.3329, -2.0823, -2.16389, -0.124561, 0.467822, -0.547708, 0.331759, -2.09596, -2.16044, -0.0867226, -0.00793577, -0.0481188, -0.0451995, -0.0213228, -0.0748499, -0.0340041
0.173184, 1.69745, -1.22818, -1.54454, -0.896186, -1.22062, 1.22929, -1.30249, 0.0849555, -0.0257899, -0.0660948, 0.127165, -0.308684, 0.0211176, 0.000790632, -2.80907, 57.4832, 26.822, 9.38202, 0.858946, 3.93374, -0.0685925, -0.00101914, -0.00264793, 0.00107391, 0.0136121, -0.0216837, 0.00972418, 0.0242427, 0.0152884, 0.0160902, -0.0936888, 0.261926, -0.243445, 0.470449, -0.546834, 0.332855, -2.08227, -2.16386, -0.124476, 0.467798, -0.547785, 0.331728, -2.09618, -2.16033, -0.0863166, -0.00797915, -0.0483568, -0.0455074, -0.0217391, -0.0753866, -0.0328432
0.174184, 1.69754, -1.2282, -1.54462, -0.896045, -1.22092, 1.22931, -1.30249, 0.0841332, -0.0251815, -0.0677262, 0.131886, -0.306699, 0.016189, 0.000527088, -2.69799, 57.5943, 26.8577, 9.30664, 0.852538, 3.92642, -0.0685925, -0.00104261, -0.0026622, 0.00105991, 0.0136769, -0.0219021, 0.00988241, 0.0250854, 0.0177866, 0.0164039, -0.0956801, 0.258448, -0.249012, 0.470441, -0.546883, 0.332809, -2.08224, -2.16383, -0.12439, 0.467777, -0.547859, 0.331693, -2.09639, -2.16022, -0.0859191, -0.00802191, -0.0485903, -0.0458132, -0.024233, -0.076603, -0.0328819
0.175184, 1.69764, -1.22823, -1.54469, -0.895906, -1.22123, 1.22933, -1.3025, 0.0871504, -0.0247288, -0.0679053, 0.133604, -0.308899, 0.0132233, -0.00158139, -2.62261, 57.7054, 26.8577, 9.30664, 0.827819, 3.89804, -0.0164075, -0.00106482, -0.00267377, 0.00104597, 0.0137459, -0.0221294, 0.0100309, 0.0240927, 0.0172828, 0.016731, -0.0986227, 0.259558, -0.246979, 0.470433, -0.546931, 0.332763, -2.08221, -2.16379, -0.124304, 0.467759, -0.547932, 0.331659, -2.09659, -2.16013, -0.0855082, -0.00806403, -0.0488195, -0.0461166, -0.0237927, -0.0758814, -0.0327249
0.176184, 1.69773, -1.22825, -1.54476, -0.895759, -1.22153, 1.22934, -1.3025, 0.086785, -0.0248725, -0.0711198, 0.13669, -0.307321, 0.0142501, -0.000579541, -2.43218, 57.7054, 26.8577, 9.23523, 0.827819, 3.90536, -0.0292249, -0.00109205, -0.00269303, 0.00102628, 0.0138049, -0.0223555, 0.0102025, 0.0253551, 0.0183754, 0.0163189, -0.0979152, 0.258932, -0.2527, 0.470425, -0.54698, 0.332717, -2.08218, -2.16375, -0.124217, 0.467733, -0.548012, 0.331629, -2.09682, -2.16001, -0.0851065, -0.00810551, -0.0490442, -0.0464177, -0.0248964, -0.0773343, -0.0335888
0.177184, 1.69783, -1.22829, -1.54484, -0.89561, -1.22184, 1.22936, -1.30249, 0.0923766, -0.0293176, -0.0733717, 0.139225, -0.300865, 0.0153512, 8.83574e-05, -2.3568, 57.8879, 26.9687, 9.15985, 0.815917, 3.90536, -0.0420422, -0.00111857, -0.00271, 0.00101839, 0.0138785, -0.0225684, 0.0103713, 0.0230691, 0.0151344, 0.0132886, -0.0955454, 0.25031, -0.249499, 0.470417, -0.547029, 0.332671, -2.08215, -2.16372, -0.124129, 0.467709, -0.548089, 0.331587, -2.09703, -2.15989, -0.0847017, -0.00814634, -0.0492643, -0.0467165, -0.0219039, -0.0746998, -0.0366374
0.178184, 1.69792, -1.22832, -1.54491, -0.895452, -1.22214, 1.22937, -1.30249, 0.0907624, -0.0300378, -0.0710692, 0.144989, -0.296168, 0.0159261, 0.00175433, -2.16637, 57.9633, 26.933, 9.04877, 0.809508, 3.91269, -0.0878186, -0.00114639, -0.00272915, 0.00100232, 0.0139364, -0.0227839, 0.0105504, 0.0239352, 0.0162774, 0.0148279, -0.08755, 0.245643, -0.255828, 0.470409, -0.547078, 0.332624, -2.08211, -2.16368, -0.12404, 0.467683, -0.548169, 0.331552, -2.09727, -2.15975, -0.0843097, -0.00818651, -0.0494799, -0.0470129, -0.0229911, -0.0760534, -0.0355069
0.179184, 1.69802, -1.22834, -1.54499, -0.895297, -1.22244, 1.22938, -1.30249, 0.094148, -0.0296622, -0.0723784, 0.150747, -0.299224, 0.0166285, -1.72441e-05, -2.16637, 57.999, 27.0084, 9.00909, 0.846129, 3.91269, -0.0557752, -0.00116803, -0.00274195, 0.000987433, 0.0140038, -0.0230021, 0.0107089, 0.0247741, 0.0161201, 0.0155645, -0.0868909, 0.248927, -0.25809, 0.470401, -0.547128, 0.332577, -2.08208, -2.16365, -0.123951, 0.467664, -0.548243, 0.331517, -2.09747, -2.15964, -0.0839059, -0.00822601, -0.0496909, -0.0473069, -0.0228128, -0.077199, -0.0352076
0.180184, 1.69812, -1.22837, -1.54506, -0.89514, -1.22273, 1.22939, -1.3025, 0.0961865, -0.0304858, -0.0703084, 0.157249, -0.289643, 0.0174077, -0.0012322, -2.01562, 58.0704, 26.9687, 9.00909, 0.846129, 3.90536, -0.0228162, -0.00119139, -0.00275791, 0.000973404, 0.0140595, -0.0232051, 0.0108716, 0.023369, 0.0148063, 0.0168627, -0.0768704, 0.240345, -0.257045, 0.470393, -0.547178, 0.33253, -2.08205, -2.16361, -0.123861, 0.467641, -0.548318, 0.331481, -2.09768, -2.15952, -0.0835294, -0.00826484, -0.0498971, -0.0475984, -0.0215349, -0.0761629, -0.0340448
0.181184, 1.69823, -1.2284, -1.54514, -0.894971, -1.22301, 1.2294, -1.3025, 0.0949047, -0.0294836, -0.0722229, 0.159487, -0.288661, 0.0182544, -0.000584107, -2.01562, 58.0704, 27.0441, 8.89801, 0.858946, 3.89071, -0.0292249, -0.00121183, -0.00277017, 0.000956915, 0.0141107, -0.0234061, 0.0110377, 0.0245364, 0.0161234, 0.0174942, -0.075609, 0.241221, -0.262189, 0.470384, -0.547228, 0.332482, -2.08201, -2.16357, -0.12377, 0.467622, -0.548391, 0.331447, -2.09789, -2.1594, -0.083159, -0.00830299, -0.0500987, -0.0478874, -0.02282, -0.077668, -0.0338434
0.182184, 1.69833, -1.22844, -1.54522, -0.894797, -1.22329, 1.22942, -1.3025, 0.0963656, -0.0345517, -0.0772143, 0.165829, -0.283043, 0.0190946, -0.000389405, -1.86486, 58.1815, 27.1552, 8.82263, 0.877257, 3.86966, -0.0292249, -0.0012384, -0.00278741, 0.000946819, 0.0141619, -0.0235977, 0.0112153, 0.025979, 0.0167191, 0.0138204, -0.0739818, 0.232198, -0.267497, 0.470376, -0.547278, 0.332434, -2.08198, -2.16353, -0.123678, 0.467597, -0.54847, 0.331406, -2.09811, -2.15926, -0.082796, -0.00834046, -0.0502955, -0.0481739, -0.0235515, -0.0787508, -0.037958
0.183184, 1.69844, -1.22846, -1.5453, -0.894619, -1.22359, 1.22942, -1.30249, 0.0967485, -0.0316548, -0.0781493, 0.169453, -0.283412, 0.0147608, 0.0009611, -1.6784, 58.1458, 27.1552, 8.78693, 0.895568, 3.85501, -0.0621838, -0.00126486, -0.00280606, 0.000927572, 0.0142128, -0.0238064, 0.0114001, 0.0261772, 0.0183823, 0.0155802, -0.0763853, 0.233357, -0.273036, 0.470368, -0.547328, 0.332386, -2.08195, -2.1635, -0.123586, 0.467572, -0.54855, 0.331374, -2.09835, -2.15912, -0.0824146, -0.00837722, -0.0504874, -0.0484579, -0.0251684, -0.0794765, -0.036475
0.184184, 1.69855, -1.2285, -1.54538, -0.894435, -1.22388, 1.22943, -1.30249, 0.101283, -0.0321465, -0.0770378, 0.174057, -0.28463, 0.0104144, 0.00111545, -1.63873, 58.2172, 27.2306, 8.67188, 0.932189, 3.86966, -0.0750012, -0.00129114, -0.00282252, 0.000915931, 0.0142663, -0.0240025, 0.0115819, 0.0248857, 0.0175794, 0.0159664, -0.0778746, 0.231766, -0.273358, 0.470359, -0.547378, 0.332338, -2.08191, -2.16346, -0.123493, 0.467549, -0.548629, 0.331333, -2.09857, -2.15897, -0.0820427, -0.00841329, -0.0506745, -0.0487392, -0.0244311, -0.0784146, -0.0362021
0.185184, 1.69866, -1.22855, -1.54546, -0.89425, -1.22417, 1.22944, -1.30249, 0.105183, -0.0377487, -0.0738302, 0.179666, -0.284517, 0.00805151, -0.00023971, -1.52764, 58.3679, 27.1909, 8.60046, 0.963317, 3.86233, -0.0484509, -0.00131802, -0.00283858, 0.000908472, 0.0143184, -0.0241907, 0.0117624, 0.0241569, 0.0163688, 0.0143677, -0.0751371, 0.224708, -0.272075, 0.470351, -0.547429, 0.332289, -2.08188, -2.16342, -0.1234, 0.467525, -0.548708, 0.331289, -2.09879, -2.15882, -0.0816799, -0.00844864, -0.0508567, -0.0490179, -0.0233483, -0.0775825, -0.037988
