alisrour97/Franka_experiments/Real_Robot_scripts/servo-franka/Data2/log_dyn_PI2_11.csv
Time,q1,q2,q3,q4,q5,q6,q7,dq1,dq2,dq3,dq4,dq5,dq6,dq7,t1,t2,t3,t4,t5,t6,t7,ex1,ex2,ex3,ex4,ex5,ex6,ev1,ev2,ev3,ev4,ev5,ev6,xd,yd,zd,uxd,uyd,uzd,x,y,z,ux,uy,uz,vxd,vyd,vzd,vx,vy,vz
7.32422e-07, 1.69112, -1.22934, -1.54063, -0.900615, -1.19261, 1.22752, -1.30249, 0.000636117, -0.00218342, -0.00702643, 0.000194339, 0.000747598, -0.012803, -0.0014064, 0.245735, 67.8696, 35.1969, 7.85065, 3.27777, 4.8511, -0.37621, 4.85342e-05, -0.00224912, 0.00338151, 0.00429639, 0.0029201, 0.00133934, -0.00015524, 0.00313532, -0.00484266, -0.0170792, -0.00867707, -0.0013038, 0.471008, -0.543389, 0.335894, -2.08385, -2.16584, -0.129887, 0.468646, -0.542913, 0.332644, -2.08149, -2.16114, -0.127965, -1.41255e-05, -9.11997e-05, -6.59526e-05, -0.00332574, 0.000679162, -0.00472915
0.0132183, 1.69109, -1.22936, -1.54075, -0.900637, -1.1926, 1.22745, -1.30249, -0.00534241, -0.00375537, -0.0113285, -0.000746966, 0.000738294, -0.0045689, 0.000453897, 0.170357, 68.0164, 35.2326, 8.0014, 3.25397, 4.86575, -0.389027, 2.29123e-05, -0.00229431, 0.00344767, 0.00446393, 0.00298246, 0.00140033, 0.00406221, 0.00550034, -0.00636377, -0.013311, -0.00598357, -0.0103363, 0.471008, -0.543389, 0.335894, -2.08385, -2.16584, -0.129887, 0.468591, -0.54293, 0.332562, -2.08142, -2.16094, -0.127816, -2.13283e-05, -0.000136675, -0.000102379, -0.00559902, -0.00339256, -0.00685082
0.0142183, 1.69109, -1.22936, -1.54075, -0.900637, -1.1926, 1.22745, -1.30249, -0.00534241, -0.00375537, -0.0113285, -0.000746966, 0.000738294, -0.0045689, 0.000453897, 0.170357, 68.0164, 35.2326, 8.0014, 3.25397, 4.86575, -0.389027, 2.29237e-05, -0.00229431, 0.00344766, 0.00446392, 0.00298246, 0.00140032, 0.00400733, 0.00549166, -0.00633183, -0.0132826, -0.005974, -0.0103971, 0.471008, -0.543389, 0.335894, -2.08385, -2.16584, -0.129887, 0.468591, -0.54293, 0.332562, -2.08142, -2.16094, -0.127816, -2.91898e-05, -0.000186294, -0.000142179, -0.00559902, -0.00339256, -0.00685082
0.0152183, 1.69109, -1.22936, -1.54075, -0.900637, -1.1926, 1.22745, -1.30249, -0.00534241, -0.00375537, -0.0113285, -0.000746966, 0.000738294, -0.0045689, 0.000453897, 0.170357, 68.0164, 35.2326, 8.0014, 3.25397, 4.86575, -0.389027, 2.29545e-05, -0.0022943, 0.00344764, 0.00446389, 0.00298247, 0.00140032, 0.0039477, 0.00548223, -0.00629707, -0.0132516, -0.00596344, -0.0104634, 0.471008, -0.543389, 0.335894, -2.08385, -2.16584, -0.129887, 0.468591, -0.54293, 0.332562, -2.08142, -2.16094, -0.127816, -3.77325e-05, -0.000240197, -0.00018547, -0.00559902, -0.00339256, -0.00685082
0.0162183, 1.69109, -1.22936, -1.54075, -0.900637, -1.1926, 1.22745, -1.30249, -0.00534241, -0.00375537, -0.0113285, -0.000746966, 0.000738294, -0.0045689, 0.000453897, 0.170357, 68.0164, 35.2326, 8.0014, 3.25397, 4.86575, -0.389027, 2.30144e-05, -0.00229429, 0.00344761, 0.00446384, 0.00298248, 0.00140031, 0.00388317, 0.00547202, -0.0062594, -0.0132179, -0.00595185, -0.0105352, 0.471008, -0.543389, 0.335894, -2.08385, -2.16584, -0.129887, 0.468591, -0.54293, 0.332562, -2.08142, -2.16094, -0.127816, -4.69786e-05, -0.000298522, -0.00023237, -0.00559902, -0.00339256, -0.00685082
0.0172183, 1.69109, -1.22936, -1.54075, -0.900637, -1.1926, 1.22745, -1.30249, -0.00534241, -0.00375537, -0.0113285, -0.000746966, 0.000738294, -0.0045689, 0.000453897, 0.170357, 68.0164, 35.2326, 8.0014, 3.25397, 4.86575, -0.389027, 2.31126e-05, -0.00229428, 0.00344755, 0.00446376, 0.0029825, 0.0014003, 0.00381359, 0.00546102, -0.00621874, -0.0131814, -0.00593918, -0.0106129, 0.471008, -0.54339, 0.335894, -2.08385, -2.16584, -0.129887, 0.468591, -0.54293, 0.332562, -2.08142, -2.16094, -0.127816, -5.69498e-05, -0.000361405, -0.000282992, -0.00559902, -0.00339256, -0.00685082
0.0182183, 1.69109, -1.22936, -1.54075, -0.900637, -1.1926, 1.22745, -1.30249, -0.00534241, -0.00375537, -0.0113285, -0.000746966, 0.000738294, -0.0045689, 0.000453897, 0.170357, 68.0164, 35.2326, 8.0014, 3.25397, 4.86575, -0.389027, 2.32585e-05, -0.00229425, 0.00344747, 0.00446364, 0.00298253, 0.00140028, 0.00373881, 0.00544919, -0.00617498, -0.013142, -0.00592538, -0.0106965, 0.471008, -0.54339, 0.335894, -2.08385, -2.16584, -0.129886, 0.468591, -0.54293, 0.332562, -2.08142, -2.16094, -0.127816, -6.7667e-05, -0.000428975, -0.000337449, -0.00559902, -0.00339256, -0.00685082
0.0192183, 1.69109, -1.22936, -1.54075, -0.900637, -1.1926, 1.22745, -1.30249, -0.00534241, -0.00375537, -0.0113285, -0.000746966, 0.000738294, -0.0045689, 0.000453897, 0.170357, 68.0164, 35.2326, 8.0014, 3.25397, 4.86575, -0.389027, 2.34614e-05, -0.00229422, 0.00344735, 0.00446347, 0.00298258, 0.00140025, 0.0036587, 0.00543652, -0.00612804, -0.0130996, -0.00591043, -0.0107862, 0.471008, -0.54339, 0.335893, -2.08385, -2.16584, -0.129886, 0.468591, -0.54293, 0.332562, -2.08142, -2.16094, -0.127816, -7.91509e-05, -0.000501362, -0.000395848, -0.00559902, -0.00339256, -0.00685082
0.0202183, 1.69109, -1.22936, -1.54075, -0.900637, -1.1926, 1.22745, -1.30249, -0.00534241, -0.00375537, -0.0113285, -0.000746966, 0.000738294, -0.0045689, 0.000453897, 0.170357, 68.0164, 35.2326, 8.0014, 3.25397, 4.86575, -0.389027, 2.37302e-05, -0.00229418, 0.0034472, 0.00446324, 0.00298264, 0.00140021, 0.00357311, 0.00542298, -0.00607784, -0.0130542, -0.00589426, -0.0108823, 0.471008, -0.54339, 0.335893, -2.08385, -2.16584, -0.129886, 0.468591, -0.54293, 0.332562, -2.08142, -2.16094, -0.127816, -9.14213e-05, -0.000578688, -0.000458296, -0.00559902, -0.00339256, -0.00685082
0.0212183, 1.69109, -1.22936, -1.54075, -0.900637, -1.1926, 1.22745, -1.30249, -0.00534241, -0.00375537, -0.0113285, -0.000746966, 0.000738294, -0.0045689, 0.000453897, 0.170357, 68.0164, 35.2326, 8.0014, 3.25397, 4.86575, -0.389027, 2.40738e-05, -0.00229412, 0.003447, 0.00446295, 0.00298271, 0.00140017, 0.0034819, 0.00540855, -0.00602429, -0.0130055, -0.00587684, -0.0109849, 0.471008, -0.54339, 0.335893, -2.08385, -2.16584, -0.129885, 0.468591, -0.54293, 0.332562, -2.08142, -2.16094, -0.127816, -0.000104498, -0.000661074, -0.000524897, -0.00559902, -0.00339256, -0.00685082
0.0222183, 1.69109, -1.22936, -1.54075, -0.900637, -1.1926, 1.22745, -1.30249, -0.00534241, -0.00375537, -0.0113285, -0.000746966, 0.000738294, -0.0045689, 0.000453897, 0.170357, 68.0164, 35.2326, 8.0014, 3.25397, 4.86575, -0.389027, 2.45012e-05, -0.00229405, 0.00344675, 0.00446258, 0.0029828, 0.00140011, 0.00338496, 0.00539322, -0.0059673, -0.0129537, -0.00585812, -0.0110942, 0.471008, -0.543391, 0.335893, -2.08385, -2.16584, -0.129885, 0.468591, -0.54293, 0.332562, -2.08142, -2.16094, -0.127816, -0.000118398, -0.000748633, -0.000595748, -0.00559902, -0.00339256, -0.00685082
0.0232183, 1.69109, -1.22936, -1.54075, -0.900637, -1.1926, 1.22745, -1.30249, -0.00534241, -0.00375537, -0.0113285, -0.000746966, 0.000738294, -0.0045689, 0.000453897, 0.170357, 68.0164, 35.2326, 8.0014, 3.25397, 4.86575, -0.389027, 2.50211e-05, -0.00229397, 0.00344645, 0.00446214, 0.00298291, 0.00140004, 0.00328216, 0.00537696, -0.00590681, -0.0128985, -0.00583806, -0.0112103, 0.471008, -0.543391, 0.335892, -2.08385, -2.16584, -0.129884, 0.468591, -0.54293, 0.332562, -2.08142, -2.16094, -0.127816, -0.000133141, -0.000841478, -0.000670947, -0.00559902, -0.00339256, -0.00685082
0.0242183, 1.69108, -1.22941, -1.54086, -0.900652, -1.19258, 1.22739, -1.3025, -0.00128117, -0.00246887, -0.0113909, -0.00118026, 0.00114134, -0.00893534, -0.000114155, 0.21003, 68.3853, 35.3437, 8.07678, 3.1496, 5.00949, -0.356984, 1.17405e-05, -0.002321, 0.00351857, 0.00461452, 0.0030655, 0.00142692, 0.000602857, 0.00377194, -0.00576072, -0.0172335, -0.00685466, -0.00629609, 0.471008, -0.543392, 0.335892, -2.08385, -2.16584, -0.129884, 0.468562, -0.542934, 0.332489, -2.08133, -2.1608, -0.127727, -0.000148743, -0.000939713, -0.000750586, -0.0041022, -0.000802517, -0.00641875
0.0252183, 1.69108, -1.22941, -1.54087, -0.900657, -1.19258, 1.22739, -1.3025, -0.00171399, -0.00084347, -0.0133078, -0.00162168, 0.000998254, -0.0113527, 0.000873333, 0.245735, 68.3496, 35.4191, 8.11249, 3.14319, 5.0159, -0.382618, 1.01753e-05, -0.00232409, 0.00352357, 0.00462918, 0.00306575, 0.00143434, 0.00057178, 0.00472571, -0.00566551, -0.0210226, -0.0061424, -0.00845381, 0.471008, -0.543393, 0.335891, -2.08385, -2.16584, -0.129883, 0.468559, -0.542935, 0.332484, -2.08133, -2.16079, -0.12771, -0.00016522, -0.00104344, -0.000834754, -0.0050689, -0.000929235, -0.00637535
0.0262183, 1.69108, -1.22942, -1.54088, -0.900652, -1.19257, 1.22738, -1.3025, -0.00116115, -0.00796927, -0.0184849, 0.00235285, -0.000601178, -0.0117326, -0.0011132, 0.245735, 68.1274, 35.1215, 7.9657, 3.05072, 4.98019, -0.336842, 7.24201e-06, -0.00232914, 0.00353277, 0.00464113, 0.00308435, 0.00144213, 0.00338609, 0.00632283, -0.0111309, -0.0253571, -0.0120967, -0.0124213, 0.471007, -0.543393, 0.335891, -2.08385, -2.16584, -0.129882, 0.468554, -0.542938, 0.332474, -2.08132, -2.16077, -0.127714, -0.000182589, -0.00115275, -0.000923534, -0.006778, -0.00304106, -0.0122495
0.0272183, 1.69108, -1.22942, -1.5409, -0.900663, -1.19257, 1.22737, -1.3025, -0.000787968, -0.00845743, -0.0218268, -0.000674905, -0.00351383, -0.00877934, -0.00437033, 0.245735, 67.2784, 34.6375, 7.92602, 2.8667, 4.8511, -0.238881, 7.66609e-06, -0.00233128, 0.00354445, 0.00466862, 0.00309172, 0.00143832, 0.00381689, 0.00578849, -0.01271, -0.028535, -0.00822801, -0.00885692, 0.471007, -0.543394, 0.33589, -2.08385, -2.16584, -0.129881, 0.468551, -0.542936, 0.332462, -2.0813, -2.16075, -0.12769, -0.000200863, -0.00126774, -0.00101701, -0.00630424, -0.00331645, -0.0139851
0.0282183, 1.69109, -1.22942, -1.54095, -0.900672, -1.19257, 1.22735, -1.3025, 0.00299076, -0.00817947, -0.0313666, -0.00264619, 8.29227e-05, -0.0117501, 0.00205928, 0.0949785, 66.0645, 34.1535, 7.73956, 2.64606, 4.72934, -0.232472, 8.24312e-06, -0.00233503, 0.00356361, 0.0047305, 0.00309676, 0.00144761, 0.00235024, 0.00503909, -0.016579, -0.0392249, -0.0114188, -0.0133658, 0.471007, -0.543395, 0.335889, -2.08384, -2.16584, -0.129879, 0.468546, -0.542934, 0.332442, -2.08127, -2.16072, -0.127624, -0.000220057, -0.00138849, -0.00111525, -0.00576712, -0.00136313, -0.0176986
0.0292183, 1.6911, -1.22942, -1.541, -0.900678, -1.19258, 1.22732, -1.3025, 0.00634773, 0.00101743, -0.0447494, -0.0025902, -0.00326946, -0.020177, 0.00580109, -0.0914839, 64.664, 33.4076, 7.47772, 2.45563, 4.6506, -0.199513, 7.75376e-06, -0.00234195, 0.00358537, 0.00481019, 0.00310057, 0.00145847, 0.00244529, 0.00760251, -0.0167348, -0.0594775, -0.00268174, -0.0217279, 0.471007, -0.543396, 0.335888, -2.08384, -2.16584, -0.129878, 0.468538, -0.542933, 0.33242, -2.08124, -2.16067, -0.127537, -0.000240182, -0.00151507, -0.00121833, -0.0083496, -0.00166443, -0.0178931
0.0302183, 1.69112, -1.22944, -1.54108, -0.900698, -1.1926, 1.22729, -1.3025, 0.0139932, -0.000340053, -0.0542679, -0.00961599, -0.00352764, -0.0257648, 0.00218619, -0.242241, 63.4103, 32.7015, 7.36664, 2.32013, 4.53616, -0.133595, 4.97113e-06, -0.00234998, 0.00362575, 0.00492353, 0.0031112, 0.00146547, -0.00161153, 0.00443541, -0.0226786, -0.077339, -0.00509598, -0.0092088, 0.471007, -0.543398, 0.335887, -2.08384, -2.16584, -0.129876, 0.468529, -0.542931, 0.332379, -2.08118, -2.16061, -0.12742, -0.000261251, -0.00164757, -0.00132632, -0.00556733, 0.0032525, -0.0233359
0.0312183, 1.69113, -1.22947, -1.54116, -0.900712, -1.19262, 1.22725, -1.3025, 0.0165351, -0.00906124, -0.0622795, -0.0121816, -0.0100735, -0.0305631, 0.00764166, -0.392998, 62.4542, 31.8842, 7.14447, 2.22858, 4.44278, -0.140919, -1.56566e-06, -0.00236126, 0.00368045, 0.00505275, 0.00314236, 0.00148397, -0.000402356, 0.0052952, -0.0314589, -0.0938422, -0.00993308, -0.0159434, 0.471007, -0.543399, 0.335886, -2.08384, -2.16584, -0.129874, 0.468516, -0.542931, 0.332323, -2.08111, -2.16053, -0.127305, -0.000283275, -0.00178604, -0.00143928, -0.00672184, 0.00323651, -0.0322805
0.0322183, 1.69115, -1.2295, -1.54126, -0.900728, -1.19265, 1.22721, -1.30249, 0.0175071, -0.0120816, -0.0737139, -0.0111455, -0.013441, -0.0313126, 0.00766271, -0.508049, 61.4981, 31.1384, 6.91833, 2.22858, 4.26333, -0.186696, -1.43481e-05, -0.00237633, 0.00373959, 0.00519485, 0.00316082, 0.00151809, 0.00254217, 0.00744847, -0.0371646, -0.105894, -0.00984642, -0.0226498, 0.471006, -0.543401, 0.335885, -2.08384, -2.16584, -0.129872, 0.468499, -0.542936, 0.332262, -2.08106, -2.16043, -0.127161, -0.000306264, -0.00193055, -0.00155726, -0.00899609, 0.000975142, -0.0384245
0.0332183, 1.69116, -1.22955, -1.54135, -0.900747, -1.19268, 1.22717, -1.30249, 0.011493, -0.021466, -0.0775782, -0.0153914, -0.0190762, -0.0253987, 0.00623782, -0.468376, 60.8356, 30.3211, 6.77154, 2.19745, 4.04086, -0.199513, -3.06373e-05, -0.00239379, 0.00380896, 0.00533867, 0.00319506, 0.00155114, 0.00717087, 0.00992451, -0.0437103, -0.108531, -0.0112021, -0.027182, 0.471006, -0.543402, 0.335883, -2.08384, -2.16584, -0.12987, 0.468479, -0.542944, 0.33219, -2.081, -2.16031, -0.12703, -0.000330225, -0.00208114, -0.00168032, -0.0115638, -0.00283891, -0.0456547
0.0342183, 1.69117, -1.22961, -1.54146, -0.900772, -1.19272, 1.22714, -1.3025, 0.0131493, -0.0320611, -0.0905687, -0.0184072, -0.0240628, -0.0316515, 0.00247938, -0.543754, 60.3555, 29.6863, 6.62079, 2.19104, 3.85501, -0.140919, -4.50553e-05, -0.00240839, 0.00388632, 0.00549942, 0.00323063, 0.00157013, 0.00935426, 0.0121212, -0.0554866, -0.130134, -0.019594, -0.027032, 0.471006, -0.543404, 0.335882, -2.08384, -2.16584, -0.129868, 0.468462, -0.542949, 0.33211, -2.08092, -2.16021, -0.126884, -0.000355167, -0.00223786, -0.0018085, -0.0141298, -0.00342853, -0.0576836
0.0352185, 1.69118, -1.22965, -1.54156, -0.900792, -1.19276, 1.22709, -1.30249, 0.0118975, -0.0311103, -0.0938253, -0.0166277, -0.0328932, -0.0388432, 0.00466601, -0.508049, 59.8041, 29.0159, 6.43433, 2.19745, 3.71127, -0.21233, -5.99152e-05, -0.0024264, 0.0039529, 0.00565556, 0.00325371, 0.00160971, 0.0118324, 0.0161064, -0.0562836, -0.142137, -0.0149171, -0.0367475, 0.471005, -0.543406, 0.33588, -2.08384, -2.16584, -0.129865, 0.468442, -0.542956, 0.332041, -2.08087, -2.1601, -0.126728, -0.000381096, -0.00240075, -0.00194184, -0.0180762, -0.00607838, -0.0588683
0.0362185, 1.6912, -1.22969, -1.54167, -0.900812, -1.1928, 1.22705, -1.30249, 0.0127284, -0.0300995, -0.0951294, -0.0185301, -0.0373483, -0.0364941, 0.00243741, -0.543754, 59.2487, 28.5715, 6.24786, 2.15442, 3.6188, -0.186696, -7.45818e-05, -0.00244422, 0.00401752, 0.00582001, 0.00326518, 0.00164066, 0.0120135, 0.0155132, -0.0561406, -0.144157, -0.00878801, -0.0343783, 0.471005, -0.543408, 0.335878, -2.08384, -2.16584, -0.129862, 0.468422, -0.542964, 0.331974, -2.0808, -2.15999, -0.126551, -0.000408018, -0.00256985, -0.00208038, -0.0174991, -0.006424, -0.0589116
0.0372185, 1.69121, -1.22972, -1.54178, -0.900831, -1.19284, 1.22701, -1.30249, 0.01249, -0.028078, -0.0997723, -0.014519, -0.0362451, -0.0391744, 0.00013665, -0.543754, 58.9194, 28.1589, 6.09711, 2.11139, 3.53915, -0.140919, -8.75885e-05, -0.00245974, 0.0040817, 0.00597825, 0.00327919, 0.00166781, 0.0133863, 0.017743, -0.0561434, -0.147812, -0.00902799, -0.0379486, 0.471005, -0.543411, 0.335877, -2.08384, -2.16583, -0.129859, 0.468404, -0.54297, 0.331907, -2.08074, -2.15989, -0.126384, -0.000435936, -0.00274516, -0.00222414, -0.0197051, -0.00804545, -0.0592039
0.0382185, 1.69123, -1.22974, -1.54188, -0.900858, -1.19289, 1.22698, -1.30249, 0.0147019, -0.0226139, -0.0992665, -0.0180593, -0.0410328, -0.0364705, 0.0046993, -0.508049, 58.5861, 27.8614, 6.09711, 2.09308, 3.45309, -0.120778, -9.87513e-05, -0.00247448, 0.00413519, 0.00613752, 0.00326568, 0.00169598, 0.0117801, 0.0157376, -0.0529999, -0.148717, 0.00208255, -0.0389223, 0.471004, -0.543413, 0.335874, -2.08384, -2.16583, -0.129855, 0.468387, -0.542976, 0.331851, -2.08069, -2.15981, -0.126188, -0.000464854, -0.00292672, -0.00237315, -0.0176753, -0.00704305, -0.0560602
0.0392185, 1.69125, -1.22976, -1.54198, -0.900881, -1.19294, 1.22695, -1.30248, 0.015687, -0.0162613, -0.0980004, -0.0195734, -0.0434302, -0.0350436, 0.00561539, -0.43267, 58.4393, 27.6749, 6.0614, 2.04364, 3.38901, -0.172963, -0.000110721, -0.00248864, 0.00418551, 0.00628778, 0.00324774, 0.00173129, 0.010467, 0.0147167, -0.0488258, -0.147712, 0.011215, -0.0380998, 0.471004, -0.543416, 0.335872, -2.08384, -2.16583, -0.129852, 0.468371, -0.542983, 0.331797, -2.08066, -2.15972, -0.125996, -0.000494774, -0.00311453, -0.00252743, -0.0165819, -0.0065352, -0.0519198
0.0402185, 1.69126, -1.22976, -1.54208, -0.900926, -1.19299, 1.22692, -1.30249, 0.0146897, -0.0117066, -0.0928003, -0.0244757, -0.0441729, -0.0299734, 0.00198577, -0.281914, 58.3282, 27.6035, 6.32324, 1.96399, 3.33865, -0.114369, -0.000115157, -0.00249716, 0.0042246, 0.0064327, 0.00320662, 0.00173763, 0.00842751, 0.0124659, -0.0443609, -0.140762, 0.0189671, -0.0292521, 0.471003, -0.543419, 0.33587, -2.08384, -2.16583, -0.129848, 0.468361, -0.542985, 0.331756, -2.08061, -2.15968, -0.12579, -0.000525695, -0.00330858, -0.00268698, -0.0142767, -0.00531099, -0.0474219
0.0412185, 1.69127, -1.22975, -1.54217, -0.900964, -1.19304, 1.2269, -1.30249, 0.0124406, -0.0049847, -0.0933082, -0.0288082, -0.0438076, -0.0286464, 0.00115836, -0.0557783, 58.3679, 27.7503, 6.5097, 1.85962, 3.36062, -0.101552, -0.000123187, -0.00251053, 0.00426196, 0.00657961, 0.00316299, 0.00175795, 0.00747663, 0.0126573, -0.0408195, -0.140892, 0.0264016, -0.0273656, 0.471003, -0.543422, 0.335867, -2.08384, -2.16583, -0.129843, 0.468346, -0.542991, 0.331715, -2.08057, -2.15963, -0.125577, -0.000557617, -0.00350887, -0.00285182, -0.0144059, -0.00512546, -0.0439364
0.0422185, 1.69127, -1.22974, -1.54226, -0.900996, -1.19309, 1.22688, -1.30248, 0.0075249, -0.000419668, -0.0921969, -0.0309021, -0.0489784, -0.0255975, 0.0019536, 0.325081, 58.5861, 27.8614, 6.65649, 1.76807, 3.46042, -0.127186, -0.00013445, -0.00252731, 0.00429187, 0.00670734, 0.00311723, 0.00179319, 0.00950051, 0.0148271, -0.037369, -0.139393, 0.0366939, -0.0327302, 0.471002, -0.543426, 0.335864, -2.08384, -2.16583, -0.129839, 0.468328, -0.543001, 0.331682, -2.08056, -2.15956, -0.125381, -0.000590537, -0.00371538, -0.00302192, -0.016409, -0.00794988, -0.040948
0.0432185, 1.69127, -1.22972, -1.54234, -0.901036, -1.19314, 1.22685, -1.30248, 0.00601055, 0.00458318, -0.0905888, -0.0373026, -0.0495481, -0.025034, 0.00198497, 0.626595, 58.7726, 28.0875, 6.88263, 1.71222, 3.6188, -0.140919, -0.000139743, -0.00254201, 0.0043137, 0.00684159, 0.00305775, 0.00181798, 0.00742337, 0.0139807, -0.034471, -0.140004, 0.0428784, -0.0284465, 0.471002, -0.543429, 0.335861, -2.08384, -2.16583, -0.129834, 0.468312, -0.543007, 0.331657, -2.08055, -2.15952, -0.125165, -0.000624453, -0.00392809, -0.0031973, -0.0155673, -0.00652337, -0.037965
0.0442185, 1.69126, -1.2297, -1.54242, -0.901077, -1.19319, 1.22683, -1.30248, 0.00257182, 0.00770427, -0.0841005, -0.0386019, -0.0490749, -0.0246074, -4.29187e-06, 1.03919, 59.1415, 28.3851, 7.1048, 1.63257, 3.79001, -0.101552, -0.000149324, -0.00256081, 0.00433509, 0.00696543, 0.00300087, 0.00184167, 0.00664494, 0.0143578, -0.0301509, -0.133408, 0.0454405, -0.0257906, 0.471001, -0.543433, 0.335858, -2.08384, -2.16582, -0.129829, 0.468292, -0.543018, 0.331632, -2.08053, -2.15948, -0.124962, -0.000659358, -0.00414696, -0.00337792, -0.0158506, -0.00665409, -0.0337476
0.0452185, 1.69126, -1.22969, -1.54249, -0.90112, -1.19325, 1.22682, -1.30248, -0.00212718, 0.00494303, -0.0821231, -0.0395348, -0.0498532, -0.0213177, -0.00112572, 1.41608, 59.6176, 28.8294, 7.33093, 1.58313, 3.89071, -0.0685925, -0.000158848, -0.00257656, 0.00435568, 0.00708251, 0.002936, 0.00186196, 0.00854132, 0.0158361, -0.0305203, -0.128976, 0.0448037, -0.0280346, 0.471, -0.543437, 0.335855, -2.08383, -2.16582, -0.129823, 0.468275, -0.543029, 0.331607, -2.08053, -2.15944, -0.12476, -0.000695248, -0.00437195, -0.00356376, -0.0173085, -0.00875492, -0.0345479
0.0462185, 1.69125, -1.22967, -1.54256, -0.90116, -1.1933, 1.22681, -1.30248, -0.00275818, 0.00669808, -0.077945, -0.0404761, -0.0506063, -0.0169639, -0.00166044, 1.68189, 60.2087, 29.3134, 7.44202, 1.54651, 3.94107, -0.0420422, -0.000165601, -0.00258762, 0.00437402, 0.00718253, 0.00287634, 0.0018789, 0.00786697, 0.0145181, -0.0275728, -0.12194, 0.049175, -0.025879, 0.471, -0.543442, 0.335851, -2.08383, -2.16582, -0.129818, 0.468263, -0.543038, 0.331585, -2.08052, -2.15942, -0.124581, -0.000732114, -0.004603, -0.00375481, -0.0159468, -0.00871998, -0.0317635
0.0472185, 1.69126, -1.22967, -1.54262, -0.901198, -1.19336, 1.22681, -1.30248, -0.00381733, 0.00715481, -0.0751591, -0.0406311, -0.0492236, -0.0132971, 0.000406137, 1.83265, 61.0181, 29.8371, 7.51739, 1.58313, 3.97677, -0.0814099, -0.000173037, -0.00259682, 0.00439495, 0.00728197, 0.00281571, 0.00190046, 0.00751998, 0.0137235, -0.0258064, -0.115391, 0.0501819, -0.0273727, 0.470999, -0.543446, 0.335848, -2.08383, -2.16582, -0.129812, 0.468253, -0.543047, 0.33156, -2.08052, -2.15939, -0.124401, -0.000769946, -0.00484006, -0.003951, -0.0151398, -0.00885386, -0.0301855
0.0482185, 1.69125, -1.22966, -1.54268, -0.901231, -1.19342, 1.2268, -1.30248, -0.00174494, 0.00527287, -0.0711962, -0.0413126, -0.0528831, -0.0117373, -0.0006374, 1.98341, 61.8274, 30.4322, 7.47772, 1.62616, 4.04086, -0.0557752, -0.000183601, -0.00261068, 0.00441142, 0.0073752, 0.00275278, 0.0019237, 0.00636978, 0.0117566, -0.0254121, -0.112924, 0.0520129, -0.023282, 0.470998, -0.543451, 0.335844, -2.08383, -2.16582, -0.129805, 0.468238, -0.54306, 0.331538, -2.08052, -2.15936, -0.124226, -0.000808735, -0.00508306, -0.00415231, -0.0132412, -0.00794158, -0.0298784
0.0492185, 1.69125, -1.22965, -1.54274, -0.901261, -1.19349, 1.22679, -1.30248, -0.00179202, 0.00346463, -0.0679328, -0.0365704, -0.0568567, -0.0113865, -0.00113996, 2.05878, 62.6764, 31.0273, 7.33093, 1.71222, 4.12692, -0.0356336, -0.00019243, -0.00262316, 0.00442705, 0.00746928, 0.00269068, 0.0019452, 0.00783163, 0.0125713, -0.0244592, -0.109352, 0.0530831, -0.0270273, 0.470997, -0.543456, 0.33584, -2.08383, -2.16582, -0.129798, 0.468225, -0.543072, 0.331518, -2.08053, -2.15934, -0.12405, -0.000848468, -0.00533191, -0.00435868, -0.014008, -0.00981363, -0.029346
0.0502185, 1.69124, -1.22964, -1.54279, -0.901285, -1.19355, 1.22678, -1.30248, -0.00303506, 0.00472813, -0.060171, -0.0325163, -0.0588933, -0.0118729, 9.23022e-06, 2.17384, 63.5611, 31.547, 7.14447, 1.77356, 4.23495, -0.0557752, -0.000203756, -0.00263997, 0.00443833, 0.00755422, 0.00263117, 0.0019791, 0.00793282, 0.0130919, -0.0202073, -0.101546, 0.054953, -0.0302713, 0.470997, -0.543461, 0.335835, -2.08383, -2.16581, -0.129791, 0.468207, -0.543087, 0.331501, -2.08055, -2.1593, -0.123885, -0.000889131, -0.00558652, -0.00457004, -0.0144114, -0.0108438, -0.0253588
0.0512185, 1.69124, -1.22963, -1.54285, -0.901314, -1.19362, 1.22677, -1.30247, -0.000457196, 0.00324258, -0.0628632, -0.0282324, -0.0620906, -0.0123644, 0.000498285, 2.13416, 64.4418, 32.2928, 7.02942, 1.88434, 4.34939, -0.0685925, -0.000213959, -0.00265392, 0.00445792, 0.0076617, 0.00256565, 0.00201091, 0.00904351, 0.0134604, -0.02144, -0.104148, 0.0558095, -0.0346378, 0.470996, -0.543467, 0.335831, -2.08383, -2.16581, -0.129784, 0.468192, -0.543101, 0.331476, -2.08056, -2.15926, -0.123689, -0.00093071, -0.0058468, -0.00478633, -0.0148259, -0.012026, -0.0269534
0.0522185, 1.69124, -1.22961, -1.54289, -0.90134, -1.1937, 1.22676, -1.30248, 0.00100904, 0.00559478, -0.0580727, -0.0275857, -0.0635258, -0.0115882, -0.00135017, 2.09846, 65.1797, 32.7768, 6.88263, 1.97681, 4.43545, -0.0228162, -0.000221896, -0.00266749, 0.00446347, 0.00775052, 0.00248885, 0.00203237, 0.00745188, 0.0119457, -0.0180976, -0.0994999, 0.0594673, -0.0304886, 0.470995, -0.543473, 0.335826, -2.08383, -2.16581, -0.129776, 0.468177, -0.543114, 0.331465, -2.08057, -2.15924, -0.123503, -0.000973186, -0.00611264, -0.00500747, -0.0132918, -0.011173, -0.0236729
0.0532185, 1.69124, -1.2296, -1.54294, -0.901368, -1.19378, 1.22675, -1.30248, 0.0027949, 0.00848997, -0.0539905, -0.0266989, -0.0647976, -0.0146734, -0.0004156, 2.02308, 65.9891, 33.2212, 6.84296, 2.07477, 4.49313, -0.0356336, -0.000229693, -0.00267788, 0.00447477, 0.00784082, 0.00241357, 0.00205556, 0.00544454, 0.0111292, -0.0149997, -0.0986389, 0.061669, -0.0293248, 0.470994, -0.543479, 0.335821, -2.08382, -2.16581, -0.129768, 0.468166, -0.543127, 0.331448, -2.08058, -2.15922, -0.123316, -0.00101654, -0.00638391, -0.00523338, -0.0124795, -0.00990591, -0.020553
0.0542185, 1.69124, -1.22959, -1.54298, -0.901403, -1.19386, 1.22674, -1.30247, 0.00306051, 0.00819607, -0.0461949, -0.0307901, -0.0691439, -0.012907, 0.00217169, 1.98341, 66.6516, 33.5941, 6.88263, 2.14252, 4.56454, -0.101552, -0.000235188, -0.00268874, 0.00448229, 0.00793552, 0.00233191, 0.00208094, 0.00326805, 0.00879446, -0.0126491, -0.094136, 0.065767, -0.0261332, 0.470993, -0.543485, 0.335816, -2.08382, -2.1658, -0.129759, 0.468154, -0.543138, 0.331435, -2.0806, -2.1592, -0.123117, -0.00106076, -0.00666049, -0.00546395, -0.0101848, -0.00830003, -0.0181952
0.0552185, 1.69123, -1.22958, -1.54303, -0.901428, -1.19394, 1.22673, -1.30247, 0.000479017, 0.00666496, -0.0526171, -0.029628, -0.0716179, -0.0113721, 0.00121594, 2.05878, 67.3538, 34.0781, 6.88263, 2.18555, 4.62955, -0.0951428, -0.000248959, -0.00270596, 0.00449587, 0.00803164, 0.00225575, 0.00211662, 0.00655852, 0.0115698, -0.0152016, -0.0985635, 0.067324, -0.0329892, 0.470992, -0.543492, 0.33581, -2.08382, -2.1658, -0.12975, 0.468135, -0.543157, 0.331414, -2.08062, -2.15917, -0.122921, -0.00110581, -0.00694224, -0.0056991, -0.0129764, -0.011551, -0.0213774
0.0562185, 1.69123, -1.22957, -1.54307, -0.901456, -1.19403, 1.22672, -1.30248, -0.00250945, 0.00543046, -0.0433751, -0.0293948, -0.0769227, -0.0099537, -0.00186401, 2.05878, 68.0521, 34.2289, 6.91833, 2.19104, 4.68631, -0.0228162, -0.000257672, -0.00271799, 0.00450506, 0.00811165, 0.00218291, 0.00213216, 0.00703125, 0.0119228, -0.012144, -0.0910511, 0.0705003, -0.0307521, 0.470991, -0.543499, 0.335805, -2.08382, -2.1658, -0.12974, 0.468122, -0.543171, 0.331398, -2.08063, -2.15916, -0.122748, -0.00115168, -0.007229, -0.00593872, -0.0132474, -0.0127895, -0.0186605
0.0572185, 1.69123, -1.22956, -1.54311, -0.901491, -1.19412, 1.22671, -1.30247, 0.000790715, 0.00330043, -0.0436663, -0.0295425, -0.0852248, -0.00975439, -0.000527494, 1.9477, 68.5321, 34.5264, 7.1048, 2.17914, 4.76504, -0.0420422, -0.000262895, -0.0027279, 0.00451503, 0.00821464, 0.00209619, 0.00215243, 0.00711872, 0.010902, -0.0134716, -0.0955773, 0.0755133, -0.0319524, 0.47099, -0.543506, 0.335799, -2.08382, -2.16579, -0.129731, 0.468111, -0.543182, 0.331382, -2.08064, -2.15914, -0.122534, -0.00119834, -0.00752062, -0.00618267, -0.0123197, -0.0129214, -0.0202597
0.0582185, 1.69123, -1.22954, -1.54316, -0.901519, -1.19421, 1.2267, -1.30247, 0.000426063, 0.00797298, -0.0405044, -0.0284571, -0.0909611, -0.00879101, 0.00626707, 1.9477, 68.8614, 34.6732, 7.25555, 2.14801, 4.82272, -0.0814099, -0.000272041, -0.00274173, 0.00451875, 0.00830471, 0.00200354, 0.00218548, 0.00742961, 0.0112904, -0.00914296, -0.0934922, 0.0851517, -0.0409494, 0.470988, -0.543514, 0.335793, -2.08381, -2.16579, -0.12972, 0.468096, -0.543199, 0.331371, -2.08067, -2.15912, -0.122327, -0.00124576, -0.00781692, -0.00643084, -0.0125872, -0.0142067, -0.0162701
0.0592185, 1.69123, -1.22953, -1.54319, -0.901551, -1.1943, 1.22669, -1.30247, 0.000208232, 0.00754378, -0.0421286, -0.0283499, -0.0892041, -0.00729699, 0.00291423, 1.9477, 69.1946, 34.7129, 7.44202, 2.08118, 4.85843, -0.0356336, -0.000278151, -0.00275146, 0.00452612, 0.00839414, 0.00191687, 0.00220296, 0.00740709, 0.0111941, -0.00960902, -0.0925404, 0.0841869, -0.0384901, 0.470987, -0.543521, 0.335786, -2.08381, -2.16579, -0.12971, 0.468085, -0.543212, 0.331357, -2.08068, -2.15911, -0.122128, -0.00129392, -0.00811772, -0.00668309, -0.0125569, -0.0144096, -0.0169818
0.0602185, 1.69123, -1.22952, -1.54324, -0.901573, -1.1944, 1.22668, -1.30247, 0.0018452, 0.0103666, -0.0446317, -0.0254334, -0.0928551, -0.0062725, 0.00202916, 1.87232, 69.3771, 34.7883, 7.51739, 2.01343, 4.89413, -0.0292249, -0.000284624, -0.00276155, 0.00453242, 0.00848858, 0.00182718, 0.00222473, 0.00829709, 0.0115944, -0.00821431, -0.0939719, 0.0905482, -0.0414322, 0.470986, -0.54353, 0.335779, -2.08381, -2.16578, -0.129699, 0.468074, -0.543226, 0.331343, -2.0807, -2.1591, -0.121919, -0.00134278, -0.00842284, -0.00693927, -0.0129233, -0.0158244, -0.0159867
0.0612185, 1.69124, -1.22951, -1.54328, -0.901599, -1.1945, 1.22667, -1.30248, 0.00295073, 0.0078111, -0.0428626, -0.0242124, -0.0961115, -0.0107984, 0.00061221, 1.79694, 69.5993, 34.824, 7.62848, 1.95758, 4.94449, -0.00267457, -0.000292756, -0.00277285, 0.00454362, 0.00859101, 0.00173761, 0.00225067, 0.00786233, 0.0120304, -0.0091535, -0.0974717, 0.088336, -0.0405978, 0.470984, -0.543538, 0.335772, -2.08381, -2.16578, -0.129687, 0.468061, -0.543241, 0.331325, -2.08072, -2.15908, -0.121701, -0.00139231, -0.00873205, -0.00719924, -0.0134579, -0.0155777, -0.0170933
0.0622185, 1.69125, -1.22951, -1.54333, -0.901626, -1.19461, 1.22666, -1.30247, 0.00369841, 0.00656721, -0.0440182, -0.0232406, -0.0953822, -0.0141124, 0.00255691, 1.72157, 69.7858, 34.824, 7.73956, 1.93927, 4.99484, -0.0557752, -0.000300321, -0.00278267, 0.00455793, 0.00869284, 0.00165269, 0.0022812, 0.00733186, 0.0124828, -0.0102677, -0.100569, 0.0849781, -0.0433667, 0.470983, -0.543547, 0.335765, -2.0838, -2.16578, -0.129675, 0.468049, -0.543256, 0.331302, -2.08073, -2.15905, -0.121487, -0.00144249, -0.00904515, -0.00746282, -0.0140193, -0.0152142, -0.0183609
0.0632185, 1.69127, -1.22951, -1.54338, -0.901645, -1.19471, 1.22665, -1.30247, 0.0109637, 0.00311444, -0.0490973, -0.019958, -0.104141, -0.0117151, 0.00109519, 1.49146, 69.9326, 34.8597, 7.73956, 1.92096, 5.03787, -0.0356336, -0.000305614, -0.00278888, 0.00457483, 0.00879834, 0.00157181, 0.00230047, 0.00808068, 0.010474, -0.0135892, -0.106668, 0.0902849, -0.0433149, 0.470982, -0.543556, 0.335758, -2.0838, -2.16577, -0.129663, 0.468041, -0.543268, 0.331278, -2.08074, -2.15903, -0.121274, -0.00149327, -0.00936199, -0.00772991, -0.0121577, -0.0156771, -0.0220846
0.0642185, 1.69128, -1.22952, -1.54343, -0.90167, -1.19482, 1.22663, -1.30248, 0.0123606, -0.00524061, -0.0519947, -0.0202168, -0.101738, -0.0142226, -0.000862876, 1.41608, 70.0436, 34.8597, 7.85065, 1.91546, 5.07358, 0.0101428, -0.000315212, -0.00280133, 0.00459422, 0.00891168, 0.00148974, 0.00232501, 0.00764822, 0.0101321, -0.0196342, -0.111083, 0.0790984, -0.0405938, 0.47098, -0.543565, 0.33575, -2.0838, -2.16577, -0.12965, 0.468027, -0.543284, 0.33125, -2.08074, -2.15901, -0.12105, -0.00154466, -0.00968246, -0.00800043, -0.0121025, -0.0146265, -0.0282673
0.0652185, 1.6913, -1.22953, -1.54348, -0.90169, -1.19493, 1.22662, -1.30247, 0.0139666, -0.00790607, -0.0533684, -0.0209478, -0.104604, -0.0153205, 0.00048491, 1.18995, 70.2618, 34.824, 7.85065, 1.90906, 5.08822, -0.0164075, -0.000322175, -0.00280817, 0.00462162, 0.00902455, 0.001422, 0.00235013, 0.00733702, 0.00973403, -0.0217408, -0.115174, 0.0785636, -0.041711, 0.470979, -0.543575, 0.335742, -2.0838, -2.16576, -0.129636, 0.468018, -0.543297, 0.331214, -2.08074, -2.15897, -0.120841, -0.00159663, -0.0100065, -0.00827433, -0.0118446, -0.0143029, -0.030585
0.0662185, 1.6913, -1.22953, -1.54352, -0.901715, -1.19505, 1.2266, -1.30247, 0.0104736, -0.00531516, -0.0519658, -0.023472, -0.106608, -0.0159937, 0.00133032, 1.15424, 70.1508, 34.6732, 7.92602, 1.90265, 5.08822, -0.0420422, -0.000328937, -0.00281932, 0.00463291, 0.00913415, 0.00132759, 0.00237939, 0.00757245, 0.0112233, -0.0197142, -0.115671, 0.0825705, -0.0442921, 0.470977, -0.543585, 0.335734, -2.08379, -2.16576, -0.129623, 0.468005, -0.543312, 0.331194, -2.08076, -2.15895, -0.120608, -0.00164918, -0.0103339, -0.00855153, -0.0133028, -0.0152356, -0.0288523
0.0672185, 1.69132, -1.22954, -1.54357, -0.90174, -1.19516, 1.22659, -1.30247, 0.0121529, -0.00434581, -0.0500389, -0.0252756, -0.108302, -0.0159826, -0.000256704, 1.07887, 70.1904, 34.6018, 8.0014, 1.90265, 5.07358, -0.00999879, -0.000336455, -0.00282863, 0.00465296, 0.00924854, 0.00124186, 0.00240175, 0.00577686, 0.00968434, -0.0185652, -0.115566, 0.0851235, -0.03958, 0.470975, -0.543595, 0.335725, -2.08379, -2.16576, -0.129608, 0.467993, -0.543327, 0.331164, -2.08076, -2.15892, -0.120378, -0.00170228, -0.0106648, -0.00883197, -0.0118416, -0.0139076, -0.0277662
0.0682185, 1.69133, -1.22954, -1.54363, -0.901765, -1.19528, 1.22657, -1.30248, 0.0125032, -0.00280297, -0.0525171, -0.026683, -0.115163, -0.0169703, -0.00112207, 1.03919, 70.1904, 34.5621, 8.07678, 1.92096, 5.0809, 0.0165515, -0.00034592, -0.00284238, 0.0046719, 0.00937102, 0.00115224, 0.00243204, 0.00645854, 0.0105432, -0.0185925, -0.12215, 0.0921898, -0.0411035, 0.470974, -0.543606, 0.335716, -2.08379, -2.16575, -0.129594, 0.467978, -0.543345, 0.331136, -2.08077, -2.15889, -0.120134, -0.00175593, -0.0109989, -0.0091156, -0.0127299, -0.0149457, -0.0281563
0.0692185, 1.69134, -1.22953, -1.54368, -0.901786, -1.1954, 1.22654, -1.30247, 0.0152567, -0.000869951, -0.0495131, -0.025912, -0.118847, -0.0172756, 0.000971677, 1.03919, 70.1508, 34.451, 8.07678, 1.90906, 5.0809, -0.0292249, -0.000354317, -0.00285702, 0.0046849, 0.00948824, 0.00105958, 0.00247138, 0.00499284, 0.00908237, -0.0162135, -0.121166, 0.0969428, -0.04145, 0.470972, -0.543617, 0.335707, -2.08378, -2.16575, -0.129578, 0.467961, -0.543363, 0.331113, -2.08079, -2.15885, -0.119891, -0.0018101, -0.0113362, -0.00940234, -0.0112913, -0.0141423, -0.0259107
0.0702185, 1.69135, -1.22952, -1.54373, -0.901816, -1.19552, 1.22653, -1.30247, 0.0102118, 0.00290671, -0.0465168, -0.0249316, -0.117388, -0.0168777, 0.00188672, 1.07887, 70.004, 34.3043, 8.18787, 1.90265, 5.06625, -0.0621838, -0.000359819, -0.00286925, 0.00469451, 0.00960557, 0.000956847, 0.00250219, 0.00592904, 0.0113728, -0.0122566, -0.115706, 0.0993727, -0.0468357, 0.47097, -0.543628, 0.335698, -2.08378, -2.16574, -0.129563, 0.467947, -0.543379, 0.331094, -2.08081, -2.15882, -0.119638, -0.00186479, -0.0116765, -0.00969213, -0.0134564, -0.0161095, -0.022369
0.0712185, 1.69136, -1.22951, -1.54378, -0.901843, -1.19563, 1.22651, -1.30248, 0.0116341, 0.00708168, -0.0511122, -0.0231803, -0.116263, -0.0210304, -0.00140728, 1.03919, 69.7858, 34.3043, 8.26324, 1.89624, 5.03787, 0.0101428, -0.000364004, -0.00288068, 0.00470354, 0.00972711, 0.00085217, 0.00252137, 0.00535073, 0.0124358, -0.0113726, -0.121603, 0.100842, -0.0460775, 0.470968, -0.54364, 0.335688, -2.08378, -2.16574, -0.129546, 0.467933, -0.543393, 0.331075, -2.08082, -2.15881, -0.11938, -0.00191999, -0.0120199, -0.00998491, -0.0145618, -0.0160614, -0.0216667
0.0722185, 1.69137, -1.22948, -1.54384, -0.90186, -1.19574, 1.22648, -1.30247, 0.0124487, 0.0125463, -0.049541, -0.021477, -0.118467, -0.0251748, 5.54098e-05, 1.00349, 69.4525, 34.2289, 8.18787, 1.85321, 5.03787, -0.0164075, -0.000368564, -0.00289466, 0.0047057, 0.00984168, 0.000746893, 0.00255871, 0.00429205, 0.013127, -0.00751493, -0.123464, 0.105945, -0.0488253, 0.470966, -0.543652, 0.335678, -2.08377, -2.16573, -0.12953, 0.467917, -0.54341, 0.331062, -2.08084, -2.15878, -0.119126, -0.00197567, -0.0123662, -0.0102806, -0.0152055, -0.0159843, -0.0179678
0.0732185, 1.69139, -1.22946, -1.54388, -0.901877, -1.19585, 1.22646, -1.30247, 0.0118513, 0.0144187, -0.0465462, -0.0196709, -0.117337, -0.0234007, 0.000756707, 0.888436, 69.1946, 34.0781, 8.07678, 1.85321, 5.03787, -0.0356336, -0.000369239, -0.00290426, 0.00470678, 0.00995019, 0.000644336, 0.00258648, 0.00387607, 0.0128521, -0.00467079, -0.117415, 0.107519, -0.0504151, 0.470964, -0.543664, 0.335668, -2.08377, -2.16572, -0.129512, 0.467906, -0.543424, 0.331051, -2.08086, -2.15876, -0.118882, -0.00203183, -0.0127153, -0.0105792, -0.0148987, -0.0163491, -0.0154017
0.0742185, 1.6914, -1.22944, -1.54394, -0.901897, -1.19597, 1.22643, -1.30247, 0.0155786, 0.019672, -0.0481019, -0.020136, -0.12016, -0.0223835, 0.000510239, 0.85273, 68.9011, 34.0781, 8.03711, 1.823, 5.04519, -0.0356336, -0.000371754, -0.00291705, 0.00471021, 0.0100695, 0.000539094, 0.00261752, 0.00220785, 0.0110989, -0.00204667, -0.119309, 0.115962, -0.0483786, 0.470962, -0.543677, 0.335657, -2.08377, -2.16572, -0.129495, 0.467891, -0.543439, 0.331037, -2.08088, -2.15873, -0.118622, -0.00208844, -0.0130671, -0.0108805, -0.0131685, -0.015386, -0.0129063
0.0752185, 1.6914, -1.22944, -1.54394, -0.901897, -1.19597, 1.22643, -1.30247, 0.0155786, 0.019672, -0.0481019, -0.020136, -0.12016, -0.0223835, 0.000510239, 0.85273, 68.9011, 34.0781, 8.03711, 1.823, 5.04519, -0.0356336, -0.000357225, -0.0029147, 0.00470144, 0.0100556, 0.00054168, 0.00261557, 0.00181279, 0.0110366, -0.00179901, -0.11905, 0.116087, -0.048877, 0.47096, -0.54369, 0.335646, -2.08376, -2.16571, -0.129476, 0.467891, -0.543439, 0.331037, -2.08088, -2.15873, -0.118622, -0.00214551, -0.0134215, -0.0111846, -0.0131685, -0.015386, -0.0129063
0.0762185, 1.69145, -1.2294, -1.54405, -0.901912, -1.1962, 1.22639, -1.30247, 0.0214259, 0.0204245, -0.0516763, -0.0118276, -0.117566, -0.0150507, 0.000718922, 0.586922, 68.421, 34.0424, 7.66418, 1.823, 5.0159, -0.0356336, -0.00037835, -0.00293969, 0.00471609, 0.0102972, 0.000329387, 0.00268822, 0.00221066, 0.00856026, -0.000881841, -0.111247, 0.118187, -0.05195, 0.470958, -0.543704, 0.335635, -2.08376, -2.16571, -0.129457, 0.467864, -0.543472, 0.331009, -2.08093, -2.15868, -0.118114, -0.00220301, -0.0137786, -0.0114914, -0.0107053, -0.0161756, -0.0124444
0.0772185, 1.69146, -1.22939, -1.5441, -0.901921, -1.19631, 1.22636, -1.30247, 0.0195007, 0.0197408, -0.0496258, -0.00697706, -0.116646, -0.0141309, 0.000719073, 0.551216, 68.3099, 33.967, 7.5531, 1.82941, 4.96646, -0.0420422, -0.000383418, -0.00295284, 0.00472092, 0.0104043, 0.000231227, 0.0027264, 0.00364908, 0.0100126, 0.000551146, -0.105421, 0.116716, -0.0573047, 0.470956, -0.543717, 0.335624, -2.08375, -2.1657, -0.129438, 0.467849, -0.54349, 0.330993, -2.08096, -2.15864, -0.117873, -0.00226092, -0.014138, -0.0118008, -0.0121101, -0.018235, -0.0115176
0.0782185, 1.69149, -1.22937, -1.54415, -0.90192, -1.19643, 1.22635, -1.30247, 0.0230577, 0.0171242, -0.0477041, -0.00559361, -0.116945, -0.0120982, 6.48935e-06, 0.436165, 68.1631, 34.0027, 7.40631, 1.87244, 4.8804, -0.0292249, -0.000388121, -0.00296295, 0.00472457, 0.0105099, 0.000126884, 0.002764, 0.0021922, 0.0075317, 0.000132993, -0.101963, 0.115375, -0.0539215, 0.470954, -0.543731, 0.335612, -2.08375, -2.16569, -0.129418, 0.467836, -0.543509, 0.330977, -2.081, -2.15861, -0.117626, -0.00231925, -0.0144999, -0.0121127, -0.00975801, -0.0169927, -0.0120919
0.0792185, 1.69151, -1.22937, -1.5442, -0.901926, -1.19656, 1.22633, -1.30248, 0.0229902, 0.0126488, -0.0485456, -0.00493896, -0.121014, -0.0112033, -0.00168973, 0.436165, 68.1274, 34.0027, 7.40631, 1.88434, 4.80075, 0.0165515, -0.000394728, -0.00297487, 0.00473241, 0.0106155, 2.73168e-05, 0.00279918, 0.00348584, 0.00801954, -0.00236092, -0.103608, 0.114814, -0.0550383, 0.470951, -0.543746, 0.3356, -2.08374, -2.16569, -0.129398, 0.467822, -0.543529, 0.330956, -2.08102, -2.15858, -0.117385, -0.00237796, -0.014864, -0.0124272, -0.0103487, -0.0182704, -0.0150545
0.0802185, 1.69153, -1.22936, -1.54425, -0.901922, -1.19669, 1.22632, -1.30247, 0.0258136, 0.0121643, -0.0500779, -0.00243681, -0.125485, -0.00981312, 0.00104468, 0.325081, 67.9807, 34.0424, 7.33093, 1.93378, 4.70096, -0.0420422, -0.000401918, -0.00298422, 0.00473633, 0.0107171, -8.59684e-05, 0.00284918, 0.00395727, 0.00744503, -0.00259809, -0.104848, 0.118817, -0.0599105, 0.470949, -0.543761, 0.335587, -2.08374, -2.16568, -0.129377, 0.46781, -0.543551, 0.330939, -2.08107, -2.15855, -0.117132, -0.00243706, -0.0152304, -0.012744, -0.00982586, -0.0190422, -0.0156961
0.0812185, 1.69156, -1.22935, -1.54431, -0.901914, -1.19682, 1.22631, -1.30247, 0.0301733, 0.00926117, -0.0527129, -0.00137708, -0.127347, -0.00560578, 0.00168057, 0.245735, 67.941, 34.1535, 7.29126, 1.94568, 4.63595, -0.0685925, -0.000412109, -0.00299617, 0.00474489, 0.0108243, -0.000194201, 0.00290326, 0.00354498, 0.00502606, -0.00468816, -0.104512, 0.119912, -0.059502, 0.470946, -0.543776, 0.335575, -2.08373, -2.16567, -0.129355, 0.467796, -0.543576, 0.330917, -2.08112, -2.1585, -0.116877, -0.00249652, -0.0155988, -0.0130633, -0.00756056, -0.0185831, -0.0180889
0.0822185, 1.6916, -1.22935, -1.54436, -0.901903, -1.19695, 1.2263, -1.30247, 0.0320373, 0.0075703, -0.0508722, 0.00254628, -0.123492, -0.00714321, 0.000883597, 0.0949785, 68.0164, 34.1178, 7.25555, 1.94568, 4.57187, -0.0621838, -0.000417271, -0.00300045, 0.00475393, 0.0109206, -0.000296884, 0.00294098, 0.00231666, 0.00427811, -0.00445371, -0.100734, 0.114055, -0.0586336, 0.470944, -0.543792, 0.335562, -2.08373, -2.16567, -0.129333, 0.467789, -0.543595, 0.330894, -2.08116, -2.15848, -0.11664, -0.00255634, -0.0159693, -0.0133848, -0.00690877, -0.0177464, -0.0180111
0.0832185, 1.69163, -1.22935, -1.54441, -0.901892, -1.19709, 1.22629, -1.30247, 0.0355331, 0.00625717, -0.0526012, 0.00391658, -0.124811, -0.00384314, -0.000868564, -0.0161054, 67.9807, 34.0781, 7.29126, 1.92737, 4.51419, -0.0228162, -0.000423496, -0.00300615, 0.00475746, 0.0110127, -0.000410633, 0.00297897, 0.00184047, 0.00238458, -0.00527401, -0.0997188, 0.115715, -0.0563943, 0.470941, -0.543808, 0.335548, -2.08372, -2.16566, -0.129311, 0.46778, -0.543617, 0.330877, -2.0812, -2.15846, -0.116396, -0.0026165, -0.0163418, -0.0137086, -0.00512491, -0.0174451, -0.0191289
0.0842185, 1.69167, -1.22935, -1.54446, -0.901882, -1.19722, 1.22629, -1.30247, 0.0340048, 0.00445275, -0.0519803, 0.00496117, -0.129252, -0.00188132, 0.000879344, -0.0914839, 67.9807, 34.0781, 7.33093, 1.87244, 4.47116, -0.0621838, -0.000428809, -0.00301087, 0.0047646, 0.0111067, -0.000517854, 0.00302375, 0.00352467, 0.00341205, -0.00544511, -0.098679, 0.118501, -0.0622414, 0.470939, -0.543824, 0.335534, -2.08372, -2.16565, -0.129287, 0.467773, -0.543638, 0.330855, -2.08125, -2.15842, -0.116156, -0.00267698, -0.0167161, -0.0140346, -0.00615775, -0.0194979, -0.0198535
0.0852185, 1.6917, -1.22934, -1.54451, -0.90187, -1.19736, 1.22628, -1.30247, 0.0361152, 0.00494272, -0.0538421, 0.0050511, -0.128312, -0.00115901, 0.000586473, -0.166862, 67.9053, 34.0424, 7.40631, 1.82941, 4.4501, -0.0621838, -0.000435767, -0.003017, 0.00477022, 0.0112018, -0.000632118, 0.00306884, 0.00242697, 0.0022844, -0.00557677, -0.0991968, 0.118913, -0.0610745, 0.470936, -0.543841, 0.33552, -2.08371, -2.16564, -0.129264, 0.467764, -0.543661, 0.330835, -2.0813, -2.1584, -0.115907, -0.00273778, -0.0170921, -0.0143627, -0.00513647, -0.0187239, -0.0201758
0.0862185, 1.69174, -1.22935, -1.54456, -0.901859, -1.19749, 1.22628, -1.30247, 0.034613, 0.000294128, -0.050538, 0.00766644, -0.1269, -0.000201124, -0.000829538, -0.242241, 67.9053, 33.9313, 7.51739, 1.75525, 4.4208, -0.0292249, -0.000438479, -0.00301694, 0.00477587, 0.0112874, -0.000742973, 0.00309936, 0.00300057, 0.00263799, -0.00634868, -0.0934486, 0.113252, -0.0618179, 0.470933, -0.543858, 0.335506, -2.08371, -2.16563, -0.129239, 0.467761, -0.54368, 0.330815, -2.08133, -2.15838, -0.115672, -0.00279888, -0.0174699, -0.0146928, -0.00555858, -0.0195637, -0.0213463
0.0872185, 1.69178, -1.22936, -1.54462, -0.901843, -1.19763, 1.22628, -1.30247, 0.0364148, -0.00338218, -0.0506237, 0.00831293, -0.131306, -0.00106176, -0.000790248, -0.317619, 68.0521, 33.9313, 7.5531, 1.70032, 4.43545, -0.0228162, -0.000446677, -0.00302034, 0.00479099, 0.0113821, -0.000846415, 0.0031441, 0.00310017, 0.0023105, -0.00833847, -0.0963191, 0.112944, -0.0626216, 0.470931, -0.543875, 0.335491, -2.0837, -2.16563, -0.129214, 0.467755, -0.543703, 0.330784, -2.08138, -2.15835, -0.115433, -0.00286026, -0.0178492, -0.015025, -0.00536229, -0.019722, -0.0236686
0.0882185, 1.69182, -1.22937, -1.54467, -0.901831, -1.19777, 1.22629, -1.30247, 0.0404208, -0.00672493, -0.0530151, 0.0102567, -0.13096, -0.000996693, -0.000526729, -0.357292, 68.2385, 33.8917, 7.66418, 1.6756, 4.43545, -0.0228162, -0.000453416, -0.00302193, 0.00480625, 0.0114748, -0.000951619, 0.00318485, 0.00221005, 0.00074376, -0.0108075, -0.0978845, 0.109652, -0.0621389, 0.470928, -0.543893, 0.335476, -2.0837, -2.16562, -0.129189, 0.46775, -0.543725, 0.330753, -2.08142, -2.15832, -0.115195, -0.00292192, -0.0182301, -0.0153591, -0.00398162, -0.0187803, -0.0263506
0.0892185, 1.69186, -1.22939, -1.54473, -0.901813, -1.19791, 1.22629, -1.30247, 0.0402271, -0.0137486, -0.05261, 0.0126756, -0.134782, -0.000338568, 0.00134435, -0.392998, 68.4964, 33.8917, 7.73956, 1.63257, 4.4208, -0.0685925, -0.000460975, -0.00302386, 0.00482419, 0.0115669, -0.00104932, 0.00323446, 0.00395639, 0.00144031, -0.0141132, -0.0978675, 0.106041, -0.0677922, 0.470925, -0.543911, 0.335461, -2.08369, -2.16561, -0.129163, 0.467745, -0.543748, 0.330719, -2.08147, -2.15828, -0.114963, -0.00298385, -0.0186124, -0.0156951, -0.00479821, -0.0204069, -0.0302002
0.0902185, 1.69192, -1.2294, -1.54479, -0.901799, -1.19806, 1.2263, -1.30246, 0.045787, -0.0159809, -0.0502631, 0.0127159, -0.13352, 0.0012055, 0.000658929, -0.543754, 68.6432, 33.8202, 7.89032, 1.61426, 4.37778, -0.0621838, -0.000464246, -0.00301946, 0.00483992, 0.0116587, -0.00115864, 0.00327089, 0.000706739, -0.00262883, -0.014469, -0.0946116, 0.10376, -0.0606124, 0.470922, -0.54393, 0.335445, -2.08368, -2.1656, -0.129136, 0.467745, -0.543768, 0.330687, -2.0815, -2.15826, -0.11472, -0.00304602, -0.0189961, -0.016033, -0.000925863, -0.0173611, -0.0305104
0.0912185, 1.69196, -1.22942, -1.54484, -0.901791, -1.1982, 1.22631, -1.30247, 0.0431344, -0.01375, -0.0558567, 0.0120848, -0.132565, 0.0030554, -0.00176472, -0.543754, 68.7543, 33.7806, 8.07678, 1.58954, 4.31369, -0.00267457, -0.0004676, -0.00301776, 0.00485447, 0.01175, -0.00126645, 0.00329726, 0.00222043, -0.000751425, -0.0146402, -0.0968537, 0.106583, -0.0632241, 0.470919, -0.543949, 0.335429, -2.08368, -2.16559, -0.129109, 0.467743, -0.543788, 0.330656, -2.08153, -2.15824, -0.11448, -0.00310843, -0.019381, -0.0163726, -0.0028158, -0.019291, -0.0311961
0.0922185, 1.69201, -1.22944, -1.5449, -0.901783, -1.19833, 1.22632, -1.30247, 0.045076, -0.0164072, -0.0539625, 0.0109031, -0.131568, 0.00353923, -0.00066782, -0.583427, 69.0479, 33.7449, 8.29895, 1.55932, 4.27066, -0.0164075, -0.000470194, -0.00301399, 0.00487706, 0.011843, -0.00135991, 0.00332997, 0.000280332, -0.00276229, -0.0154764, -0.0950877, 0.103589, -0.0606326, 0.470916, -0.543968, 0.335413, -2.08367, -2.16558, -0.129081, 0.467743, -0.543806, 0.330617, -2.08156, -2.15822, -0.114251, -0.00317106, -0.0197671, -0.0167139, -0.000970436, -0.017551, -0.0321241
0.0932185, 1.69205, -1.22946, -1.54496, -0.90177, -1.19847, 1.22632, -1.30247, 0.0428983, -0.0164149, -0.0544745, 0.00875318, -0.135539, 0.00388464, 0.00172495, -0.583427, 69.27, 33.6695, 8.44971, 1.5282, 4.22763, -0.0750012, -0.000470348, -0.00300933, 0.00489458, 0.01193, -0.0014536, 0.00336647, 0.00110053, -0.00160738, -0.0155246, -0.0974571, 0.107333, -0.0654295, 0.470912, -0.543988, 0.335396, -2.08366, -2.16557, -0.129052, 0.467744, -0.543823, 0.330583, -2.08159, -2.15819, -0.114028, -0.00323391, -0.0201544, -0.0170569, -0.00215953, -0.0187878, -0.0326064
0.0942185, 1.69211, -1.22948, -1.54503, -0.901758, -1.1986, 1.22633, -1.30247, 0.046966, -0.0194141, -0.0555908, 0.0102308, -0.138789, 0.00868278, 0.000166641, -0.694511, 69.4882, 33.7449, 8.60046, 1.50348, 4.19192, -0.0484509, -0.000469529, -0.00300229, 0.00491754, 0.012027, -0.00154668, 0.00339183, 0.000945813, -0.00399831, -0.0169871, -0.0956591, 0.109645, -0.0632537, 0.470909, -0.544008, 0.335379, -2.08366, -2.16556, -0.129023, 0.467747, -0.543839, 0.330543, -2.0816, -2.15816, -0.113794, -0.00329695, -0.0205426, -0.0174015, 0.000105599, -0.0187007, -0.0344448
0.0952185, 1.69216, -1.22948, -1.54509, -0.901749, -1.19873, 1.22633, -1.30247, 0.0472894, -0.012528, -0.0524117, 0.00730715, -0.136092, 0.0053719, -0.00107569, -0.694511, 69.4525, 33.6695, 8.78693, 1.47327, 4.21298, -0.0164075, -0.000467364, -0.00299788, 0.00492703, 0.0121202, -0.00165936, 0.00341849, -0.00265394, -0.00504215, -0.0122264, -0.0950172, 0.112886, -0.0574671, 0.470906, -0.544029, 0.335362, -2.08365, -2.16555, -0.128993, 0.467747, -0.543855, 0.330516, -2.08163, -2.15815, -0.113545, -0.00336018, -0.0209318, -0.0177477, 0.00113111, -0.0162254, -0.0295642
0.0962185, 1.69222, -1.22949, -1.54516, -0.901731, -1.19886, 1.22634, -1.30247, 0.0463376, -0.0112658, -0.0551619, 0.00877561, -0.137729, 0.00385372, 0.000232321, -0.76989, 69.5636, 33.6695, 8.82263, 1.43573, 4.21298, -0.0420422, -0.000465442, -0.00299173, 0.00494411, 0.0122117, -0.00175487, 0.00345601, -0.00161789, -0.0032662, -0.0120379, -0.0982392, 0.114931, -0.0634831, 0.470903, -0.54405, 0.335344, -2.08364, -2.16554, -0.128963, 0.467749, -0.543872, 0.330482, -2.08166, -2.15812, -0.113313, -0.00342359, -0.0213219, -0.0180953, -0.000662313, -0.01774, -0.0298316
0.0972185, 1.69227, -1.2295, -1.54523, -0.901727, -1.19899, 1.22635, -1.30246, 0.0502334, -0.00691186, -0.060213, 0.00608973, -0.135112, 0.00690583, 0.00137559, -0.76989, 69.5279, 33.6695, 9.00909, 1.3927, 4.22763, -0.0750012, -0.000460709, -0.00298546, 0.00495655, 0.0123067, -0.00186222, 0.00348267, -0.00412112, -0.00599785, -0.0112804, -0.0999643, 0.119529, -0.0606487, 0.470899, -0.544071, 0.335326, -2.08363, -2.16553, -0.128932, 0.467751, -0.543886, 0.330452, -2.08169, -2.15811, -0.113065, -0.00348715, -0.0217127, -0.0184443, 0.00194052, -0.0156642, -0.029129
0.0982185, 1.69232, -1.2295, -1.5453, -0.901726, -1.19912, 1.22636, -1.30247, 0.0533186, -0.00975924, -0.0607594, 0.00733401, -0.133986, 0.00974407, -0.00101571, -0.76989, 69.5993, 33.6695, 9.19556, 1.3808, 4.22763, -0.0228162, -0.000455742, -0.00297833, 0.0049717, 0.012403, -0.00196816, 0.00349961, -0.00511495, -0.00812442, -0.0126032, -0.097263, 0.117388, -0.0566991, 0.470896, -0.544093, 0.335307, -2.08363, -2.16552, -0.1289, 0.467754, -0.5439, 0.330419, -2.0817, -2.1581, -0.112818, -0.00355087, -0.0221042, -0.0187947, 0.00391613, -0.0147842, -0.0306973
0.0992185, 1.69238, -1.22951, -1.54537, -0.901715, -1.19924, 1.22636, -1.30247, 0.0532287, -0.00607928, -0.0653337, 0.00777167, -0.133273, 0.0115487, 0.000272298, -0.809562, 69.5636, 33.7052, 9.27094, 1.36249, 4.24228, -0.0484509, -0.00044856, -0.00297058, 0.00498367, 0.012496, -0.00206933, 0.00352655, -0.0047251, -0.00756919, -0.0115354, -0.0985043, 0.12181, -0.0610857, 0.470892, -0.544115, 0.335289, -2.08362, -2.16551, -0.128868, 0.467758, -0.543913, 0.33039, -2.08172, -2.15808, -0.112578, -0.00361472, -0.0224964, -0.0191465, 0.00335074, -0.0157482, -0.0300382
0.100219, 1.69242, -1.22951, -1.54544, -0.901712, -1.19936, 1.22637, -1.30246, 0.0527854, -0.00352389, -0.0654332, 0.00707734, -0.132563, 0.00764105, 0.000452803, -0.694511, 69.5279, 33.7449, 9.38202, 1.34967, 4.27066, -0.0557752, -0.000445863, -0.00296983, 0.00499416, 0.0125907, -0.00217548, 0.00356477, -0.00593313, -0.00684079, -0.0101773, -0.101362, 0.122076, -0.0615817, 0.470888, -0.544138, 0.335269, -2.08361, -2.1655, -0.128835, 0.467754, -0.543931, 0.330361, -2.08176, -2.15805, -0.112328, -0.00367869, -0.0228891, -0.0194995, 0.00256608, -0.0151869, -0.0288405
0.101219, 1.69248, -1.22951, -1.54551, -0.901706, -1.19948, 1.22637, -1.30247, 0.0549476, -0.00257895, -0.0674294, 0.00823232, -0.132091, 0.00529631, -0.000206755, -0.809562, 69.5279, 33.7449, 9.42169, 1.33777, 4.28531, -0.0420422, -0.000434969, -0.00295858, 0.00500486, 0.0126817, -0.00227928, 0.00357781, -0.00700089, -0.00711389, -0.0101815, -0.104301, 0.121764, -0.0612315, 0.470885, -0.54416, 0.33525, -2.0836, -2.16549, -0.128801, 0.467761, -0.543942, 0.330332, -2.08177, -2.15805, -0.112088, -0.00374278, -0.0232822, -0.0198537, 0.00273625, -0.0145141, -0.029042
0.102219, 1.69252, -1.2295, -1.54558, -0.901702, -1.1996, 1.22638, -1.30247, 0.0518479, 0.000706886, -0.0701348, 0.00823714, -0.127842, 0.00800842, -0.0015959, -0.734184, 69.4168, 33.7806, 9.4931, 1.34418, 4.30636, -0.00267457, -0.000426945, -0.00295426, 0.00501012, 0.0127747, -0.00238951, 0.00360312, -0.00636292, -0.00587152, -0.00851392, -0.101237, 0.123141, -0.0634601, 0.470881, -0.544184, 0.33523, -2.08359, -2.16547, -0.128767, 0.467761, -0.543956, 0.330308, -2.08179, -2.15804, -0.111837, -0.00380697, -0.0236758, -0.020209, 0.00151543, -0.0158448, -0.0278113
0.103219, 1.69258, -1.22948, -1.54566, -0.901695, -1.19972, 1.22638, -1.30246, 0.0522936, 0.00637419, -0.0706669, 0.00986987, -0.125494, 0.00482705, 0.00137748, -0.76989, 69.1589, 33.8917, 9.4931, 1.3808, 4.34207, -0.0685925, -0.00041839, -0.0029493, 0.00501258, 0.0128708, -0.0025089, 0.00364023, -0.00771535, -0.00530675, -0.0051331, -0.101836, 0.125407, -0.0676598, 0.470877, -0.544207, 0.33521, -2.08358, -2.16546, -0.128732, 0.467761, -0.543971, 0.330287, -2.08183, -2.15801, -0.111571, -0.00387125, -0.0240696, -0.0205654, 0.000963717, -0.0154463, -0.0246025
0.104219, 1.69263, -1.22947, -1.54573, -0.901694, -1.19983, 1.22639, -1.30246, 0.0502009, 0.00591579, -0.0684363, 0.00920892, -0.122377, 0.00274086, 0.00115568, -0.845268, 69.0836, 33.8917, 9.56848, 1.3808, 4.37137, -0.0750012, -0.000405345, -0.00294014, 0.00501768, 0.0129563, -0.00261263, 0.00365476, -0.00868038, -0.00472301, -0.00448286, -0.0999291, 0.121395, -0.0674316, 0.470873, -0.544231, 0.335189, -2.08357, -2.16545, -0.128697, 0.467766, -0.543981, 0.330263, -2.08184, -2.15801, -0.111334, -0.00393561, -0.0244637, -0.0209229, 0.000305939, -0.0150114, -0.0241503
0.105219, 1.69268, -1.22946, -1.5458, -0.901692, -1.19995, 1.22639, -1.30247, 0.0505801, 0.00814008, -0.0717044, 0.00859729, -0.120559, 0.001232, 0.000770452, -0.884941, 68.9011, 33.967, 9.64386, 1.39911, 4.39975, -0.0750012, -0.000395644, -0.00293497, 0.00502085, 0.0130493, -0.00272915, 0.00367955, -0.0095135, -0.00444275, -0.00426022, -0.103066, 0.121848, -0.0677689, 0.470869, -0.544256, 0.335168, -2.08357, -2.16544, -0.128661, 0.467766, -0.543995, 0.33024, -2.08187, -2.158, -0.111075, -0.00400003, -0.0248579, -0.0212814, -5.99121e-05, -0.0146289, -0.0241513
0.106219, 1.69272, -1.22944, -1.54587, -0.901689, -1.20007, 1.2264, -1.30247, 0.0480708, 0.00973391, -0.066459, 0.00600958, -0.120469, -0.000430421, -0.00118179, -0.920646, 68.7146, 33.8559, 9.67957, 1.44855, 4.44278, -0.0292249, -0.000383484, -0.00292955, 0.00501873, 0.0131344, -0.00284355, 0.00370067, -0.0110285, -0.00429337, -0.00153623, -0.100226, 0.122523, -0.0641554, 0.470865, -0.544281, 0.335147, -2.08356, -2.16543, -0.128624, 0.467767, -0.544008, 0.330223, -2.08189, -2.158, -0.110826, -0.0040645, -0.0252522, -0.0216408, -0.0002267, -0.0139523, -0.0215816
0.107219, 1.69277, -1.22944, -1.54595, -0.901687, -1.20019, 1.2264, -1.30246, 0.0521216, 0.00811883, -0.0681539, 0.00391332, -0.119726, -0.00135292, 0.00114492, -1.07537, 68.6432, 33.967, 9.71924, 1.47876, 4.47848, -0.0814099, -0.000372137, -0.00292367, 0.00502973, 0.0132348, -0.00294444, 0.00372785, -0.0136314, -0.0067483, -0.00336419, -0.103564, 0.120516, -0.0617915, 0.470861, -0.544306, 0.335125, -2.08355, -2.16541, -0.128586, 0.467768, -0.54402, 0.330192, -2.08191, -2.15797, -0.110572, -0.00412902, -0.0256465, -0.022001, 0.00199993, -0.0113953, -0.0234199
0.108219, 1.69282, -1.22942, -1.54601, -0.901684, -1.2003, 1.2264, -1.30247, 0.0483956, 0.0105788, -0.0639827, 0.00239988, -0.118172, -0.00125214, -0.000186153, -1.22613, 68.421, 33.8559, 9.75494, 1.49158, 4.49313, -0.0557752, -0.000358533, -0.00291754, 0.00502627, 0.0133171, -0.00305913, 0.00374644, -0.0142518, -0.00595575, -0.000146937, -0.0986765, 0.121665, -0.0609887, 0.470857, -0.544332, 0.335103, -2.08354, -2.1654, -0.128548, 0.46777, -0.544033, 0.330176, -2.08193, -2.15797, -0.110325, -0.00419356, -0.0260407, -0.0223621, 0.00124115, -0.011704, -0.0204836
0.109219, 1.69287, -1.22942, -1.54609, -0.90168, -1.20042, 1.2264, -1.30247, 0.0436351, 0.009628, -0.0637465, 0.00430952, -0.116972, -0.00096177, -0.000124102, -1.30151, 68.3099, 33.8559, 9.79462, 1.49707, 4.50046, -0.0557752, -0.00034914, -0.00291485, 0.00503162, 0.0134055, -0.00316344, 0.00377618, -0.0121945, -0.00316703, 0.000214774, -0.0957556, 0.119724, -0.0675174, 0.470853, -0.544358, 0.335081, -2.08353, -2.16539, -0.128509, 0.467768, -0.544048, 0.330149, -2.08196, -2.15795, -0.11008, -0.00425812, -0.0264347, -0.0227239, -0.00152167, -0.0142988, -0.0207204
0.110219, 1.69292, -1.22942, -1.54615, -0.901674, -1.20053, 1.22641, -1.30247, 0.0468597, 0.00296774, -0.0641149, 0.00348926, -0.120723, -0.000770347, -0.00177816, -1.52764, 68.4567, 33.7449, 9.79462, 1.49707, 4.50686, -0.00999879, -0.000336458, -0.00290658, 0.00504138, 0.0134888, -0.00325714, 0.00379191, -0.0128723, -0.00489833, -0.00379442, -0.0987683, 0.116681, -0.0638464, 0.470849, -0.544384, 0.335058, -2.08352, -2.16537, -0.12847, 0.467771, -0.544061, 0.330119, -2.08197, -2.15794, -0.109852, -0.00432269, -0.0268285, -0.0230865, -3.03914e-05, -0.0133365, -0.0249909
0.111219, 1.69292, -1.22942, -1.54615, -0.901674, -1.20053, 1.22641, -1.30247, 0.0468597, 0.00296774, -0.0641149, 0.00348926, -0.120723, -0.000770347, -0.00177816, -1.52764, 68.4567, 33.7449, 9.79462, 1.49707, 4.50686, -0.00999879, -0.000306527, -0.00290172, 0.00502263, 0.013457, -0.00325278, 0.00378796, -0.0133148, -0.00496763, -0.00349364, -0.0984108, 0.116892, -0.064483, 0.470844, -0.544411, 0.335035, -2.08351, -2.16536, -0.12843, 0.467771, -0.544061, 0.330119, -2.08197, -2.15794, -0.109852, -0.00438725, -0.027222, -0.0234497, -3.03914e-05, -0.0133365, -0.0249909
0.112219, 1.69301, -1.22939, -1.54628, -0.901665, -1.20076, 1.22642, -1.30247, 0.049998, 0.0127342, -0.0639156, 0.000132962, -0.116324, 0.000473352, 0.000893827, -1.94024, 68.0164, 33.483, 9.87, 1.47327, 4.48581, -0.0750012, -0.000307864, -0.00289422, 0.00503477, 0.0136468, -0.00348203, 0.00384599, -0.0177938, -0.00813203, 0.00212225, -0.0959542, 0.124272, -0.0604244, 0.47084, -0.544438, 0.335012, -2.08349, -2.16534, -0.128389, 0.467773, -0.544087, 0.330083, -2.08203, -2.15792, -0.109363, -0.00445179, -0.0276151, -0.0238135, 0.00311487, -0.0100411, -0.0192145
0.113219, 1.69306, -1.22939, -1.54635, -0.901663, -1.20088, 1.22642, -1.30247, 0.0511445, 0.00957934, -0.0654254, 0.000839997, -0.113753, 0.000903746, -0.00181161, -2.16637, 67.9807, 33.4076, 9.98108, 1.43024, 4.47116, -0.00999879, -0.000293054, -0.00288674, 0.0050377, 0.0137277, -0.00358589, 0.00385906, -0.0184025, -0.00884371, 0.000106219, -0.0954632, 0.119517, -0.057629, 0.470836, -0.544466, 0.334988, -2.08348, -2.16533, -0.128348, 0.467775, -0.544099, 0.330059, -2.08205, -2.15792, -0.109125, -0.00451631, -0.0280078, -0.0241779, 0.00366439, -0.00949382, -0.0214979
0.114219, 1.6931, -1.22939, -1.54641, -0.901657, -1.201, 1.22643, -1.30247, 0.0501948, 0.00750524, -0.06462, 0.00242595, -0.121774, 0.00063673, -2.09472e-05, -2.3211, 67.941, 33.2609, 10.0565, 1.41192, 4.47116, -0.0420422, -0.000280884, -0.00288242, 0.0050393, 0.0138017, -0.00368682, 0.00388995, -0.0163792, -0.00724626, -0.000260188, -0.0976483, 0.123901, -0.0646232, 0.470831, -0.544494, 0.334964, -2.08347, -2.16531, -0.128305, 0.467774, -0.544115, 0.330035, -2.08208, -2.1579, -0.108896, -0.00458078, -0.0283999, -0.0245428, 0.00206302, -0.0118925, -0.0224884
0.115219, 1.69315, -1.22939, -1.54648, -0.901652, -1.20111, 1.22643, -1.30246, 0.0433973, 0.00598196, -0.063825, 0.00377376, -0.118368, 0.000178894, 0.000969379, -2.47185, 67.9053, 33.2212, 10.1279, 1.37439, 4.47848, -0.0685925, -0.000268174, -0.00287927, 0.00504244, 0.0138822, -0.00378501, 0.0039243, -0.0141631, -0.00366025, -7.87768e-05, -0.0938485, 0.119165, -0.0726018, 0.470826, -0.544522, 0.334939, -2.08346, -2.1653, -0.128263, 0.467772, -0.54413, 0.330009, -2.08211, -2.15787, -0.108661, -0.00464521, -0.0287914, -0.0249081, -0.00149693, -0.0146466, -0.0229058
0.116219, 1.69319, -1.22938, -1.54653, -0.901652, -1.20123, 1.22643, -1.30247, 0.0452831, 0.00752908, -0.0637995, 0.00289778, -0.116498, 0.000409786, -0.00057445, -2.65832, 67.7585, 33.0744, 10.2786, 1.35608, 4.47116, -0.0356336, -0.000250883, -0.0028729, 0.00503682, 0.0139552, -0.00389561, 0.0039402, -0.0161858, -0.00521456, 0.000949583, -0.0929546, 0.119652, -0.0684769, 0.470822, -0.544551, 0.334914, -2.08345, -2.16528, -0.128219, 0.467773, -0.544143, 0.329992, -2.08213, -2.15787, -0.108423, -0.00470957, -0.0291822, -0.0252738, -4.25563e-05, -0.0131349, -0.0219916
0.117219, 1.69322, -1.22937, -1.54658, -0.901648, -1.20135, 1.22643, -1.30247, 0.040983, 0.00593518, -0.0624432, 0.0009754, -0.120148, 0.00389769, -0.00184103, -2.7337, 67.7228, 32.999, 10.354, 1.34418, 4.50046, 0.00373412, -0.000238027, -0.00287135, 0.00503493, 0.0140263, -0.00399605, 0.0039622, -0.0143433, -0.00379246, 0.00106037, -0.0904587, 0.122922, -0.0709258, 0.470817, -0.54458, 0.334889, -2.08344, -2.16527, -0.128175, 0.46777, -0.544159, 0.329971, -2.08216, -2.15786, -0.108196, -0.00477385, -0.0295723, -0.0256399, -0.00145723, -0.0154191, -0.0224893
0.118219, 1.69327, -1.22937, -1.54664, -0.901636, -1.20148, 1.22643, -1.30246, 0.0438702, 0.00401722, -0.057339, 0.00433795, -0.123018, 0.00249193, 0.000976695, -2.92413, 67.7228, 32.8879, 10.354, 1.33777, 4.51419, -0.0557752, -0.00022547, -0.00286764, 0.00503266, 0.0140937, -0.00410012, 0.00400153, -0.0155287, -0.00509847, 0.00224436, -0.087189, 0.122405, -0.0729698, 0.470812, -0.54461, 0.334863, -2.08342, -2.16525, -0.12813, 0.467768, -0.544177, 0.329949, -2.0822, -2.15783, -0.107968, -0.00483806, -0.0299616, -0.0260062, -0.000214921, -0.0147666, -0.0215443
0.119219, 1.69331, -1.22938, -1.54669, -0.901629, -1.20161, 1.22643, -1.30247, 0.0400653, 0.00105303, -0.058005, 0.00495241, -0.119546, 0.00196285, 0.000379863, -2.9995, 67.7942, 32.8522, 10.4294, 1.30755, 4.51419, -0.0484509, -0.000214129, -0.00286594, 0.00503609, 0.0141665, -0.00419608, 0.00403023, -0.0144404, -0.00311868, 0.000797517, -0.0856277, 0.116416, -0.0764098, 0.470808, -0.54464, 0.334837, -2.08341, -2.16524, -0.128084, 0.467764, -0.544195, 0.329922, -2.08223, -2.15781, -0.107741, -0.00490216, -0.0303499, -0.0263728, -0.00227154, -0.016088, -0.0234459
0.120219, 1.69334, -1.22938, -1.54675, -0.901624, -1.20173, 1.22643, -1.30247, 0.0382038, 0.00157123, -0.0565944, 0.00870581, -0.1234, 0.000449676, -0.000458835, -3.11059, 67.7585, 32.8522, 10.5008, 1.32587, 4.54349, -0.0292249, -0.000201676, -0.00286473, 0.00503408, 0.0142404, -0.00430287, 0.00406247, -0.0126799, -0.000825698, 0.00240834, -0.0850288, 0.119076, -0.0819877, 0.470803, -0.54467, 0.334811, -2.0834, -2.16522, -0.128038, 0.46776, -0.544213, 0.329899, -2.08226, -2.15779, -0.107502, -0.00496616, -0.0307373, -0.0267396, -0.0045023, -0.0185549, -0.0224227
0.121219, 1.69338, -1.22939, -1.5468, -0.901607, -1.20186, 1.22643, -1.30247, 0.0377965, -0.000690254, -0.0552161, 0.0116966, -0.120457, 0.000232058, -0.00128923, -3.26134, 67.8339, 32.8522, 10.4294, 1.31946, 4.54989, -0.00267457, -0.000191656, -0.00286509, 0.00503339, 0.0143046, -0.00439829, 0.00409984, -0.0127393, -0.000575907, 0.00228053, -0.0809875, 0.114167, -0.0831456, 0.470798, -0.544701, 0.334784, -2.08339, -2.1652, -0.127991, 0.467754, -0.544234, 0.329875, -2.0823, -2.15776, -0.107284, -0.00503004, -0.0311236, -0.0271065, -0.0048224, -0.0188731, -0.0228988
0.122219, 1.69342, -1.22938, -1.54685, -0.901594, -1.20198, 1.22643, -1.30247, 0.03737, 0.00132219, -0.0563817, 0.0112888, -0.119286, 1.06622e-05, -0.000350863, -3.4121, 67.7585, 32.8126, 10.4651, 1.33136, 4.55722, -0.0164075, -0.000178047, -0.00286399, 0.005027, 0.0143701, -0.00450322, 0.00413264, -0.0133003, -0.000338367, 0.00331205, -0.0812243, 0.115444, -0.0850253, 0.470793, -0.544732, 0.334757, -2.08337, -2.16519, -0.127943, 0.46775, -0.544253, 0.329856, -2.08234, -2.15775, -0.107054, -0.0050938, -0.0315088, -0.0274735, -0.0051044, -0.0188726, -0.0221529
0.123219, 1.69345, -1.22939, -1.54691, -0.901581, -1.20211, 1.22644, -1.30247, 0.0382591, -0.00170266, -0.0581618, 0.0149042, -0.123197, 0.000611153, 3.45014e-06, -3.48748, 67.8696, 32.8126, 10.4651, 1.34967, 4.54349, -0.0228162, -0.000169169, -0.00286577, 0.00502849, 0.0144357, -0.00459864, 0.00417376, -0.0115874, 0.000501857, 0.00172673, -0.0824012, 0.116012, -0.0904022, 0.470788, -0.544764, 0.33473, -2.08336, -2.16517, -0.127895, 0.467742, -0.544276, 0.329829, -2.08239, -2.15771, -0.106832, -0.00515741, -0.0318928, -0.0278405, -0.00600568, -0.0207386, -0.0243242
0.124219, 1.6935, -1.22939, -1.54696, -0.901566, -1.20224, 1.22643, -1.30247, 0.0397191, -0.00254034, -0.0605136, 0.0165375, -0.126041, 0.00024164, -0.000472418, -3.71758, 67.7942, 32.8522, 10.5008, 1.3689, 4.54989, -0.00999879, -0.000155086, -0.00286327, 0.00502308, 0.0145068, -0.00470951, 0.00420666, -0.0111007, 0.000777866, 0.000841807, -0.0852531, 0.117633, -0.0926278, 0.470782, -0.544796, 0.334702, -2.08335, -2.16515, -0.127846, 0.467739, -0.544294, 0.329809, -2.08242, -2.15769, -0.106589, -0.00522087, -0.0322756, -0.0282076, -0.00636069, -0.0214772, -0.0256317
0.125219, 1.69353, -1.22939, -1.54702, -0.901543, -1.20237, 1.22644, -1.30247, 0.0346444, -0.00287845, -0.0610887, 0.0196426, -0.132377, 0.000452125, 0.00087185, -3.82867, 67.8339, 32.8522, 10.4651, 1.37439, 4.54349, -0.0420422, -0.000147154, -0.00286715, 0.00501913, 0.014567, -0.00480866, 0.00425961, -0.00694834, 0.00504146, 0.00147684, -0.0859336, 0.122417, -0.104744, 0.470777, -0.544828, 0.334674, -2.08333, -2.16513, -0.127796, 0.46773, -0.54432, 0.329786, -2.08248, -2.15765, -0.106366, -0.00528417, -0.032657, -0.0285745, -0.0105102, -0.0262303, -0.0258795
0.126219, 1.69357, -1.2294, -1.54708, -0.901526, -1.20249, 1.22643, -1.30247, 0.0340691, -0.00378205, -0.0620928, 0.0202492, -0.132084, 0.000612939, 0.000818592, -3.94372, 67.9053, 32.8879, 10.5008, 1.37439, 4.53616, -0.0484509, -0.000139017, -0.00287175, 0.00502087, 0.0146393, -0.00490455, 0.00430863, -0.00669895, 0.00553762, 0.00102788, -0.0858565, 0.121594, -0.106812, 0.470772, -0.54486, 0.334645, -2.08332, -2.16511, -0.127746, 0.467719, -0.544344, 0.329757, -2.08253, -2.15761, -0.106134, -0.0053473, -0.0330371, -0.0289414, -0.0110768, -0.026808, -0.0267124
0.127219, 1.69361, -1.22939, -1.54714, -0.901505, -1.20262, 1.22643, -1.30248, 0.0376013, -6.74018e-05, -0.066167, 0.0206226, -0.13198, -6.98096e-05, -0.00162441, -4.09447, 67.7942, 32.9236, 10.5405, 1.37439, 4.54989, 0.0101428, -0.000128161, -0.00287355, 0.00501397, 0.014708, -0.00501665, 0.00434855, -0.00816355, 0.00448453, 0.00190915, -0.0896261, 0.125474, -0.103884, 0.470766, -0.544894, 0.334616, -2.0833, -2.1651, -0.127694, 0.467712, -0.544368, 0.329737, -2.08258, -2.15758, -0.105889, -0.00541024, -0.0334157, -0.0293081, -0.0101067, -0.0258328, -0.0260153
0.128219, 1.69365, -1.22938, -1.5472, -0.901477, -1.20276, 1.22643, -1.30247, 0.0379435, 0.00328037, -0.0653171, 0.0259034, -0.132102, -2.38965e-05, 0.000137763, -4.28094, 67.6474, 32.9236, 10.5008, 1.37439, 4.54989, -0.0228162, -0.000118011, -0.00287503, 0.00500477, 0.0147747, -0.00513461, 0.00440204, -0.00762895, 0.00532772, 0.00521872, -0.0857738, 0.128692, -0.110335, 0.470761, -0.544927, 0.334587, -2.08329, -2.16508, -0.127643, 0.467705, -0.544393, 0.329718, -2.08264, -2.15755, -0.105638, -0.00547299, -0.0337927, -0.0296745, -0.0108672, -0.0272804, -0.0231697
0.129219, 1.69369, -1.22938, -1.54727, -0.901451, -1.2029, 1.22644, -1.30247, 0.0405705, 0.00210564, -0.0654968, 0.02796, -0.13201, 0.00023841, 0.00131254, -4.43169, 67.6474, 32.9633, 10.5405, 1.37439, 4.54349, -0.0557752, -0.000111715, -0.00287988, 0.00500278, 0.0148483, -0.0052462, 0.0044627, -0.00845912, 0.00419905, 0.00494795, -0.0848001, 0.127778, -0.111412, 0.470756, -0.544961, 0.334557, -2.08327, -2.16506, -0.12759, 0.467694, -0.544421, 0.329692, -2.08271, -2.1575, -0.105385, -0.00553554, -0.0341681, -0.0300408, -0.00984207, -0.0267484, -0.0237105
0.130219, 1.69373, -1.22938, -1.54734, -0.901422, -1.20303, 1.22644, -1.30247, 0.0383888, -0.000852328, -0.0655662, 0.0296762, -0.13281, 0.000171677, 0.00111239, -4.54675, 67.6117, 32.999, 10.5762, 1.3927, 4.54349, -0.0621838, -0.000105015, -0.00288477, 0.00500022, 0.0149222, -0.005358, 0.00452129, -0.00698263, 0.00580923, 0.00383586, -0.0840182, 0.12548, -0.115764, 0.47075, -0.544995, 0.334527, -2.08326, -2.16504, -0.127537, 0.467683, -0.544449, 0.329666, -2.08277, -2.15745, -0.105131, -0.00559787, -0.0345419, -0.0304067, -0.0115019, -0.028475, -0.0253516
0.131219, 1.69378, -1.22938, -1.5474, -0.901393, -1.20317, 1.22644, -1.30247, 0.0408686, -0.00170168, -0.0659784, 0.029999, -0.131774, 0.000666539, -0.00119119, -4.6975, 67.6474, 32.9236, 10.6516, 1.3808, 4.52884, -0.00999879, -9.4957e-05, -0.00288569, 0.0049969, 0.0149881, -0.00546586, 0.00456558, -0.00839951, 0.00427305, 0.00345908, -0.083378, 0.124374, -0.111792, 0.470744, -0.545029, 0.334497, -2.08324, -2.16502, -0.127483, 0.467676, -0.544474, 0.32964, -2.08282, -2.15741, -0.10489, -0.00565998, -0.0349139, -0.0307722, -0.0100943, -0.0273273, -0.0259187
0.132219, 1.69382, -1.22939, -1.54747, -0.901361, -1.20331, 1.22644, -1.30247, 0.0426936, -0.00135814, -0.0689391, 0.0313516, -0.140461, 0.00126533, -0.00106539, -4.84826, 67.6474, 32.9633, 10.6873, 1.3808, 4.50686, -0.00267457, -8.84126e-05, -0.0028895, 0.0049966, 0.015063, -0.00557735, 0.00462437, -0.00687096, 0.00490162, 0.00310131, -0.0887174, 0.132546, -0.116282, 0.470739, -0.545064, 0.334466, -2.08323, -2.165, -0.127428, 0.467666, -0.544503, 0.329611, -2.08288, -2.15736, -0.104634, -0.00572185, -0.0352841, -0.0311374, -0.010743, -0.0291774, -0.0268536
0.133219, 1.69387, -1.22939, -1.54755, -0.901322, -1.20345, 1.22644, -1.30247, 0.046431, -0.00256698, -0.071345, 0.033164, -0.138086, 0.000848924, 0.00125643, -4.96331, 67.576, 32.999, 10.6873, 1.37439, 4.50686, -0.0557752, -8.45408e-05, -0.00289594, 0.00499584, 0.0151435, -0.00569461, 0.00469884, -0.00831687, 0.00335986, 0.00187072, -0.0894972, 0.129621, -0.117504, 0.470733, -0.5451, 0.334435, -2.08321, -2.16498, -0.127372, 0.467654, -0.544535, 0.329582, -2.08296, -2.1573, -0.104363, -0.00578347, -0.0356524, -0.0315021, -0.00936295, -0.0278661, -0.0282587
0.134219, 1.69392, -1.22939, -1.54764, -0.901282, -1.2036, 1.22644, -1.30247, 0.0493044, -0.00117281, -0.0752452, 0.0335356, -0.135951, 0.00162114, 0.000566351, -5.07439, 67.5363, 32.999, 10.7269, 1.35608, 4.47848, -0.0484509, -8.03509e-05, -0.00290076, 0.00499642, 0.0152246, -0.00581349, 0.00476592, -0.00955655, 0.00210829, 0.00159845, -0.090991, 0.130246, -0.116157, 0.470727, -0.545135, 0.334403, -2.08319, -2.16496, -0.127316, 0.467643, -0.544566, 0.32955, -2.08303, -2.15724, -0.10409, -0.00584484, -0.0360188, -0.0318663, -0.00822871, -0.0269155, -0.0287399
0.135219, 1.69397, -1.22939, -1.54771, -0.901235, -1.20375, 1.22645, -1.30247, 0.0528703, -0.0050395, -0.0726657, 0.0357129, -0.138986, 0.00267748, -0.00155521, -5.11407, 67.576, 32.8879, 10.6873, 1.33136, 4.43545, 0.00373412, -7.78156e-05, -0.0029057, 0.00499586, 0.015297, -0.00593216, 0.00483171, -0.0103853, 0.000142444, 0.000755785, -0.0886911, 0.129449, -0.112769, 0.470721, -0.545171, 0.334371, -2.08318, -2.16494, -0.127259, 0.467632, -0.5446, 0.32952, -2.08311, -2.15719, -0.103826, -0.00590595, -0.0363832, -0.0322299, -0.00638809, -0.0262517, -0.0298705
0.136219, 1.69404, -1.22939, -1.5478, -0.901186, -1.20391, 1.22645, -1.30247, 0.0551245, -0.00206865, -0.0764064, 0.0401701, -0.14133, 0.00232979, -0.000290823, -5.26482, 67.5006, 32.8879, 10.6516, 1.31305, 4.4208, -0.0164075, -7.30352e-05, -0.00290812, 0.00499692, 0.0153856, -0.00605919, 0.00490393, -0.00954728, 0.000872382, 0.0019873, -0.0909404, 0.134383, -0.11904, 0.470716, -0.545208, 0.334339, -2.08316, -2.16492, -0.127202, 0.467623, -0.544632, 0.329488, -2.08318, -2.15713, -0.103534, -0.00596678, -0.0367455, -0.032593, -0.00710098, -0.0276603, -0.0291238
0.137219, 1.6941, -1.2294, -1.54789, -0.901141, -1.20407, 1.22646, -1.30247, 0.0539291, -0.00574646, -0.0808525, 0.0408862, -0.147918, 0.00260605, 0.0017389, -5.30053, 67.5363, 32.8126, 10.7269, 1.30115, 4.39242, -0.0685925, -7.14503e-05, -0.00291162, 0.0050028, 0.0154743, -0.00618724, 0.00498186, -0.00664458, 0.00307394, -0.00123604, -0.0970675, 0.136734, -0.127763, 0.47071, -0.545245, 0.334306, -2.08314, -2.16489, -0.127143, 0.467613, -0.544666, 0.32945, -2.08326, -2.15706, -0.10324, -0.00602732, -0.0371056, -0.0329554, -0.00938018, -0.0304816, -0.0330474
0.138219, 1.69415, -1.22942, -1.54798, -0.901083, -1.20424, 1.22646, -1.30247, 0.0539589, -0.0077951, -0.0851942, 0.0451307, -0.153678, 0.00228118, -0.000298797, -5.22515, 67.6831, 32.7768, 10.6516, 1.30755, 4.37778, -0.0292249, -7.63689e-05, -0.00291983, 0.00501443, 0.0155649, -0.00630735, 0.0050692, -0.00363417, 0.00540742, -0.00308717, -0.101635, 0.13943, -0.134028, 0.470704, -0.545282, 0.334273, -2.08313, -2.16487, -0.127084, 0.467598, -0.544707, 0.329405, -2.08335, -2.15698, -0.10295, -0.00608756, -0.0374636, -0.0333171, -0.0117348, -0.0336232, -0.0356276
0.139219, 1.69422, -1.22943, -1.54808, -0.90103, -1.20442, 1.22647, -1.30247, 0.0601171, -0.00865485, -0.0851063, 0.0486582, -0.158265, 0.00230164, -0.000911275, -5.26482, 67.6831, 32.7372, 10.6873, 1.33136, 4.35672, -0.00999879, -7.56147e-05, -0.00292271, 0.00502162, 0.0156648, -0.00644425, 0.00514256, -0.00475917, 0.00315893, -0.0030587, -0.102626, 0.142557, -0.132567, 0.470697, -0.545319, 0.33424, -2.08311, -2.16485, -0.127025, 0.467589, -0.544743, 0.329365, -2.08342, -2.15691, -0.102634, -0.0061475, -0.0378192, -0.0336781, -0.00958826, -0.0327804, -0.0358588
0.140219, 1.6943, -1.22944, -1.54818, -0.90098, -1.2046, 1.22647, -1.30247, 0.0667374, -0.00548808, -0.0940373, 0.0545551, -0.166212, 0.0067499, 0.000341919, -5.26482, 67.6474, 32.8126, 10.7269, 1.34418, 4.33566, -0.0356336, -7.44201e-05, -0.00292333, 0.00503239, 0.0157713, -0.00658599, 0.00522024, -0.00275947, 0.00244982, -0.00313148, -0.107839, 0.155063, -0.140089, 0.470691, -0.545357, 0.334206, -2.08309, -2.16483, -0.126964, 0.467581, -0.544778, 0.329321, -2.0835, -2.15684, -0.102304, -0.00620712, -0.0381726, -0.0340383, -0.00887172, -0.0350678, -0.0366235
0.141219, 1.69437, -1.22944, -1.54827, -0.900924, -1.20478, 1.22648, -1.30246, 0.0695593, -0.00615581, -0.0952511, 0.0558693, -0.16653, 0.00463269, 0.000973931, -5.18945, 67.4649, 32.6658, 10.7626, 1.32587, 4.34207, -0.0557752, -7.25211e-05, -0.00292498, 0.0050312, 0.0158633, -0.00673828, 0.00530329, -0.00387145, 0.0017301, -0.00378029, -0.110346, 0.153985, -0.140445, 0.470685, -0.545395, 0.334172, -2.08307, -2.1648, -0.126903, 0.467573, -0.544814, 0.329288, -2.0836, -2.15678, -0.101978, -0.00626642, -0.0385235, -0.0343977, -0.00827681, -0.0341919, -0.0374746
0.142219, 1.69443, -1.22946, -1.54838, -0.900865, -1.20496, 1.22649, -1.30247, 0.0728279, -0.00800468, -0.0990412, 0.0565189, -0.171249, 0.00871509, -0.00104613, -4.99902, 67.4649, 32.6261, 10.8023, 1.30755, 4.32101, -0.00999879, -7.87085e-05, -0.00293306, 0.00504154, 0.0159678, -0.00688263, 0.00539014, -0.00322291, 0.000412898, -0.00560439, -0.112279, 0.158644, -0.139738, 0.470679, -0.545434, 0.334138, -2.08305, -2.16478, -0.126841, 0.467559, -0.544858, 0.329243, -2.08368, -2.15671, -0.101645, -0.00632538, -0.038872, -0.0347562, -0.00706775, -0.0348467, -0.0397774
0.143219, 1.69451, -1.22946, -1.54849, -0.900805, -1.20515, 1.2265, -1.30247, 0.0762421, -0.00748425, -0.102025, 0.056551, -0.174338, 0.0112191, 0.00123536, -4.96331, 67.3895, 32.5904, 10.8777, 1.27002, 4.32101, -0.0621838, -7.70981e-05, -0.00293248, 0.00504806, 0.0160733, -0.00703487, 0.00547465, -0.00368195, -0.00111998, -0.00597605, -0.114197, 0.16359, -0.141796, 0.470673, -0.545473, 0.334103, -2.08303, -2.16476, -0.126778, 0.467552, -0.544894, 0.329202, -2.08377, -2.15664, -0.101303, -0.006384, -0.0392179, -0.0351138, -0.00562647, -0.0346196, -0.0404809
0.144219, 1.69459, -1.22946, -1.54859, -0.900738, -1.20534, 1.22651, -1.30247, 0.0776656, -0.00967073, -0.100787, 0.0615244, -0.181571, 0.012605, 0.00129829, -4.88793, 67.2784, 32.5547, 10.8777, 1.2453, 4.32834, -0.0750012, -7.78711e-05, -0.00293366, 0.00505363, 0.0161796, -0.00719194, 0.00556257, -0.00172923, -0.000556036, -0.00575833, -0.112941, 0.167871, -0.147243, 0.470666, -0.545512, 0.334068, -2.08301, -2.16473, -0.126715, 0.467544, -0.544933, 0.329162, -2.08387, -2.15657, -0.100954, -0.00644226, -0.0395612, -0.0354704, -0.00617055, -0.0369474, -0.0409066
0.145219, 1.69467, -1.22948, -1.5487, -0.900677, -1.20553, 1.22652, -1.30247, 0.0759725, -0.0125995, -0.102328, 0.0636319, -0.181988, 0.0141749, -0.000592536, -4.6975, 67.3538, 32.4793, 10.9491, 1.20318, 4.32101, -0.0356336, -8.00725e-05, -0.00293614, 0.00506629, 0.0162824, -0.00733335, 0.0056479, 7.19083e-05, 0.000798046, -0.00720597, -0.111734, 0.166213, -0.150331, 0.47066, -0.545551, 0.334033, -2.08299, -2.16471, -0.126651, 0.467535, -0.544973, 0.329114, -2.08395, -2.15649, -0.100624, -0.00650015, -0.0399019, -0.035826, -0.00757306, -0.0388997, -0.0429262
0.146219, 1.69475, -1.22949, -1.54881, -0.900607, -1.20572, 1.22653, -1.30247, 0.0719039, -0.0126043, -0.101767, 0.0636506, -0.182576, 0.0159004, -0.000869742, -4.50707, 67.207, 32.3285, 10.9491, 1.16565, 4.30636, -0.0228162, -8.18857e-05, -0.00293767, 0.00506881, 0.0163793, -0.0074943, 0.00573787, 0.00166712, 0.00269092, -0.00633808, -0.108982, 0.167649, -0.154681, 0.470653, -0.545591, 0.333997, -2.08297, -2.16469, -0.126586, 0.467526, -0.545015, 0.329075, -2.08406, -2.15642, -0.100279, -0.00655767, -0.0402399, -0.0361806, -0.0094311, -0.0410235, -0.0426087
0.147219, 1.69483, -1.22949, -1.54892, -0.900538, -1.20591, 1.22655, -1.30247, 0.0723182, -0.0111153, -0.104286, 0.0627076, -0.187897, 0.0167201, 0.000640875, -4.32061, 67.1317, 32.2928, 10.9888, 1.13544, 4.29904, -0.0557752, -8.62903e-05, -0.00294176, 0.00507473, 0.0164813, -0.00765415, 0.00583489, 0.00234022, 0.00313084, -0.00609304, -0.112912, 0.174492, -0.158634, 0.470647, -0.545631, 0.333961, -2.08295, -2.16466, -0.12652, 0.467515, -0.545059, 0.329033, -2.08416, -2.15634, -0.099929, -0.00661481, -0.0405751, -0.036534, -0.00989455, -0.0420789, -0.0428098
0.148219, 1.69491, -1.2295, -1.54903, -0.900465, -1.20611, 1.22656, -1.30247, 0.0734935, -0.00706038, -0.105313, 0.063008, -0.192118, 0.0168953, 0.00113933, -4.16985, 67.0602, 32.2175, 10.9888, 1.10431, 4.30636, -0.0750012, -8.76206e-05, -0.00294204, 0.00507889, 0.0165817, -0.00781636, 0.00592698, 0.00222694, 0.00319636, -0.00372934, -0.114881, 0.182485, -0.160917, 0.47064, -0.545672, 0.333924, -2.08293, -2.16464, -0.126454, 0.467508, -0.5451, 0.328992, -2.08427, -2.15627, -0.0995777, -0.00667155, -0.0409074, -0.0368864, -0.00992933, -0.0426648, -0.0408084
0.149219, 1.69499, -1.2295, -1.54914, -0.900392, -1.20631, 1.22657, -1.30247, 0.0744025, -0.0060849, -0.107487, 0.0653054, -0.193376, 0.0118308, 0.000759551, -4.0191, 66.9492, 31.9556, 11.0245, 1.03656, 4.32834, -0.0750012, -8.96906e-05, -0.00294477, 0.00507988, 0.0166796, -0.00798086, 0.00602098, 0.00220129, 0.0046341, -0.00376094, -0.120321, 0.182261, -0.163853, 0.470633, -0.545713, 0.333887, -2.08291, -2.16461, -0.126387, 0.467498, -0.545143, 0.328954, -2.08437, -2.1562, -0.099226, -0.00672789, -0.0412368, -0.0372375, -0.0114238, -0.0430231, -0.0411392
0.150219, 1.69508, -1.22949, -1.54926, -0.900308, -1.20652, 1.22659, -1.30247, 0.0769463, -0.00374323, -0.115062, 0.070622, -0.203368, 0.00865177, -0.000714336, -3.94372, 66.7627, 31.9556, 10.9134, 0.981627, 4.33566, -0.0420422, -9.77944e-05, -0.00295096, 0.00508211, 0.0167916, -0.00816211, 0.00612801, 0.00525804, 0.00747864, -0.00435489, -0.131648, 0.191643, -0.17223, 0.470627, -0.545754, 0.33385, -2.08289, -2.16458, -0.126319, 0.467485, -0.545192, 0.328914, -2.0845, -2.15611, -0.0988395, -0.00678382, -0.0415633, -0.0375874, -0.0142354, -0.046393, -0.0424547
0.151219, 1.69517, -1.22948, -1.54938, -0.900233, -1.20672, 1.2266, -1.30247, 0.0786374, 0.000774932, -0.115723, 0.0699658, -0.203228, 0.0112435, -0.000238865, -3.86834, 66.5802, 31.8445, 10.9888, 0.938597, 4.33566, -0.0484509, -0.000100812, -0.00295245, 0.00508008, 0.0168996, -0.00835103, 0.00622755, 0.00391947, 0.006045, -0.00155076, -0.129642, 0.197817, -0.171513, 0.47062, -0.545796, 0.333812, -2.08287, -2.16456, -0.126251, 0.467477, -0.545237, 0.328878, -2.08462, -2.15605, -0.0984498, -0.00683932, -0.0418868, -0.0379361, -0.0127976, -0.0457664, -0.0398742
0.152219, 1.69526, -1.22949, -1.54951, -0.900147, -1.20694, 1.22662, -1.30247, 0.079937, -0.000232235, -0.11912, 0.0722682, -0.203723, 0.0133385, 0.000586742, -3.79296, 66.5802, 31.7335, 10.9491, 0.913878, 4.32834, -0.0685925, -0.000111519, -0.0029588, 0.00508613, 0.0170079, -0.00853137, 0.00634407, 0.00475624, 0.00604811, -0.0025928, -0.129816, 0.19867, -0.175489, 0.470613, -0.545838, 0.333774, -2.08285, -2.16453, -0.126182, 0.467464, -0.545289, 0.328833, -2.08475, -2.15595, -0.0980659, -0.0068944, -0.0422071, -0.0382834, -0.0128669, -0.0467532, -0.0413795
0.153219, 1.69534, -1.2295, -1.54962, -0.900065, -1.20715, 1.22664, -1.30247, 0.0788248, -0.0023869, -0.117017, 0.0752776, -0.208438, 0.0149799, -0.000592183, -3.6422, 66.6516, 31.547, 10.9888, 0.877257, 4.32101, -0.0420422, -0.000121031, -0.002965, 0.00508916, 0.0171072, -0.00871026, 0.00645229, 0.00662386, 0.00712013, -0.00218527, -0.126944, 0.20107, -0.179222, 0.470606, -0.54588, 0.333736, -2.08282, -2.1645, -0.126112, 0.467451, -0.54534, 0.328791, -2.08488, -2.15587, -0.0976936, -0.00694903, -0.0425243, -0.0386293, -0.0139102, -0.0490209, -0.0415763
0.154219, 1.69542, -1.22949, -1.54975, -0.899978, -1.20738, 1.22666, -1.30247, 0.0808329, 0.000493154, -0.119052, 0.0775509, -0.208495, 0.0155811, -0.000869506, -3.60253, 66.5445, 31.5113, 11.0245, 0.877257, 4.32834, -0.0292249, -0.000134381, -0.002976, 0.00508692, 0.0172165, -0.00890891, 0.00657534, 0.00627743, 0.00677451, -0.000614819, -0.126785, 0.204629, -0.1807, 0.470599, -0.545922, 0.333697, -2.0828, -2.16448, -0.126041, 0.467433, -0.545397, 0.328753, -2.08502, -2.15578, -0.0972878, -0.00700322, -0.0428383, -0.0389739, -0.0135702, -0.0492196, -0.0403276
0.155219, 1.69551, -1.22948, -1.54987, -0.899888, -1.20761, 1.22668, -1.30247, 0.083228, 0.0026113, -0.121812, 0.0834486, -0.213464, 0.0214915, 0.00135311, -3.60253, 66.4334, 31.4359, 11.0245, 0.883666, 4.30636, -0.0814099, -0.000146574, -0.00298448, 0.00508138, 0.0173217, -0.00911609, 0.00670352, 0.00857174, 0.00672726, 0.00120564, -0.12336, 0.213862, -0.189392, 0.470592, -0.545965, 0.333659, -2.08278, -2.16445, -0.12597, 0.467418, -0.545453, 0.328718, -2.08518, -2.15569, -0.0968766, -0.00705695, -0.0431491, -0.039317, -0.0134242, -0.0520729, -0.0392295
0.156219, 1.69559, -1.22948, -1.54999, -0.899792, -1.20783, 1.2267, -1.30247, 0.0839958, 0.000668707, -0.119265, 0.0854847, -0.216278, 0.0196758, 0.000189996, -3.56683, 66.4691, 31.4002, 10.9888, 0.865355, 4.33566, -0.0621838, -0.000160459, -0.00299471, 0.00508037, 0.017421, -0.00930596, 0.00682818, 0.008484, 0.00686664, 0.00136088, -0.12293, 0.213341, -0.189621, 0.470585, -0.546008, 0.333619, -2.08275, -2.16442, -0.125898, 0.467401, -0.54551, 0.328678, -2.08533, -2.1556, -0.0964891, -0.00711021, -0.0434565, -0.0396587, -0.0136136, -0.0523233, -0.0393992
0.157219, 1.69567, -1.22948, -1.5501, -0.899696, -1.20805, 1.22672, -1.30247, 0.0811905, 0.000268097, -0.114413, 0.089458, -0.212739, 0.0230108, -0.00207738, -3.52715, 66.4691, 31.2494, 10.9888, 0.834227, 4.36404, -0.00267457, -0.000172081, -0.0030036, 0.00507622, 0.0175091, -0.00949157, 0.00694395, 0.00922439, 0.00740216, 0.00410309, -0.111465, 0.211223, -0.190773, 0.470578, -0.546052, 0.33358, -2.08273, -2.16439, -0.125825, 0.467385, -0.545566, 0.328641, -2.08547, -2.15551, -0.0961185, -0.007163, -0.0437605, -0.0399988, -0.014067, -0.0538009, -0.0371279
0.158219, 1.69575, -1.22946, -1.55022, -0.899596, -1.20827, 1.22674, -1.30247, 0.0799378, 0.00607758, -0.11255, 0.0900242, -0.217269, 0.0247042, 0.000819125, -3.52715, 66.2112, 31.2891, 10.9491, 0.858946, 4.40707, -0.0621838, -0.000183742, -0.00301459, 0.00506094, 0.0176005, -0.00969971, 0.00708006, 0.00976398, 0.00817856, 0.00881695, -0.109046, 0.221699, -0.196859, 0.470571, -0.546096, 0.33354, -2.08271, -2.16437, -0.125751, 0.467368, -0.545625, 0.328615, -2.08565, -2.15542, -0.0957184, -0.0072153, -0.0440611, -0.0403373, -0.0146896, -0.0553891, -0.0328691
0.159219, 1.69583, -1.22947, -1.55033, -0.899495, -1.20849, 1.22676, -1.30247, 0.0825028, 0.00311654, -0.112002, 0.089242, -0.217965, 0.0270032, 0.0010208, -3.56683, 66.2469, 31.2494, 10.9491, 0.815917, 4.43545, -0.0750012, -0.000195065, -0.0030243, 0.0050547, 0.0176842, -0.00988272, 0.00720661, 0.00857623, 0.00601439, 0.00752566, -0.107486, 0.220955, -0.194382, 0.470564, -0.54614, 0.333499, -2.08268, -2.16434, -0.125677, 0.467351, -0.545681, 0.328579, -2.0858, -2.15533, -0.0953527, -0.0072671, -0.0443582, -0.0406742, -0.0126728, -0.0542267, -0.0343693
0.160219, 1.6959, -1.22945, -1.55043, -0.899396, -1.20872, 1.22678, -1.30247, 0.0811137, 0.00710683, -0.108508, 0.0937234, -0.220336, 0.0233648, -0.000777528, -3.45177, 66.0287, 31.2137, 10.9888, 0.815917, 4.47848, -0.0356336, -0.000211152, -0.00304171, 0.00503695, 0.0177678, -0.0100908, 0.00734116, 0.00917882, 0.0081553, 0.0118154, -0.105586, 0.224694, -0.197852, 0.470556, -0.546184, 0.333458, -2.08266, -2.16431, -0.125602, 0.467327, -0.545745, 0.328555, -2.08598, -2.15524, -0.0949601, -0.00731841, -0.0446518, -0.0410095, -0.0146707, -0.0558609, -0.0304898
0.161219, 1.69598, -1.22945, -1.55053, -0.899292, -1.20894, 1.2268, -1.30247, 0.0797102, 0.00560968, -0.106728, 0.0923744, -0.226636, 0.0214497, -0.00099307, -3.45177, 65.9891, 31.2137, 10.9888, 0.815917, 4.50686, -0.0228162, -0.000225535, -0.00305513, 0.00502212, 0.0178413, -0.0102879, 0.00747386, 0.00986689, 0.00932315, 0.0116044, -0.108754, 0.227701, -0.199738, 0.470549, -0.546229, 0.333417, -2.08263, -2.16428, -0.125526, 0.467307, -0.545807, 0.328527, -2.08615, -2.15515, -0.0945892, -0.0073692, -0.0449417, -0.0413431, -0.015871, -0.0568457, -0.0310984
0.162219, 1.69606, -1.22942, -1.55063, -0.89919, -1.20918, 1.22681, -1.30247, 0.0774079, 0.010565, -0.105111, 0.0958263, -0.231779, 0.0195591, 0.00103337, -3.52715, 65.6955, 31.2137, 11.0641, 0.834227, 4.54349, -0.0685925, -0.000236462, -0.00306727, 0.00499786, 0.0179206, -0.0105062, 0.00760933, 0.0116078, 0.0121026, 0.0158703, -0.108512, 0.235757, -0.208859, 0.470542, -0.546274, 0.333376, -2.08261, -2.16425, -0.12545, 0.467289, -0.545867, 0.328508, -2.08634, -2.15506, -0.0941891, -0.00741948, -0.0452279, -0.0416749, -0.0184654, -0.059619, -0.0273933
0.163219, 1.69613, -1.22942, -1.55073, -0.899077, -1.20941, 1.22683, -1.30247, 0.0758962, 0.00701168, -0.100997, 0.101412, -0.23616, 0.0176082, -0.000531787, -3.48748, 65.6955, 31.2137, 11.0245, 0.858946, 4.59292, -0.0356336, -0.000254649, -0.00308618, 0.00498276, 0.0179947, -0.0106998, 0.00775213, 0.0137118, 0.014224, 0.0162109, -0.105698, 0.234333, -0.213794, 0.470534, -0.546319, 0.333334, -2.08258, -2.16422, -0.125373, 0.467263, -0.545933, 0.328479, -2.08652, -2.15496, -0.0938185, -0.00746922, -0.0455105, -0.042005, -0.0205447, -0.062118, -0.0276401
0.164219, 1.6962, -1.22941, -1.55084, -0.898973, -1.20965, 1.22684, -1.30247, 0.0766489, 0.00724919, -0.100329, 0.0992701, -0.235394, 0.0171384, -0.000829242, -3.52715, 65.5844, 31.3248, 11.0999, 0.901976, 4.62222, -0.0228162, -0.000271607, -0.00310349, 0.00496757, 0.0180821, -0.0109106, 0.00789627, 0.0120582, 0.0131636, 0.0165135, -0.105822, 0.234237, -0.210989, 0.470527, -0.546364, 0.333292, -2.08255, -2.16419, -0.125295, 0.46724, -0.545998, 0.328451, -2.0867, -2.15486, -0.0934149, -0.00751843, -0.0457892, -0.0423333, -0.0195803, -0.0607671, -0.0274486
0.165219, 1.69627, -1.22941, -1.55093, -0.898862, -1.20988, 1.22686, -1.30247, 0.0731501, 0.00648544, -0.100171, 0.102118, -0.237152, 0.018712, 0.000667875, -3.52715, 65.513, 31.3248, 11.1356, 0.889159, 4.60025, -0.0557752, -0.000290052, -0.00312235, 0.00494839, 0.0181508, -0.0111148, 0.00804456, 0.0146616, 0.0156145, 0.017129, -0.102911, 0.23565, -0.219598, 0.470519, -0.54641, 0.33325, -2.08253, -2.16416, -0.125216, 0.467214, -0.546066, 0.328425, -2.08689, -2.15475, -0.0930374, -0.00756709, -0.0460641, -0.0426597, -0.0219589, -0.0638073, -0.0274861
0.166219, 1.69634, -1.2294, -1.55103, -0.898753, -1.21013, 1.22688, -1.30247, 0.0713449, 0.00690874, -0.0962233, 0.104212, -0.244601, 0.0194963, 0.000173983, -3.56683, 65.4019, 31.2891, 11.1752, 0.908385, 4.58652, -0.0484509, -0.000306787, -0.00313965, 0.00492725, 0.0182234, -0.011327, 0.00818666, 0.0164514, 0.0170741, 0.0195457, -0.100522, 0.242385, -0.224016, 0.470512, -0.546456, 0.333207, -2.0825, -2.16412, -0.125137, 0.467191, -0.546133, 0.328402, -2.08708, -2.15466, -0.0926472, -0.0076152, -0.0463352, -0.0429842, -0.0233038, -0.0662758, -0.0256507
0.167219, 1.69641, -1.22939, -1.55112, -0.898634, -1.21037, 1.22689, -1.30247, 0.0691172, 0.00635906, -0.0938653, 0.107429, -0.242806, 0.0144416, -0.00181679, -3.56683, 65.3265, 31.2891, 11.1356, 0.870848, 4.59292, 0.00373412, -0.000326894, -0.00316173, 0.00490734, 0.0182974, -0.0115316, 0.00833565, 0.0167439, 0.0193127, 0.0204607, -0.0997874, 0.237642, -0.226052, 0.470504, -0.546503, 0.333164, -2.08247, -2.16409, -0.125057, 0.467162, -0.546203, 0.328376, -2.08727, -2.15455, -0.0922619, -0.00766275, -0.0466022, -0.0433068, -0.0255385, -0.0670638, -0.0250377
0.168219, 1.69649, -1.22939, -1.55122, -0.898514, -1.21061, 1.2269, -1.30247, 0.0684619, 0.00506708, -0.0949744, 0.109795, -0.242999, 0.00875258, 0.000246868, -3.60253, 65.2908, 31.2891, 11.0999, 0.852538, 4.6506, -0.0356336, -0.00034411, -0.0031821, 0.00488843, 0.0183695, -0.0117269, 0.00849027, 0.0171997, 0.0214268, 0.0194736, -0.10425, 0.233892, -0.232129, 0.470496, -0.546549, 0.333121, -2.08245, -2.16406, -0.124976, 0.467135, -0.54627, 0.32835, -2.08747, -2.15444, -0.091887, -0.00770973, -0.0468653, -0.0436274, -0.0277187, -0.0677124, -0.0263299
0.169219, 1.69656, -1.22939, -1.55131, -0.898386, -1.21085, 1.2269, -1.30247, 0.0710901, 0.00337243, -0.0921903, 0.115621, -0.242736, 0.00464464, 0.00186, -3.6422, 65.2908, 31.2494, 11.0245, 0.827819, 4.70828, -0.0814099, -0.000361199, -0.00320309, 0.00486828, 0.0184393, -0.0119184, 0.00864814, 0.0165354, 0.0214154, 0.0200599, -0.10262, 0.229721, -0.23553, 0.470489, -0.546596, 0.333077, -2.08242, -2.16403, -0.124894, 0.467108, -0.546338, 0.328324, -2.08766, -2.15432, -0.0915173, -0.00775613, -0.0471243, -0.043946, -0.0277523, -0.067405, -0.0259657
0.170219, 1.69663, -1.22938, -1.55139, -0.898255, -1.21109, 1.2269, -1.30247, 0.0679415, 0.00484252, -0.0892338, 0.119854, -0.236966, 0.00221209, -0.00069278, -3.60253, 65.1797, 31.1741, 10.9491, 0.784789, 4.75131, -0.0292249, -0.000379567, -0.00322708, 0.00484129, 0.0185021, -0.0121159, 0.00880138, 0.0167348, 0.0234038, 0.0227702, -0.0964313, 0.22486, -0.237242, 0.470481, -0.546643, 0.333034, -2.08239, -2.164, -0.124812, 0.467077, -0.546408, 0.328305, -2.08786, -2.1542, -0.0911488, -0.00780194, -0.0473792, -0.0442625, -0.0296663, -0.0683539, -0.0235674
0.171219, 1.69671, -1.22939, -1.55147, -0.898128, -1.21134, 1.2269, -1.30247, 0.068295, 0.00146194, -0.087511, 0.124285, -0.237885, 0.00176939, -0.000224495, -3.67791, 65.2551, 31.1027, 10.9491, 0.741759, 4.75772, -0.0356336, -0.000396311, -0.00324571, 0.00482241, 0.0185702, -0.0123113, 0.00895235, 0.0176571, 0.0239837, 0.0222182, -0.0935861, 0.221895, -0.241328, 0.470473, -0.546691, 0.332989, -2.08236, -2.16396, -0.124729, 0.467052, -0.546476, 0.328278, -2.08805, -2.15409, -0.0907763, -0.00784715, -0.04763, -0.044577, -0.0302787, -0.0694543, -0.0245479
0.172219, 1.69678, -1.22939, -1.55156, -0.897996, -1.21159, 1.2269, -1.30247, 0.0722642, 0.000137035, -0.0899184, 0.126469, -0.244457, 0.00157861, -0.00137037, -3.6422, 65.2908, 31.063, 10.9888, 0.736266, 4.75772, -0.00267457, -0.000418715, -0.00327135, 0.0048016, 0.0186421, -0.0125138, 0.00911367, 0.0181326, 0.0234034, 0.0209954, -0.0981961, 0.226361, -0.242148, 0.470465, -0.546738, 0.332945, -2.08233, -2.16393, -0.124645, 0.46702, -0.54655, 0.328252, -2.08825, -2.15397, -0.0903905, -0.00789177, -0.0478765, -0.0448893, -0.0297749, -0.0699591, -0.0261594
0.173219, 1.69686, -1.22939, -1.55165, -0.897857, -1.21185, 1.2269, -1.30247, 0.0760571, 0.00185281, -0.0865649, 0.131149, -0.2489, 0.00135167, 0.00152783, -3.6422, 65.2155, 31.063, 10.9134, 0.717955, 4.75772, -0.0685925, -0.000439715, -0.00329632, 0.00477763, 0.0187159, -0.0127193, 0.00928777, 0.0175468, 0.0222718, 0.0239396, -0.0952788, 0.231508, -0.246038, 0.470457, -0.546786, 0.3329, -2.0823, -2.16389, -0.124561, 0.466988, -0.546623, 0.328228, -2.08847, -2.15384, -0.0899974, -0.00793577, -0.0481188, -0.0451995, -0.0285892, -0.0700278, -0.0235093
0.174219, 1.69694, -1.2294, -1.55174, -0.89772, -1.21211, 1.2269, -1.30247, 0.0741292, -0.000529365, -0.0888395, 0.133525, -0.24921, 0.00112556, 0.000543835, -3.56683, 65.2908, 31.1384, 10.8777, 0.741759, 4.75772, -0.0557752, -0.000461702, -0.0033207, 0.00476152, 0.0187935, -0.0129164, 0.00945216, 0.0195216, 0.024314, 0.0224194, -0.0960113, 0.229493, -0.250836, 0.470449, -0.546834, 0.332855, -2.08227, -2.16386, -0.124476, 0.466957, -0.546697, 0.328197, -2.08867, -2.1537, -0.0896091, -0.00797915, -0.0483568, -0.0455074, -0.030662, -0.0720663, -0.0255516
0.175219, 1.69701, -1.22939, -1.55183, -0.897579, -1.21237, 1.2269, -1.30247, 0.0726509, 0.00140933, -0.0884578, 0.136472, -0.254149, 0.000647439, -0.00133286, -3.48748, 65.2155, 31.1384, 10.8023, 0.784789, 4.76504, -0.00999879, -0.000483985, -0.00334798, 0.0047358, 0.0188667, -0.0131245, 0.00961877, 0.0214265, 0.026417, 0.024454, -0.0961917, 0.235224, -0.255217, 0.470441, -0.546883, 0.332809, -2.08224, -2.16383, -0.12439, 0.466923, -0.546772, 0.328174, -2.08887, -2.15358, -0.0892134, -0.00802191, -0.0485903, -0.0458132, -0.0326534, -0.0745789, -0.0240685
0.176219, 1.6971, -1.2294, -1.55192, -0.897439, -1.21262, 1.2269, -1.30247, 0.0748265, -0.00258768, -0.0914309, 0.137666, -0.258245, -0.00361068, 6.08594e-05, -3.4121, 65.3662, 31.1384, 10.7626, 0.827819, 4.75772, -0.0356336, -0.000504425, -0.00337052, 0.00471788, 0.0189389, -0.0133219, 0.00978554, 0.0218594, 0.0271415, 0.0210311, -0.104098, 0.233058, -0.258878, 0.470433, -0.546931, 0.332763, -2.08221, -2.16379, -0.124304, 0.466894, -0.546845, 0.328144, -2.08908, -2.15345, -0.088829, -0.00806403, -0.0488195, -0.0461166, -0.0335411, -0.0747406, -0.0277913
0.177219, 1.69718, -1.2294, -1.55201, -0.897294, -1.21288, 1.2269, -1.30247, 0.0784733, -0.000797661, -0.0905393, 0.136025, -0.251526, -0.00244506, 0.00126128, -3.30102, 65.3265, 31.1384, 10.6873, 0.865355, 4.75131, -0.0685925, -0.000524239, -0.00339294, 0.00469374, 0.0190049, -0.0135265, 0.00995505, 0.0179467, 0.0235786, 0.0223521, -0.0998521, 0.230556, -0.253095, 0.470425, -0.54698, 0.332717, -2.08218, -2.16375, -0.124217, 0.466865, -0.546918, 0.32812, -2.08929, -2.15332, -0.088443, -0.00810551, -0.0490442, -0.0464177, -0.0301074, -0.0711583, -0.0263048
0.178219, 1.69727, -1.2294, -1.5521, -0.897154, -1.21314, 1.22689, -1.30247, 0.0794853, 0.00113824, -0.0907366, 0.139544, -0.246403, -0.00129398, -0.00085457, -3.22564, 65.2551, 31.1741, 10.6516, 0.901976, 4.73666, -0.0228162, -0.00053947, -0.00341184, 0.00466898, 0.0190764, -0.0137328, 0.0101072, 0.0172435, 0.0230595, 0.0242256, -0.0945271, 0.228959, -0.252188, 0.470417, -0.547029, 0.332671, -2.08215, -2.16372, -0.124129, 0.466839, -0.546987, 0.328096, -2.08948, -2.15321, -0.0880503, -0.00814634, -0.0492643, -0.0467165, -0.0295766, -0.0709499, -0.0246613
0.179219, 1.69735, -1.2294, -1.5522, -0.896996, -1.21338, 1.22689, -1.30247, 0.0784616, -7.67089e-05, -0.0927088, 0.146548, -0.244605, -0.00128877, 0.00065099, -3.07488, 65.2908, 31.2891, 10.4651, 0.865355, 4.74399, -0.0557752, -0.0005599, -0.00343509, 0.00464826, 0.0191392, -0.0139216, 0.0102831, 0.0196447, 0.0253312, 0.0240988, -0.0916536, 0.22613, -0.261836, 0.470409, -0.547078, 0.332624, -2.08211, -2.16368, -0.12404, 0.466809, -0.54706, 0.328068, -2.08969, -2.15306, -0.0876818, -0.00818651, -0.0494799, -0.0470129, -0.031804, -0.0736102, -0.0253732
0.180219, 1.69745, -1.22941, -1.55229, -0.896843, -1.21363, 1.2269, -1.30247, 0.0817742, -5.1377e-05, -0.0957237, 0.14639, -0.24816, -0.00124659, 0.000671352, -2.95983, 65.2908, 31.3605, 10.354, 0.846129, 4.75131, -0.0621838, -0.000578267, -0.00345468, 0.00462732, 0.0192048, -0.0141192, 0.0104504, 0.019194, 0.024349, 0.0231724, -0.0960415, 0.229847, -0.261726, 0.470401, -0.547128, 0.332577, -2.08208, -2.16365, -0.123951, 0.466782, -0.547132, 0.32804, -2.0899, -2.15293, -0.0873014, -0.00822601, -0.0496909, -0.0473069, -0.0309147, -0.0731938, -0.0265445
0.181219, 1.69754, -1.22941, -1.55238, -0.896685, -1.21389, 1.22689, -1.30247, 0.0835224, -0.000869648, -0.0949188, 0.147389, -0.246594, -0.000646899, 0.000447568, -2.80907, 65.3265, 31.2891, 10.2032, 0.822325, 4.74399, -0.0621838, -0.000595243, -0.00347292, 0.00460407, 0.0192659, -0.0143173, 0.0106145, 0.0181179, 0.0231161, 0.0233385, -0.0935083, 0.228368, -0.26039, 0.470393, -0.547178, 0.33253, -2.08205, -2.16361, -0.123861, 0.466757, -0.547203, 0.328014, -2.0901, -2.1528, -0.0869251, -0.00826484, -0.0498971, -0.0475984, -0.0297518, -0.0723124, -0.026547
0.182219, 1.69764, -1.22942, -1.55248, -0.896521, -1.21415, 1.22689, -1.30247, 0.0849153, -0.00290394, -0.0984401, 0.151809, -0.249647, -0.000225328, -0.0016344, -2.65832, 65.2908, 31.2494, 10.0168, 0.779296, 4.73666, -0.00999879, -0.000613565, -0.00349146, 0.00458223, 0.0193285, -0.0145145, 0.0107782, 0.0200955, 0.0241822, 0.0217621, -0.0955688, 0.22933, -0.264101, 0.470384, -0.547228, 0.332482, -2.08201, -2.16357, -0.12377, 0.466731, -0.547275, 0.327986, -2.09031, -2.15268, -0.0865474, -0.00830299, -0.0500987, -0.0478874, -0.0308479, -0.0742688, -0.028659
0.183219, 1.69774, -1.22943, -1.55258, -0.896359, -1.2144, 1.22689, -1.30247, 0.091469, -0.00219933, -0.0990535, 0.153463, -0.253201, -0.00074175, 0.0013179, -2.47185, 65.2908, 31.2494, 9.9057, 0.766478, 4.75131, -0.0750012, -0.000634873, -0.00351345, 0.00456519, 0.0194003, -0.0147102, 0.010961, 0.018147, 0.0214626, 0.0221202, -0.0978751, 0.233299, -0.2642, 0.470376, -0.547278, 0.332434, -2.08198, -2.16353, -0.123678, 0.466702, -0.547349, 0.327952, -2.09052, -2.15252, -0.0861584, -0.00834046, -0.0502955, -0.0481739, -0.0282219, -0.0724848, -0.0283845
0.184219, 1.69784, -1.22943, -1.5527, -0.896185, -1.21466, 1.22689, -1.30247, 0.0930414, -0.00538381, -0.105183, 0.162852, -0.255575, -0.00103987, 0.000878598, -2.28143, 65.1797, 31.3605, 9.71924, 0.748168, 4.76504, -0.0750012, -0.000657643, -0.00353622, 0.00454752, 0.0194746, -0.0149081, 0.0111446, 0.0219415, 0.0240621, 0.0195554, -0.100341, 0.231961, -0.274723, 0.470368, -0.547328, 0.332386, -2.08195, -2.1635, -0.123586, 0.466672, -0.547426, 0.327919, -2.09074, -2.15237, -0.0857636, -0.00837722, -0.0504874, -0.0484579, -0.0308249, -0.0761371, -0.0316941
0.185219, 1.69795, -1.22944, -1.55281, -0.896018, -1.21491, 1.22689, -1.30247, 0.0976492, -0.00641695, -0.106739, 0.166063, -0.258279, -0.00126334, -0.00209303, -2.091, 65.144, 31.3605, 9.67957, 0.772887, 4.77969, -0.00267457, -0.000675843, -0.0035549, 0.00453305, 0.0195516, -0.0150991, 0.0113083, 0.0215294, 0.0227822, 0.018878, -0.102021, 0.233435, -0.272292, 0.470359, -0.547378, 0.332338, -2.08191, -2.16346, -0.123493, 0.466646, -0.547497, 0.327883, -2.09093, -2.15223, -0.0853743, -0.00841329, -0.0506745, -0.0487392, -0.029624, -0.0757609, -0.0326239
0.186219, 1.69806, -1.22945, -1.55292, -0.89584, -1.21517, 1.22689, -1.30247, 0.106271, -0.00876799, -0.112412, 0.169066, -0.252725, -0.000591633, 0.000571333, -1.97991, 65.033, 31.4359, 9.4931, 0.834227, 4.77237, -0.0557752, -0.000694704, -0.00357047, 0.00451788, 0.0196263, -0.0152979, 0.011489, 0.0187215, 0.0187908, 0.015784, -0.103452, 0.227833, -0.270491, 0.470351, -0.547429, 0.332289, -2.08188, -2.16342, -0.1234, 0.466623, -0.54757, 0.327847, -2.09114, -2.15208, -0.084977, -0.00844864, -0.0508567, -0.0490179, -0.0258993, -0.0725325, -0.0356629
