alisrour97/Franka_experiments/Real_Robot_scripts/servo-franka/Data2/log_dyn_INIT2_6.csv
Time,q1,q2,q3,q4,q5,q6,q7,dq1,dq2,dq3,dq4,dq5,dq6,dq7,t1,t2,t3,t4,t5,t6,t7,ex1,ex2,ex3,ex4,ex5,ex6,ev1,ev2,ev3,ev4,ev5,ev6,xd,yd,zd,uxd,uyd,uzd,x,y,z,ux,uy,uz,vxd,vyd,vzd,vx,vy,vz
2.44141e-07, 1.69128, -1.22717, -1.53937, -0.900287, -1.19258, 1.22742, -1.30252, -0.00668706, -0.00632715, -0.00679627, 0.00680618, 0.00173631, -0.000627555, 0.00155645, 0.551216, 61.8274, 31.4359, 6.99371, 3.25397, 4.63595, -0.356984, 0.000497421, -0.00206577, 0.00163769, 0.00295646, 0.000941785, 0.000872212, 0.00661787, 0.00626339, -0.00487729, -0.00194137, -0.00835476, -0.016648, 0.471008, -0.543389, 0.335894, -2.08385, -2.16584, -0.129887, 0.468876, -0.542721, 0.334419, -2.08269, -2.16326, -0.127473, -1.48327e-05, 4.00419e-05, -1.29039e-06, -0.00620956, -0.0059989, -0.00565557
0.0121077, 1.69122, -1.22719, -1.5394, -0.900245, -1.19256, 1.22742, -1.30252, -0.00823016, -0.00853432, -0.000674737, 0.00735636, 0.00122777, 0.00428288, -0.00106938, 0.325081, 61.9028, 31.5113, 7.06909, 3.21643, 4.64328, -0.311207, 0.000457452, -0.00210825, 0.00165021, 0.00294978, 0.000978723, 0.000960123, 0.00705175, 0.00528285, -0.00341486, 0.00775936, -0.00815845, -0.0131816, 0.471008, -0.543389, 0.335894, -2.08385, -2.16584, -0.129887, 0.468827, -0.54277, 0.334399, -2.08279, -2.16312, -0.127509, -2.49008e-05, 7.8927e-05, 1.60533e-06, -0.00517205, -0.00657333, -0.00430552
0.0131077, 1.69122, -1.22719, -1.5394, -0.900245, -1.19256, 1.22742, -1.30252, -0.00823016, -0.00853432, -0.000674737, 0.00735636, 0.00122777, 0.00428288, -0.00106938, 0.325081, 61.9028, 31.5113, 7.06909, 3.21643, 4.64328, -0.311207, 0.000457443, -0.00210825, 0.00165021, 0.00294978, 0.000978714, 0.000960127, 0.00709481, 0.00527349, -0.00341106, 0.0077594, -0.00811031, -0.0131509, 0.471008, -0.543389, 0.335894, -2.08385, -2.16584, -0.129887, 0.468827, -0.54277, 0.334399, -2.08279, -2.16312, -0.127509, -3.59273e-05, 0.000121646, 4.81928e-06, -0.00517205, -0.00657333, -0.00430552
0.0141077, 1.69122, -1.22719, -1.5394, -0.900245, -1.19256, 1.22742, -1.30252, -0.00823016, -0.00853432, -0.000674737, 0.00735636, 0.00122777, 0.00428288, -0.00106938, 0.325081, 61.9028, 31.5113, 7.06909, 3.21643, 4.64328, -0.311207, 0.000457419, -0.00210824, 0.00165021, 0.00294977, 0.000978692, 0.000960137, 0.0071419, 0.00526329, -0.00340694, 0.00775952, -0.00805773, -0.0131174, 0.471008, -0.543389, 0.335894, -2.08385, -2.16584, -0.129887, 0.468827, -0.54277, 0.334399, -2.08279, -2.16312, -0.127509, -4.79476e-05, 0.000168349, 8.36616e-06, -0.00517205, -0.00657333, -0.00430552
0.0151077, 1.69122, -1.22719, -1.5394, -0.900245, -1.19256, 1.22742, -1.30252, -0.00823016, -0.00853432, -0.000674737, 0.00735636, 0.00122777, 0.00428288, -0.00106938, 0.325081, 61.9028, 31.5113, 7.06909, 3.21643, 4.64328, -0.311207, 0.000457372, -0.00210823, 0.00165021, 0.00294976, 0.000978647, 0.000960158, 0.00719316, 0.00525222, -0.00340249, 0.00775971, -0.00800056, -0.013081, 0.471008, -0.543389, 0.335894, -2.08385, -2.16584, -0.129887, 0.468827, -0.54277, 0.334399, -2.08279, -2.16312, -0.127509, -6.09969e-05, 0.000219187, 1.22607e-05, -0.00517205, -0.00657333, -0.00430552
0.0161077, 1.69122, -1.22719, -1.5394, -0.900245, -1.19256, 1.22742, -1.30252, -0.00823016, -0.00853432, -0.000674737, 0.00735636, 0.00122777, 0.00428288, -0.00106938, 0.325081, 61.9028, 31.5113, 7.06909, 3.21643, 4.64328, -0.311207, 0.000457296, -0.00210821, 0.0016502, 0.00294974, 0.000978575, 0.000960192, 0.00724874, 0.00524025, -0.0033977, 0.00776, -0.00793862, -0.0130416, 0.471008, -0.543389, 0.335894, -2.08385, -2.16584, -0.129887, 0.468827, -0.54277, 0.334399, -2.08279, -2.16312, -0.127509, -7.51097e-05, 0.000274308, 1.65177e-05, -0.00517205, -0.00657333, -0.00430552
0.0171077, 1.69122, -1.22719, -1.5394, -0.900245, -1.19256, 1.22742, -1.30252, -0.00823016, -0.00853432, -0.000674737, 0.00735636, 0.00122777, 0.00428288, -0.00106938, 0.325081, 61.9028, 31.5113, 7.06909, 3.21643, 4.64328, -0.311207, 0.000457182, -0.00210819, 0.00165019, 0.00294972, 0.000978466, 0.000960244, 0.0073088, 0.00522736, -0.00339256, 0.0077604, -0.00787176, -0.0129991, 0.471008, -0.543389, 0.335894, -2.08385, -2.16584, -0.129887, 0.468827, -0.54277, 0.334399, -2.08279, -2.16312, -0.127509, -9.03198e-05, 0.000333859, 2.1152e-05, -0.00517205, -0.00657333, -0.00430552
0.0181077, 1.69122, -1.22719, -1.5394, -0.900245, -1.19256, 1.22742, -1.30252, -0.00823016, -0.00853432, -0.000674737, 0.00735636, 0.00122777, 0.00428288, -0.00106938, 0.325081, 61.9028, 31.5113, 7.06909, 3.21643, 4.64328, -0.311207, 0.000457023, -0.00210815, 0.00165018, 0.00294968, 0.000978315, 0.000960315, 0.00737347, 0.00521351, -0.00338706, 0.0077609, -0.00779981, -0.0129534, 0.471008, -0.543389, 0.335894, -2.08385, -2.16584, -0.129887, 0.468827, -0.54277, 0.334399, -2.08279, -2.16312, -0.127509, -0.000106661, 0.000397984, 2.61782e-05, -0.00517205, -0.00657333, -0.00430552
0.0191077, 1.69122, -1.22719, -1.5394, -0.900245, -1.19256, 1.22742, -1.30252, -0.00823016, -0.00853432, -0.000674737, 0.00735636, 0.00122777, 0.00428288, -0.00106938, 0.325081, 61.9028, 31.5113, 7.06909, 3.21643, 4.64328, -0.311207, 0.000456811, -0.00210811, 0.00165016, 0.00294963, 0.000978114, 0.000960409, 0.0074429, 0.00519868, -0.0033812, 0.00776151, -0.00772264, -0.0129045, 0.471008, -0.543389, 0.335894, -2.08385, -2.16584, -0.129887, 0.468827, -0.54277, 0.334399, -2.08279, -2.16312, -0.127509, -0.000124165, 0.000466826, 3.16113e-05, -0.00517205, -0.00657333, -0.00430552
0.0201077, 1.69122, -1.22719, -1.5394, -0.900245, -1.19256, 1.22742, -1.30252, -0.00823016, -0.00853432, -0.000674737, 0.00735636, 0.00122777, 0.00428288, -0.00106938, 0.325081, 61.9028, 31.5113, 7.06909, 3.21643, 4.64328, -0.311207, 0.00045654, -0.00210805, 0.00165013, 0.00294956, 0.000977857, 0.00096053, 0.00751724, 0.00518285, -0.00337496, 0.00776226, -0.00764008, -0.0128522, 0.471008, -0.543388, 0.335894, -2.08385, -2.16584, -0.129887, 0.468827, -0.54277, 0.334399, -2.08279, -2.16312, -0.127509, -0.000142864, 0.000540525, 3.74658e-05, -0.00517205, -0.00657333, -0.00430552
0.0211077, 1.69122, -1.22719, -1.5394, -0.900245, -1.19256, 1.22742, -1.30252, -0.00823016, -0.00853432, -0.000674737, 0.00735636, 0.00122777, 0.00428288, -0.00106938, 0.325081, 61.9028, 31.5113, 7.06909, 3.21643, 4.64328, -0.311207, 0.000456203, -0.00210798, 0.0016501, 0.00294948, 0.000977536, 0.00096068, 0.00759662, 0.00516598, -0.00336834, 0.00776314, -0.00755199, -0.0127964, 0.471008, -0.543388, 0.335894, -2.08384, -2.16584, -0.129888, 0.468827, -0.54277, 0.334399, -2.08279, -2.16312, -0.127509, -0.000162789, 0.000619218, 4.37565e-05, -0.00517205, -0.00657333, -0.00430552
0.0221077, 1.69116, -1.22721, -1.5394, -0.900249, -1.19254, 1.22742, -1.30252, -0.00864789, -0.00288818, 0.000436762, -0.00115646, 0.00306259, 0.000712703, 0.000249638, 0.0949785, 62.0853, 31.5113, 7.1048, 3.03241, 4.62222, -0.363392, 0.000431405, -0.00213985, 0.00165672, 0.00292936, 0.00101441, 0.00101386, 0.00384879, 0.00383399, -0.00112079, 0.00297928, -0.00443625, -0.00597336, 0.471008, -0.543388, 0.335894, -2.08384, -2.16584, -0.129888, 0.468795, -0.542794, 0.334389, -2.08284, -2.16305, -0.127563, -0.000183971, 0.000703042, 5.04979e-05, -0.00391585, -0.00308096, -0.00153798
0.0231077, 1.69116, -1.22722, -1.5394, -0.900249, -1.19253, 1.22742, -1.30253, -0.00585309, -0.00372124, 0.00028897, -0.000734322, 0.00285937, 0.000768362, -0.000377819, 0.059273, 62.1606, 31.5113, 7.1048, 3.0141, 4.6149, -0.350575, 0.000430181, -0.00214013, 0.00166081, 0.00292637, 0.00102522, 0.0010119, 0.00297926, 0.00236439, -0.00173863, 0.0025012, -0.00491276, -0.00301679, 0.471008, -0.543387, 0.335894, -2.08384, -2.16584, -0.129888, 0.468795, -0.542794, 0.334385, -2.08283, -2.16305, -0.127578, -0.000206438, 0.000792126, 5.77046e-05, -0.002524, -0.00197823, -0.00205018
0.0241077, 1.69115, -1.22722, -1.53941, -0.900248, -1.19253, 1.22742, -1.30253, -0.00459434, -0.00429433, -0.00567649, 0.00130118, 0.000556138, -0.00229776, -0.00322015, 0.059273, 61.9742, 31.3605, 7.02942, 2.92804, 4.56454, -0.27184, 0.000426128, -0.00214382, 0.0016639, 0.00292735, 0.00103073, 0.00101347, 0.00454827, 0.00395546, -0.00423304, -0.00572591, -0.00476948, -0.00427928, 0.471007, -0.543387, 0.335894, -2.08384, -2.16584, -0.129889, 0.468791, -0.542798, 0.334382, -2.08283, -2.16304, -0.127583, -0.000230219, 0.000886601, 6.53909e-05, -0.00417074, -0.00311389, -0.00470111
0.0251077, 1.69115, -1.22722, -1.53941, -0.900253, -1.19253, 1.22743, -1.30253, -0.00265409, -0.00462219, -0.00836011, -0.00136919, -0.003402, -0.000606197, -0.00462728, 0.0196001, 61.4981, 30.9876, 6.99371, 2.76874, 4.39975, -0.205922, 0.000423912, -0.00214301, 0.0016662, 0.00292315, 0.00102868, 0.00101351, 0.00454555, 0.0028532, -0.0056923, -0.0100436, -0.000440354, -0.00115971, 0.471007, -0.543386, 0.335894, -2.08384, -2.16584, -0.129889, 0.468792, -0.542799, 0.334379, -2.08283, -2.16305, -0.127586, -0.000255341, 0.00098659, 7.35711e-05, -0.00314779, -0.00274151, -0.00616663
0.0261077, 1.69115, -1.22723, -1.53942, -0.900259, -1.19254, 1.22743, -1.30253, 0.000439653, -0.00175897, -0.00938342, -0.00353632, -0.00702745, 0.0034218, -0.00287683, -0.0914839, 60.9824, 30.5433, 6.95801, 2.61493, 4.27798, -0.21233, 0.000421923, -0.00214172, 0.00167671, 0.00293926, 0.0010298, 0.00101841, 0.00371997, 0.00051426, -0.00447497, -0.0103995, 0.00784835, 0.000355662, 0.471007, -0.543385, 0.335894, -2.08384, -2.16584, -0.12989, 0.468792, -0.542798, 0.334369, -2.08283, -2.16304, -0.127569, -0.00028183, 0.00109222, 8.22592e-05, -0.00082394, -0.00191252, -0.00489826
0.0271077, 1.69116, -1.22724, -1.53945, -0.900263, -1.19255, 1.22743, -1.30252, 0.0026923, -0.00307888, -0.017147, -0.00321433, -0.0103659, 0.000575778, -0.00288932, -0.206535, 60.4666, 30.2457, 6.84296, 2.47394, 4.1846, -0.186696, 0.000413706, -0.00214583, 0.00169452, 0.00297917, 0.00102453, 0.00103354, 0.00502894, 0.00154187, -0.00831438, -0.0215228, 0.00852452, -0.00244135, 0.471007, -0.543384, 0.335894, -2.08384, -2.16584, -0.129891, 0.468788, -0.542803, 0.33435, -2.08283, -2.16301, -0.127519, -0.000309711, 0.0012036, 9.14692e-05, -0.00196988, -0.00254447, -0.00885237
0.0281077, 1.69116, -1.22726, -1.53948, -0.900265, -1.19257, 1.22743, -1.30252, 0.00157583, -0.00311653, -0.0174571, -0.00324189, -0.0182157, -0.00363867, 0.00200458, -0.206535, 60.1334, 29.8371, 6.73187, 2.34485, 4.14889, -0.166554, 0.000403, -0.00215212, 0.00171659, 0.00301934, 0.00102798, 0.00105338, 0.00681532, 0.00384879, -0.00874896, -0.028958, 0.0129536, -0.0111116, 0.471007, -0.543383, 0.335894, -2.08384, -2.16584, -0.129891, 0.468781, -0.542809, 0.334327, -2.08282, -2.16297, -0.127476, -0.000339009, 0.00132085, 0.000101215, -0.00425494, -0.00421828, -0.00947948
0.0291077, 1.69116, -1.22728, -1.53951, -0.900272, -1.19259, 1.22743, -1.30252, 0.000886268, -0.00868828, -0.0209595, -0.00424512, -0.0159944, -0.00604344, -0.00021766, -0.206535, 59.9152, 29.4245, 6.65649, 2.25238, 4.09122, -0.114369, 0.000392577, -0.00215616, 0.00174143, 0.0030601, 0.00103023, 0.00106242, 0.00750697, 0.0046933, -0.0135666, -0.0339064, 0.00481878, -0.00944107, 0.471006, -0.543382, 0.335894, -2.08384, -2.16584, -0.129892, 0.468776, -0.542815, 0.334301, -2.08281, -2.16294, -0.127434, -0.000369746, 0.00144407, 0.00011151, -0.00527826, -0.00407089, -0.0143081
0.0301077, 1.69116, -1.2273, -1.53956, -0.900285, -1.19262, 1.22743, -1.30252, 0.00275033, -0.0142115, -0.0282733, -0.00776906, -0.0218613, -0.00304631, 0.000376302, -0.166862, 59.7644, 29.2023, 6.69617, 2.24048, 4.03445, -0.120778, 0.000377634, -0.0021632, 0.0017722, 0.00312421, 0.00101723, 0.00108409, 0.00927615, 0.00413775, -0.0197164, -0.0428561, 0.00658612, -0.0103975, 0.471006, -0.543381, 0.335894, -2.08384, -2.16584, -0.129893, 0.468768, -0.542824, 0.334268, -2.0828, -2.1629, -0.127348, -0.000401943, 0.00157338, 0.000122367, -0.00491436, -0.00471882, -0.0206611
0.0311077, 1.69117, -1.22733, -1.5396, -0.90029, -1.19265, 1.22743, -1.30252, 0.00422292, -0.0176098, -0.0307803, -0.00738312, -0.0253376, 4.54985e-05, 0.00290531, -0.131157, 59.7287, 28.8691, 6.62079, 2.20935, 3.95572, -0.186696, 0.000362135, -0.0021694, 0.00180025, 0.00317448, 0.00100868, 0.00111084, 0.0107226, 0.00357696, -0.0223439, -0.0443107, 0.00790554, -0.01402, 0.471006, -0.54338, 0.335895, -2.08384, -2.16584, -0.129894, 0.468761, -0.542834, 0.334239, -2.08281, -2.16286, -0.127282, -0.00043562, 0.00170887, 0.000133799, -0.0044311, -0.00558393, -0.0234855
0.0321077, 1.69117, -1.22734, -1.53964, -0.900297, -1.19269, 1.22744, -1.30251, 0.00320076, -0.0178516, -0.0295841, -0.00807308, -0.0325538, -0.00341123, 0.00304609, -0.131157, 59.6176, 28.5319, 6.58508, 2.17914, 3.90536, -0.21233, 0.00034865, -0.00217383, 0.00182247, 0.00322649, 0.000985294, 0.00113442, 0.0119552, 0.00519891, -0.0223932, -0.0498188, 0.0119721, -0.0163049, 0.471005, -0.543378, 0.335895, -2.08383, -2.16584, -0.129895, 0.468756, -0.542842, 0.334215, -2.08281, -2.16282, -0.127199, -0.000470796, 0.00185063, 0.00014582, -0.00604383, -0.00671777, -0.0236646
0.0331077, 1.69118, -1.22735, -1.53969, -0.900303, -1.19273, 1.22744, -1.30252, 0.00793997, -0.0117199, -0.0363379, -0.00455421, -0.0371482, -0.00181381, 0.000217779, -0.0914839, 59.5065, 28.3851, 6.5097, 2.1297, 3.86966, -0.160145, 0.000333881, -0.0021796, 0.00184514, 0.00328762, 0.000955822, 0.00115227, 0.0129499, 0.00482322, -0.0207925, -0.0550262, 0.0230699, -0.016677, 0.471005, -0.543376, 0.335895, -2.08383, -2.16584, -0.129896, 0.468749, -0.542852, 0.33419, -2.08281, -2.1628, -0.127101, -0.000507488, 0.00199877, 0.000158442, -0.00561197, -0.00778261, -0.0222371
0.0341077, 1.69119, -1.22735, -1.53973, -0.900308, -1.19277, 1.22744, -1.30252, 0.00835892, -0.00535729, -0.0379271, -0.0041995, -0.0406383, -0.000770702, -0.000477016, -0.0557783, 59.324, 28.2343, 6.39465, 2.08118, 3.84036, -0.140919, 0.000319139, -0.00218616, 0.00185981, 0.00334597, 0.000912464, 0.00117553, 0.0135592, 0.00523403, -0.0174854, -0.056497, 0.0330383, -0.0178243, 0.471004, -0.543375, 0.335895, -2.08383, -2.16584, -0.129898, 0.468742, -0.542863, 0.334174, -2.08283, -2.16278, -0.126991, -0.000545713, 0.00215336, 0.000171677, -0.00591929, -0.0087554, -0.0190406
0.0351077, 1.69121, -1.22734, -1.53977, -0.900318, -1.19281, 1.22744, -1.30251, 0.0105169, -0.00533637, -0.0412212, -0.00675655, -0.0427453, -0.000998725, 0.00120746, -0.0914839, 59.213, 28.0478, 6.39465, 2.01984, 3.84036, -0.180287, 0.000312528, -0.00218451, 0.00187462, 0.00340674, 0.00087081, 0.00118904, 0.0130829, 0.00428021, -0.0191143, -0.0621033, 0.0353592, -0.0173171, 0.471004, -0.543373, 0.335895, -2.08383, -2.16584, -0.129899, 0.468743, -0.542865, 0.334158, -2.08283, -2.16276, -0.126882, -0.000585484, 0.00231447, 0.000185536, -0.00508231, -0.00783426, -0.0205899
0.0361077, 1.69122, -1.22735, -1.53981, -0.900325, -1.19285, 1.22745, -1.30251, 0.0101101, 0.000543502, -0.0398019, -0.00680504, -0.0448793, 0.00134408, 0.0055425, -0.0557783, 59.2487, 27.9725, 6.32324, 1.9704, 3.77627, -0.180287, 0.000298099, -0.0021877, 0.00189355, 0.00346534, 0.000828399, 0.00121022, 0.0132399, 0.00413099, -0.0149229, -0.0592865, 0.0442186, -0.0220362, 0.471003, -0.54337, 0.335895, -2.08383, -2.16584, -0.129901, 0.468739, -0.542874, 0.334138, -2.08284, -2.16274, -0.126773, -0.000626814, 0.0024822, 0.000200032, -0.00481769, -0.00846059, -0.0164657
0.0371077, 1.69122, -1.22734, -1.53985, -0.900332, -1.1929, 1.22745, -1.30252, 0.00633935, 0.000762193, -0.0415853, -0.00680461, -0.0463504, 0.00303078, 0.00168209, 0.134651, 59.213, 27.9011, 6.24786, 1.92096, 3.71127, -0.114369, 0.000283394, -0.00219366, 0.00190462, 0.00352116, 0.000776517, 0.00122969, 0.0159047, 0.00638868, -0.0150659, -0.0594547, 0.046657, -0.0231308, 0.471003, -0.543368, 0.335896, -2.08382, -2.16584, -0.129903, 0.468733, -0.542885, 0.334125, -2.08285, -2.16273, -0.126659, -0.000669715, 0.00265659, 0.000215176, -0.00702521, -0.0109873, -0.0169373
0.0381077, 1.69124, -1.22732, -1.5399, -0.900345, -1.19295, 1.22746, -1.30251, 0.00974773, 0.00672329, -0.0413514, -0.00856915, -0.0478144, 0.00340964, 0.00144277, 0.21003, 59.0662, 27.9011, 6.24786, 1.87793, 3.66824, -0.114369, 0.0002748, -0.00219372, 0.00191113, 0.00358361, 0.000710878, 0.00124484, 0.0137774, 0.00420649, -0.0118553, -0.0604671, 0.0544324, -0.0183465, 0.471002, -0.543365, 0.335896, -2.08382, -2.16584, -0.129904, 0.468732, -0.54289, 0.334117, -2.08287, -2.16272, -0.126523, -0.000714195, 0.00283772, 0.000230977, -0.0048505, -0.00911091, -0.0134869
0.0391077, 1.69125, -1.22731, -1.53994, -0.90036, -1.193, 1.22746, -1.30251, 0.0104262, 0.00533152, -0.0405721, -0.0106179, -0.0497687, 0.00211966, 0.00242358, 0.360787, 59.0305, 28.0121, 6.28357, 1.85962, 3.66824, -0.147328, 0.000263516, -0.00219548, 0.00192336, 0.00365196, 0.000649032, 0.00126343, 0.01328, 0.00362397, -0.0128131, -0.0630073, 0.0543699, -0.0169865, 0.471001, -0.543363, 0.335896, -2.08382, -2.16584, -0.129906, 0.46873, -0.542896, 0.334104, -2.08288, -2.16271, -0.126385, -0.000760263, 0.00302564, 0.000247448, -0.00436715, -0.00826068, -0.0143566
0.0401077, 1.69125, -1.2273, -1.53997, -0.900376, -1.19306, 1.22746, -1.3025, 0.00580791, 0.0112774, -0.0386531, -0.0122065, -0.0508142, 0.0015693, 0.00274593, 0.737679, 58.9551, 28.0875, 6.32324, 1.8349, 3.66092, -0.172963, 0.000248186, -0.00220339, 0.00192911, 0.0037127, 0.00058096, 0.00129274, 0.0142488, 0.0058093, -0.00864839, -0.0618272, 0.0609624, -0.019884, 0.471001, -0.54336, 0.335896, -2.08381, -2.16584, -0.129908, 0.468722, -0.542908, 0.334096, -2.08291, -2.16269, -0.126248, -0.000807924, 0.0032204, 0.000264596, -0.0064123, -0.00975283, -0.0103117
0.0411077, 1.69127, -1.22729, -1.54, -0.900388, -1.19312, 1.22746, -1.3025, 0.00965853, 0.00802198, -0.0351004, -0.0113744, -0.0481547, 0.000146092, 3.34175e-05, 0.963814, 58.9551, 28.0875, 6.28357, 1.84131, 3.68289, -0.120778, 0.000237152, -0.0022053, 0.00193654, 0.00377322, 0.000517562, 0.00130048, 0.0118838, 0.00306656, -0.00949821, -0.0591864, 0.0548777, -0.0112976, 0.471, -0.543357, 0.335896, -2.08381, -2.16584, -0.129911, 0.468719, -0.542915, 0.334088, -2.08291, -2.1627, -0.126118, -0.000857184, 0.00342203, 0.000282433, -0.00383764, -0.00697333, -0.0108485
0.0421077, 1.69127, -1.22728, -1.54003, -0.900401, -1.19318, 1.22746, -1.30251, 0.00358637, 0.0073962, -0.0351993, -0.0108389, -0.0549901, -0.00050987, -0.000588114, 1.305, 58.8837, 28.1986, 6.24786, 1.84131, 3.69754, -0.101552, 0.000222314, -0.00221218, 0.00194154, 0.00383604, 0.000447272, 0.00132044, 0.0163078, 0.00745064, -0.00954533, -0.0618761, 0.0595209, -0.0193215, 0.470999, -0.543353, 0.335897, -2.08381, -2.16584, -0.129913, 0.468712, -0.542925, 0.334081, -2.08293, -2.16269, -0.125977, -0.000908043, 0.00363059, 0.000300968, -0.00811035, -0.0113044, -0.0114312
0.0431077, 1.69128, -1.22727, -1.54005, -0.900412, -1.19325, 1.22746, -1.3025, 0.00649951, 0.0035437, -0.0300398, -0.00957446, -0.0559274, -0.00038846, -0.000315813, 1.60651, 58.9551, 28.2343, 6.17248, 1.85962, 3.69754, -0.101552, 0.000208034, -0.00221665, 0.00194716, 0.00388708, 0.000384651, 0.00134133, 0.0150951, 0.00515625, -0.00993103, -0.0578635, 0.0564005, -0.0154344, 0.470998, -0.54335, 0.335897, -2.0838, -2.16584, -0.129916, 0.468707, -0.542935, 0.334073, -2.08296, -2.16268, -0.125858, -0.000960503, 0.00384608, 0.000320207, -0.00592868, -0.00973833, -0.0116737
0.0441077, 1.69129, -1.22725, -1.54007, -0.900422, -1.19332, 1.22746, -1.3025, 0.00840664, 0.00831787, -0.0248975, -0.00874065, -0.0655106, -0.00080401, 0.00103345, 1.79694, 58.844, 28.3454, 6.09711, 1.85962, 3.71127, -0.133595, 0.000197724, -0.00221748, 0.0019455, 0.00394423, 0.000303342, 0.00136099, 0.0150594, 0.00456156, -0.00530282, -0.0576866, 0.0687059, -0.0163072, 0.470997, -0.543346, 0.335897, -2.0838, -2.16584, -0.129919, 0.468705, -0.542942, 0.334074, -2.08299, -2.16269, -0.125713, -0.00101456, 0.00406854, 0.000340161, -0.00522297, -0.0101689, -0.00709622
0.0451077, 1.69131, -1.22725, -1.5401, -0.900425, -1.19339, 1.22746, -1.3025, 0.010386, 0.00932867, -0.0258298, -0.00874238, -0.0684131, -0.00137712, 0.000257147, 1.9477, 58.9551, 28.5319, 5.91064, 1.87244, 3.73324, -0.120778, 0.000184275, -0.00221848, 0.00195381, 0.00400254, 0.000239355, 0.00137734, 0.0150268, 0.00401903, -0.00517347, -0.0605676, 0.0721825, -0.0148576, 0.470996, -0.543342, 0.335898, -2.08379, -2.16583, -0.129921, 0.468703, -0.54295, 0.334064, -2.083, -2.16268, -0.125584, -0.00107022, 0.00429798, 0.000360835, -0.00473328, -0.00990487, -0.00695915
0.0461077, 1.69133, -1.22725, -1.54011, -0.90043, -1.19346, 1.22745, -1.30249, 0.0134916, 0.00739769, -0.0213604, -0.0090893, -0.0714997, -0.00253225, 0.000678323, 2.02308, 59.0662, 28.6429, 5.72418, 1.90906, 3.77627, -0.133595, 0.000174185, -0.00221631, 0.00195807, 0.00405759, 0.000170522, 0.00139053, 0.0135285, 0.00188508, -0.00501701, -0.0599011, 0.0723207, -0.0105951, 0.470995, -0.543338, 0.335898, -2.08379, -2.16583, -0.129925, 0.468705, -0.542955, 0.334058, -2.08302, -2.16269, -0.125455, -0.00112746, 0.0045344, 0.000382238, -0.00270727, -0.008126, -0.00661502
0.0471077, 1.69135, -1.22725, -1.54012, -0.900429, -1.19354, 1.22744, -1.3025, 0.0130011, 0.0046517, -0.0179952, -0.00544601, -0.0723791, -0.00407712, -0.00240587, 2.20954, 59.2487, 28.754, 5.50201, 1.91546, 3.84036, -0.0557752, 0.00015886, -0.00221948, 0.00196411, 0.00411187, 0.000107096, 0.00140318, 0.0146411, 0.00266304, -0.00502273, -0.0571249, 0.069251, -0.00964361, 0.470994, -0.543333, 0.335898, -2.08379, -2.16583, -0.129928, 0.468701, -0.542965, 0.334051, -2.08303, -2.16269, -0.125333, -0.00118629, 0.0047778, 0.000404375, -0.00350342, -0.00901199, -0.00674788
0.0481077, 1.69137, -1.22724, -1.54014, -0.900433, -1.19361, 1.22744, -1.30249, 0.0183109, 0.00814612, -0.0172259, -0.00548334, -0.0732956, -0.00540837, -0.000399021, 2.28492, 59.324, 28.9405, 5.38696, 1.93378, 3.91269, -0.0878186, 0.000148442, -0.00221786, 0.00196584, 0.00417156, 3.11769e-05, 0.00141713, 0.0120853, -0.000102831, -0.00307634, -0.0585742, 0.0732306, -0.00621056, 0.470993, -0.543328, 0.335899, -2.08378, -2.16583, -0.129931, 0.468701, -0.54297, 0.334048, -2.08304, -2.16269, -0.125192, -0.00124669, 0.00502817, 0.000427252, -0.000822671, -0.00642488, -0.00448974
0.0491077, 1.69139, -1.22724, -1.54015, -0.90043, -1.19369, 1.22743, -1.30249, 0.0181907, 0.0062054, -0.0164962, -0.00151952, -0.0737907, -0.00493665, 1.88265e-05, 2.39997, 59.4708, 29.1269, 5.24017, 1.93927, 3.94839, -0.0951428, 0.000133642, -0.00221796, 0.00197082, 0.00422518, -3.96508e-05, 0.00143857, 0.0137491, 0.000603951, -0.00334057, -0.0560077, 0.0718225, -0.00981925, 0.470992, -0.543323, 0.335899, -2.08377, -2.16583, -0.129935, 0.4687, -0.542979, 0.334041, -2.08307, -2.16269, -0.125062, -0.00130866, 0.00528549, 0.000450875, -0.00154049, -0.00779836, -0.00496409
0.0501077, 1.6914, -1.22724, -1.54016, -0.900432, -1.19378, 1.22743, -1.30249, 0.0184559, 0.00324596, -0.0140838, -0.0042447, -0.0797131, -0.0053999, 2.27309e-05, 2.62611, 59.693, 29.238, 5.2005, 1.9704, 4.00516, -0.0951428, 0.000116029, -0.0022212, 0.00197622, 0.00428382, -0.000116032, 0.00146074, 0.0139902, 6.64865e-05, -0.00463431, -0.0586332, 0.0738793, -0.00776193, 0.47099, -0.543318, 0.3359, -2.08377, -2.16583, -0.129939, 0.468696, -0.54299, 0.334033, -2.08309, -2.16268, -0.124921, -0.00137217, 0.00554973, 0.000475247, -0.00110531, -0.00755091, -0.00627089
0.0511077, 1.69143, -1.22724, -1.54017, -0.900441, -1.19388, 1.22742, -1.30249, 0.0187334, 0.00308215, -0.0115184, -0.0055885, -0.0843697, -0.00601229, -0.0019439, 2.73719, 59.8398, 29.3134, 5.27588, 2.00702, 4.07016, -0.0420422, 0.000105152, -0.00221726, 0.00197971, 0.00434377, -0.000197353, 0.00145948, 0.0140829, -0.000262962, -0.00405275, -0.0597747, 0.0774835, -0.0044843, 0.470989, -0.543313, 0.3359, -2.08376, -2.16583, -0.129943, 0.468699, -0.542995, 0.334029, -2.0831, -2.16271, -0.124776, -0.00143722, 0.00582086, 0.000500373, -0.000816981, -0.00744732, -0.0056959
0.0521077, 1.69144, -1.22724, -1.54018, -0.900446, -1.19398, 1.22741, -1.3025, 0.0167475, -0.00110982, -0.0123151, -0.0062355, -0.0883402, -0.00560553, -0.00223964, 2.92762, 60.0223, 29.4999, 5.35126, 2.05646, 4.11319, -0.0164075, 8.53417e-05, -0.00222058, 0.00198593, 0.00440993, -0.000285597, 0.00147974, 0.0164376, 0.00109093, -0.0067246, -0.0623073, 0.0771098, -0.0070245, 0.470987, -0.543307, 0.335901, -2.08376, -2.16583, -0.129947, 0.468695, -0.543008, 0.33402, -2.08312, -2.16271, -0.124616, -0.00150377, 0.00609884, 0.000526256, -0.0022479, -0.00913783, -0.00863311
0.0531077, 1.69147, -1.22724, -1.54019, -0.900451, -1.19409, 1.22741, -1.30249, 0.0187862, -0.00137884, -0.0110143, -0.00648018, -0.0961793, -0.00424838, 0.000681339, 2.96729, 60.2087, 29.611, 5.42664, 2.10498, 4.12692, -0.0750012, 6.96853e-05, -0.00221683, 0.00199309, 0.00447208, -0.000373608, 0.00149735, 0.017196, 0.00023597, -0.00641802, -0.0640845, 0.0842582, -0.00951806, 0.470986, -0.543301, 0.335901, -2.08375, -2.16583, -0.129951, 0.468697, -0.543016, 0.334011, -2.08315, -2.16271, -0.12446, -0.00157182, 0.00638361, 0.000552899, -0.00142384, -0.00961401, -0.00844739
0.0541077, 1.69148, -1.22724, -1.5402, -0.900461, -1.19419, 1.22741, -1.30249, 0.0157128, 0.00051641, -0.00926051, -0.00826656, -0.101169, -0.00364811, 0.000220088, 3.19343, 60.3198, 29.6863, 5.57739, 2.13611, 4.14889, -0.0685925, 4.98035e-05, -0.00221973, 0.00199666, 0.00453567, -0.00046922, 0.00151999, 0.0188322, 0.00168186, -0.00469076, -0.0645525, 0.0907951, -0.0111944, 0.470984, -0.543294, 0.335902, -2.08374, -2.16583, -0.129956, 0.468694, -0.543029, 0.334005, -2.08318, -2.16272, -0.124295, -0.00164135, 0.0066751, 0.000580303, -0.00281639, -0.011263, -0.00692505
0.0551077, 1.69151, -1.22724, -1.5402, -0.900471, -1.19431, 1.22741, -1.30249, 0.0202121, 0.00161665, -0.00888791, -0.00925968, -0.10387, -0.0032135, 0.000149141, 3.26881, 60.4309, 29.7974, 5.72418, 2.14252, 4.16995, -0.0685925, 3.33179e-05, -0.00221661, 0.0020011, 0.00460575, -0.000572581, 0.00152915, 0.0172442, -0.000946822, -0.00422298, -0.0661682, 0.0948561, -0.00635564, 0.470983, -0.543288, 0.335902, -2.08374, -2.16583, -0.12996, 0.468695, -0.543037, 0.333998, -2.0832, -2.16274, -0.124116, -0.00171231, 0.00697325, 0.000608468, -0.00030198, -0.00936141, -0.00626775
0.0561077, 1.69153, -1.22724, -1.54022, -0.900474, -1.19443, 1.22741, -1.3025, 0.0236384, 0.000337299, -0.0127003, -0.00733737, -0.105635, -0.00241476, -0.00281489, 3.34419, 60.5023, 29.9482, 5.76385, 2.14252, 4.17727, 0.0101428, 1.19193e-05, -0.0022167, 0.00200665, 0.00467601, -0.000677555, 0.00154528, 0.0179462, -0.00179751, -0.00614329, -0.0693427, 0.0959394, -0.00388272, 0.470981, -0.543281, 0.335903, -2.08373, -2.16582, -0.129965, 0.468694, -0.543051, 0.33399, -2.08322, -2.16275, -0.123935, -0.00178469, 0.00727797, 0.000637396, 0.000431015, -0.00941907, -0.00826974
0.0571077, 1.69156, -1.22724, -1.54021, -0.900481, -1.19455, 1.2274, -1.30249, 0.0261985, 0.00210198, -0.0100674, -0.00673918, -0.11215, -0.00269577, -0.00017981, 3.41956, 60.5777, 29.8728, 5.83527, 2.14801, 4.20657, -0.0356336, -6.27419e-06, -0.00221473, 0.0020077, 0.00473572, -0.000780567, 0.0015646, 0.0178504, -0.00281016, -0.00422091, -0.0702658, 0.103104, -0.0052562, 0.470979, -0.543273, 0.335904, -2.08372, -2.16582, -0.129971, 0.468695, -0.543061, 0.333987, -2.08326, -2.16276, -0.123768, -0.00185846, 0.00758918, 0.000667086, 0.00143466, -0.00926783, -0.00635765
0.0581077, 1.69158, -1.22725, -1.54022, -0.900487, -1.19467, 1.2274, -1.30249, 0.0295858, -0.000335986, -0.0098094, -0.00555369, -0.111918, -0.00152656, 0.000355864, 3.41956, 60.6848, 29.9839, 5.87494, 2.14252, 4.19925, -0.0484509, -2.83435e-05, -0.00221301, 0.00201637, 0.00480754, -0.000886658, 0.00158574, 0.0172711, -0.00484008, -0.00544972, -0.0690657, 0.101405, -0.00301971, 0.470977, -0.543266, 0.335904, -2.08371, -2.16582, -0.129976, 0.468695, -0.543074, 0.333976, -2.08329, -2.16277, -0.123584, -0.00193359, 0.00790677, 0.000697537, 0.00332172, -0.00810584, -0.0075119
0.0591077, 1.69161, -1.22725, -1.54023, -0.900493, -1.1948, 1.2274, -1.30249, 0.0328721, -0.00141097, -0.00691414, -0.00463733, -0.116831, -0.0010182, 0.000983992, 3.37989, 60.7602, 29.9839, 5.91064, 2.14252, 4.19925, -0.0685925, -4.89411e-05, -0.00220947, 0.00202053, 0.00487655, -0.00100082, 0.0016039, 0.0169366, -0.00661482, -0.0050291, -0.0685258, 0.104808, -0.00121982, 0.470975, -0.543258, 0.335905, -2.0837, -2.16582, -0.129982, 0.468698, -0.543086, 0.333969, -2.08332, -2.16279, -0.123395, -0.00201003, 0.00823062, 0.000728745, 0.00502098, -0.00744375, -0.00706706
0.0601077, 1.69164, -1.22726, -1.54024, -0.900496, -1.19494, 1.2274, -1.30249, 0.0341223, -0.00394213, -0.0084168, -0.0031663, -0.120319, -0.000950429, -0.0020222, 3.37989, 60.907, 30.1346, 5.91064, 2.14252, 4.20657, 0.00373412, -7.43572e-05, -0.00220987, 0.00203448, 0.00496054, -0.00110639, 0.0016213, 0.0183969, -0.00645141, -0.00687662, -0.0710986, 0.10554, 0.000114784, 0.470973, -0.54325, 0.335906, -2.08369, -2.16582, -0.129988, 0.468696, -0.5431, 0.333952, -2.08334, -2.1628, -0.123199, -0.00208776, 0.00856062, 0.000760709, 0.00476563, -0.00827739, -0.00908138
0.0611077, 1.69167, -1.22727, -1.54025, -0.900498, -1.19508, 1.2274, -1.30249, 0.0328781, -0.00573761, -0.0066571, -0.00133171, -0.132588, 0.000179909, -0.000839075, 3.34419, 61.0538, 30.1703, 5.87494, 2.16724, 4.1846, -0.00999879, -9.92664e-05, -0.00220697, 0.00204422, 0.00503639, -0.00122328, 0.00164434, 0.0221775, -0.00457405, -0.00685498, -0.0733618, 0.114416, -0.00690384, 0.470971, -0.543241, 0.335906, -2.08369, -2.16582, -0.129994, 0.468697, -0.543115, 0.333939, -2.08337, -2.16281, -0.123001, -0.00216672, 0.00889664, 0.000793423, 0.00294796, -0.0117538, -0.00955808
0.0621077, 1.69169, -1.22729, -1.54025, -0.900503, -1.19522, 1.2274, -1.30249, 0.030055, -0.00701564, -0.00543129, -0.00176507, -0.136313, 0.000119734, 0.000153016, 3.37989, 61.2006, 30.206, 5.91064, 2.15442, 4.1846, -0.0292249, -0.000126964, -0.00220694, 0.00205453, 0.00510939, -0.0013378, 0.0016727, 0.0242412, -0.00296059, -0.0070598, -0.0739331, 0.116409, -0.0107078, 0.470969, -0.543232, 0.335907, -2.08368, -2.16582, -0.13, 0.468695, -0.543132, 0.333925, -2.08341, -2.16281, -0.122807, -0.0022469, 0.00923859, 0.000826888, 0.00132299, -0.0134836, -0.00999896
0.0631077, 1.69173, -1.2273, -1.54026, -0.900508, -1.19537, 1.2274, -1.30249, 0.0337419, -0.0111078, -0.00688627, -0.00213626, -0.145043, 7.96688e-05, 0.00132296, 3.30451, 61.3513, 30.206, 5.95032, 2.16724, 4.1846, -0.0621838, -0.000151482, -0.00220241, 0.00206471, 0.00518856, -0.00145899, 0.00169458, 0.0252555, -0.00400552, -0.0101953, -0.0803771, 0.120096, -0.0112199, 0.470967, -0.543223, 0.335908, -2.08367, -2.16581, -0.130006, 0.468698, -0.543145, 0.333912, -2.08344, -2.16283, -0.122601, -0.00232828, 0.00958644, 0.000861108, 0.00220827, -0.0136111, -0.01325
0.0641077, 1.69176, -1.2273, -1.54026, -0.900506, -1.19551, 1.2274, -1.30249, 0.0355422, -0.00919609, -0.00494196, 0.000315413, -0.150389, 0.000595532, -0.000338551, 3.26881, 61.4227, 30.206, 5.87494, 2.14801, 4.16995, -0.0292249, -0.000178504, -0.00220115, 0.00207052, 0.00526446, -0.0015828, 0.00171789, 0.026069, -0.00433769, -0.00806017, -0.0796521, 0.126735, -0.0105857, 0.470965, -0.543213, 0.335909, -2.08366, -2.16581, -0.130013, 0.468698, -0.543161, 0.333903, -2.08348, -2.16284, -0.122395, -0.00241084, 0.00994017, 0.000896084, 0.00256383, -0.0143756, -0.0112435
0.0651077, 1.69179, -1.22732, -1.54028, -0.900509, -1.19567, 1.22741, -1.3025, 0.0345395, -0.011418, -0.0107773, 0.000192538, -0.149593, 0.00171936, -0.00120891, 3.19343, 61.6449, 30.2457, 5.87494, 2.1297, 4.13424, -0.00267457, -0.000205939, -0.00219654, 0.0020849, 0.00534857, -0.00170532, 0.00173383, 0.0282192, -0.00317492, -0.0112711, -0.0834788, 0.125172, -0.0128452, 0.470962, -0.543204, 0.33591, -2.08365, -2.16581, -0.13002, 0.4687, -0.543176, 0.333885, -2.0835, -2.16286, -0.122183, -0.00249458, 0.0102997, 0.000931821, 0.00127987, -0.0156916, -0.0146774
0.0661077, 1.69182, -1.22732, -1.54028, -0.900507, -1.19582, 1.22741, -1.30249, 0.0326601, -0.00684453, -0.00790668, -0.00128593, -0.152959, 0.00246861, -0.000297211, 3.15376, 61.6092, 30.2457, 5.79956, 2.10498, 4.09854, -0.0164075, -0.000233335, -0.00219373, 0.00208665, 0.00541988, -0.00183956, 0.00176383, 0.028704, -0.0027032, -0.00757443, -0.0818842, 0.133143, -0.0139134, 0.47096, -0.543193, 0.335911, -2.08363, -2.16581, -0.130028, 0.468702, -0.543192, 0.33388, -2.08356, -2.16287, -0.121972, -0.00257947, 0.0106651, 0.000968322, 0.000874966, -0.0163936, -0.0110522
0.0671077, 1.69186, -1.22732, -1.54028, -0.900506, -1.19596, 1.22741, -1.30249, 0.0337531, -0.00544906, -0.003214, -0.000295733, -0.154692, 0.00218822, 0.00173472, 3.15376, 61.6449, 30.1346, 5.76385, 2.03815, 4.08389, -0.0685925, -0.000260236, -0.00218986, 0.00208873, 0.0054851, -0.00196843, 0.00179393, 0.0280961, -0.00372564, -0.00500746, -0.0783838, 0.135872, -0.0138433, 0.470957, -0.543183, 0.335912, -2.08362, -2.16581, -0.130035, 0.468704, -0.543207, 0.333875, -2.08361, -2.16289, -0.121774, -0.00266552, 0.0110363, 0.00100559, 0.00188116, -0.0157758, -0.00841701
0.0681077, 1.6919, -1.22732, -1.54029, -0.900506, -1.19611, 1.22742, -1.30249, 0.0341723, -0.00367082, -0.00338389, -0.000402402, -0.156652, 0.00223867, 0.000410549, 3.04267, 61.6449, 30.1703, 5.76385, 1.98871, 4.06283, -0.0484509, -0.000285763, -0.0021835, 0.00209181, 0.00556378, -0.00210782, 0.00180925, 0.0285215, -0.00378326, -0.00402273, -0.0793418, 0.139717, -0.0125355, 0.470954, -0.543172, 0.335913, -2.08361, -2.1658, -0.130043, 0.468708, -0.543221, 0.333869, -2.08364, -2.16292, -0.121551, -0.00275269, 0.0114132, 0.00104363, 0.00190248, -0.0159681, -0.00747479
0.0691077, 1.69193, -1.22732, -1.54029, -0.900511, -1.19626, 1.22742, -1.30249, 0.0357238, -0.0024758, -0.00384782, -0.00209264, -0.158581, 0.00230622, -0.000438334, 3.003, 61.6449, 30.095, 5.83527, 1.94568, 4.04086, -0.0292249, -0.000310219, -0.00217635, 0.00209533, 0.00563925, -0.00224287, 0.00182508, 0.0280934, -0.00479735, -0.00376252, -0.0815007, 0.143169, -0.00931328, 0.470952, -0.54316, 0.335914, -2.0836, -2.1658, -0.130051, 0.468713, -0.543233, 0.333862, -2.08367, -2.16294, -0.121337, -0.00284098, 0.0117958, 0.00108244, 0.00282114, -0.0151613, -0.00714343
0.0701077, 1.69198, -1.22732, -1.5403, -0.900506, -1.19642, 1.22742, -1.30249, 0.0403114, -0.00250719, -0.00304781, -0.000675326, -0.159992, 0.00258862, -0.000766908, 2.81654, 61.6806, 30.095, 5.79956, 1.89624, 4.01248, -0.0164075, -0.000335922, -0.00216736, 0.00210012, 0.00571674, -0.00238087, 0.0018434, 0.0270169, -0.00716648, -0.00348684, -0.0812232, 0.144832, -0.00552696, 0.470949, -0.543148, 0.335915, -2.08359, -2.1658, -0.130059, 0.46872, -0.543245, 0.333854, -2.08371, -2.16297, -0.121118, -0.00293038, 0.0121842, 0.00112203, 0.00506928, -0.0136554, -0.00673614
0.0711086, 1.69202, -1.22733, -1.54031, -0.900504, -1.19657, 1.22742, -1.30249, 0.0417464, -0.00252276, -0.00649105, -0.000536806, -0.161761, 0.00226827, 0.000946814, 2.70148, 61.7163, 30.1346, 5.79956, 1.86603, 3.99783, -0.0557752, -0.000362581, -0.00216036, 0.00210681, 0.00580304, -0.00251822, 0.00186925, 0.0278528, -0.00714921, -0.00476626, -0.0854632, 0.146801, -0.00793018, 0.470946, -0.543136, 0.335916, -2.08357, -2.1658, -0.130068, 0.468725, -0.543258, 0.333845, -2.08375, -2.16298, -0.120889, -0.00302087, 0.0125781, 0.0011624, 0.00494535, -0.01389, -0.00808878
0.0721086, 1.69206, -1.22733, -1.54031, -0.900503, -1.19673, 1.22743, -1.30249, 0.0401916, -0.00429236, -0.00540156, -0.000422812, -0.167204, 0.0028346, 0.000868586, 2.70148, 61.8274, 30.0236, 5.79956, 1.82941, 3.96213, -0.0621838, -0.000391248, -0.00215326, 0.00211146, 0.00587325, -0.0026554, 0.00189122, 0.0300541, -0.00604015, -0.00523849, -0.08638, 0.150081, -0.010487, 0.470943, -0.543124, 0.335917, -2.08356, -2.16579, -0.130077, 0.46873, -0.543273, 0.333836, -2.08379, -2.16301, -0.120678, -0.00311245, 0.0129778, 0.00120355, 0.00380814, -0.015636, -0.00882294
0.0731086, 1.69211, -1.22734, -1.54032, -0.900498, -1.1969, 1.22743, -1.30249, 0.0394404, -0.00689707, -0.00808188, 0.000504637, -0.167209, 0.00212708, 0.000579071, 2.55073, 61.8671, 30.0593, 5.76385, 1.81659, 3.95572, -0.0621838, -0.000419472, -0.00214423, 0.00211749, 0.00595829, -0.00280224, 0.00191241, 0.0317981, -0.00493001, -0.00758188, -0.0889768, 0.147648, -0.0127216, 0.47094, -0.543111, 0.335918, -2.08355, -2.16579, -0.130086, 0.468737, -0.543286, 0.333827, -2.08383, -2.16303, -0.120442, -0.00320508, 0.013383, 0.00124549, 0.0025847, -0.0166365, -0.0113328
0.0741086, 1.69215, -1.22734, -1.54032, -0.900492, -1.19706, 1.22743, -1.30249, 0.0383933, -0.00653347, -0.00929428, 0.00206313, -0.163181, 0.00223185, -0.000597286, 2.55073, 61.9385, 30.0593, 5.68848, 1.81659, 3.93374, -0.0356336, -0.000451071, -0.00213886, 0.00212202, 0.00603615, -0.00294658, 0.00193738, 0.0325706, -0.00432363, -0.00749086, -0.0871109, 0.145112, -0.0129152, 0.470937, -0.543097, 0.33592, -2.08353, -2.16579, -0.130095, 0.46874, -0.543303, 0.333819, -2.08387, -2.16306, -0.120216, -0.00329877, 0.0137938, 0.00128822, 0.00191654, -0.0170271, -0.0113024
0.0751086, 1.6922, -1.22735, -1.54033, -0.900486, -1.19723, 1.22743, -1.30249, 0.0428377, -0.00715284, -0.0100517, 0.00227604, -0.169442, 0.00203043, -0.00161889, 2.47535, 62.0496, 30.0593, 5.6488, 1.81018, 3.9191, -0.00267457, -0.00047944, -0.00212841, 0.00213003, 0.00612099, -0.00309022, 0.00195312, 0.0325167, -0.00598447, -0.00830612, -0.0914704, 0.150154, -0.00986637, 0.470933, -0.543083, 0.335921, -2.08352, -2.16579, -0.130105, 0.468748, -0.543316, 0.333807, -2.0839, -2.16309, -0.119984, -0.00339351, 0.0142102, 0.00133174, 0.00344921, -0.0163634, -0.012106
0.0761086, 1.69225, -1.22736, -1.54034, -0.900488, -1.1974, 1.22744, -1.30249, 0.0459721, -0.00668085, -0.0108536, 0.00367687, -0.16428, 0.00213351, 0.000887436, 2.39997, 62.1249, 30.0593, 5.68848, 1.79187, 3.89804, -0.0557752, -0.000507786, -0.00211774, 0.00213746, 0.00620826, -0.00324022, 0.00197537, 0.0310804, -0.00796326, -0.00824932, -0.0894185, 0.146947, -0.00889381, 0.47093, -0.543069, 0.335922, -2.0835, -2.16578, -0.130115, 0.468756, -0.543328, 0.333797, -2.08394, -2.16311, -0.119743, -0.00348927, 0.0146321, 0.00137605, 0.00528032, -0.0144509, -0.0118425
0.0771086, 1.6923, -1.22737, -1.54034, -0.900489, -1.19757, 1.22744, -1.30248, 0.0475611, -0.00799937, -0.0121512, 0.00185962, -0.166463, 0.0016936, 0.00154106, 2.3603, 62.2717, 30.095, 5.72418, 1.81018, 3.89071, -0.0814099, -0.000536042, -0.00210581, 0.00214803, 0.00629622, -0.003384, 0.00199304, 0.0310488, -0.00881005, -0.00982378, -0.0931337, 0.147971, -0.00743412, 0.470926, -0.543055, 0.335924, -2.08349, -2.16578, -0.130125, 0.468765, -0.543339, 0.333783, -2.08397, -2.16314, -0.119508, -0.00358604, 0.0150594, 0.00142116, 0.00597125, -0.0137146, -0.013373
0.0781086, 1.69235, -1.22738, -1.54034, -0.90048, -1.19774, 1.22744, -1.30249, 0.0509256, -0.0111869, -0.00998611, 0.00318568, -0.171569, 0.00112907, 0.000552662, 2.3603, 62.3828, 30.1346, 5.6488, 1.81018, 3.89071, -0.0685925, -0.000568474, -0.00209776, 0.00215648, 0.0063813, -0.00352916, 0.0020175, 0.0311865, -0.0102454, -0.0109381, -0.0942347, 0.149022, -0.00461149, 0.470923, -0.543039, 0.335925, -2.08347, -2.16578, -0.130135, 0.46877, -0.543354, 0.333771, -2.08401, -2.16316, -0.119274, -0.00368381, 0.0154923, 0.00146708, 0.00727173, -0.0131866, -0.0144926
0.0791086, 1.6924, -1.22739, -1.54035, -0.90048, -1.19791, 1.22744, -1.30249, 0.0519064, -0.00862036, -0.0082106, 0.00133279, -0.174072, 0.00102398, -0.00207296, 2.28492, 62.4185, 30.1703, 5.68848, 1.79187, 3.88339, -0.00267457, -0.000595141, -0.0020836, 0.00216331, 0.00646935, -0.00367994, 0.00202185, 0.0305217, -0.0112596, -0.0090819, -0.0947149, 0.154128, 0.000851466, 0.470919, -0.543024, 0.335926, -2.08345, -2.16578, -0.130146, 0.468781, -0.543363, 0.333761, -2.08403, -2.1632, -0.119034, -0.00378258, 0.0159305, 0.0015138, 0.00822931, -0.0123364, -0.0125408
0.0801086, 1.69245, -1.2274, -1.54036, -0.900482, -1.19809, 1.22744, -1.30249, 0.0470413, -0.00984959, -0.00601221, 0.00233246, -0.177409, 0.000140116, 7.60887e-05, 2.32459, 62.4542, 30.1703, 5.76385, 1.78638, 3.89804, -0.0420422, -0.000624457, -0.00207267, 0.0021702, 0.00656172, -0.00383409, 0.00204253, 0.0336487, -0.00825743, -0.00867343, -0.0939538, 0.155295, -0.00673203, 0.470915, -0.543008, 0.335928, -2.08344, -2.16577, -0.130157, 0.468789, -0.543375, 0.333751, -2.08406, -2.16323, -0.118784, -0.00388232, 0.0163742, 0.00156132, 0.00525847, -0.0151657, -0.0124862
0.0811086, 1.69251, -1.2274, -1.54036, -0.900481, -1.19826, 1.22744, -1.30249, 0.0517513, -0.00960074, -0.004412, 0.00189075, -0.175469, 9.34096e-05, 0.000796712, 2.28492, 62.5653, 30.1703, 5.76385, 1.79187, 3.89804, -0.0621838, -0.000650585, -0.00205692, 0.00217748, 0.00664589, -0.00398004, 0.00205343, 0.0311401, -0.0115764, -0.00824561, -0.0925607, 0.154515, -0.000712575, 0.470911, -0.542992, 0.335929, -2.08342, -2.16577, -0.130169, 0.468802, -0.543382, 0.33374, -2.08409, -2.16326, -0.118553, -0.00398302, 0.0168232, 0.00160966, 0.00839794, -0.0121695, -0.0117259
0.0821086, 1.69256, -1.22741, -1.54037, -0.900481, -1.19841, 1.22744, -1.30249, 0.0521274, -0.0106456, -0.00500746, 0.000677115, -0.168497, 6.22724e-05, 0.000531143, 2.24921, 62.601, 30.2457, 5.79956, 1.77356, 3.89804, -0.0621838, -0.000677761, -0.00204346, 0.00218336, 0.00673075, -0.00412566, 0.00206575, 0.0299132, -0.0128393, -0.00924105, -0.0905438, 0.148401, 0.00335202, 0.470907, -0.542975, 0.335931, -2.0834, -2.16577, -0.13018, 0.468812, -0.543391, 0.333732, -2.08411, -2.16329, -0.118322, -0.00408468, 0.0172776, 0.00165881, 0.00947762, -0.0102983, -0.0125074
0.0831086, 1.69262, -1.22741, -1.54037, -0.900481, -1.19858, 1.22744, -1.30249, 0.0522695, -0.00759918, -0.00263746, 0.0030203, -0.169842, 4.15145e-05, -0.00134133, 2.20954, 62.601, 30.206, 5.83527, 1.80469, 3.89804, -0.0164075, -0.000703975, -0.00202757, 0.00218744, 0.00681215, -0.00427521, 0.00206891, 0.0304949, -0.0126887, -0.00626074, -0.0877299, 0.152661, 0.00422856, 0.470903, -0.542958, 0.335933, -2.08338, -2.16576, -0.130192, 0.468824, -0.543398, 0.333725, -2.08413, -2.16334, -0.118091, -0.00418727, 0.0177373, 0.00170878, 0.0093536, -0.0108786, -0.00960131
0.0841086, 1.69267, -1.22742, -1.54038, -0.900485, -1.19875, 1.22744, -1.30249, 0.0547296, -0.00804115, -0.00545516, 0.000659889, -0.169809, -0.000243591, -0.00140284, 2.20954, 62.7121, 30.3568, 5.91064, 1.82941, 3.90536, -0.00267457, -0.000732685, -0.00201318, 0.00220067, 0.00691044, -0.00442113, 0.00207868, 0.0297667, -0.0141459, -0.00796644, -0.0919186, 0.153035, 0.00775703, 0.470899, -0.54294, 0.335934, -2.08336, -2.16576, -0.130204, 0.468835, -0.543406, 0.333708, -2.08414, -2.16337, -0.117845, -0.00429078, 0.0182023, 0.00175956, 0.0106176, -0.00937121, -0.0111659
0.0851086, 1.69273, -1.22743, -1.54039, -0.900482, -1.19891, 1.22744, -1.30249, 0.0573086, -0.00740644, -0.00459977, 0.00385031, -0.166002, 0.000108873, -0.000935228, 2.17384, 62.7875, 30.3925, 5.91064, 1.85962, 3.89804, -0.00267457, -0.000761922, -0.00199834, 0.0022078, 0.00699391, -0.00456892, 0.00209141, 0.0290894, -0.0156023, -0.00692821, -0.0878788, 0.15098, 0.0090143, 0.470895, -0.542922, 0.335936, -2.08334, -2.16576, -0.130217, 0.468847, -0.543415, 0.333698, -2.08417, -2.1634, -0.117614, -0.00439521, 0.0186725, 0.00181117, 0.0119811, -0.0083324, -0.0100283
0.0861086, 1.69279, -1.22743, -1.54039, -0.900482, -1.19908, 1.22744, -1.30249, 0.0580745, -0.00681989, -0.0054976, 0.00305587, -0.162224, -0.000198686, 0.0013432, 2.05878, 62.8589, 30.3568, 5.91064, 1.87793, 3.90536, -0.0557752, -0.000787515, -0.00197856, 0.00221346, 0.00707515, -0.00471909, 0.0021009, 0.0283482, -0.0164989, -0.00705225, -0.0875659, 0.148997, 0.0093143, 0.47089, -0.542903, 0.335938, -2.08332, -2.16575, -0.13023, 0.468863, -0.54342, 0.33369, -2.08419, -2.16344, -0.117384, -0.00450054, 0.019148, 0.0018636, 0.0127402, -0.00706896, -0.0100107
0.0871086, 1.69284, -1.22744, -1.5404, -0.900482, -1.19925, 1.22744, -1.30249, 0.0558794, -0.00470546, -0.0065996, 0.00147597, -0.160245, -0.000403725, -0.000325234, 2.05878, 62.8589, 30.4679, 5.95032, 1.90906, 3.91269, -0.0228162, -0.000818608, -0.00196595, 0.00222056, 0.00717022, -0.00487471, 0.00211362, 0.0289586, -0.0156597, -0.00628912, -0.0879757, 0.150033, 0.0105964, 0.470886, -0.542884, 0.33594, -2.0833, -2.16575, -0.130243, 0.468872, -0.54343, 0.333679, -2.08421, -2.16348, -0.117132, -0.00460676, 0.0196287, 0.00191686, 0.0118456, -0.00734277, -0.00927414
0.0881086, 1.69291, -1.22744, -1.54041, -0.900486, -1.19941, 1.22744, -1.30249, 0.0608717, -0.0071315, -0.00548702, -0.000411396, -0.158273, -0.000506509, -0.00120017, 1.90803, 62.8986, 30.5036, 6.02173, 1.92737, 3.9191, 0.00373412, -0.000842946, -0.00194469, 0.00222851, 0.00726091, -0.00502573, 0.00210944, 0.0262737, -0.0194221, -0.00782964, -0.087993, 0.14674, 0.0196095, 0.470881, -0.542864, 0.335942, -2.08328, -2.16574, -0.130257, 0.468889, -0.543432, 0.333669, -2.08421, -2.16353, -0.116892, -0.00471385, 0.0201145, 0.00197095, 0.0153438, -0.00381348, -0.0104374
0.0891086, 1.69297, -1.22744, -1.54042, -0.900489, -1.19958, 1.22743, -1.30249, 0.0554468, -0.00416129, -0.00653831, -0.00099599, -0.161122, -0.000880207, -0.000562752, 1.87232, 62.8589, 30.6186, 6.0614, 1.93378, 3.93374, -0.00267457, -0.000872007, -0.00192914, 0.00223454, 0.00735323, -0.00518073, 0.00212056, 0.0294674, -0.0159631, -0.00624249, -0.0897059, 0.152317, 0.0129176, 0.470877, -0.542844, 0.335944, -2.08326, -2.16574, -0.13027, 0.4689, -0.543439, 0.33366, -2.08423, -2.16356, -0.116645, -0.00482181, 0.0206055, 0.00202587, 0.0119539, -0.00686225, -0.00920866
0.0901086, 1.69302, -1.22744, -1.54042, -0.900484, -1.19974, 1.22743, -1.30249, 0.0556424, -0.00219021, -0.00273742, 0.000418748, -0.163353, -0.00140061, 0.00108289, 1.79694, 62.8232, 30.5433, 6.02173, 1.93927, 3.95572, -0.0420422, -0.000901915, -0.0019136, 0.00223741, 0.00743627, -0.00533399, 0.00213794, 0.0297141, -0.0161365, -0.00356222, -0.0870077, 0.156025, 0.011568, 0.470872, -0.542823, 0.335946, -2.08324, -2.16574, -0.130285, 0.468912, -0.543447, 0.333654, -2.08426, -2.1636, -0.11641, -0.00493062, 0.0211016, 0.00208162, 0.0121246, -0.00701609, -0.00655086
0.0911086, 1.69308, -1.22745, -1.54044, -0.900486, -1.1999, 1.22743, -1.30249, 0.0547901, -0.00480906, -0.00452974, -0.00136803, -0.16378, -0.00144236, 0.00123056, 1.75727, 62.8232, 30.6544, 6.09711, 1.92096, 3.96945, -0.0557752, -0.000932385, -0.00189753, 0.00224654, 0.0075319, -0.00548745, 0.00215051, 0.030768, -0.0158222, -0.00591087, -0.0897002, 0.154536, 0.0115161, 0.470867, -0.542802, 0.335948, -2.08322, -2.16573, -0.130299, 0.468924, -0.543454, 0.333642, -2.08428, -2.16363, -0.116162, -0.00504026, 0.0216028, 0.00213822, 0.011654, -0.00720511, -0.00896844
0.0921086, 1.69315, -1.22745, -1.54045, -0.900481, -1.20007, 1.22743, -1.30249, 0.0536249, -0.00444595, -0.00874148, -0.000824991, -0.168548, -0.002284, 0.000549103, 1.60651, 62.8589, 30.7654, 6.09711, 1.91546, 4.00516, -0.0484509, -0.000963349, -0.00188017, 0.00225706, 0.0076295, -0.0056394, 0.00216234, 0.0336535, -0.0136906, -0.00708003, -0.0958232, 0.159117, 0.00726642, 0.470862, -0.542781, 0.33595, -2.08319, -2.16573, -0.130314, 0.468937, -0.54346, 0.333628, -2.0843, -2.16366, -0.115913, -0.00515073, 0.022109, 0.00219565, 0.00947636, -0.00945406, -0.010451
0.0931086, 1.69321, -1.22745, -1.54046, -0.90049, -1.20024, 1.22742, -1.30249, 0.0549314, -0.00549415, -0.00437785, -0.0040112, -0.168296, -0.0020652, -0.00156671, 1.49146, 62.8232, 30.6901, 6.24786, 1.90265, 4.0198, 0.00373412, -0.000988774, -0.00185855, 0.00226054, 0.00771934, -0.00580002, 0.00215377, 0.0318139, -0.016092, -0.00661478, -0.0934441, 0.158565, 0.0159842, 0.470857, -0.542759, 0.335952, -2.08317, -2.16572, -0.130329, 0.468954, -0.543462, 0.333623, -2.0843, -2.16372, -0.115666, -0.00526201, 0.0226203, 0.00225393, 0.0117142, -0.00709936, -0.00972019
0.0941086, 1.69327, -1.22746, -1.54047, -0.900487, -1.20041, 1.22742, -1.30249, 0.0580836, -0.00498078, -0.00901661, -0.00262518, -0.164089, -0.00164807, -0.00128183, 1.41608, 62.8589, 30.8051, 6.24786, 1.90906, 4.02713, 0.0101428, -0.00102334, -0.00184341, 0.00227072, 0.00781583, -0.00595676, 0.00217377, 0.0314759, -0.017366, -0.00786501, -0.0949145, 0.15668, 0.017102, 0.470851, -0.542736, 0.335954, -2.08315, -2.16572, -0.130344, 0.468965, -0.543471, 0.333609, -2.08432, -2.16375, -0.115414, -0.0053741, 0.0231366, 0.00231306, 0.0128171, -0.00600331, -0.0108821
0.0951086, 1.69333, -1.22746, -1.54048, -0.900489, -1.20057, 1.22742, -1.30249, 0.0592343, -0.00544586, -0.0127455, -0.00347664, -0.165141, -0.00136998, 0.000840866, 1.26533, 62.9343, 30.8051, 6.32324, 1.89624, 4.03445, -0.0356336, -0.00105302, -0.0018233, 0.00227957, 0.00790563, -0.0061086, 0.00218137, 0.0322965, -0.0175762, -0.00957605, -0.0989847, 0.158146, 0.0150643, 0.470846, -0.542713, 0.335957, -2.08312, -2.16571, -0.13036, 0.46898, -0.543475, 0.333597, -2.08434, -2.16378, -0.115175, -0.00548698, 0.0236579, 0.00237303, 0.0128818, -0.00601858, -0.0126464
0.0961086, 1.6934, -1.22746, -1.5405, -0.900494, -1.20074, 1.22742, -1.30249, 0.0596958, -0.00130369, -0.013233, -0.0057239, -0.166151, -0.00115068, 0.00178128, 1.11457, 62.8232, 30.8408, 6.47003, 1.90265, 4.04086, -0.0685925, -0.00108277, -0.00180406, 0.00228592, 0.0080065, -0.00627296, 0.00219011, 0.031896, -0.0181976, -0.00758946, -0.100407, 0.164029, 0.0162211, 0.470841, -0.542689, 0.335959, -2.0831, -2.16571, -0.130376, 0.468995, -0.543479, 0.333588, -2.08435, -2.16382, -0.114912, -0.00560063, 0.0241841, 0.00243385, 0.0134467, -0.00537791, -0.0105814
0.0971086, 1.69346, -1.22747, -1.54051, -0.900496, -1.2009, 1.22742, -1.30248, 0.05882, -0.00190802, -0.0159185, -0.00241481, -0.165816, -0.000529761, 0.000441535, 1.00349, 62.8589, 30.8408, 6.54541, 1.89624, 4.03445, -0.0484509, -0.00111569, -0.00178535, 0.00229538, 0.00809372, -0.00642522, 0.00220053, 0.0344132, -0.0167444, -0.00830369, -0.100367, 0.163874, 0.0129704, 0.470835, -0.542665, 0.335962, -2.08307, -2.16571, -0.130393, 0.469009, -0.543485, 0.333575, -2.08437, -2.16386, -0.114676, -0.00571505, 0.0247152, 0.00249553, 0.011946, -0.00728057, -0.011574
0.0981086, 1.69352, -1.22747, -1.54053, -0.900494, -1.20106, 1.22742, -1.30249, 0.0618049, -0.00456799, -0.0168182, -0.00133241, -0.165881, -0.000590533, -0.00163842, 0.888436, 62.8589, 30.9162, 6.54541, 1.87244, 4.04086, 0.00373412, -0.00115034, -0.00176824, 0.00230444, 0.0081894, -0.00658382, 0.0022072, 0.0343948, -0.0181446, -0.0101685, -0.101361, 0.161879, 0.0169892, 0.470829, -0.54264, 0.335964, -2.08305, -2.1657, -0.13041, 0.469021, -0.543493, 0.333563, -2.08438, -2.1639, -0.114425, -0.00583022, 0.0252512, 0.00255806, 0.0131609, -0.0063798, -0.013393
0.0991086, 1.69359, -1.22747, -1.54054, -0.9005, -1.20123, 1.22742, -1.30249, 0.0668191, -0.00665745, -0.01682, -0.00420665, -0.166201, -0.000664956, -0.000108938, 0.6623, 62.8589, 30.8408, 6.69617, 1.85962, 4.04819, -0.0228162, -0.00117788, -0.00174391, 0.00231249, 0.00828538, -0.00674219, 0.0022058, 0.0321206, -0.0216906, -0.012036, -0.103814, 0.161045, 0.0232062, 0.470823, -0.542615, 0.335967, -2.08302, -2.16569, -0.130427, 0.46904, -0.543492, 0.333553, -2.08438, -2.16395, -0.114175, -0.00594613, 0.0257921, 0.00262146, 0.0164368, -0.00315845, -0.0149271
0.100109, 1.69365, -1.22748, -1.54056, -0.900507, -1.20139, 1.22742, -1.30249, 0.0666805, -0.00675355, -0.0157679, -0.00524681, -0.161102, -0.000714571, 0.00114808, 0.586922, 62.9343, 30.8408, 6.80725, 1.823, 4.05551, -0.0557752, -0.00121285, -0.00172622, 0.00232426, 0.00837954, -0.00689589, 0.00221975, 0.0312041, -0.0226974, -0.0118417, -0.100977, 0.157358, 0.0252775, 0.470817, -0.542589, 0.335969, -2.08299, -2.16569, -0.130444, 0.469053, -0.543498, 0.333538, -2.08439, -2.16398, -0.113931, -0.00606278, 0.0263379, 0.00268571, 0.0172998, -0.00169581, -0.0145594
0.101109, 1.69371, -1.22747, -1.54058, -0.900509, -1.20155, 1.22742, -1.30249, 0.0660517, -0.00231792, -0.0171936, -0.00514406, -0.163243, -0.000476381, 0.000256759, 0.400459, 62.8232, 30.8051, 6.88263, 1.81659, 4.05551, -0.0420422, -0.00124452, -0.00170444, 0.00233022, 0.0084787, -0.00706481, 0.00222322, 0.0323998, -0.0218858, -0.00962549, -0.102429, 0.164299, 0.0243058, 0.470811, -0.542563, 0.335972, -2.08296, -2.16568, -0.130462, 0.469069, -0.543501, 0.333529, -2.0844, -2.16403, -0.113667, -0.00618014, 0.0268884, 0.00275083, 0.0164958, -0.00270116, -0.012469
0.102109, 1.69378, -1.22748, -1.5406, -0.900516, -1.20173, 1.22742, -1.30249, 0.0648606, -0.00361902, -0.016238, -0.00594004, -0.160813, -0.000317587, -0.00101562, 0.245735, 62.8986, 30.8051, 6.99371, 1.82941, 4.05551, -0.00999879, -0.00127987, -0.00168318, 0.00234433, 0.00858039, -0.00722814, 0.0022266, 0.032714, -0.0219885, -0.0100615, -0.100572, 0.161649, 0.0267446, 0.470805, -0.542536, 0.335975, -2.08294, -2.16568, -0.13048, 0.469085, -0.543506, 0.333512, -2.08441, -2.16407, -0.113406, -0.0062982, 0.0274437, 0.00281681, 0.0164761, -0.0023837, -0.0128865
0.103109, 1.69385, -1.22748, -1.54062, -0.900521, -1.2019, 1.22742, -1.30249, 0.0607809, -0.00348078, -0.0175674, -0.0047294, -0.163038, -0.00102553, -0.000948349, 0.0949785, 62.9343, 30.7654, 7.02942, 1.82941, 4.07748, -0.00267457, -0.00131495, -0.00166298, 0.00235509, 0.0086812, -0.00739157, 0.00223422, 0.0360778, -0.0189015, -0.01009, -0.102117, 0.163696, 0.0205453, 0.470799, -0.542509, 0.335978, -2.08291, -2.16567, -0.130499, 0.4691, -0.543511, 0.333498, -2.08441, -2.16411, -0.113146, -0.00641697, 0.0280038, 0.00288366, 0.013395, -0.0052665, -0.0132799
0.104109, 1.69391, -1.22748, -1.54063, -0.900529, -1.20206, 1.22742, -1.30249, 0.0616128, -0.00384115, -0.0185188, -0.00579481, -0.168877, -0.00014115, 0.00106319, -0.0914839, 62.8589, 30.7297, 7.14447, 1.82941, 4.06283, -0.0484509, -0.00134665, -0.00163976, 0.00236229, 0.00878052, -0.00755932, 0.00224006, 0.0374436, -0.0190461, -0.0107054, -0.105485, 0.169362, 0.0182409, 0.470793, -0.542481, 0.33598, -2.08288, -2.16567, -0.130518, 0.469118, -0.543512, 0.333488, -2.08442, -2.16415, -0.112884, -0.00653641, 0.0285686, 0.00295138, 0.0134471, -0.00594799, -0.0140384
0.105109, 1.69398, -1.22749, -1.54065, -0.900537, -1.20222, 1.22742, -1.30249, 0.0643863, -0.00605288, -0.0162642, -0.0054966, -0.168768, -0.000873994, -0.000478002, -0.242241, 62.8589, 30.6901, 7.21588, 1.823, 4.08389, -0.0164075, -0.00138079, -0.0016175, 0.00237346, 0.00887673, -0.00771827, 0.00224003, 0.0365197, -0.0209549, -0.0113501, -0.10451, 0.167232, 0.0237697, 0.470786, -0.542452, 0.335983, -2.08285, -2.16566, -0.130537, 0.469134, -0.543514, 0.333474, -2.08442, -2.1642, -0.112635, -0.00665653, 0.0291381, 0.00301998, 0.0151767, -0.00428718, -0.014521
0.106109, 1.69404, -1.22749, -1.54067, -0.900553, -1.20239, 1.22742, -1.30249, 0.0619857, -0.00551434, -0.0146855, -0.00892634, -0.164452, -0.000582662, -8.13093e-05, -0.317619, 62.8986, 30.6544, 7.44202, 1.82941, 4.08389, -0.0228162, -0.00141503, -0.00159512, 0.00238728, 0.00897849, -0.00787844, 0.00224076, 0.0359504, -0.0212849, -0.0107769, -0.102004, 0.165116, 0.026553, 0.470779, -0.542423, 0.335986, -2.08282, -2.16566, -0.130557, 0.469151, -0.543516, 0.333457, -2.08442, -2.16424, -0.112379, -0.0067773, 0.0297122, 0.00308945, 0.015386, -0.00322539, -0.0138079
0.107109, 1.6941, -1.2275, -1.54069, -0.900561, -1.20255, 1.22742, -1.30249, 0.0601052, -0.00575997, -0.0166734, -0.0076933, -0.166142, 0.000391452, -0.00103755, -0.392998, 62.97, 30.6186, 7.51739, 1.84131, 4.06283, 0.00373412, -0.0014533, -0.00157489, 0.00240021, 0.00907312, -0.00803761, 0.00225, 0.0386064, -0.0196902, -0.0112318, -0.102774, 0.167305, 0.0234212, 0.470773, -0.542393, 0.335989, -2.08278, -2.16565, -0.130577, 0.469165, -0.543521, 0.333441, -2.08443, -2.16428, -0.112132, -0.00689872, 0.030291, 0.0031598, 0.0137517, -0.00526301, -0.014554
0.108109, 1.69416, -1.2275, -1.54071, -0.900572, -1.20271, 1.22741, -1.30249, 0.0603859, -0.00460454, -0.0189687, -0.0077117, -0.166723, -0.000281567, 0.00100372, -0.543754, 62.8589, 30.6186, 7.62848, 1.82941, 4.07748, -0.0420422, -0.00148766, -0.00155314, 0.00240944, 0.00917746, -0.00820305, 0.00225597, 0.0394816, -0.0193345, -0.0114027, -0.105512, 0.169394, 0.0207093, 0.470766, -0.542363, 0.335993, -2.08275, -2.16564, -0.130597, 0.469181, -0.543522, 0.333429, -2.08443, -2.16432, -0.111868, -0.00702078, 0.0308744, 0.00323103, 0.0133002, -0.00553102, -0.0147786
0.109109, 1.69423, -1.2275, -1.54073, -0.900585, -1.20288, 1.22742, -1.30249, 0.0638126, -0.00272138, -0.0165907, -0.00865589, -0.167124, -0.00042507, 0.00117777, -0.694511, 62.8232, 30.579, 7.77924, 1.8349, 4.08389, -0.0557752, -0.0015213, -0.00152771, 0.00241938, 0.00927545, -0.00836984, 0.00225388, 0.0376723, -0.0218894, -0.00974461, -0.104471, 0.172206, 0.0260675, 0.470759, -0.542332, 0.335996, -2.08272, -2.16564, -0.130618, 0.4692, -0.543522, 0.333416, -2.08443, -2.16437, -0.111611, -0.00714347, 0.0314625, 0.00330314, 0.0157243, -0.00330741, -0.0128656
0.110109, 1.69429, -1.2275, -1.54074, -0.900588, -1.20304, 1.22741, -1.30249, 0.0645327, -0.00217943, -0.0180914, -0.0057618, -0.161856, -0.00028338, 0.000513915, -0.76989, 62.8232, 30.5433, 7.77924, 1.82941, 4.08389, -0.0484509, -0.00156035, -0.00150856, 0.00242762, 0.00936825, -0.00853052, 0.00226458, 0.0380433, -0.0220911, -0.00956201, -0.101841, 0.168988, 0.0263005, 0.470751, -0.542301, 0.335999, -2.08269, -2.16563, -0.130639, 0.469213, -0.543527, 0.333405, -2.08444, -2.16441, -0.111365, -0.00726676, 0.032055, 0.00337613, 0.0158229, -0.00310018, -0.0126776
0.111109, 1.69436, -1.22749, -1.54077, -0.900602, -1.20319, 1.22741, -1.30249, 0.066102, 0.00170684, -0.0217889, -0.00726828, -0.159284, -0.00527459, -0.00206489, -0.884941, 62.6764, 30.6186, 7.92602, 1.8349, 4.09122, 0.0165515, -0.00159617, -0.00148676, 0.00243469, 0.00946993, -0.00870018, 0.00226401, 0.036886, -0.0220604, -0.00927718, -0.108769, 0.169338, 0.0310911, 0.470744, -0.542268, 0.336003, -2.08265, -2.16562, -0.13066, 0.469228, -0.543528, 0.333395, -2.08444, -2.16446, -0.111102, -0.00739066, 0.0326521, 0.00345001, 0.0156371, -0.00140539, -0.0121421
0.112109, 1.69442, -1.2275, -1.54078, -0.90061, -1.20335, 1.22741, -1.30248, 0.0657742, 0.000932479, -0.0166704, -0.00660383, -0.156928, -0.00364633, 0.000793547, -1.07537, 62.6764, 30.5036, 8.0014, 1.82941, 4.08389, -0.0420422, -0.0016303, -0.00146161, 0.00244086, 0.00955775, -0.00886044, 0.00226928, 0.0365489, -0.0233163, -0.00765191, -0.101391, 0.167687, 0.0309517, 0.470737, -0.542236, 0.336006, -2.08262, -2.16562, -0.130682, 0.469247, -0.543527, 0.333386, -2.08444, -2.1645, -0.110863, -0.00751515, 0.0332538, 0.00352478, 0.0168142, -0.000670022, -0.0104494
0.113109, 1.69448, -1.22749, -1.5408, -0.900619, -1.20351, 1.22741, -1.30249, 0.0587163, 0.00390127, -0.0175089, -0.0093288, -0.155311, -0.00327432, -0.00140375, -1.11108, 62.5296, 30.579, 8.07678, 1.82941, 4.09854, 0.0101428, -0.00167041, -0.0014439, 0.00244451, 0.00965318, -0.00903076, 0.00227341, 0.0391032, -0.0201092, -0.00614182, -0.100941, 0.17019, 0.0290101, 0.470729, -0.542203, 0.33601, -2.08258, -2.16561, -0.130704, 0.469259, -0.543532, 0.333379, -2.08445, -2.16455, -0.110606, -0.00764022, 0.0338599, 0.00360044, 0.0136342, -0.00295141, -0.00918605
0.114109, 1.69455, -1.22748, -1.54081, -0.90063, -1.20366, 1.2274, -1.30249, 0.0581309, 0.00341332, -0.0145239, -0.0113868, -0.15792, -0.00186602, 0.00174293, -1.33721, 62.4899, 30.5036, 8.15216, 1.81018, 4.08389, -0.0621838, -0.00170404, -0.00141639, 0.00245036, 0.00974543, -0.00919783, 0.00227485, 0.0394602, -0.0208463, -0.00546897, -0.0991469, 0.173174, 0.0280303, 0.470722, -0.542169, 0.336013, -2.08255, -2.1656, -0.130727, 0.469279, -0.54353, 0.333371, -2.08445, -2.1646, -0.110356, -0.00776586, 0.0344704, 0.00367699, 0.0142826, -0.0027663, -0.00852479
0.115109, 1.69461, -1.22748, -1.54083, -0.900639, -1.20382, 1.2274, -1.30249, 0.0629299, 0.00218889, -0.015128, -0.0129166, -0.159477, -0.00141327, 0.000653329, -1.41259, 62.4899, 30.5433, 8.22754, 1.79828, 4.08389, -0.0484509, -0.00174363, -0.00139671, 0.00245785, 0.00984388, -0.0093614, 0.00228113, 0.0380986, -0.0238126, -0.00679449, -0.10149, 0.174452, 0.0347914, 0.470714, -0.542134, 0.336017, -2.08251, -2.16559, -0.13075, 0.469293, -0.543532, 0.33336, -2.08445, -2.16464, -0.110103, -0.00789206, 0.0350854, 0.00375444, 0.0170214, -0.000478079, -0.00963457
0.116109, 1.69467, -1.22747, -1.54084, -0.900649, -1.20398, 1.22739, -1.30249, 0.0635849, 0.00389992, -0.0176363, -0.0139904, -0.156613, -1.79607e-05, -0.00149723, -1.60302, 62.3828, 30.5433, 8.29895, 1.77997, 4.05551, 0.00373412, -0.0017803, -0.00137199, 0.00246034, 0.00993623, -0.00953577, 0.00227862, 0.0380582, -0.0246283, -0.0067092, -0.10153, 0.175431, 0.0386339, 0.470706, -0.542099, 0.336021, -2.08248, -2.16559, -0.130773, 0.469311, -0.543532, 0.333355, -2.08445, -2.1647, -0.109848, -0.0080188, 0.0357048, 0.00383279, 0.0177114, 0.000202637, -0.00949189
0.117109, 1.69473, -1.22747, -1.54084, -0.900653, -1.20415, 1.22739, -1.30249, 0.0621344, 0.00431444, -0.0138038, -0.00920212, -0.160418, -0.00010718, -0.000998152, -1.7141, 62.3074, 30.4322, 8.26324, 1.79187, 4.05551, 0.00373412, -0.00182242, -0.00135208, 0.00245965, 0.0100225, -0.00971405, 0.002291, 0.040656, -0.0230687, -0.00433792, -0.0974206, 0.178842, 0.0334204, 0.470698, -0.542063, 0.336024, -2.08244, -2.16558, -0.130797, 0.469324, -0.543537, 0.333352, -2.08447, -2.16475, -0.109593, -0.00814607, 0.0363285, 0.00391203, 0.0162076, -0.00216949, -0.00743206
0.118109, 1.69479, -1.22747, -1.54086, -0.900662, -1.20431, 1.22738, -1.30249, 0.0600003, 0.0010765, -0.013175, -0.0084308, -0.157794, -0.00467653, 0.00126735, -1.78948, 62.3828, 30.5433, 8.33862, 1.78638, 4.04819, -0.0484509, -0.00186731, -0.00133442, 0.00247131, 0.0101239, -0.00987766, 0.00230781, 0.0416484, -0.0214279, -0.00618107, -0.0991213, 0.171691, 0.0299657, 0.47069, -0.542027, 0.336028, -2.0824, -2.16557, -0.130821, 0.469335, -0.543542, 0.333337, -2.08448, -2.16477, -0.109337, -0.00827387, 0.0369566, 0.00399218, 0.0144104, -0.00230229, -0.00927841
0.119109, 1.69485, -1.22746, -1.54086, -0.900671, -1.20448, 1.22738, -1.30249, 0.0571648, 0.00505194, -0.00873105, -0.00685537, -0.156376, -0.00748134, 0.00159088, -1.94024, 62.1964, 30.3568, 8.37433, 1.80469, 4.02713, -0.0685925, -0.00190656, -0.0013112, 0.00246355, 0.0102017, -0.0100641, 0.00231203, 0.0421447, -0.0199465, -0.00211913, -0.0953998, 0.173231, 0.0283219, 0.470682, -0.54199, 0.336032, -2.08236, -2.16556, -0.130845, 0.469351, -0.543544, 0.333342, -2.0845, -2.16484, -0.109086, -0.00840218, 0.0375891, 0.00407323, 0.0129695, -0.00285088, -0.00522156
0.120109, 1.69491, -1.22745, -1.54088, -0.900682, -1.20466, 1.22737, -1.30249, 0.0594162, 0.00501783, -0.0112285, -0.00663319, -0.160338, -0.0051763, -0.00138082, -2.13067, 62.1249, 30.5433, 8.44971, 1.823, 4.01248, -0.00267457, -0.00195222, -0.00129297, 0.0024697, 0.0103101, -0.0102489, 0.0023191, 0.0434023, -0.0207994, -0.0028633, -0.0975964, 0.178469, 0.0311968, 0.470673, -0.541953, 0.336036, -2.08232, -2.16556, -0.13087, 0.469363, -0.54355, 0.333332, -2.0845, -2.16488, -0.108802, -0.008531, 0.0382258, 0.00415518, 0.0137114, -0.00330378, -0.00609869
0.121109, 1.69496, -1.22746, -1.54088, -0.900689, -1.20483, 1.22736, -1.30249, 0.0579815, 0.00165936, -0.00868569, -0.00859143, -0.162605, -0.00815007, -0.000920545, -2.20605, 62.1964, 30.4322, 8.48541, 1.82941, 3.99783, -0.00267457, -0.00199972, -0.00127589, 0.00247439, 0.0103987, -0.0104204, 0.00233814, 0.044037, -0.0202473, -0.00436408, -0.0999154, 0.176148, 0.0319251, 0.470665, -0.541914, 0.33604, -2.08228, -2.16555, -0.130895, 0.469373, -0.543557, 0.333324, -2.08452, -2.16492, -0.108553, -0.0086603, 0.0388668, 0.00423804, 0.0129995, -0.0030785, -0.00758167
0.122109, 1.69502, -1.22745, -1.54089, -0.900699, -1.205, 1.22736, -1.30249, 0.0596499, 0.00452835, -0.0105637, -0.0101575, -0.159427, -0.00545593, 0.000132288, -2.39648, 62.0496, 30.4679, 8.52509, 1.8349, 3.97677, -0.0228162, -0.00204346, -0.00125481, 0.00247419, 0.010496, -0.0106089, 0.00235029, 0.0432608, -0.0221101, -0.0033837, -0.098389, 0.178747, 0.0343957, 0.470656, -0.541875, 0.336045, -2.08224, -2.16554, -0.130921, 0.469387, -0.54356, 0.33332, -2.08454, -2.16496, -0.108278, -0.00879009, 0.039512, 0.00432181, 0.0147382, -0.0017412, -0.00646698
0.123109, 1.69508, -1.22744, -1.54089, -0.900709, -1.20517, 1.22735, -1.30248, 0.0576141, 0.00477346, -0.0110934, -0.00818386, -0.160932, -0.00837697, 0.00154625, -2.58294, 61.9742, 30.4679, 8.56079, 1.81018, 3.96213, -0.0621838, -0.00208712, -0.0012327, 0.00247633, 0.0105877, -0.0107873, 0.00236153, 0.045488, -0.0198229, -0.00326354, -0.100733, 0.179251, 0.0288367, 0.470647, -0.541836, 0.336049, -2.0822, -2.16553, -0.130947, 0.469401, -0.543563, 0.333315, -2.08455, -2.16501, -0.10802, -0.00892034, 0.0401615, 0.0044065, 0.0124097, -0.003403, -0.00654466
0.124109, 1.69514, -1.22744, -1.5409, -0.90072, -1.20535, 1.22734, -1.30249, 0.0586332, 0.00401102, -0.00656185, -0.0100369, -0.16287, -0.010882, 4.7492e-05, -2.7337, 61.9385, 30.3925, 8.60046, 1.80469, 3.95572, -0.0356336, -0.0021324, -0.00121182, 0.0024775, 0.0106814, -0.0109709, 0.00236365, 0.0444045, -0.0210574, -0.00260807, -0.10085, 0.179426, 0.0348631, 0.470638, -0.541796, 0.336053, -2.08216, -2.16552, -0.130973, 0.469415, -0.543566, 0.333311, -2.08455, -2.16506, -0.107756, -0.00905105, 0.0408151, 0.00449209, 0.013497, -0.00172963, -0.00568169
0.125109, 1.69519, -1.22744, -1.5409, -0.900732, -1.20553, 1.22733, -1.30249, 0.0541872, 0.00350435, -0.0050717, -0.0112238, -0.165344, -0.00746301, -0.00118904, -2.80907, 61.9028, 30.3925, 8.63617, 1.823, 3.93374, -0.00267457, -0.0021816, -0.00119385, 0.00247883, 0.0107746, -0.0111578, 0.00237684, 0.0472739, -0.0195513, -0.0019732, -0.0975694, 0.183179, 0.0330522, 0.470629, -0.541755, 0.336058, -2.08212, -2.16551, -0.131, 0.469426, -0.543573, 0.333305, -2.08457, -2.16511, -0.107488, -0.00918221, 0.0414729, 0.0045786, 0.0119899, -0.00406451, -0.00537412
0.126109, 1.69525, -1.22743, -1.5409, -0.900744, -1.2057, 1.22733, -1.30249, 0.0560866, 0.00233257, -0.00390399, -0.0121329, -0.167709, -0.00519943, -0.000792695, -2.95983, 61.9028, 30.3925, 8.67188, 1.85962, 3.9191, -0.00267457, -0.00223053, -0.00117426, 0.0024806, 0.0108642, -0.0113426, 0.00238999, 0.0474033, -0.0213069, -0.00224376, -0.0964, 0.185843, 0.035525, 0.47062, -0.541714, 0.336063, -2.08207, -2.1655, -0.131027, 0.469438, -0.543578, 0.3333, -2.08458, -2.16516, -0.107227, -0.00931381, 0.0421348, 0.00466602, 0.0136071, -0.00341438, -0.00562959
0.127109, 1.69531, -1.22742, -1.54091, -0.900759, -1.20587, 1.22732, -1.30249, 0.0581046, 0.00415076, -0.00392282, -0.0168087, -0.168349, -0.00768152, 0.00116696, -3.15026, 61.7917, 30.4322, 8.74725, 1.87244, 3.89071, -0.0484509, -0.0022757, -0.00115158, 0.00247992, 0.0109586, -0.0115317, 0.00239675, 0.0455059, -0.0230335, -0.00211642, -0.10111, 0.188162, 0.039764, 0.470611, -0.541671, 0.336067, -2.08203, -2.16549, -0.131055, 0.469453, -0.54358, 0.333297, -2.08459, -2.16521, -0.106957, -0.00944583, 0.0428008, 0.00475437, 0.0151356, -0.000822692, -0.0051727
0.128109, 1.69536, -1.22742, -1.5409, -0.90077, -1.20605, 1.22731, -1.30248, 0.052999, 0.00360033, -0.000310859, -0.0153441, -0.173041, -0.00996823, 0.00104924, -3.18597, 61.756, 30.3211, 8.74725, 1.89624, 3.86966, -0.0557752, -0.00232598, -0.00113241, 0.00247856, 0.011038, -0.0117154, 0.00241227, 0.0488742, -0.0196415, -0.000847332, -0.100602, 0.190472, 0.0340879, 0.470601, -0.541629, 0.336072, -2.08198, -2.16548, -0.131083, 0.469464, -0.543586, 0.333295, -2.08461, -2.16526, -0.106709, -0.00957827, 0.043471, 0.00484363, 0.0117855, -0.00381495, -0.00425749
0.129109, 1.69541, -1.22742, -1.5409, -0.900791, -1.20623, 1.22731, -1.30249, 0.0519976, 0.0033267, -0.00126303, -0.017062, -0.172166, -0.0112726, -0.000283851, -3.33672, 61.7163, 30.3568, 8.85834, 1.90265, 3.84036, -0.0292249, -0.00237453, -0.00111106, 0.00247806, 0.0111312, -0.0119103, 0.00241664, 0.0494116, -0.0192663, -0.00161553, -0.102754, 0.18972, 0.0361628, 0.470592, -0.541585, 0.336077, -2.08194, -2.16548, -0.131111, 0.469478, -0.54359, 0.333292, -2.08462, -2.16532, -0.106436, -0.00971111, 0.0441452, 0.00493382, 0.0112701, -0.00356655, -0.00500064
0.130109, 1.69546, -1.22742, -1.5409, -0.900803, -1.20641, 1.2273, -1.30249, 0.0534725, 0.00221664, -0.00100746, -0.0178583, -0.176428, -0.0130454, -0.0016473, -3.45177, 61.7163, 30.3568, 8.82263, 1.90906, 3.83304, 0.0101428, -0.00242841, -0.00109258, 0.00248022, 0.0112221, -0.0121021, 0.00242908, 0.0499212, -0.0196404, -0.00247793, -0.106653, 0.192042, 0.0387784, 0.470582, -0.541541, 0.336082, -2.08189, -2.16547, -0.13114, 0.469488, -0.543597, 0.333286, -2.08464, -2.16537, -0.106168, -0.00984435, 0.0448234, 0.00502493, 0.011498, -0.00324071, -0.00585442
0.131109, 1.69551, -1.22741, -1.5409, -0.900816, -1.2066, 1.2273, -1.30249, 0.0535518, 0.00231211, -0.000795713, -0.0163991, -0.177992, -0.00916985, 0.000122506, -3.52715, 61.6806, 30.3568, 8.82263, 1.87244, 3.81198, -0.0228162, -0.00248426, -0.0010767, 0.00247936, 0.0113132, -0.0122995, 0.00245364, 0.0516664, -0.0200356, -0.00177499, -0.103031, 0.195917, 0.0358047, 0.470572, -0.541496, 0.336087, -2.08185, -2.16546, -0.131169, 0.469496, -0.543607, 0.333282, -2.08467, -2.16541, -0.105893, -0.00997797, 0.0455056, 0.00511696, 0.0118493, -0.00437294, -0.00535675
0.132109, 1.69556, -1.22742, -1.5409, -0.900831, -1.20679, 1.22729, -1.30248, 0.0505887, 0.00154075, 0.000211686, -0.0184602, -0.180218, -0.0111962, 0.00130237, -3.60253, 61.6806, 30.3211, 8.82263, 1.85962, 3.79733, -0.0557752, -0.00254086, -0.00105914, 0.00248284, 0.0114103, -0.0124978, 0.00247549, 0.0531623, -0.0185088, -0.00214133, -0.105422, 0.19671, 0.0336356, 0.470562, -0.541451, 0.336092, -2.0818, -2.16545, -0.131199, 0.469506, -0.543616, 0.333274, -2.08469, -2.16545, -0.105611, -0.010112, 0.0461918, 0.00520992, 0.0102324, -0.00516894, -0.005816
0.133109, 1.69561, -1.22741, -1.5409, -0.900845, -1.20699, 1.22729, -1.30248, 0.0493637, 0.0018619, 0.000999352, -0.0160336, -0.190676, -0.0121849, 0.000868249, -3.71758, 61.6449, 30.2814, 8.78693, 1.86603, 3.76895, -0.0557752, -0.00259879, -0.00104158, 0.00248218, 0.0115027, -0.0127045, 0.00249651, 0.0568938, -0.0161528, -0.00128902, -0.10899, 0.205512, 0.0279806, 0.470552, -0.541404, 0.336097, -2.08175, -2.16543, -0.131229, 0.469516, -0.543626, 0.333271, -2.08472, -2.1655, -0.105326, -0.0102463, 0.0468819, 0.00530381, 0.00791351, -0.00839183, -0.00539728
0.134109, 1.69566, -1.22741, -1.54089, -0.900861, -1.20719, 1.22729, -1.30249, 0.0499044, 0.00300414, 0.000613891, -0.0183115, -0.189406, -0.00801197, -0.00186257, -3.75329, 61.5695, 30.2814, 8.78693, 1.85321, 3.73324, 0.0101428, -0.00265961, -0.00102607, 0.00247987, 0.0115961, -0.0129201, 0.00251415, 0.0568391, -0.0178972, -0.000704882, -0.106078, 0.208639, 0.0338905, 0.470542, -0.541358, 0.336102, -2.0817, -2.16542, -0.131259, 0.469523, -0.543639, 0.333268, -2.08475, -2.16555, -0.105032, -0.010381, 0.047576, 0.00539863, 0.00954124, -0.00766095, -0.0047732
0.135109, 1.69571, -1.22742, -1.54089, -0.900871, -1.2074, 1.22728, -1.30248, 0.0515385, -0.00143119, 0.00213324, -0.0150649, -0.193981, -0.00492723, 0.000453705, -3.82867, 61.7163, 30.206, 8.71155, 1.85962, 3.69754, -0.0356336, -0.00272302, -0.00101027, 0.00248574, 0.0116914, -0.0131227, 0.00254624, 0.0591062, -0.0185959, -0.00210698, -0.103177, 0.209903, 0.0300589, 0.470531, -0.54131, 0.336108, -2.08165, -2.16541, -0.13129, 0.469531, -0.543652, 0.333257, -2.08479, -2.16558, -0.104749, -0.0105161, 0.048274, 0.00549438, 0.0101361, -0.00895194, -0.00644176
0.136109, 1.69576, -1.22741, -1.54089, -0.900895, -1.2076, 1.22728, -1.30249, 0.0534049, 0.000716103, -0.000370521, -0.0194882, -0.196919, -0.00315228, -0.000409607, -3.94372, 61.6449, 30.2814, 8.78693, 1.84772, 3.67557, -0.0164075, -0.00278332, -0.00099184, 0.00248662, 0.0117938, -0.0133438, 0.00256292, 0.0587684, -0.0202577, -0.00223578, -0.107263, 0.216698, 0.0348342, 0.470521, -0.541262, 0.336113, -2.0816, -2.1654, -0.131321, 0.469541, -0.543663, 0.333252, -2.08481, -2.16564, -0.10444, -0.0106515, 0.0489759, 0.00559107, 0.0116441, -0.00782611, -0.00647277
0.137109, 1.6958, -1.22741, -1.54089, -0.900908, -1.20781, 1.22728, -1.30248, 0.0511429, 0.00131247, 0.00149414, -0.0159147, -0.19794, -0.00156131, 0.000439006, -3.90404, 61.6092, 30.206, 8.71155, 1.81659, 3.64718, -0.0356336, -0.00285078, -0.000980504, 0.00248368, 0.0118827, -0.0135618, 0.00259993, 0.0614651, -0.018788, -0.000438054, -0.10253, 0.219121, 0.0295614, 0.47051, -0.541213, 0.336119, -2.08155, -2.16539, -0.131353, 0.469544, -0.54368, 0.333249, -2.08486, -2.16568, -0.104148, -0.0107872, 0.0496816, 0.00568869, 0.0102063, -0.0101226, -0.00498253
0.138109, 1.69585, -1.22741, -1.54088, -0.900932, -1.20802, 1.22727, -1.30248, 0.0511371, 3.9643e-05, 0.00181475, -0.0200753, -0.200697, -0.00169535, 0.000767388, -4.0548, 61.6449, 30.1703, 8.78693, 1.823, 3.65451, -0.0484509, -0.00291281, -0.000962302, 0.00248649, 0.0119872, -0.0137818, 0.0026194, 0.0615445, -0.0195724, -0.00162189, -0.105597, 0.221152, 0.032538, 0.470499, -0.541163, 0.336125, -2.0815, -2.16538, -0.131385, 0.469553, -0.54369, 0.333242, -2.08489, -2.16573, -0.103838, -0.0109232, 0.0503911, 0.00578725, 0.010814, -0.00927299, -0.00609204
0.139109, 1.69589, -1.2274, -1.54088, -0.900946, -1.20822, 1.22727, -1.30249, 0.0481669, 0.00438804, 0.00203263, -0.019439, -0.196224, -0.000875104, -0.000675202, -4.09447, 61.4584, 30.1346, 8.71155, 1.77997, 3.63986, -0.0164075, -0.00297764, -0.000947665, 0.00247836, 0.012073, -0.0140058, 0.00264523, 0.0625193, -0.0184826, 0.00135152, -0.101385, 0.222771, 0.0323972, 0.470489, -0.541113, 0.33613, -2.08145, -2.16537, -0.131418, 0.46956, -0.543704, 0.333245, -2.08493, -2.16578, -0.103545, -0.0110595, 0.0511045, 0.00588674, 0.00973556, -0.0100301, -0.00318063
0.140109, 1.69594, -1.2274, -1.54088, -0.900965, -1.20842, 1.22728, -1.30249, 0.046809, 0.00116205, 0.00227379, -0.0199836, -0.198445, -0.000527691, -0.000687494, -4.16985, 61.5338, 30.095, 8.67188, 1.77997, 3.63254, -0.00999879, -0.00304554, -0.000932641, 0.00248122, 0.012169, -0.0142236, 0.00267341, 0.064418, -0.0178647, -0.000401013, -0.102123, 0.22228, 0.0314008, 0.470477, -0.541062, 0.336136, -2.0814, -2.16536, -0.13145, 0.469566, -0.543719, 0.333236, -2.08496, -2.16583, -0.103248, -0.0111962, 0.0518216, 0.00598718, 0.00898794, -0.0109384, -0.00509309
0.141109, 1.69598, -1.2274, -1.54088, -0.900995, -1.20863, 1.22728, -1.30249, 0.0482077, 0.00337311, 0.00150887, -0.0240939, -0.195145, -0.000242193, 0.000253748, -4.20556, 61.4227, 30.095, 8.78693, 1.76166, 3.62521, -0.0292249, -0.00310999, -0.000916079, 0.00247968, 0.0122652, -0.0144473, 0.00269566, 0.062645, -0.0199338, 3.23179e-05, -0.102838, 0.223156, 0.0365456, 0.470466, -0.54101, 0.336142, -2.08134, -2.16535, -0.131484, 0.469574, -0.54373, 0.333233, -2.085, -2.16588, -0.102945, -0.0113331, 0.0525425, 0.00608855, 0.0108696, -0.00844775, -0.00435161
0.142109, 1.69602, -1.2274, -1.54088, -0.901014, -1.20883, 1.22728, -1.30248, 0.0420161, 0.000485465, 0.00100068, -0.0233433, -0.203193, -4.53528e-05, 0.00138987, -4.20556, 61.4981, 30.095, 8.74725, 1.76166, 3.6188, -0.0621838, -0.00318206, -0.000904125, 0.0024827, 0.0123606, -0.0146665, 0.00273429, 0.068338, -0.0154788, -0.00133579, -0.105693, 0.22747, 0.0261714, 0.470455, -0.540957, 0.336148, -2.08129, -2.16533, -0.131518, 0.469577, -0.543748, 0.333224, -2.08504, -2.16591, -0.102646, -0.0114702, 0.0532671, 0.00619087, 0.00644267, -0.0133136, -0.00636279
0.143109, 1.69605, -1.2274, -1.54087, -0.901036, -1.20905, 1.22728, -1.30248, 0.0375965, 0.00125164, 0.00233362, -0.0198226, -0.209165, 0.000421362, 0.000180594, -4.20556, 61.4584, 30.0236, 8.71155, 1.76807, 3.60415, -0.0420422, -0.00325522, -0.000892771, 0.00248003, 0.0124552, -0.0149006, 0.00276798, 0.0729552, -0.0119425, 0.000406324, -0.104394, 0.233529, 0.0189506, 0.470443, -0.540904, 0.336154, -2.08123, -2.16532, -0.131552, 0.46958, -0.543766, 0.333221, -2.08509, -2.16596, -0.102334, -0.0116077, 0.0539954, 0.00629413, 0.00300852, -0.0175614, -0.00516231
0.144109, 1.6961, -1.22739, -1.54087, -0.901065, -1.20926, 1.22728, -1.30249, 0.0391944, 0.00250484, 0.000717583, -0.0230082, -0.208395, -0.00032983, -0.00133767, -4.28094, 61.387, 30.0593, 8.78693, 1.76166, 3.6188, -0.00267457, -0.0033249, -0.0008784, 0.00247958, 0.0125583, -0.0151325, 0.00279077, 0.0720388, -0.013306, 1.29692e-05, -0.107622, 0.234983, 0.0247027, 0.470432, -0.54085, 0.336161, -2.08118, -2.16531, -0.131586, 0.469585, -0.543781, 0.333216, -2.08512, -2.16601, -0.102016, -0.0117453, 0.0547273, 0.00639834, 0.0041857, -0.0158055, -0.00534759
0.145109, 1.69613, -1.22739, -1.54087, -0.901087, -1.20948, 1.22728, -1.30249, 0.0354066, 0.00343312, 0.000476178, -0.025581, -0.207197, -0.000271039, -0.000383151, -4.28094, 61.3116, 30.0593, 8.74725, 1.74335, 3.6188, -0.0164075, -0.00339896, -0.000866802, 0.0024787, 0.0126557, -0.0153637, 0.00282831, 0.0734386, -0.0119483, 0.000351901, -0.107655, 0.235835, 0.0229382, 0.47042, -0.540795, 0.336167, -2.08112, -2.1653, -0.131621, 0.469588, -0.543798, 0.333212, -2.08517, -2.16605, -0.101704, -0.0118833, 0.0554629, 0.00650349, 0.00275715, -0.0165603, -0.00509065
0.146109, 1.69617, -1.22739, -1.54087, -0.901114, -1.20969, 1.22728, -1.30248, 0.0375389, 0.000525494, 0.00115101, -0.0253238, -0.211995, 0.000594745, 0.00120263, -4.35632, 61.387, 30.0236, 8.74725, 1.74335, 3.59683, -0.0557752, -0.00347234, -0.000852773, 0.00248099, 0.0127499, -0.0155896, 0.00286232, 0.0744919, -0.0129897, -0.00107827, -0.108856, 0.238087, 0.022436, 0.470408, -0.54074, 0.336174, -2.08106, -2.16528, -0.131657, 0.469592, -0.543814, 0.333204, -2.08521, -2.1661, -0.101402, -0.0120214, 0.0562022, 0.00660959, 0.00364623, -0.0165922, -0.00659809
0.147109, 1.6962, -1.22739, -1.54087, -0.901142, -1.2099, 1.22728, -1.30248, 0.0372722, 0.00118554, -6.91204e-05, -0.0253192, -0.206061, 9.64564e-05, 0.000801752, -4.35632, 61.3513, 30.0593, 8.74725, 1.74335, 3.60415, -0.0557752, -0.00354815, -0.000842285, 0.00248046, 0.0128529, -0.0158259, 0.00289849, 0.0743346, -0.0132984, -0.00114308, -0.107383, 0.234468, 0.0243671, 0.470396, -0.540684, 0.33618, -2.08101, -2.16527, -0.131692, 0.469594, -0.543832, 0.333198, -2.08525, -2.16614, -0.10108, -0.0121598, 0.056945, 0.00671664, 0.00380936, -0.0156699, -0.0065437
0.148109, 1.69623, -1.22738, -1.54087, -0.901176, -1.21012, 1.22728, -1.30248, 0.0340935, 0.00255359, 0.000788205, -0.0261104, -0.21042, 0.000585259, -0.000923561, -4.35632, 61.2759, 30.0236, 8.78693, 1.73053, 3.58951, -0.0164075, -0.00362528, -0.000831865, 0.00247936, 0.0129542, -0.0160675, 0.00293233, 0.0768731, -0.0115206, 0.00011939, -0.107889, 0.240303, 0.0229772, 0.470384, -0.540627, 0.336187, -2.08095, -2.16526, -0.131729, 0.469595, -0.543851, 0.333194, -2.0853, -2.16618, -0.100755, -0.0122984, 0.0576914, 0.00682465, 0.00203673, -0.0176998, -0.00553954
0.149109, 1.69627, -1.22739, -1.54086, -0.901202, -1.21034, 1.22728, -1.30248, 0.0336646, -0.000896067, 0.00052477, -0.0271861, -0.210616, 0.000645255, -0.000853066, -4.43169, 61.387, 30.0236, 8.71155, 1.75525, 3.58218, -0.00999879, -0.00370378, -0.000819493, 0.00248501, 0.0130552, -0.016297, 0.00296822, 0.0779344, -0.0116361, -0.00210065, -0.108776, 0.237934, 0.0237342, 0.470372, -0.540569, 0.336194, -2.08089, -2.16524, -0.131765, 0.469598, -0.543869, 0.333182, -2.08534, -2.16622, -0.100443, -0.0124372, 0.0584414, 0.0069336, 0.00197165, -0.0176438, -0.00779702
0.150109, 1.6963, -1.22739, -1.54086, -0.901226, -1.21056, 1.22728, -1.30248, 0.0303648, -0.000597382, -0.000485896, -0.0272778, -0.209261, 0.000418031, 0.000855443, -4.39599, 61.387, 30.0593, 8.60046, 1.75525, 3.58218, -0.0484509, -0.00378636, -0.000813674, 0.00248605, 0.0131558, -0.0165295, 0.00301984, 0.0800275, -0.00983464, -0.00211306, -0.108609, 0.237745, 0.019223, 0.470359, -0.54051, 0.336201, -2.08083, -2.16523, -0.131802, 0.469594, -0.543892, 0.333174, -2.0854, -2.16625, -0.100127, -0.0125762, 0.0591949, 0.00704351, 0.000111755, -0.0190287, -0.00797871
0.151109, 1.69633, -1.22739, -1.54086, -0.901265, -1.21078, 1.22728, -1.30248, 0.032696, 0.0027131, 0.000510894, -0.0286286, -0.21169, 0.000269584, 0.00131628, -4.43169, 61.387, 30.0236, 8.67188, 1.74335, 3.58218, -0.0685925, -0.0038625, -0.0008007, 0.00248805, 0.0132586, -0.0167637, 0.00304973, 0.0793087, -0.0113747, -9.08349e-05, -0.109545, 0.24389, 0.0222439, 0.470347, -0.540451, 0.336208, -2.08077, -2.16522, -0.13184, 0.469597, -0.543907, 0.333167, -2.08543, -2.16629, -0.0998092, -0.0127154, 0.0599519, 0.00715437, 0.00156052, -0.017813, -0.00581033
0.152109, 1.69636, -1.22739, -1.54086, -0.901295, -1.21099, 1.22728, -1.30248, 0.0267436, 0.00206801, 0.00264953, -0.0269617, -0.211362, 0.000952788, 0.00111488, -4.39599, 61.387, 30.0593, 8.63617, 1.76807, 3.56112, -0.0750012, -0.00394495, -0.000792397, 0.00248945, 0.0133554, -0.0169973, 0.0030922, 0.0828335, -0.0083125, 0.000916261, -0.105177, 0.243577, 0.0166671, 0.470334, -0.540391, 0.336215, -2.0807, -2.1652, -0.131878, 0.469596, -0.543928, 0.333159, -2.08548, -2.16633, -0.099498, -0.0128547, 0.0607124, 0.00726618, -0.00146807, -0.0208166, -0.00517162
0.153109, 1.69638, -1.22738, -1.54086, -0.901332, -1.2112, 1.22728, -1.30247, 0.0285695, 0.0050068, 0.00202817, -0.0296327, -0.209522, 0.000358804, 0.000268535, -4.35632, 61.2402, 30.0593, 8.63617, 1.75525, 3.56845, -0.0621838, -0.00402498, -0.000783295, 0.00248553, 0.0134557, -0.017241, 0.00313055, 0.0814393, -0.00998531, 0.00193423, -0.106523, 0.245837, 0.0223207, 0.470321, -0.540331, 0.336222, -2.08064, -2.16519, -0.131916, 0.469595, -0.543946, 0.333157, -2.08553, -2.16637, -0.0991735, -0.0129943, 0.0614763, 0.00737895, 5.10056e-05, -0.0187648, -0.00389011
0.154109, 1.69641, -1.22739, -1.54086, -0.901372, -1.21142, 1.22728, -1.30248, 0.0246569, 0.00181328, 0.00375909, -0.0348808, -0.213678, -0.00363489, 0.00264985, -4.35632, 61.3116, 30.095, 8.63617, 1.75525, 3.54648, -0.00267457, -0.00410845, -0.000774272, 0.00249215, 0.0135658, -0.0174782, 0.00315926, 0.0827579, -0.00823565, -0.000160621, -0.112406, 0.245117, 0.0205639, 0.470308, -0.540269, 0.33623, -2.08058, -2.16517, -0.131955, 0.469594, -0.543965, 0.333144, -2.08555, -2.16642, -0.0988464, -0.0131339, 0.0622436, 0.00749268, -0.00186329, -0.0190432, -0.00600316
0.155109, 1.69643, -1.22738, -1.54086, -0.901412, -1.21165, 1.22728, -1.30247, 0.0232011, 0.00215345, 0.00290715, -0.0347387, -0.216508, -0.00230786, 0.0048349, -4.28094, 61.2759, 30.095, 8.60046, 1.75525, 3.53274, -0.0750012, -0.00419301, -0.000766628, 0.0024912, 0.0136706, -0.0177283, 0.00320967, 0.0850702, -0.00725887, -2.37147e-06, -0.112839, 0.249229, 0.0158843, 0.470295, -0.540207, 0.336237, -2.08051, -2.16516, -0.131994, 0.469592, -0.543986, 0.333139, -2.08561, -2.16645, -0.09851, -0.0132738, 0.0630144, 0.00760737, -0.00288561, -0.0206192, -0.00607271
0.156109, 1.69646, -1.22738, -1.54086, -0.901457, -1.21187, 1.22727, -1.30248, 0.0229497, 0.00151767, 0.00223892, -0.0395576, -0.220294, -0.00659907, 0.00327809, -4.24523, 61.2759, 30.095, 8.63617, 1.78638, 3.53274, -0.0685925, -0.00427716, -0.000758389, 0.00249404, 0.013783, -0.0179745, 0.00324317, 0.0850538, -0.00698733, -0.00159343, -0.121061, 0.250842, 0.0202215, 0.470282, -0.540144, 0.336245, -2.08045, -2.16514, -0.132034, 0.46959, -0.544005, 0.33313, -2.08565, -2.16649, -0.0981714, -0.0134137, 0.0637885, 0.00772302, -0.00335463, -0.0195898, -0.00752136
0.157109, 1.69647, -1.22738, -1.54086, -0.901503, -1.21209, 1.22728, -1.30248, 0.0218484, 0.00190853, 0.000790206, -0.0422684, -0.22266, -0.00501769, 0.00023439, -4.16985, 61.2402, 30.1346, 8.63617, 1.81018, 3.53274, -0.00999879, -0.00436381, -0.000751491, 0.00249547, 0.0138886, -0.0182222, 0.00327901, 0.0864292, -0.00684449, -0.0020093, -0.123015, 0.255038, 0.0235009, 0.470268, -0.54008, 0.336252, -2.08038, -2.16513, -0.132074, 0.469586, -0.544026, 0.333122, -2.08569, -2.16654, -0.0978389, -0.0135538, 0.064566, 0.00783963, -0.00360021, -0.0201091, -0.00803351
0.158109, 1.69649, -1.22738, -1.54085, -0.90155, -1.21231, 1.22727, -1.30247, 0.0180228, 0.000483279, 0.000696014, -0.0432817, -0.218671, -0.00823828, 0.00150741, -4.09447, 61.2759, 30.1346, 8.60046, 1.823, 3.52542, -0.0420422, -0.0044493, -0.000744729, 0.00249751, 0.0139945, -0.0184617, 0.00332019, 0.0876559, -0.00489661, -0.00309378, -0.123919, 0.249515, 0.0210474, 0.470255, -0.540016, 0.33626, -2.08032, -2.16511, -0.132115, 0.469583, -0.544045, 0.333114, -2.08573, -2.16657, -0.0975144, -0.013694, 0.0653468, 0.00795721, -0.00567877, -0.0204497, -0.00912546
0.159109, 1.69651, -1.22738, -1.54085, -0.901595, -1.21252, 1.22727, -1.30248, 0.0188472, 0.00119201, -0.000244301, -0.0431743, -0.220579, -0.00568918, 0.000653482, -4.0191, 61.2402, 30.1703, 8.52509, 1.8349, 3.51077, -0.0292249, -0.00453634, -0.00073782, 0.00249808, 0.0140966, -0.0187048, 0.00335833, 0.0888883, -0.00551786, -0.00277402, -0.123288, 0.253927, 0.0219655, 0.470241, -0.53995, 0.336268, -2.08025, -2.1651, -0.132156, 0.469579, -0.544065, 0.333107, -2.08577, -2.16661, -0.0971912, -0.0138343, 0.0661309, 0.00807574, -0.00513935, -0.0209042, -0.00891104
0.160109, 1.69652, -1.22737, -1.54085, -0.901648, -1.21274, 1.22727, -1.30247, 0.0142524, 0.00258387, -0.00183092, -0.0451369, -0.217701, -0.0046187, 0.00691865, -3.86834, 61.1649, 30.2457, 8.52509, 1.84772, 3.5181, -0.0750012, -0.00462481, -0.000733179, 0.00249794, 0.0142056, -0.0189549, 0.00340708, 0.090888, -0.00369523, -0.00242913, -0.122322, 0.254446, 0.0134918, 0.470227, -0.539884, 0.336276, -2.08018, -2.16508, -0.132197, 0.469573, -0.544086, 0.333101, -2.08582, -2.16664, -0.0968525, -0.0139747, 0.0669183, 0.00819524, -0.00701112, -0.0222202, -0.00871712
0.161109, 1.69654, -1.22738, -1.54085, -0.901701, -1.21295, 1.22726, -1.30247, 0.0126219, -2.11898e-05, -0.00114923, -0.0479123, -0.215252, -0.00268131, 0.00459831, -3.79296, 61.2402, 30.2457, 8.44971, 1.85962, 3.49612, -0.0621838, -0.00471168, -0.00072544, 0.00250487, 0.0143111, -0.0191851, 0.00343991, 0.0914182, -0.00431404, -0.00384286, -0.12007, 0.251748, 0.0182938, 0.470213, -0.539817, 0.336284, -2.08012, -2.16506, -0.132239, 0.46957, -0.544103, 0.333088, -2.08584, -2.16668, -0.0965401, -0.0141153, 0.067709, 0.00831571, -0.00656472, -0.021703, -0.0101006
0.162109, 1.69655, -1.22738, -1.54085, -0.901758, -1.21315, 1.22726, -1.30247, 0.0145297, -0.000834744, 0.00243675, -0.0479496, -0.20903, -0.00209953, 0.000969582, -3.71758, 61.2759, 30.2457, 8.414, 1.87793, 3.49612, 0.00373412, -0.00479539, -0.000715102, 0.00250803, 0.0144094, -0.019414, 0.00345857, 0.0895304, -0.00697097, -0.00312737, -0.113795, 0.246747, 0.0280819, 0.470199, -0.539749, 0.336293, -2.08005, -2.16505, -0.132281, 0.469569, -0.544117, 0.333079, -2.08586, -2.16674, -0.0962389, -0.0142558, 0.0685029, 0.00843714, -0.00409336, -0.0190447, -0.00906165
0.163109, 1.69655, -1.22738, -1.54085, -0.901812, -1.21334, 1.22726, -1.30247, 0.0121711, -0.000545545, 0.00249039, -0.0482356, -0.20296, -0.000853785, 0.00558402, -3.48748, 61.2759, 30.3568, 8.26324, 1.85962, 3.47507, 0.00373412, -0.00488766, -0.000713888, 0.00251245, 0.0145092, -0.0196414, 0.00350653, 0.0901932, -0.00673591, -0.00275016, -0.109415, 0.243451, 0.0238806, 0.470185, -0.539681, 0.336301, -2.07998, -2.16503, -0.132324, 0.46956, -0.544138, 0.333069, -2.0859, -2.16676, -0.0959349, -0.0143965, 0.0692999, 0.00855954, -0.00442815, -0.0189696, -0.00867056
0.164109, 1.69656, -1.22737, -1.54084, -0.901876, -1.21354, 1.22726, -1.30247, 0.0121615, 0.000479734, 0.00131547, -0.0541259, -0.203323, -0.000744683, 0.00600229, -3.45177, 61.2402, 30.3925, 8.22754, 1.87244, 3.47507, -0.0420422, -0.0049715, -0.000704547, 0.00251311, 0.0146086, -0.019873, 0.00353335, 0.0895074, -0.00791769, -0.00333663, -0.113032, 0.246273, 0.0283437, 0.47017, -0.539612, 0.33631, -2.0799, -2.16502, -0.132367, 0.469558, -0.544151, 0.333063, -2.08592, -2.1668, -0.0956298, -0.0145372, 0.0701002, 0.0086829, -0.00343405, -0.0173487, -0.00905951
0.165109, 1.69656, -1.22736, -1.54084, -0.901935, -1.21373, 1.22725, -1.30246, 0.00934383, 0.001254, 0.0012448, -0.053877, -0.199455, -0.00531766, 0.0049483, -3.30102, 61.2006, 30.3925, 8.11249, 1.87244, 3.47507, -0.0557752, -0.00506115, -0.00070071, 0.0025124, 0.0147051, -0.0201058, 0.00357383, 0.0903541, -0.00595324, -0.00311514, -0.114524, 0.242286, 0.0280052, 0.470156, -0.539541, 0.336318, -2.07983, -2.165, -0.132411, 0.46955, -0.544169, 0.333057, -2.08596, -2.16684, -0.0953256, -0.014678, 0.0709037, 0.00880724, -0.00549485, -0.0174977, -0.00879596
0.166109, 1.69656, -1.22736, -1.54084, -0.902004, -1.21394, 1.22725, -1.30247, 0.00499963, -8.73985e-05, -0.000657504, -0.0587613, -0.197523, -0.00376335, 0.00264413, -3.18597, 61.2402, 30.4679, 8.07678, 1.90265, 3.46774, -0.0292249, -0.00515226, -0.000696766, 0.00251743, 0.0148126, -0.0203414, 0.00360554, 0.0919641, -0.00490586, -0.00487104, -0.115579, 0.241357, 0.0305276, 0.470141, -0.539471, 0.336327, -2.07976, -2.16498, -0.132455, 0.469543, -0.544187, 0.333046, -2.08598, -2.16688, -0.0950078, -0.0148189, 0.0717102, 0.00893254, -0.00668536, -0.0180464, -0.0106326
0.167109, 1.69656, -1.22736, -1.54083, -0.902074, -1.21413, 1.22725, -1.30247, 0.00394869, 0.000873219, 0.000603782, -0.0624, -0.190753, -0.00209614, 0.000551148, -3.03521, 61.2006, 30.4322, 8.03711, 1.91546, 3.44668, 0.0101428, -0.0052428, -0.000692984, 0.00251651, 0.0149056, -0.0205754, 0.00363325, 0.0906625, -0.00652249, -0.00417774, -0.111217, 0.238613, 0.0380692, 0.470126, -0.539399, 0.336336, -2.07969, -2.16496, -0.132499, 0.469535, -0.544205, 0.333041, -2.086, -2.16693, -0.0947084, -0.0149597, 0.0725199, 0.00905882, -0.00523225, -0.0159913, -0.00967153
0.168109, 1.69656, -1.22737, -1.54082, -0.902143, -1.21432, 1.22724, -1.30246, 0.00287325, -0.00201371, 0.00592642, -0.0633058, -0.190095, -0.00113025, 0.00248505, -2.9995, 61.3116, 30.4679, 7.92602, 1.93378, 3.43204, -0.0420422, -0.00533168, -0.000686084, 0.00252309, 0.015005, -0.0207962, 0.00366499, 0.0908337, -0.00748287, -0.00397798, -0.105746, 0.23621, 0.0391307, 0.470112, -0.539326, 0.336345, -2.07961, -2.16495, -0.132544, 0.46953, -0.544218, 0.333029, -2.08602, -2.16696, -0.0944156, -0.0151006, 0.0733327, 0.00918606, -0.0043982, -0.0153364, -0.00941027
0.169109, 1.69655, -1.22736, -1.54081, -0.902222, -1.21452, 1.22724, -1.30247, 0.00319547, 0.00321472, 0.00690341, -0.0658324, -0.194673, -0.000146209, 0.00155798, -2.88445, 61.2402, 30.5036, 7.89032, 1.97681, 3.41006, -0.0356336, -0.00542076, -0.000680144, 0.00252365, 0.0151043, -0.0210317, 0.00368887, 0.0910815, -0.00808169, -0.000777204, -0.106776, 0.246666, 0.0418266, 0.470096, -0.539253, 0.336354, -2.07954, -2.16493, -0.132589, 0.469524, -0.544232, 0.333023, -2.08603, -2.16701, -0.094109, -0.0152415, 0.0741485, 0.00931428, -0.00380997, -0.0152426, -0.00618775
0.170109, 1.69655, -1.22736, -1.54081, -0.902303, -1.2147, 1.22723, -1.30246, 0.00123602, 0.00154979, 0.00743186, -0.0685742, -0.193608, -0.000252358, 0.00137998, -2.80907, 61.2759, 30.5433, 7.89032, 2.00061, 3.41006, -0.0420422, -0.00550975, -0.000673839, 0.00252735, 0.0152015, -0.0212562, 0.00371161, 0.0918034, -0.00793025, -0.00184368, -0.106893, 0.245058, 0.0435522, 0.470081, -0.539179, 0.336364, -2.07946, -2.16491, -0.132635, 0.469519, -0.544245, 0.333014, -2.08604, -2.16706, -0.0938167, -0.0153825, 0.0749674, 0.00944347, -0.004113, -0.0149727, -0.00722736
0.171109, 1.69653, -1.22736, -1.5408, -0.902377, -1.21489, 1.22723, -1.30247, -0.00603165, 0.000379374, 0.00874102, -0.070816, -0.188677, 0.000766758, -0.000934811, -2.62261, 61.3116, 30.5433, 7.77924, 2.05005, 3.38168, 0.0101428, -0.00560476, -0.000673494, 0.00252882, 0.015292, -0.0214799, 0.00374124, 0.0941687, -0.00544894, -0.00191473, -0.102513, 0.24101, 0.0434008, 0.470066, -0.539104, 0.336373, -2.07939, -2.16489, -0.132681, 0.469507, -0.544263, 0.333007, -2.08606, -2.1671, -0.0935322, -0.0155234, 0.0757893, 0.00957364, -0.00664407, -0.0165777, -0.00747298
0.172109, 1.69652, -1.22735, -1.54079, -0.902457, -1.21506, 1.22722, -1.30246, -0.00964374, 0.000388964, 0.00911935, -0.0705793, -0.184175, -0.0037138, 0.00089334, -2.50756, 61.3116, 30.579, 7.70386, 2.06836, 3.36703, -0.0292249, -0.00569492, -0.000669011, 0.00252863, 0.0153779, -0.0216981, 0.00377317, 0.0952491, -0.00322102, -0.00194742, -0.103155, 0.235764, 0.0398529, 0.47005, -0.539028, 0.336383, -2.07931, -2.16487, -0.132728, 0.4695, -0.544276, 0.333002, -2.08608, -2.16714, -0.0932586, -0.0156643, 0.0766142, 0.00970477, -0.00896844, -0.0169074, -0.00748335
0.173109, 1.6965, -1.22735, -1.54078, -0.902546, -1.21523, 1.22721, -1.30246, -0.0100488, 0.00248823, 0.00838397, -0.0776221, -0.181406, -0.00683909, 0.000639424, -2.3568, 61.3513, 30.6544, 7.66418, 2.10498, 3.34598, -0.0292249, -0.00578616, -0.000665268, 0.00253293, 0.0154738, -0.0219169, 0.00379616, 0.0932835, -0.00425777, -0.0021899, -0.108123, 0.235565, 0.0468027, 0.470035, -0.538951, 0.336392, -2.07923, -2.16485, -0.132775, 0.469491, -0.544288, 0.332992, -2.08609, -2.16718, -0.0929748, -0.0158053, 0.0774421, 0.00983689, -0.00815418, -0.0140563, -0.00731636
0.174109, 1.69649, -1.22736, -1.54077, -0.902638, -1.2154, 1.22721, -1.30246, -0.00760432, 0.00336652, 0.0101565, -0.0788802, -0.174053, -0.00978217, 0.00144252, -2.3211, 61.4227, 30.7654, 7.59277, 2.1178, 3.33865, -0.0557752, -0.00587432, -0.000657041, 0.0025402, 0.015569, -0.0221282, 0.00381241, 0.0904692, -0.00661803, -0.00163688, -0.106417, 0.229893, 0.0531943, 0.470019, -0.538874, 0.336402, -2.07915, -2.16483, -0.132822, 0.469487, -0.544296, 0.33298, -2.08608, -2.16723, -0.0927006, -0.0159461, 0.0782729, 0.00996998, -0.00602015, -0.010434, -0.00626926
0.175109, 1.69647, -1.22735, -1.54075, -0.902721, -1.21555, 1.2272, -1.30247, -0.0127457, 0.00191138, 0.0160296, -0.0803142, -0.163999, -0.00668751, -0.00121769, -2.13067, 61.4584, 30.6901, 7.40631, 2.13611, 3.31759, 0.00373412, -0.00596357, -0.000651934, 0.00253792, 0.015639, -0.0223304, 0.00382424, 0.0904185, -0.00693247, -0.000129722, -0.0938204, 0.222101, 0.0587049, 0.470003, -0.538796, 0.336412, -2.07907, -2.16481, -0.13287, 0.469479, -0.544306, 0.332978, -2.08608, -2.16728, -0.0924644, -0.016087, 0.0791067, 0.010104, -0.00578997, -0.00977353, -0.00465635
0.176109, 1.69645, -1.22734, -1.54075, -0.902816, -1.2157, 1.2272, -1.30247, -0.0156516, 0.0078818, 0.0125992, -0.0816859, -0.156642, -0.00489653, -0.00126801, -1.97991, 61.4584, 30.8051, 7.36664, 2.16724, 3.31027, 0.0165515, -0.00605221, -0.000647334, 0.00253946, 0.0157271, -0.0225368, 0.00383779, 0.0910316, -0.00615098, 0.00228731, -0.091387, 0.223981, 0.0582222, 0.469987, -0.538717, 0.336422, -2.07899, -2.16479, -0.132919, 0.469471, -0.544313, 0.332972, -2.08607, -2.16733, -0.0922042, -0.0162278, 0.0799433, 0.0102391, -0.00659499, -0.00995603, -0.00221646
0.177109, 1.69643, -1.22734, -1.54074, -0.902911, -1.21585, 1.22719, -1.30247, -0.0176359, 0.00734368, 0.0113488, -0.0898939, -0.152001, -0.00298265, -0.00106882, -1.82915, 61.5338, 30.8765, 7.25555, 2.21576, 3.2883, 0.0229602, -0.00614183, -0.000641255, 0.00254274, 0.0158058, -0.0227368, 0.00385024, 0.0899421, -0.00765602, 0.00065273, -0.0921012, 0.222215, 0.0647044, 0.469971, -0.538637, 0.336433, -2.07891, -2.16477, -0.132968, 0.469464, -0.544321, 0.332964, -2.08606, -2.16738, -0.0919614, -0.0163686, 0.0807828, 0.0103751, -0.00533274, -0.00771734, -0.00357316
0.178109, 1.6964, -1.22734, -1.54072, -0.903008, -1.21599, 1.22719, -1.30246, -0.0190931, 0.00575132, 0.0140975, -0.0904302, -0.146638, -0.00211624, 0.00170536, -1.6784, 61.5338, 30.9162, 7.14447, 2.21576, 3.28097, -0.0420422, -0.0062294, -0.000634319, 0.00254158, 0.0158757, -0.0229337, 0.00386637, 0.0898961, -0.00834861, 0.000738719, -0.0864272, 0.217342, 0.0645498, 0.469954, -0.538556, 0.336443, -2.07883, -2.16475, -0.133017, 0.469458, -0.544326, 0.332961, -2.08605, -2.16743, -0.0917316, -0.0165093, 0.0816252, 0.0105121, -0.00477795, -0.00681206, -0.00337238
0.179109, 1.69638, -1.22733, -1.54071, -0.90311, -1.21612, 1.22718, -1.30246, -0.0192653, 0.00271262, 0.0144901, -0.0938984, -0.13964, -0.00120151, -4.20801e-05, -1.56335, 61.6092, 31.0273, 7.02942, 2.25879, 3.26724, -0.00999879, -0.00631809, -0.000627971, 0.00254529, 0.0159551, -0.0231278, 0.00387138, 0.0887335, -0.0102284, -0.00134047, -0.083764, 0.21016, 0.0722317, 0.469938, -0.538474, 0.336454, -2.07875, -2.16473, -0.133067, 0.469451, -0.544331, 0.332953, -2.08603, -2.16748, -0.0914959, -0.01665, 0.0824704, 0.0106501, -0.00316105, -0.0044086, -0.00516578
0.180109, 1.69634, -1.22733, -1.5407, -0.903208, -1.21626, 1.22718, -1.30246, -0.0252769, 0.00368811, 0.0136031, -0.0927361, -0.138675, -0.00048295, -0.000293466, -1.33721, 61.6806, 31.063, 6.88263, 2.28992, 3.25259, -0.00267457, -0.00640953, -0.000623895, 0.00254505, 0.0160222, -0.0233213, 0.00388408, 0.0925765, -0.00674836, -0.000519801, -0.0817818, 0.211253, 0.0658376, 0.469921, -0.538392, 0.336464, -2.07866, -2.16471, -0.133117, 0.469442, -0.544338, 0.332948, -2.08602, -2.16753, -0.0912739, -0.0167906, 0.0833185, 0.010789, -0.00659933, -0.00762959, -0.00472921
0.181109, 1.69631, -1.22732, -1.54068, -0.903316, -1.21639, 1.22717, -1.30246, -0.027669, 0.00459359, 0.0119427, -0.0996188, -0.137597, -0.000490326, 0.00368755, -1.18645, 61.756, 31.1384, 6.80725, 2.32654, 3.25259, 0.0229602, -0.00649887, -0.0006174, 0.00254699, 0.0160961, -0.0235162, 0.00388984, 0.0925236, -0.00686672, -0.00138827, -0.0853159, 0.212817, 0.0655174, 0.469904, -0.538309, 0.336475, -2.07858, -2.16469, -0.133167, 0.469435, -0.544342, 0.332942, -2.086, -2.16758, -0.0910442, -0.0169311, 0.0841693, 0.010929, -0.00665396, -0.00658231, -0.00544852
0.182109, 1.69628, -1.22732, -1.54067, -0.903425, -1.21652, 1.22717, -1.30246, -0.0284781, 0.00613609, 0.0130735, -0.104058, -0.136519, 0.000869275, 0.00381345, -1.07537, 61.7917, 31.2494, 6.69617, 2.36316, 3.21689, -0.00267457, -0.00658915, -0.000610678, 0.00254823, 0.0161632, -0.0237093, 0.003896, 0.0919884, -0.00806251, -0.000527199, -0.0842916, 0.215315, 0.0697982, 0.469887, -0.538224, 0.336486, -2.07849, -2.16467, -0.133218, 0.469429, -0.544346, 0.332937, -2.08598, -2.16764, -0.0908243, -0.0170715, 0.0850228, 0.0110699, -0.00558537, -0.00528429, -0.0044171
0.183109, 1.69624, -1.22731, -1.54065, -0.903527, -1.21665, 1.22717, -1.30246, -0.0295338, 0.00889415, 0.0141316, -0.102447, -0.131386, 0.00102735, 0.0043046, -0.960319, 61.756, 31.2137, 6.5097, 2.39429, 3.20224, -0.0420422, -0.00668015, -0.000604551, 0.00253943, 0.0162157, -0.023911, 0.00390814, 0.0923199, -0.00795678, 0.0017475, -0.0795141, 0.214525, 0.0694338, 0.46987, -0.538139, 0.336497, -2.07841, -2.16465, -0.13327, 0.469422, -0.544352, 0.332941, -2.08598, -2.1677, -0.0906115, -0.0172118, 0.0858791, 0.0112118, -0.00573026, -0.00511874, -0.00208795
0.184109, 1.6962, -1.2273, -1.54063, -0.903649, -1.21677, 1.22717, -1.30246, -0.0326955, 0.00737638, 0.0137442, -0.108834, -0.122609, 0.00139377, 0.00286055, -0.884941, 61.8671, 31.3605, 6.5097, 2.41809, 3.18118, -0.0356336, -0.00676951, -0.000596735, 0.00254432, 0.0162866, -0.0240985, 0.00390775, 0.0912461, -0.0087418, -1.57724e-05, -0.0779691, 0.207349, 0.076604, 0.469853, -0.538053, 0.336508, -2.07832, -2.16463, -0.133322, 0.469415, -0.544353, 0.332933, -2.08595, -2.16776, -0.0903947, -0.017352, 0.0867382, 0.0113547, -0.00519111, -0.00288547, -0.00354481
0.185109, 1.69616, -1.22729, -1.54061, -0.903756, -1.21688, 1.22716, -1.30246, -0.0401196, 0.00676601, 0.0146374, -0.10519, -0.121023, 0.000875908, 0.00184081, -0.734184, 61.8274, 31.3248, 6.28357, 2.44922, 3.18118, -0.0292249, -0.00686221, -0.000593695, 0.00253792, 0.0163383, -0.0242873, 0.00391727, 0.0959874, -0.00409313, 0.000799191, -0.0739816, 0.205332, 0.0684824, 0.469836, -0.537967, 0.33652, -2.07823, -2.1646, -0.133374, 0.469405, -0.544358, 0.332935, -2.08594, -2.16781, -0.0901971, -0.0174921, 0.0875999, 0.0114985, -0.00976137, -0.00702904, -0.00321785
