alisrour97/Franka_experiments/Real_Robot_scripts/servo-franka/Data2/log_dyn_INIT2_12.csv
Time,q1,q2,q3,q4,q5,q6,q7,dq1,dq2,dq3,dq4,dq5,dq6,dq7,t1,t2,t3,t4,t5,t6,t7,ex1,ex2,ex3,ex4,ex5,ex6,ev1,ev2,ev3,ev4,ev5,ev6,xd,yd,zd,uxd,uyd,uzd,x,y,z,ux,uy,uz,vxd,vyd,vzd,vx,vy,vz
4.88281e-07, 1.69105, -1.23029, -1.54144, -0.900718, -1.19287, 1.22761, -1.3025, -0.010452, -0.00472036, -0.0100567, -0.00168048, 0.00138558, -0.00777418, 0.000617542, 0.777352, 70.2618, 37.2797, 8.11249, 3.84906, 4.89413, -0.396351, -0.000271013, -0.00240821, 0.00423456, 0.00516788, 0.00355602, 0.00177322, 0.00559198, 0.00844838, -0.00669237, -0.0144708, -0.00918616, -0.0136891, 0.471008, -0.543389, 0.335894, -2.08385, -2.16584, -0.129887, 0.468472, -0.543101, 0.331757, -2.08116, -2.15999, -0.1276, -1.48327e-05, 4.00419e-05, -1.29039e-06, -0.00849391, -0.00479611, -0.00722277
0.0122151, 1.69099, -1.23032, -1.54155, -0.90074, -1.19285, 1.2275, -1.3025, -0.00450731, -0.00514234, -0.0150441, -0.00223274, 0.0118462, -0.0168555, -4.07137e-06, 0.6623, 70.4483, 37.3551, 8.18787, 3.76941, 4.95181, -0.37621, -0.000298585, -0.00247064, 0.00430267, 0.00535904, 0.00365031, 0.00184879, 0.00088242, 0.0063377, -0.00987974, -0.0230701, -0.0220667, -0.00557963, 0.471008, -0.543389, 0.335894, -2.08385, -2.16584, -0.129887, 0.468396, -0.543123, 0.331673, -2.08108, -2.15974, -0.127455, -2.49008e-05, 7.8927e-05, 1.60533e-06, -0.00667948, 0.000469155, -0.00969987
0.0132151, 1.69099, -1.23032, -1.54155, -0.90074, -1.19285, 1.2275, -1.3025, -0.00450731, -0.00514234, -0.0150441, -0.00223274, 0.0118462, -0.0168555, -4.07137e-06, 0.6623, 70.4483, 37.3551, 8.18787, 3.76941, 4.95181, -0.37621, -0.000298593, -0.00247064, 0.00430267, 0.00535903, 0.0036503, 0.0018488, 0.000925487, 0.00632834, -0.00987594, -0.0230701, -0.0220185, -0.00554897, 0.471008, -0.543389, 0.335894, -2.08385, -2.16584, -0.129887, 0.468396, -0.543123, 0.331673, -2.08108, -2.15974, -0.127455, -3.59273e-05, 0.000121646, 4.81928e-06, -0.00667948, 0.000469155, -0.00969987
0.0142151, 1.69099, -1.23032, -1.54155, -0.90074, -1.19285, 1.2275, -1.3025, -0.00450731, -0.00514234, -0.0150441, -0.00223274, 0.0118462, -0.0168555, -4.07137e-06, 0.6623, 70.4483, 37.3551, 8.18787, 3.76941, 4.95181, -0.37621, -0.000298617, -0.00247063, 0.00430267, 0.00535903, 0.00365028, 0.00184881, 0.000972574, 0.00631814, -0.00987182, -0.02307, -0.0219659, -0.00551553, 0.471008, -0.543389, 0.335894, -2.08385, -2.16584, -0.129887, 0.468396, -0.543123, 0.331673, -2.08108, -2.15974, -0.127455, -4.79476e-05, 0.000168349, 8.36616e-06, -0.00667948, 0.000469155, -0.00969987
0.0152163, 1.69099, -1.23032, -1.54155, -0.90074, -1.19285, 1.2275, -1.3025, -0.00450731, -0.00514234, -0.0150441, -0.00223274, 0.0118462, -0.0168555, -4.07137e-06, 0.6623, 70.4483, 37.3551, 8.18787, 3.76941, 4.95181, -0.37621, -0.000298664, -0.00247062, 0.00430266, 0.00535902, 0.00365024, 0.00184883, 0.00102383, 0.00630707, -0.00986737, -0.0230698, -0.0219087, -0.0054792, 0.471008, -0.543389, 0.335894, -2.08385, -2.16584, -0.129887, 0.468396, -0.543123, 0.331673, -2.08108, -2.15974, -0.127455, -6.09969e-05, 0.000219187, 1.22607e-05, -0.00667948, 0.000469155, -0.00969987
0.0162163, 1.69099, -1.23032, -1.54155, -0.90074, -1.19285, 1.2275, -1.3025, -0.00450731, -0.00514234, -0.0150441, -0.00223274, 0.0118462, -0.0168555, -4.07137e-06, 0.6623, 70.4483, 37.3551, 8.18787, 3.76941, 4.95181, -0.37621, -0.000298741, -0.0024706, 0.00430266, 0.005359, 0.00365016, 0.00184886, 0.00107942, 0.0062951, -0.00986258, -0.0230695, -0.0218467, -0.00543988, 0.471008, -0.543389, 0.335894, -2.08385, -2.16584, -0.129887, 0.468396, -0.543123, 0.331673, -2.08108, -2.15974, -0.127455, -7.51097e-05, 0.000274308, 1.65177e-05, -0.00667948, 0.000469155, -0.00969987
0.0172163, 1.69099, -1.23032, -1.54155, -0.90074, -1.19285, 1.2275, -1.3025, -0.00450731, -0.00514234, -0.0150441, -0.00223274, 0.0118462, -0.0168555, -4.07137e-06, 0.6623, 70.4483, 37.3551, 8.18787, 3.76941, 4.95181, -0.37621, -0.000298855, -0.00247058, 0.00430265, 0.00535897, 0.00365005, 0.00184891, 0.00113947, 0.0062822, -0.00985744, -0.0230692, -0.0217798, -0.00539748, 0.471008, -0.543389, 0.335894, -2.08385, -2.16584, -0.129887, 0.468396, -0.543123, 0.331673, -2.08108, -2.15974, -0.127455, -9.03198e-05, 0.000333859, 2.1152e-05, -0.00667948, 0.000469155, -0.00969987
0.0182163, 1.69099, -1.23032, -1.54155, -0.90074, -1.19285, 1.2275, -1.3025, -0.00450731, -0.00514234, -0.0150441, -0.00223274, 0.0118462, -0.0168555, -4.07137e-06, 0.6623, 70.4483, 37.3551, 8.18787, 3.76941, 4.95181, -0.37621, -0.000299015, -0.00247054, 0.00430263, 0.00535893, 0.0036499, 0.00184898, 0.00120414, 0.00626836, -0.00985194, -0.0230687, -0.0217078, -0.00535191, 0.471008, -0.543389, 0.335894, -2.08385, -2.16584, -0.129887, 0.468396, -0.543123, 0.331673, -2.08108, -2.15974, -0.127455, -0.000106661, 0.000397984, 2.61782e-05, -0.00667948, 0.000469155, -0.00969987
0.0192163, 1.69099, -1.23032, -1.54155, -0.90074, -1.19285, 1.2275, -1.3025, -0.00450731, -0.00514234, -0.0150441, -0.00223274, 0.0118462, -0.0168555, -4.07137e-06, 0.6623, 70.4483, 37.3551, 8.18787, 3.76941, 4.95181, -0.37621, -0.000299226, -0.0024705, 0.00430261, 0.00535888, 0.0036497, 0.00184908, 0.00127358, 0.00625353, -0.00984608, -0.0230681, -0.0216306, -0.00530306, 0.471008, -0.543389, 0.335894, -2.08385, -2.16584, -0.129887, 0.468396, -0.543123, 0.331673, -2.08108, -2.15974, -0.127455, -0.000124165, 0.000466826, 3.16113e-05, -0.00667948, 0.000469155, -0.00969987
0.0202163, 1.69099, -1.23032, -1.54155, -0.90074, -1.19285, 1.2275, -1.3025, -0.00450731, -0.00514234, -0.0150441, -0.00223274, 0.0118462, -0.0168555, -4.07137e-06, 0.6623, 70.4483, 37.3551, 8.18787, 3.76941, 4.95181, -0.37621, -0.000299498, -0.00247044, 0.00430259, 0.00535881, 0.00364945, 0.0018492, 0.00134792, 0.00623769, -0.00983984, -0.0230674, -0.021548, -0.00525085, 0.471008, -0.543388, 0.335894, -2.08385, -2.16584, -0.129887, 0.468396, -0.543123, 0.331673, -2.08108, -2.15974, -0.127455, -0.000142864, 0.000540525, 3.74658e-05, -0.00667948, 0.000469155, -0.00969987
0.0212163, 1.69094, -1.23036, -1.54164, -0.900762, -1.19283, 1.2274, -1.3025, -0.00391518, -0.0026404, -0.0140799, -0.00197971, 0.0025069, -0.00857533, -0.000798711, 0.6623, 70.7776, 37.4305, 8.29895, 3.64032, 5.08822, -0.396351, -0.000323877, -0.00252506, 0.00436564, 0.00552098, 0.00374355, 0.00191888, 0.00352563, 0.00535736, -0.00729917, -0.0191507, -0.00728585, -0.00674244, 0.471008, -0.543388, 0.335894, -2.08384, -2.16584, -0.129888, 0.46834, -0.543139, 0.331609, -2.08101, -2.15955, -0.127364, -0.000162789, 0.000619218, 4.37565e-05, -0.00565064, -0.00195711, -0.00754936
0.0222163, 1.69093, -1.23037, -1.54165, -0.900763, -1.19283, 1.22739, -1.3025, -0.0045934, -0.00365137, -0.0157642, -0.00140071, 0.00217108, -0.0117751, -0.00140431, 0.737679, 70.853, 37.3908, 8.29895, 3.62842, 5.10928, -0.37621, -0.000328403, -0.00253254, 0.00437321, 0.00553585, 0.00375714, 0.00192358, 0.0042533, 0.00675459, -0.0086455, -0.0232629, -0.00947542, -0.00815319, 0.471008, -0.543388, 0.335894, -2.08384, -2.16584, -0.129888, 0.468332, -0.543142, 0.331601, -2.081, -2.15953, -0.127361, -0.000183971, 0.000703042, 5.04979e-05, -0.00708983, -0.0024416, -0.00894284
0.0232163, 1.69093, -1.23038, -1.54166, -0.900765, -1.19283, 1.22737, -1.30251, -0.0032273, -0.0112618, -0.0216449, -0.00248331, -0.00460911, -0.0165915, -0.00296338, 0.737679, 70.5594, 37.1329, 8.22754, 3.54236, 5.06625, -0.324025, -0.000331186, -0.00253778, 0.00438448, 0.0055624, 0.00377038, 0.00192671, 0.00616047, 0.00828303, -0.0158386, -0.0371208, -0.0132794, -0.00916287, 0.471008, -0.543387, 0.335894, -2.08384, -2.16584, -0.129888, 0.468327, -0.543143, 0.33159, -2.08099, -2.15951, -0.127345, -0.000206438, 0.000792126, 5.77046e-05, -0.0088302, -0.00319073, -0.0162882
0.0242163, 1.69093, -1.23037, -1.54169, -0.90077, -1.19283, 1.22736, -1.3025, -0.00459934, -0.0112761, -0.0285857, -0.00471263, 0.000573211, -0.0173531, 0.00217959, 0.701973, 69.4525, 36.5735, 8.07678, 3.297, 4.94449, -0.311207, -0.000333949, -0.0025445, 0.00439293, 0.00560178, 0.00376996, 0.00194222, 0.00653251, 0.00932172, -0.0186021, -0.0422875, -0.0172031, -0.0152401, 0.471007, -0.543387, 0.335894, -2.08384, -2.16584, -0.129889, 0.46832, -0.543144, 0.331581, -2.08098, -2.15947, -0.1273, -0.000230219, 0.000886601, 6.53909e-05, -0.00997778, -0.00308067, -0.0190357
0.0252163, 1.69095, -1.23036, -1.54176, -0.900772, -1.19284, 1.22734, -1.3025, -0.000246842, -0.00219724, -0.0435177, -0.00495995, -0.000111751, -0.0180524, -0.000649717, 0.436165, 67.8696, 36.0142, 7.85065, 3.03241, 4.8154, -0.245289, -0.000338906, -0.00255188, 0.00441278, 0.00567879, 0.00376273, 0.00195738, 0.00695161, 0.00981963, -0.0188729, -0.056315, -0.00671902, -0.0154004, 0.471007, -0.543386, 0.335894, -2.08384, -2.16584, -0.129889, 0.468311, -0.543146, 0.331561, -2.08096, -2.15943, -0.127206, -0.000255341, 0.00098659, 7.35711e-05, -0.010495, -0.0033731, -0.019345
0.0262163, 1.69095, -1.23037, -1.54182, -0.900786, -1.19285, 1.2273, -1.3025, 0.00376934, -0.00105634, -0.0484431, -0.00718435, -0.00141475, -0.0197017, -0.00211195, 0.245735, 66.2866, 35.1215, 7.70386, 2.77515, 4.7156, -0.193104, -0.000344093, -0.00256312, 0.00444421, 0.00577878, 0.00377091, 0.00197372, 0.00561798, 0.00839061, -0.0206004, -0.0642514, -0.00457789, -0.0107708, 0.471007, -0.543385, 0.335894, -2.08384, -2.16584, -0.12989, 0.468299, -0.543146, 0.33153, -2.08092, -2.15937, -0.127103, -0.00028183, 0.00109222, 8.22592e-05, -0.00920433, -0.0016265, -0.0208781
0.0272163, 1.69096, -1.23038, -1.5419, -0.900795, -1.19287, 1.22726, -1.3025, 0.00564892, -0.00109415, -0.0604174, -0.00828745, -0.00600555, -0.0263473, -0.00267555, 0.0949785, 64.6997, 34.1535, 7.40631, 2.60852, 4.62222, -0.153737, -0.000356404, -0.00258043, 0.00448539, 0.00590804, 0.00377414, 0.00200252, 0.00725823, 0.0109289, -0.025685, -0.0834656, -0.00310082, -0.0145803, 0.471007, -0.543384, 0.335894, -2.08384, -2.16584, -0.129891, 0.468281, -0.543151, 0.331488, -2.08088, -2.15929, -0.126961, -0.000309711, 0.0012036, 9.14692e-05, -0.0118921, -0.00245564, -0.0260677
0.0282163, 1.69098, -1.23043, -1.542, -0.900815, -1.1929, 1.22721, -1.30249, 0.0157995, -0.0159646, -0.0706098, -0.00912709, -0.00947323, -0.0357378, -0.000420138, -0.166862, 63.5611, 33.1855, 7.21588, 2.44281, 4.52151, -0.186696, -0.000366846, -0.0025924, 0.00455615, 0.00606355, 0.00381564, 0.00202714, 0.00578839, 0.00867669, -0.0394951, -0.105405, -0.0185263, -0.0117407, 0.471007, -0.543383, 0.335894, -2.08384, -2.16584, -0.129891, 0.468266, -0.54315, 0.331417, -2.0808, -2.15918, -0.126829, -0.000339009, 0.00132085, 0.000101215, -0.0102232, 0.00133053, -0.0395341
0.0292163, 1.691, -1.23048, -1.54211, -0.900834, -1.19295, 1.22717, -1.3025, 0.0135215, -0.0223004, -0.0776601, -0.0121919, -0.0214575, -0.0429955, -0.000172947, -0.281914, 62.4899, 32.1818, 6.99371, 2.40619, 4.29904, -0.186696, -0.000387858, -0.00261013, 0.00463359, 0.00622991, 0.00384246, 0.00206032, 0.00965039, 0.0130736, -0.0466421, -0.125103, -0.0178391, -0.0187097, 0.471006, -0.543382, 0.335894, -2.08384, -2.16584, -0.129892, 0.468246, -0.543159, 0.331338, -2.08073, -2.15907, -0.126669, -0.000369746, 0.00144407, 0.00011151, -0.014765, -0.00143871, -0.0470478
0.0302163, 1.69101, -1.23054, -1.54222, -0.900853, -1.19299, 1.22713, -1.3025, 0.0100724, -0.0299167, -0.084692, -0.0145062, -0.0291287, -0.0429496, -3.49398e-05, -0.317619, 61.5338, 31.2137, 6.77154, 2.34485, 4.04819, -0.186696, -0.000413266, -0.00263149, 0.00471525, 0.0064038, 0.00386826, 0.00210328, 0.014282, 0.0164442, -0.0537379, -0.135993, -0.0184425, -0.0259043, 0.471006, -0.543381, 0.335894, -2.08384, -2.16584, -0.129893, 0.468222, -0.543171, 0.331254, -2.08067, -2.15894, -0.1265, -0.000401943, 0.00157338, 0.000122367, -0.018254, -0.00492757, -0.0546608
0.0312163, 1.69103, -1.2306, -1.54235, -0.90088, -1.19304, 1.22709, -1.30249, 0.00957334, -0.0398539, -0.0979991, -0.0178279, -0.0345362, -0.043415, 0.000749052, -0.43267, 60.7959, 30.3211, 6.62079, 2.2771, 3.79733, -0.205922, -0.000433946, -0.00264641, 0.00480464, 0.00658913, 0.00389909, 0.00213496, 0.0183172, 0.0188454, -0.0647617, -0.152901, -0.0228692, -0.03215, 0.471006, -0.54338, 0.335895, -2.08384, -2.16584, -0.129894, 0.468205, -0.543177, 0.331163, -2.08058, -2.15882, -0.126323, -0.00043562, 0.00170887, 0.000133799, -0.0209394, -0.00717707, -0.0660884
0.0322163, 1.69103, -1.2306, -1.54235, -0.90088, -1.19304, 1.22709, -1.30249, 0.00957334, -0.0398539, -0.0979991, -0.0178279, -0.0345362, -0.043415, 0.000749052, -0.43267, 60.7959, 30.3211, 6.62079, 2.2771, 3.79733, -0.205922, -0.000435498, -0.00264608, 0.00480451, 0.00658874, 0.00389763, 0.00213564, 0.0184603, 0.0188157, -0.0647504, -0.152898, -0.0227114, -0.0320514, 0.471005, -0.543378, 0.335895, -2.08383, -2.16584, -0.129895, 0.468205, -0.543177, 0.331163, -2.08058, -2.15882, -0.126323, -0.000470796, 0.00185063, 0.00014582, -0.0209394, -0.00717707, -0.0660884
0.0332163, 1.69107, -1.23071, -1.54261, -0.900925, -1.19316, 1.22701, -1.30249, 0.0105032, -0.0457259, -0.114268, -0.0207802, -0.0428481, -0.0374007, 0.000385645, -0.43267, 59.5462, 28.7183, 6.24786, 2.20386, 3.46774, -0.218739, -0.000488231, -0.00269104, 0.00497931, 0.00699003, 0.00392714, 0.00223286, 0.0234717, 0.0202443, -0.0738923, -0.167834, -0.0172849, -0.0385146, 0.471005, -0.543376, 0.335895, -2.08383, -2.16584, -0.129896, 0.468155, -0.543202, 0.330983, -2.08045, -2.15854, -0.125901, -0.000507488, 0.00199877, 0.000158442, -0.0225537, -0.0106275, -0.0758373
0.0342163, 1.69109, -1.23076, -1.54276, -0.900949, -1.19322, 1.22697, -1.30249, 0.0145397, -0.0411269, -0.122221, -0.0216593, -0.047748, -0.0352473, 0.00316794, -0.468376, 59.1019, 28.1986, 6.0614, 2.09949, 3.36062, -0.166554, -0.000513464, -0.00270974, 0.00506556, 0.00719356, 0.00393211, 0.0022743, 0.0239934, 0.0194134, -0.0741381, -0.175882, -0.00672046, -0.0419684, 0.471004, -0.543375, 0.335895, -2.08383, -2.16584, -0.129898, 0.468134, -0.543213, 0.330895, -2.08038, -2.15841, -0.125677, -0.000545713, 0.00215336, 0.000171677, -0.0217524, -0.010916, -0.0761729
0.0352163, 1.69112, -1.23079, -1.54289, -0.900973, -1.19329, 1.22694, -1.30249, 0.0191362, -0.0338765, -0.12548, -0.0241356, -0.0536543, -0.0241179, 0.00573474, -0.43267, 58.6615, 27.7146, 5.95032, 2.05646, 3.25992, -0.127186, -0.000537904, -0.00272717, 0.00513629, 0.00738587, 0.00390699, 0.00231706, 0.0237343, 0.0155904, -0.0706346, -0.173114, 0.0116212, -0.0413895, 0.471004, -0.543373, 0.335895, -2.08383, -2.16584, -0.129899, 0.468114, -0.543225, 0.330822, -2.08034, -2.15831, -0.125436, -0.000585484, 0.00231447, 0.000185536, -0.0178569, -0.0108818, -0.0727746
0.0362163, 1.69114, -1.23081, -1.54303, -0.900998, -1.19335, 1.22692, -1.30249, 0.0201572, -0.029017, -0.127119, -0.0212253, -0.0567665, -0.0203134, 0.00574766, -0.281914, 58.4036, 27.4885, 5.91064, 1.97681, 3.15921, -0.160145, -0.000564588, -0.00274557, 0.00520348, 0.00757123, 0.00387309, 0.00236903, 0.0252239, 0.0156725, -0.0676618, -0.171067, 0.0209725, -0.0447455, 0.471003, -0.54337, 0.335895, -2.08383, -2.16584, -0.129901, 0.468094, -0.543239, 0.330752, -2.08031, -2.1582, -0.125193, -0.000626814, 0.0024822, 0.000200032, -0.0178196, -0.0126455, -0.0700534
0.0372163, 1.69116, -1.23081, -1.54317, -0.901042, -1.19342, 1.2269, -1.30248, 0.019503, -0.0201842, -0.126027, -0.0301975, -0.0597172, -0.0173762, 0.00412226, -0.0557783, 58.2172, 27.3417, 6.09711, 1.91546, 3.05942, -0.153737, -0.000585401, -0.00275785, 0.00526208, 0.00775396, 0.00381451, 0.00240161, 0.022899, 0.013767, -0.0630146, -0.172335, 0.0345151, -0.0364196, 0.471003, -0.543368, 0.335896, -2.08382, -2.16584, -0.129903, 0.468079, -0.543249, 0.330692, -2.08027, -2.15813, -0.12493, -0.000669715, 0.00265659, 0.000215176, -0.0158749, -0.0108131, -0.0651461
0.0382163, 1.69117, -1.23081, -1.54329, -0.901082, -1.19348, 1.2269, -1.30247, 0.0216947, -0.0141702, -0.125424, -0.0302795, -0.0559552, -0.0130189, 0.00460212, 0.21003, 58.2172, 27.3774, 6.28357, 1.81659, 3.03012, -0.193104, -0.000605738, -0.0027692, 0.00531286, 0.00792364, 0.00374828, 0.00244021, 0.0211329, 0.0112627, -0.0589957, -0.166137, 0.039831, -0.033117, 0.471002, -0.543365, 0.335896, -2.08382, -2.16584, -0.129904, 0.468066, -0.543259, 0.330639, -2.08025, -2.15806, -0.124673, -0.000714195, 0.00283772, 0.000230977, -0.0133364, -0.00940453, -0.0609634
0.0392163, 1.69118, -1.2308, -1.54341, -0.901126, -1.19355, 1.22689, -1.30248, 0.0167147, -0.00837196, -0.122265, -0.0338803, -0.0586744, -0.0124341, 0.000448867, 0.626595, 58.3282, 27.4528, 6.5097, 1.73694, 3.08047, -0.114369, -0.000625446, -0.00278275, 0.00535449, 0.00808516, 0.00367386, 0.00246258, 0.0218855, 0.0129647, -0.054633, -0.164557, 0.0482534, -0.0301036, 0.471001, -0.543363, 0.335896, -2.08382, -2.16584, -0.129906, 0.468051, -0.54327, 0.330596, -2.08023, -2.15801, -0.124419, -0.000760263, 0.00302564, 0.000247448, -0.0148979, -0.0107007, -0.0567046
0.0402163, 1.69119, -1.23078, -1.54353, -0.901175, -1.19362, 1.22688, -1.30248, 0.0114113, -0.00458882, -0.118247, -0.0411768, -0.0615797, -0.0105862, 0.00123401, 1.15424, 58.6258, 27.7503, 6.80725, 1.6875, 3.23153, -0.133595, -0.000648633, -0.0028013, 0.00539403, 0.0082524, 0.00358955, 0.00250466, 0.0218671, 0.0136228, -0.0515371, -0.163091, 0.0557258, -0.0287114, 0.471001, -0.54336, 0.335896, -2.08381, -2.16584, -0.129908, 0.468031, -0.543284, 0.330554, -2.08022, -2.15795, -0.124146, -0.000807924, 0.0032204, 0.000264596, -0.0154917, -0.0109912, -0.0536079
0.0412163, 1.69119, -1.23076, -1.54363, -0.901216, -1.19369, 1.22687, -1.30248, 0.0126174, -0.000261212, -0.112212, -0.0419303, -0.0648537, -0.0087359, 0.00506321, 1.60651, 59.0305, 28.0875, 6.91833, 1.66369, 3.38901, -0.114369, -0.000668969, -0.00281504, 0.0054239, 0.00839652, 0.00350089, 0.00253474, 0.0205213, 0.0117728, -0.0468406, -0.157912, 0.0635952, -0.0288366, 0.471, -0.543357, 0.335896, -2.08381, -2.16584, -0.129911, 0.468016, -0.543297, 0.330522, -2.08022, -2.15791, -0.123897, -0.000857184, 0.00342203, 0.000282433, -0.013572, -0.0101081, -0.0487995
0.0422163, 1.69119, -1.23075, -1.54372, -0.901265, -1.19377, 1.22687, -1.30248, 0.00776386, 0.00411971, -0.111152, -0.0435525, -0.0689184, -0.00573736, 0.00145813, 2.17384, 59.693, 28.6072, 7.06909, 1.6875, 3.51077, -0.0484509, -0.00069367, -0.00283258, 0.00545816, 0.00854294, 0.0034126, 0.00256631, 0.022905, 0.0138987, -0.0435791, -0.155902, 0.0728931, -0.0293902, 0.470999, -0.543353, 0.335897, -2.08381, -2.16584, -0.129913, 0.467998, -0.543314, 0.330485, -2.08022, -2.15787, -0.123644, -0.000908043, 0.00363059, 0.000300968, -0.0155429, -0.0128417, -0.0458664
0.0432163, 1.69119, -1.23073, -1.54382, -0.901314, -1.19385, 1.22686, -1.30248, 2.39606e-05, 0.00962544, -0.110988, -0.0445271, -0.0709067, -0.00308905, 0.00512566, 2.66181, 60.4309, 29.3134, 7.21588, 1.69391, 3.62521, -0.0228162, -0.000716938, -0.00284934, 0.00548622, 0.00868517, 0.0033164, 0.00260161, 0.0264017, 0.0177981, -0.0397617, -0.153169, 0.0813767, -0.0403916, 0.470998, -0.54335, 0.335897, -2.0838, -2.16584, -0.129916, 0.46798, -0.54333, 0.330454, -2.08022, -2.15784, -0.123389, -0.000960503, 0.00384608, 0.000320207, -0.0192269, -0.0168255, -0.0425032
0.0442163, 1.69118, -1.23071, -1.5439, -0.901354, -1.19393, 1.22686, -1.30247, -0.00162126, 0.01145, -0.101925, -0.0433493, -0.0747177, -0.00435031, 0.00627453, 3.11805, 61.3116, 29.9482, 7.14447, 1.76166, 3.70395, -0.0814099, -0.000741577, -0.0028671, 0.00550547, 0.0088073, 0.00321741, 0.00264724, 0.0262919, 0.0180217, -0.0353147, -0.147135, 0.0852048, -0.0410071, 0.470997, -0.543346, 0.335897, -2.0838, -2.16584, -0.129919, 0.467961, -0.543348, 0.330432, -2.08025, -2.15779, -0.123151, -0.00101456, 0.00406854, 0.000340161, -0.0193475, -0.0171883, -0.0380685
0.0452163, 1.69118, -1.23068, -1.54397, -0.901401, -1.19401, 1.22686, -1.30247, 0.000579347, 0.0160447, -0.0949358, -0.044617, -0.0788209, -0.00172626, 0.00520711, 3.41956, 62.3431, 30.7297, 7.14447, 1.87244, 3.81198, -0.0951428, -0.000762776, -0.00288074, 0.00552575, 0.00893923, 0.00311066, 0.0026772, 0.0244067, 0.0152769, -0.0301777, -0.141201, 0.0944317, -0.0346107, 0.470996, -0.543342, 0.335898, -2.08379, -2.16583, -0.129921, 0.467947, -0.543362, 0.33041, -2.08026, -2.15777, -0.122897, -0.00107022, 0.00429798, 0.000360835, -0.0165439, -0.0157762, -0.0327656
0.0462163, 1.69119, -1.23067, -1.54405, -0.901427, -1.1941, 1.22685, -1.30247, 0.000200912, 0.00927136, -0.0891269, -0.035555, -0.0810433, -0.00518807, 0.00409536, 3.53065, 63.4857, 31.5113, 6.84296, 1.96399, 3.94107, -0.101552, -0.000784469, -0.00289351, 0.00554484, 0.00905883, 0.00301748, 0.0027113, 0.0269848, 0.0171964, -0.0311056, -0.136371, 0.0868818, -0.0394641, 0.470995, -0.543338, 0.335898, -2.08379, -2.16583, -0.129925, 0.467933, -0.543377, 0.330388, -2.08028, -2.15774, -0.12267, -0.00112746, 0.0045344, 0.000382238, -0.0184594, -0.0180205, -0.0340029
0.0472163, 1.69118, -1.23064, -1.54411, -0.901462, -1.19418, 1.22684, -1.30247, -0.00112827, 0.0113025, -0.0813399, -0.0345114, -0.0823096, -0.00927561, 0.00179948, 3.79646, 64.5926, 32.2928, 6.62079, 2.05005, 4.11319, -0.0685925, -0.000808953, -0.00291431, 0.0055554, 0.0091784, 0.00291416, 0.00274855, 0.0261619, 0.0176686, -0.0272667, -0.13281, 0.0875414, -0.0359665, 0.470994, -0.543333, 0.335898, -2.08379, -2.16583, -0.129928, 0.467912, -0.543396, 0.330375, -2.0803, -2.15771, -0.122433, -0.00118629, 0.0047778, 0.000404375, -0.0188806, -0.017575, -0.0300482
0.0482163, 1.69118, -1.23061, -1.54417, -0.901484, -1.19427, 1.22681, -1.30247, -0.000895888, 0.00778446, -0.0783941, -0.0313416, -0.0879096, -0.0140051, 0.000433771, 3.87183, 65.8066, 33.0744, 6.28357, 2.14252, 4.33566, -0.0420422, -0.000833567, -0.0029345, 0.00556939, 0.00930432, 0.00281851, 0.00278899, 0.027571, 0.0191105, -0.0282479, -0.135776, 0.0860975, -0.0373596, 0.470993, -0.543328, 0.335899, -2.08378, -2.16583, -0.129931, 0.467891, -0.543414, 0.330359, -2.08032, -2.15767, -0.122196, -0.00124669, 0.00502817, 0.000427252, -0.0203661, -0.0186236, -0.0311695
0.0492163, 1.69118, -1.23058, -1.54423, -0.90152, -1.19437, 1.22679, -1.30247, 0.000617387, 0.0122021, -0.0728552, -0.0336386, -0.087077, -0.0247986, 0.00735886, 3.87183, 66.8738, 33.8559, 6.13678, 2.22217, 4.50686, -0.101552, -0.000853337, -0.00295038, 0.00557976, 0.00943219, 0.00271219, 0.00282573, 0.0236472, 0.018673, -0.0249893, -0.140863, 0.0846816, -0.0377812, 0.470992, -0.543323, 0.335899, -2.08377, -2.16583, -0.129935, 0.467874, -0.543428, 0.330346, -2.08034, -2.15764, -0.121947, -0.00130866, 0.00528549, 0.000450875, -0.0200138, -0.0149763, -0.0273325
0.0502163, 1.69118, -1.23056, -1.54429, -0.901547, -1.19446, 1.22677, -1.30247, 0.000487358, 0.0144138, -0.0650585, -0.031386, -0.0915721, -0.0224069, 0.00518275, 3.90754, 67.9807, 34.4867, 5.95032, 2.31372, 4.6506, -0.0951428, -0.00087909, -0.00296988, 0.00558886, 0.00954972, 0.00260371, 0.00286998, 0.0239711, 0.0179144, -0.0203753, -0.132771, 0.0913386, -0.0353354, 0.47099, -0.543318, 0.3359, -2.08377, -2.16583, -0.129939, 0.467854, -0.543447, 0.330334, -2.08037, -2.15761, -0.121706, -0.00137217, 0.00554973, 0.000475247, -0.0191415, -0.0157112, -0.0228254
0.0512163, 1.69118, -1.23052, -1.54434, -0.901587, -1.19457, 1.22676, -1.30247, 0.00100814, 0.0176645, -0.0619639, -0.03482, -0.0938808, -0.0195897, 0.00238275, 3.90754, 68.9011, 35.0858, 5.98602, 2.37598, 4.76504, -0.0557752, -0.000898854, -0.00298443, 0.00559254, 0.00967026, 0.00248202, 0.00289084, 0.02282, 0.0160522, -0.0176023, -0.13011, 0.0982664, -0.0281829, 0.470989, -0.543313, 0.3359, -2.08376, -2.16583, -0.129943, 0.467838, -0.543461, 0.330328, -2.08039, -2.15761, -0.121452, -0.00143722, 0.00582086, 0.000500373, -0.0172878, -0.0146543, -0.0199396
0.0522163, 1.69117, -1.23049, -1.5444, -0.901618, -1.19466, 1.22674, -1.30247, 0.000256505, 0.0192534, -0.0596467, -0.0321323, -0.0944223, -0.0178795, 0.00113175, 3.94721, 69.8572, 35.6809, 5.95032, 2.40619, 4.88681, -0.0356336, -0.00092503, -0.00300482, 0.00560105, 0.00979416, 0.00236825, 0.00293356, 0.023895, 0.016383, -0.0152622, -0.125311, 0.101035, -0.0289459, 0.470987, -0.543307, 0.335901, -2.08376, -2.16583, -0.129947, 0.467817, -0.543481, 0.330317, -2.08042, -2.15758, -0.121199, -0.00150377, 0.00609884, 0.000526256, -0.0175616, -0.0158114, -0.0177602
0.0532163, 1.69117, -1.23046, -1.54445, -0.901653, -1.19476, 1.22672, -1.30247, -0.000279893, 0.0210335, -0.0545176, -0.0357055, -0.0938569, -0.0182895, 0.00266685, 3.98292, 70.6308, 36.1252, 6.02173, 2.4126, 5.05252, -0.0814099, -0.000947271, -0.00302376, 0.00560257, 0.00991557, 0.00224862, 0.00297435, 0.0219903, 0.0149579, -0.012877, -0.122358, 0.102425, -0.025083, 0.470986, -0.543301, 0.335901, -2.08375, -2.16583, -0.129951, 0.467798, -0.543497, 0.330313, -2.08045, -2.15756, -0.120944, -0.00157182, 0.00638361, 0.000552899, -0.0161884, -0.0139552, -0.0151257
0.0542163, 1.69116, -1.23042, -1.54451, -0.901696, -1.19487, 1.22669, -1.30246, -0.000826368, 0.0245518, -0.0551612, -0.0384729, -0.0995128, -0.0242189, 0.00217796, 4.02259, 71.2933, 36.6092, 6.24786, 2.44281, 5.2457, -0.0878186, -0.000968903, -0.0030433, 0.00560928, 0.0100563, 0.00212771, 0.00300782, 0.0220219, 0.0164968, -0.0118695, -0.131625, 0.108203, -0.0247921, 0.470984, -0.543294, 0.335902, -2.08374, -2.16583, -0.129956, 0.467777, -0.543512, 0.330304, -2.08047, -2.15753, -0.120667, -0.00164135, 0.0066751, 0.000580303, -0.0177573, -0.013913, -0.0140621
0.0552163, 1.69116, -1.23038, -1.54456, -0.901738, -1.19498, 1.22666, -1.30247, -0.00209797, 0.0291194, -0.0536994, -0.0400431, -0.103894, -0.0280185, 0.000624556, 4.09797, 71.8448, 36.8711, 6.47003, 2.47394, 5.42514, -0.0621838, -0.000992142, -0.00306358, 0.00561191, 0.0101924, 0.00199799, 0.00303972, 0.0221777, 0.0178163, -0.00911162, -0.135833, 0.114776, -0.0237864, 0.470983, -0.543288, 0.335902, -2.08374, -2.16583, -0.12996, 0.467756, -0.543528, 0.330299, -2.08049, -2.15752, -0.120387, -0.00171231, 0.00697325, 0.000608468, -0.0190408, -0.0142474, -0.0112952
0.0562163, 1.69116, -1.23033, -1.54461, -0.901778, -1.19509, 1.22663, -1.30247, 0.000526728, 0.0377271, -0.0549428, -0.0417251, -0.0993679, -0.0263461, -0.00118753, 4.02259, 72.178, 37.0933, 6.73187, 2.43091, 5.61099, -0.0164075, -0.00101072, -0.00308001, 0.00561173, 0.010331, 0.00186739, 0.0030618, 0.0195919, 0.0154635, -0.00468881, -0.133817, 0.121113, -0.0169897, 0.470981, -0.543281, 0.335903, -2.08373, -2.16582, -0.129965, 0.467738, -0.54354, 0.330298, -2.08049, -2.15752, -0.120104, -0.00178469, 0.00727797, 0.000637396, -0.0166962, -0.0119747, -0.00656869
0.0572163, 1.69115, -1.23031, -1.54467, -0.901817, -1.1952, 1.22659, -1.30247, -0.00129048, 0.0349339, -0.0527465, -0.0440294, -0.101645, -0.027903, 0.000972369, 4.09797, 72.5827, 37.2797, 6.91833, 2.39978, 5.7474, -0.0621838, -0.00103691, -0.00310229, 0.00562246, 0.0104741, 0.00175031, 0.00310648, 0.020114, 0.016012, -0.00588554, -0.135338, 0.119772, -0.0183646, 0.470979, -0.543273, 0.335904, -2.08372, -2.16582, -0.129971, 0.467715, -0.543558, 0.330284, -2.08052, -2.15748, -0.119828, -0.00185846, 0.00758918, 0.000667086, -0.0173423, -0.0120171, -0.00778531
0.0582163, 1.69116, -1.23027, -1.54473, -0.901856, -1.19531, 1.22656, -1.30247, 6.60964e-05, 0.033576, -0.0544692, -0.0426663, -0.102507, -0.0273261, 0.000699724, 4.06226, 72.8049, 37.4662, 7.1048, 2.35126, 5.83346, -0.0621838, -0.00106036, -0.00312006, 0.00563321, 0.0106242, 0.00162556, 0.00314026, 0.0209479, 0.0157695, -0.00709882, -0.136411, 0.119799, -0.0188202, 0.470977, -0.543266, 0.335904, -2.08371, -2.16582, -0.129976, 0.467696, -0.543573, 0.330271, -2.08053, -2.15745, -0.119537, -0.00193359, 0.00790677, 0.000697537, -0.0171891, -0.0123259, -0.0090898
0.0592163, 1.69116, -1.23025, -1.54479, -0.901899, -1.19542, 1.22653, -1.30247, 0.0064459, 0.0312085, -0.0526213, -0.0447611, -0.102686, -0.0299612, -0.000715612, 4.06226, 73.0627, 37.5019, 7.29126, 2.2771, 5.86917, -0.0292249, -0.00108191, -0.00313542, 0.00564896, 0.0107669, 0.00151845, 0.00316265, 0.0174259, 0.0117856, -0.00866291, -0.139334, 0.116919, -0.00818391, 0.470975, -0.543258, 0.335905, -2.0837, -2.16582, -0.129982, 0.467679, -0.543584, 0.330254, -2.08052, -2.15743, -0.119274, -0.00201003, 0.00823062, 0.000728745, -0.0134694, -0.00812095, -0.0101762
0.0602163, 1.69117, -1.23023, -1.54486, -0.901933, -1.19553, 1.2265, -1.30247, 0.00849562, 0.0286554, -0.0579404, -0.0398016, -0.103375, -0.0303679, -0.0011602, 3.90754, 73.2095, 37.5416, 7.33093, 2.21576, 5.85452, -0.00999879, -0.00110461, -0.0031484, 0.00566784, 0.0109164, 0.00140719, 0.0031894, 0.0197423, 0.0127377, -0.0114733, -0.142834, 0.115082, -0.0125672, 0.470973, -0.54325, 0.335906, -2.08369, -2.16582, -0.129988, 0.467664, -0.543596, 0.330233, -2.08052, -2.15741, -0.118999, -0.00208776, 0.00856062, 0.000760709, -0.0145166, -0.00968379, -0.0132504
0.0612163, 1.69119, -1.23022, -1.54492, -0.901979, -1.19564, 1.22646, -1.30247, 0.00869652, 0.0260404, -0.0596968, -0.0419706, -0.104889, -0.03175, 0.00118103, 3.79646, 73.3563, 37.4662, 7.47772, 2.17914, 5.86185, -0.0621838, -0.00112464, -0.00316117, 0.0056932, 0.0110822, 0.00130363, 0.00321516, 0.0201045, 0.0127703, -0.0140352, -0.14754, 0.11372, -0.0138765, 0.470971, -0.543241, 0.335906, -2.08369, -2.16582, -0.129994, 0.467649, -0.543604, 0.330206, -2.0805, -2.15737, -0.118715, -0.00216672, 0.00889664, 0.000793423, -0.0147077, -0.00931191, -0.0158027
0.0622163, 1.6912, -1.23021, -1.54499, -0.902007, -1.19575, 1.22641, -1.30247, 0.00881467, 0.0216114, -0.0637679, -0.0374993, -0.110514, -0.039164, 0.000295018, 3.6814, 73.4674, 37.3551, 7.36664, 2.13611, 5.9122, -0.0484509, -0.00114953, -0.00317861, 0.00572296, 0.0112468, 0.00121849, 0.00324855, 0.0232947, 0.0162862, -0.0180701, -0.158425, 0.110488, -0.0203066, 0.470969, -0.543232, 0.335907, -2.08368, -2.16582, -0.13, 0.467629, -0.543616, 0.330174, -2.08048, -2.15732, -0.118449, -0.0022469, 0.00923859, 0.000826888, -0.0183307, -0.0116417, -0.020143
0.0632163, 1.69122, -1.23021, -1.54507, -0.902051, -1.19586, 1.22636, -1.30247, 0.0109824, 0.0173922, -0.0676865, -0.0378271, -0.110972, -0.039936, -0.000265824, 3.60603, 73.4674, 37.2797, 7.40631, 2.12421, 5.95523, -0.0356336, -0.00117037, -0.00319464, 0.00575809, 0.01143, 0.00113597, 0.00327052, 0.023789, 0.0157507, -0.0221363, -0.163569, 0.107011, -0.0190257, 0.470967, -0.543223, 0.335908, -2.08367, -2.16581, -0.130006, 0.46761, -0.543622, 0.330137, -2.08044, -2.15727, -0.118168, -0.00232828, 0.00958644, 0.000861108, -0.0180065, -0.0111333, -0.0242168
0.0642163, 1.69123, -1.23021, -1.54513, -0.902092, -1.19596, 1.2263, -1.30247, 0.0157375, 0.0155964, -0.0667581, -0.0397708, -0.110709, -0.0442876, -0.000642772, 3.53065, 73.392, 37.0179, 7.36664, 2.09308, 5.96988, -0.0228162, -0.00118874, -0.00320811, 0.00578996, 0.0116036, 0.00105757, 0.00328717, 0.0209323, 0.0131491, -0.0237285, -0.168204, 0.103515, -0.0114572, 0.470965, -0.543213, 0.335909, -2.08366, -2.16581, -0.130013, 0.467594, -0.543626, 0.330104, -2.08039, -2.15723, -0.117901, -0.00241084, 0.00994017, 0.000896084, -0.0156507, -0.00760728, -0.0253888
0.0652163, 1.69124, -1.2302, -1.54521, -0.902147, -1.19606, 1.22625, -1.30247, 0.0127376, 0.0131736, -0.0682963, -0.0417523, -0.105041, -0.0496888, 0.00103642, 3.60603, 73.2095, 36.8354, 7.47772, 2.03815, 5.9122, -0.0621838, -0.00120753, -0.00322398, 0.00582508, 0.0117888, 0.000978502, 0.00330852, 0.0208866, 0.0149091, -0.0262575, -0.17225, 0.0943433, -0.0129352, 0.470962, -0.543204, 0.33591, -2.08365, -2.16581, -0.13002, 0.467575, -0.54363, 0.330068, -2.08035, -2.15718, -0.117622, -0.00249458, 0.0102997, 0.000931821, -0.0175852, -0.0068849, -0.0277901
0.0662163, 1.69125, -1.23019, -1.54528, -0.902196, -1.19616, 1.22619, -1.30247, 0.00846362, 0.0149741, -0.0677668, -0.0436786, -0.105533, -0.0576217, 0.0006961, 3.6457, 72.9874, 36.5735, 7.47772, 1.98871, 5.83346, -0.0621838, -0.00122594, -0.00324047, 0.00585668, 0.0119732, 0.00089856, 0.00332747, 0.0215734, 0.0182637, -0.0257034, -0.178975, 0.0929823, -0.0148619, 0.47096, -0.543193, 0.335911, -2.08363, -2.16581, -0.130028, 0.467556, -0.543634, 0.330035, -2.0803, -2.15713, -0.117342, -0.00257947, 0.0106651, 0.000968322, -0.0209757, -0.00742017, -0.0272121
0.0672163, 1.69127, -1.23017, -1.54536, -0.902247, -1.19626, 1.22613, -1.30248, 0.0103824, 0.0175962, -0.0724619, -0.0441745, -0.106942, -0.0631241, -0.00221083, 3.60603, 72.6938, 36.3871, 7.44202, 1.96399, 5.72635, 0.0101428, -0.0012431, -0.00325585, 0.00588465, 0.0121661, 0.000804958, 0.00333715, 0.0213916, 0.0190648, -0.0264287, -0.188808, 0.0948172, -0.0121821, 0.470957, -0.543183, 0.335912, -2.08362, -2.16581, -0.130035, 0.467537, -0.543636, 0.330006, -2.08024, -2.15709, -0.117041, -0.00266552, 0.0110363, 0.00100559, -0.0218946, -0.00679046, -0.0278388
0.0682163, 1.69128, -1.23015, -1.54543, -0.902293, -1.19636, 1.22606, -1.30247, 0.0130391, 0.0200857, -0.0702734, -0.0463088, -0.107653, -0.0586073, 0.00046179, 3.6457, 72.3605, 36.0895, 7.33093, 1.92737, 5.63296, -0.0420422, -0.00125997, -0.00327207, 0.00590671, 0.0123519, 0.000709483, 0.00336514, 0.0199079, 0.0159295, -0.0242057, -0.184489, 0.100691, -0.00935671, 0.470954, -0.543172, 0.335913, -2.08361, -2.1658, -0.130043, 0.467518, -0.543639, 0.329983, -2.08021, -2.15704, -0.116744, -0.00275269, 0.0114132, 0.00104363, -0.0188233, -0.00516262, -0.0254699
0.0692163, 1.69129, -1.23012, -1.54551, -0.902341, -1.19646, 1.22599, -1.30247, 0.0103699, 0.0215127, -0.0715201, -0.0447358, -0.102898, -0.0598447, 0.00081866, 3.75678, 72.0312, 35.9031, 7.21588, 1.87793, 5.53958, -0.0557752, -0.00127843, -0.00329187, 0.00593089, 0.0125423, 0.000621166, 0.00338783, 0.0210021, 0.0176494, -0.0235288, -0.18313, 0.0978665, -0.0125375, 0.470952, -0.54316, 0.335914, -2.0836, -2.1658, -0.130051, 0.467495, -0.543643, 0.329958, -2.08016, -2.15699, -0.11645, -0.00284098, 0.0117958, 0.00108244, -0.0205655, -0.00603487, -0.024881
0.0702163, 1.69132, -1.23009, -1.54559, -0.902388, -1.19655, 1.22592, -1.30247, 0.0154972, 0.0250504, -0.0733389, -0.0491883, -0.101192, -0.059677, 0.000547404, 3.57032, 71.5869, 35.7523, 7.06909, 1.87793, 5.41049, -0.0557752, -0.00128853, -0.00330076, 0.00595429, 0.012737, 0.000527836, 0.00339234, 0.0175536, 0.0138683, -0.0229332, -0.186358, 0.101187, -0.00344374, 0.470949, -0.543148, 0.335915, -2.08359, -2.1658, -0.130059, 0.467483, -0.543638, 0.329935, -2.0801, -2.15696, -0.116148, -0.00293038, 0.0121842, 0.00112203, -0.0169808, -0.00217865, -0.0238316
0.0712163, 1.69134, -1.23006, -1.54566, -0.902434, -1.19665, 1.22585, -1.30247, 0.0155393, 0.0280726, -0.0726631, -0.0486919, -0.103332, -0.0636679, 0.000603518, 3.53065, 71.1108, 35.5301, 6.88263, 1.85321, 5.26034, -0.0621838, -0.00130061, -0.00331286, 0.00597386, 0.0129285, 0.000431359, 0.00340276, 0.0176778, 0.0147921, -0.021155, -0.189718, 0.104318, -0.00411879, 0.470946, -0.543136, 0.335916, -2.08357, -2.1658, -0.130068, 0.467468, -0.543635, 0.329915, -2.08004, -2.15693, -0.115846, -0.00302087, 0.0125781, 0.0011624, -0.0179251, -0.00221907, -0.022027
0.0722163, 1.69136, -1.23003, -1.54574, -0.902479, -1.19674, 1.22578, -1.30247, 0.0122699, 0.0283579, -0.0759161, -0.0454079, -0.101737, -0.06218, -0.00129216, 3.49494, 70.7062, 35.4548, 6.69617, 1.86603, 5.10928, -0.0164075, -0.00131534, -0.00332542, 0.00599561, 0.0131181, 0.000335164, 0.00341142, 0.0209868, 0.0174258, -0.021352, -0.188414, 0.104257, -0.00910893, 0.470943, -0.543124, 0.335917, -2.08356, -2.16579, -0.130077, 0.467452, -0.543634, 0.329893, -2.07998, -2.1569, -0.115547, -0.00311245, 0.0129778, 0.00120355, -0.0205354, -0.00516354, -0.0226154
0.0732163, 1.69139, -1.23, -1.54581, -0.902526, -1.19684, 1.22571, -1.30246, 0.0161305, 0.0276687, -0.0739552, -0.0435024, -0.101287, -0.0617125, 0.00107203, 3.45527, 70.3372, 35.3437, 6.54541, 1.90265, 4.97287, -0.0685925, -0.00132809, -0.00333508, 0.00601758, 0.0133036, 0.000241634, 0.00342745, 0.0198731, 0.0151071, -0.0209308, -0.185808, 0.103746, -0.00797192, 0.47094, -0.543111, 0.335918, -2.08355, -2.16579, -0.130086, 0.467439, -0.543631, 0.329871, -2.07994, -2.15686, -0.115255, -0.00320508, 0.013383, 0.00124549, -0.018337, -0.00362854, -0.0220547
0.0742163, 1.69141, -1.22998, -1.54588, -0.902563, -1.19694, 1.22564, -1.30246, 0.0182049, 0.0245775, -0.0738834, -0.039941, -0.0980513, -0.0632889, 0.00118992, 3.45527, 70.0793, 35.308, 6.28357, 1.99512, 4.89413, -0.0814099, -0.00134544, -0.00334888, 0.00604157, 0.013494, 0.00015078, 0.00344548, 0.0198845, 0.0145175, -0.0224462, -0.184473, 0.0974463, -0.00772726, 0.470937, -0.543097, 0.33592, -2.08353, -2.16579, -0.130095, 0.467422, -0.543631, 0.329846, -2.07988, -2.15682, -0.11496, -0.00329877, 0.0137938, 0.00128822, -0.0178963, -0.00297086, -0.0235279
0.0752163, 1.69145, -1.22996, -1.54595, -0.9026, -1.19704, 1.22557, -1.30246, 0.0265011, 0.0239931, -0.0739554, -0.0414322, -0.0997326, -0.0699675, 0.00177701, 3.30451, 69.8929, 35.2683, 6.0614, 2.07477, 4.83737, -0.10796, -0.0013576, -0.00335563, 0.00606972, 0.0136846, 6.97361e-05, 0.00345299, 0.0159015, 0.0108667, -0.0239943, -0.193134, 0.0958318, 0.000840569, 0.470933, -0.543083, 0.335921, -2.08352, -2.16579, -0.130105, 0.467411, -0.543625, 0.329818, -2.07982, -2.15678, -0.114676, -0.00339351, 0.0142102, 0.00133174, -0.0145439, 0.00176625, -0.024504
0.0762163, 1.69148, -1.22995, -1.54603, -0.902635, -1.19714, 1.2255, -1.30247, 0.023367, 0.0211894, -0.074282, -0.0381403, -0.100848, -0.068973, -0.00125644, 3.26881, 69.8215, 35.3834, 5.91064, 2.16083, 4.75131, -0.0420422, -0.0013742, -0.00336277, 0.00610345, 0.0138715, -7.72382e-06, 0.00346004, 0.0193309, 0.0132402, -0.0250192, -0.191238, 0.0945039, -0.00229739, 0.47093, -0.543069, 0.335922, -2.0835, -2.16578, -0.130115, 0.4674, -0.543623, 0.329784, -2.07975, -2.15674, -0.1144, -0.00348927, 0.0146321, 0.00137605, -0.0169241, -0.00113646, -0.0259334
0.0772163, 1.69151, -1.22994, -1.5461, -0.902665, -1.19724, 1.22545, -1.30246, 0.0266868, 0.0189952, -0.0714279, -0.0324904, -0.101069, -0.0627115, 0.00112928, 3.26881, 69.635, 35.3834, 5.76385, 2.24048, 4.51419, -0.0951428, -0.00139364, -0.00336812, 0.0061257, 0.0140292, -0.000103305, 0.00348193, 0.0202741, 0.0108809, -0.0241231, -0.1814, 0.0955425, -0.00472214, 0.470926, -0.543055, 0.335924, -2.08349, -2.16578, -0.130125, 0.467391, -0.543624, 0.32976, -2.07972, -2.15671, -0.114137, -0.00358604, 0.0150594, 0.00142116, -0.0145984, -0.00168116, -0.0252216
0.0782163, 1.69155, -1.22992, -1.54617, -0.9027, -1.19733, 1.22541, -1.30246, 0.0300721, 0.0164775, -0.0718574, -0.0338749, -0.100147, -0.0548615, 0.00146509, 3.22913, 69.4882, 35.4944, 5.72418, 2.28351, 4.30636, -0.114369, -0.00141177, -0.00337084, 0.00615185, 0.0141928, -0.000197492, 0.00349417, 0.0197619, 0.00707698, -0.0254269, -0.17589, 0.0969198, -3.89743e-05, 0.470923, -0.543039, 0.335925, -2.08347, -2.16578, -0.130135, 0.467384, -0.543623, 0.329733, -2.07968, -2.15668, -0.113871, -0.00368381, 0.0154923, 0.00146708, -0.0109627, -0.0003851, -0.0264985
0.0792163, 1.69158, -1.22992, -1.54623, -0.902729, -1.19744, 1.22537, -1.30246, 0.0325847, 0.0112703, -0.0712518, -0.0323235, -0.0992096, -0.0503565, 0.00145157, 3.19343, 69.4882, 35.5698, 5.72418, 2.31372, 4.13424, -0.127186, -0.00143191, -0.00337206, 0.00618186, 0.0143503, -0.000285803, 0.00350664, 0.0201819, 0.00479673, -0.0277808, -0.171074, 0.0935983, 0.00211834, 0.470919, -0.543024, 0.335926, -2.08345, -2.16578, -0.130146, 0.467379, -0.543622, 0.329702, -2.07963, -2.15665, -0.113617, -0.00378258, 0.0159305, 0.0015138, -0.00885435, 9.57029e-05, -0.0289103
0.0802163, 1.69163, -1.22991, -1.5463, -0.902756, -1.19754, 1.22533, -1.30246, 0.035274, 0.010326, -0.0674036, -0.0318921, -0.0998474, -0.0487201, -0.00167705, 3.11805, 69.3771, 35.6412, 5.76385, 2.37598, 4.01248, -0.0557752, -0.00144993, -0.00336816, 0.00620582, 0.0145016, -0.000389501, 0.00350413, 0.019159, 0.00236479, -0.0268859, -0.166839, 0.0942744, 0.00946384, 0.470915, -0.543008, 0.335928, -2.08344, -2.16577, -0.130157, 0.467379, -0.54362, 0.329677, -2.07959, -2.15665, -0.113356, -0.00388232, 0.0163742, 0.00156132, -0.00652964, 0.00151136, -0.0278938
0.0812163, 1.69167, -1.22992, -1.54636, -0.902778, -1.19765, 1.2253, -1.30246, 0.0371132, 0.00444599, -0.0652224, -0.028048, -0.0971577, -0.050735, -0.00040589, 3.04267, 69.4882, 35.7523, 5.79956, 2.35675, 3.97677, -0.0750012, -0.00147263, -0.00336617, 0.00623671, 0.0146423, -0.000474998, 0.00352183, 0.0192708, 0.00167705, -0.0292854, -0.164355, 0.085312, 0.00900022, 0.470911, -0.542992, 0.335929, -2.08342, -2.16577, -0.130169, 0.467377, -0.543622, 0.329644, -2.07956, -2.15663, -0.113123, -0.00398302, 0.0168232, 0.00160966, -0.0060264, 0.00224899, -0.030253
0.0822163, 1.69171, -1.22992, -1.54642, -0.902798, -1.19775, 1.22527, -1.30245, 0.0377924, -0.00034932, -0.0667698, -0.0268479, -0.0957665, -0.0432372, 0.000712803, 3.003, 69.635, 35.8674, 5.91064, 2.34485, 3.96213, -0.101552, -0.00149607, -0.00336185, 0.00626932, 0.0147783, -0.000560598, 0.00353669, 0.0210433, 0.00013863, -0.0318569, -0.158459, 0.083636, 0.00765873, 0.470907, -0.542975, 0.335931, -2.0834, -2.16577, -0.13018, 0.467377, -0.543623, 0.32961, -2.07952, -2.1566, -0.112896, -0.00408468, 0.0172776, 0.00165881, -0.00462114, 0.00141408, -0.0330653
0.0832163, 1.69176, -1.22993, -1.54647, -0.902815, -1.19786, 1.22526, -1.30245, 0.0441775, -0.00274107, -0.0629005, -0.0225832, -0.0965993, -0.0326595, 0.000949959, 2.85224, 69.7461, 35.9031, 6.02173, 2.37598, 3.94839, -0.114369, -0.00151908, -0.003352, 0.00629691, 0.0149015, -0.000660414, 0.00354578, 0.0206339, -0.00517006, -0.0307051, -0.145413, 0.0873124, 0.0119555, 0.470903, -0.542958, 0.335933, -2.08338, -2.16576, -0.130192, 0.467382, -0.543623, 0.32958, -2.0795, -2.1566, -0.11267, -0.00418727, 0.0177373, 0.00170878, 0.000605031, 0.00231898, -0.0319751
0.0842163, 1.69181, -1.22994, -1.54653, -0.90283, -1.19797, 1.22525, -1.30246, 0.0448419, -0.00435813, -0.0643207, -0.0201465, -0.100269, -0.0247593, -0.0015368, 2.73719, 69.8572, 35.9784, 6.17248, 2.37598, 3.94107, -0.0557752, -0.00154267, -0.00333953, 0.00632618, 0.015022, -0.000762336, 0.00354862, 0.0235202, -0.00589359, -0.0311437, -0.140558, 0.0930184, 0.0114303, 0.470899, -0.54294, 0.335934, -2.08336, -2.16576, -0.130204, 0.46739, -0.543624, 0.329549, -2.07947, -2.1566, -0.112446, -0.00429078, 0.0182023, 0.00175956, 0.00131189, 3.27205e-05, -0.0328286
0.0852163, 1.69186, -1.22995, -1.54659, -0.90285, -1.19808, 1.22525, -1.30245, 0.0482517, -0.00888678, -0.0590663, -0.0207294, -0.103621, -0.0200005, -0.000787155, 2.62611, 70.1151, 36.0538, 6.43433, 2.38147, 3.96945, -0.0621838, -0.00156649, -0.0033245, 0.00636055, 0.0151385, -0.000857877, 0.00355132, 0.0227974, -0.00954549, -0.0317736, -0.134539, 0.0939816, 0.0163921, 0.470895, -0.542922, 0.335936, -2.08334, -2.16576, -0.130217, 0.467401, -0.543623, 0.329513, -2.07944, -2.1566, -0.112233, -0.00439521, 0.0186725, 0.00181117, 0.00480579, 0.00146454, -0.0333971
0.0862163, 1.69192, -1.22997, -1.54665, -0.902859, -1.19819, 1.22525, -1.30245, 0.0509796, -0.0119186, -0.0606615, -0.0182262, -0.102609, -0.0175735, 0.000187323, 2.51106, 70.3729, 36.2363, 6.58508, 2.41809, 4.03445, -0.0814099, -0.00159546, -0.00331164, 0.00639682, 0.0152554, -0.000955243, 0.0035632, 0.0234663, -0.0109337, -0.0336823, -0.132814, 0.0918485, 0.0158802, 0.47089, -0.542903, 0.335938, -2.08332, -2.16575, -0.13023, 0.467409, -0.543627, 0.329474, -2.07942, -2.1566, -0.112017, -0.00450054, 0.019148, 0.0018636, 0.00604167, 0.00163207, -0.0353757
0.0872163, 1.69198, -1.23001, -1.5467, -0.902877, -1.19831, 1.22525, -1.30245, 0.0549959, -0.018311, -0.0584113, -0.018843, -0.101981, -0.010796, 0.00158296, 2.32459, 70.8173, 36.276, 6.84296, 2.46112, 4.09854, -0.120778, -0.00161935, -0.00328973, 0.00643864, 0.0153669, -0.00104573, 0.00356328, 0.0226861, -0.0152508, -0.0363443, -0.126084, 0.088927, 0.0207745, 0.470886, -0.542884, 0.33594, -2.0833, -2.16575, -0.130243, 0.467425, -0.543624, 0.32943, -2.07939, -2.1566, -0.111815, -0.00460676, 0.0196287, 0.00191686, 0.0101224, 0.00347226, -0.0379602
0.0882163, 1.69204, -1.23004, -1.54676, -0.90289, -1.19842, 1.22526, -1.30245, 0.0564461, -0.0216517, -0.0577098, -0.0174187, -0.101637, -0.00705916, -0.000402749, 2.17384, 71.2219, 36.3514, 7.02942, 2.51056, 4.07748, -0.0814099, -0.00164551, -0.00326733, 0.00647925, 0.0154705, -0.00113913, 0.00355752, 0.023433, -0.016747, -0.0375956, -0.121861, 0.0875724, 0.0238061, 0.470881, -0.542864, 0.335942, -2.08328, -2.16574, -0.130257, 0.467443, -0.543623, 0.329387, -2.07935, -2.15662, -0.11162, -0.00471385, 0.0201145, 0.00197095, 0.011491, 0.00347643, -0.0393034
0.0892163, 1.6921, -1.23007, -1.54681, -0.902908, -1.19853, 1.22528, -1.30245, 0.0558524, -0.0229562, -0.0578885, -0.0181087, -0.0993239, -0.00277991, -0.000268492, 2.09846, 71.5869, 36.4625, 7.29126, 2.51056, 4.01248, -0.0814099, -0.00167282, -0.0032448, 0.00651724, 0.0155695, -0.00124122, 0.00355553, 0.0241312, -0.0176951, -0.0381032, -0.117526, 0.0870826, 0.0247427, 0.470877, -0.542844, 0.335944, -2.08326, -2.16574, -0.13027, 0.46746, -0.543623, 0.329347, -2.07933, -2.15663, -0.111421, -0.00482181, 0.0206055, 0.00202587, 0.0123365, 0.00339653, -0.0398875
0.0902163, 1.69217, -1.2301, -1.54686, -0.902921, -1.19865, 1.2253, -1.30246, 0.0588445, -0.0256859, -0.0553979, -0.0230561, -0.101565, 0.00409314, -0.00211177, 2.02308, 72.0312, 36.4625, 7.47772, 2.48035, 3.96945, -0.0292249, -0.0016987, -0.00322059, 0.00655547, 0.015661, -0.00133187, 0.00354414, 0.0227394, -0.0220764, -0.0390597, -0.113416, 0.0905199, 0.0347427, 0.470872, -0.542823, 0.335946, -2.08324, -2.16574, -0.130285, 0.467479, -0.54362, 0.329306, -2.07929, -2.15666, -0.111244, -0.00493062, 0.0211016, 0.00208162, 0.0165185, 0.00559564, -0.0406923
0.0912163, 1.69223, -1.23013, -1.54691, -0.902931, -1.19877, 1.22531, -1.30245, 0.0587546, -0.0274159, -0.0545389, -0.0218784, -0.109678, 0.0031221, 0.000524937, 1.90803, 72.4716, 36.4982, 7.59277, 2.49225, 3.96213, -0.0814099, -0.00172588, -0.00319524, 0.00659594, 0.0157641, -0.00143219, 0.00354932, 0.0251116, -0.0209403, -0.0396444, -0.116821, 0.0953728, 0.0290594, 0.470867, -0.542802, 0.335948, -2.08322, -2.16573, -0.130299, 0.467499, -0.543619, 0.329263, -2.07927, -2.15666, -0.111042, -0.00504026, 0.0216028, 0.00213822, 0.0153383, 0.00379971, -0.0415485
0.0922163, 1.6923, -1.23015, -1.54697, -0.902949, -1.19888, 1.22532, -1.30245, 0.060918, -0.0226322, -0.0577181, -0.019757, -0.10901, 0.00830243, -0.000124757, 1.83265, 72.6581, 36.5735, 7.77924, 2.45563, 4.04819, -0.0685925, -0.00175029, -0.00317068, 0.00662861, 0.015872, -0.00154448, 0.00354169, 0.0259329, -0.0221445, -0.0372963, -0.113672, 0.102803, 0.0289131, 0.470862, -0.542781, 0.33595, -2.08319, -2.16573, -0.130314, 0.467518, -0.543615, 0.329229, -2.07924, -2.15669, -0.110825, -0.00515073, 0.022109, 0.00219565, 0.0165451, 0.00318314, -0.0393376
0.0932163, 1.69237, -1.23019, -1.54702, -0.90297, -1.199, 1.22533, -1.30245, 0.0624678, -0.0262193, -0.0573459, -0.0181403, -0.108259, 0.0127153, -0.000320528, 1.75727, 73.1342, 36.6489, 7.9657, 2.40619, 4.13424, -0.0621838, -0.00177256, -0.0031411, 0.00667347, 0.0159823, -0.00163551, 0.00352342, 0.0267973, -0.023773, -0.0387317, -0.108901, 0.101252, 0.0300881, 0.470857, -0.542759, 0.335952, -2.08317, -2.16572, -0.130329, 0.467541, -0.543607, 0.329182, -2.07918, -2.15671, -0.110627, -0.00526201, 0.0226203, 0.00225393, 0.0180391, 0.00313109, -0.040881
0.0942163, 1.69244, -1.23021, -1.54708, -0.902985, -1.19912, 1.22534, -1.30246, 0.0634672, -0.0226726, -0.0567981, -0.0183142, -0.113127, 0.00512312, -0.0019091, 1.72157, 73.3563, 36.7203, 8.07678, 2.37598, 4.26333, -0.0164075, -0.00179864, -0.00311772, 0.00670759, 0.0160951, -0.00174577, 0.00351081, 0.0265655, -0.0225528, -0.0371319, -0.11717, 0.105577, 0.031663, 0.470851, -0.542736, 0.335954, -2.08315, -2.16572, -0.130344, 0.467559, -0.543604, 0.329146, -2.07914, -2.15674, -0.110408, -0.0053741, 0.0231366, 0.00231306, 0.0167581, 0.00357984, -0.0391698
0.0952163, 1.69251, -1.23022, -1.54713, -0.903004, -1.19924, 1.22535, -1.30246, 0.0646057, -0.0194739, -0.0588242, -0.0185202, -0.116288, 0.0102636, -0.00127274, 1.64619, 73.5428, 36.76, 8.18787, 2.34485, 4.36404, -0.0164075, -0.00182282, -0.00309057, 0.00673964, 0.0162016, -0.0018607, 0.00349863, 0.0278235, -0.0234966, -0.0355758, -0.115903, 0.114665, 0.0305866, 0.470846, -0.542713, 0.335957, -2.08312, -2.16571, -0.13036, 0.467581, -0.543598, 0.329112, -2.0791, -2.15677, -0.110191, -0.00548698, 0.0236579, 0.00237303, 0.0176896, 0.00265882, -0.0377986
0.0962163, 1.69257, -1.23023, -1.54718, -0.903029, -1.19935, 1.22536, -1.30245, 0.062866, -0.0138157, -0.057196, -0.0237037, -0.123575, 0.0108879, 0.00108429, 1.68189, 73.5785, 36.7957, 8.37433, 2.30182, 4.42813, -0.0685925, -0.00184703, -0.00306477, 0.00676383, 0.016306, -0.00199095, 0.00349283, 0.0282587, -0.0232501, -0.0321975, -0.118971, 0.127454, 0.0296078, 0.470841, -0.542689, 0.335959, -2.0831, -2.16571, -0.130376, 0.467601, -0.543593, 0.329086, -2.07908, -2.15681, -0.10996, -0.00560063, 0.0241841, 0.00243385, 0.0174681, 0.00222425, -0.0344634
0.0972163, 1.69264, -1.23022, -1.54724, -0.903054, -1.19948, 1.22537, -1.30245, 0.0665508, -0.00837363, -0.0577143, -0.0225132, -0.124623, 0.00990384, 0.000722861, 1.64619, 73.5428, 36.9068, 8.48541, 2.27161, 4.52884, -0.0685925, -0.0018715, -0.00304043, 0.00678778, 0.0164254, -0.00212832, 0.00348714, 0.0272461, -0.0246593, -0.0292508, -0.120254, 0.13389, 0.0321584, 0.470835, -0.542665, 0.335962, -2.08307, -2.16571, -0.130393, 0.467619, -0.543589, 0.32906, -2.07906, -2.15684, -0.109706, -0.00571505, 0.0247152, 0.00249553, 0.0188315, 0.00335863, -0.0313778
0.0982163, 1.69271, -1.23023, -1.54731, -0.903078, -1.19959, 1.22537, -1.30246, 0.0662342, -0.00808687, -0.0606913, -0.0218189, -0.120463, 0.00962003, -0.0019595, 1.60651, 73.6499, 37.1329, 8.60046, 2.22858, 4.6149, -0.00267457, -0.00189633, -0.00301525, 0.00681931, 0.0165481, -0.00225119, 0.00346805, 0.0278714, -0.0242973, -0.0300222, -0.120717, 0.131299, 0.0342075, 0.470829, -0.54264, 0.335964, -2.08305, -2.1657, -0.13041, 0.467639, -0.543582, 0.329027, -2.07901, -2.15688, -0.109465, -0.00583022, 0.0252512, 0.00255806, 0.0183493, 0.00338273, -0.032164
0.0992163, 1.69278, -1.23022, -1.54736, -0.903103, -1.19972, 1.22538, -1.30246, 0.0687393, -0.0037199, -0.0619808, -0.0203018, -0.123723, 0.0100453, -0.00130633, 1.57081, 73.5785, 37.2043, 8.67188, 2.22858, 4.68631, -0.00267457, -0.00192177, -0.00299098, 0.00684027, 0.0166632, -0.00239269, 0.00346224, 0.0283262, -0.0248604, -0.0277482, -0.122234, 0.13917, 0.0332268, 0.470823, -0.542615, 0.335967, -2.08302, -2.16569, -0.130427, 0.467657, -0.543578, 0.329004, -2.07898, -2.15691, -0.109212, -0.00594613, 0.0257921, 0.00262146, 0.0188948, 0.00314745, -0.0299442
0.100216, 1.69284, -1.23022, -1.54743, -0.903128, -1.19984, 1.22539, -1.30245, 0.0687939, -0.00164404, -0.0628425, -0.0226639, -0.11591, 0.00976732, 0.000824533, 1.49146, 73.5428, 37.3908, 8.74725, 2.20935, 4.77237, -0.0484509, -0.00194893, -0.0029678, 0.0068654, 0.0167884, -0.00253293, 0.00346007, 0.0265775, -0.026154, -0.0271717, -0.120473, 0.135563, 0.0356933, 0.470817, -0.542589, 0.335969, -2.08299, -2.16569, -0.130444, 0.467674, -0.543574, 0.328977, -2.07896, -2.15694, -0.108949, -0.00606278, 0.0263379, 0.00268571, 0.020028, 0.00538458, -0.029078
0.101216, 1.6929, -1.23021, -1.54749, -0.903165, -1.19996, 1.22538, -1.30245, 0.0677746, 0.00243096, -0.0646717, -0.02703, -0.120211, 0.00933415, 0.000820957, 1.45576, 73.392, 37.5019, 8.93372, 2.20935, 4.86575, -0.0557752, -0.00197321, -0.00294557, 0.00688704, 0.0169194, -0.00267655, 0.00345163, 0.0271165, -0.0256811, -0.0259655, -0.12595, 0.143985, 0.036452, 0.470811, -0.542563, 0.335972, -2.08296, -2.16568, -0.130462, 0.467691, -0.543567, 0.328954, -2.07893, -2.15697, -0.108678, -0.00618014, 0.0268884, 0.00275083, 0.0195016, 0.00519807, -0.0278923
0.102216, 1.69297, -1.2302, -1.54755, -0.903195, -1.20008, 1.22538, -1.30245, 0.0698052, 0.00561054, -0.0652502, -0.0267518, -0.113968, 0.00565874, 0.000784663, 1.305, 73.3563, 37.5773, 8.97339, 2.21576, 4.92343, -0.0621838, -0.00199781, -0.00292021, 0.00691094, 0.0170466, -0.00281717, 0.00344032, 0.025083, -0.0267258, -0.0246602, -0.126586, 0.140902, 0.04029, 0.470805, -0.542536, 0.335975, -2.08294, -2.16568, -0.13048, 0.46771, -0.54356, 0.328928, -2.07889, -2.15701, -0.108414, -0.0062982, 0.0274437, 0.00281681, 0.0204011, 0.00760286, -0.0262529
0.103216, 1.69303, -1.23019, -1.54761, -0.903226, -1.2002, 1.22538, -1.30246, 0.0692866, 0.00920042, -0.0625803, -0.0306007, -0.113289, 0.00257806, -0.0019183, 1.22962, 73.1342, 37.6526, 9.04877, 2.20386, 4.98752, 0.00373412, -0.00202333, -0.0028993, 0.00692905, 0.0171745, -0.00296093, 0.00342568, 0.0234169, -0.0273163, -0.0223443, -0.127976, 0.143118, 0.0475949, 0.470799, -0.542509, 0.335978, -2.08291, -2.16567, -0.130499, 0.467725, -0.543553, 0.328909, -2.07885, -2.15705, -0.108147, -0.00641697, 0.0280038, 0.00288366, 0.0208961, 0.00947465, -0.0236581
0.104216, 1.69309, -1.23019, -1.54766, -0.903251, -1.20032, 1.22538, -1.30246, 0.0669596, 0.00540295, -0.0569996, -0.0309166, -0.114168, 0.00155191, -0.00029552, 1.11457, 73.1738, 37.5773, 9.00909, 2.22217, 5.0159, -0.0228162, -0.00205224, -0.00287777, 0.00695163, 0.0172915, -0.00309509, 0.00342027, 0.0241773, -0.0269604, -0.0225905, -0.124439, 0.139753, 0.0467684, 0.470793, -0.542481, 0.33598, -2.08288, -2.16567, -0.130518, 0.46774, -0.543549, 0.328884, -2.07882, -2.15708, -0.107901, -0.00653641, 0.0285686, 0.00295138, 0.0204398, 0.00931324, -0.023942
0.105216, 1.69316, -1.23018, -1.54771, -0.903285, -1.20044, 1.22537, -1.30245, 0.0665452, 0.00551322, -0.0572554, -0.0309861, -0.117996, -0.000438351, 4.03453e-05, 0.928108, 73.0984, 37.5416, 9.08447, 2.20386, 5.07358, -0.0292249, -0.00207695, -0.00285411, 0.00697239, 0.0174165, -0.0032329, 0.00340915, 0.0255096, -0.025992, -0.0227325, -0.12807, 0.142638, 0.0450258, 0.470786, -0.542452, 0.335983, -2.08285, -2.16566, -0.130537, 0.467757, -0.543541, 0.328862, -2.07878, -2.15712, -0.107644, -0.00665653, 0.0291381, 0.00301998, 0.0193955, 0.00855066, -0.024193
0.106216, 1.69322, -1.23017, -1.54777, -0.903323, -1.20056, 1.22536, -1.30245, 0.0629364, 0.00545693, -0.059518, -0.0316708, -0.120897, -0.00111721, 0.000738974, 0.737679, 73.027, 37.5773, 9.19556, 2.18555, 5.10928, -0.0484509, -0.0021014, -0.00283051, 0.0069962, 0.0175535, -0.00337205, 0.0033961, 0.0284604, -0.0233527, -0.0234887, -0.131697, 0.14531, 0.0396689, 0.470779, -0.542423, 0.335986, -2.08282, -2.16566, -0.130557, 0.467774, -0.543531, 0.328837, -2.07873, -2.15715, -0.107373, -0.0067773, 0.0297122, 0.00308945, 0.016718, 0.00622111, -0.0252514
0.107216, 1.69328, -1.23016, -1.54783, -0.90336, -1.20069, 1.22535, -1.30245, 0.0615747, 0.00464924, -0.0552487, -0.0337068, -0.119589, -0.00169414, -0.000931504, 0.626595, 72.9874, 37.5019, 9.23523, 2.20386, 5.14499, -0.00999879, -0.00213129, -0.00281099, 0.00701737, 0.0176799, -0.00351463, 0.00338547, 0.02792, -0.0239656, -0.0226933, -0.128606, 0.143607, 0.0446275, 0.470773, -0.542393, 0.335989, -2.08278, -2.16565, -0.130577, 0.467787, -0.543527, 0.328814, -2.07869, -2.15719, -0.10711, -0.00689872, 0.030291, 0.0031598, 0.0172182, 0.00723665, -0.0243308
0.108216, 1.69334, -1.23016, -1.54788, -0.903394, -1.20081, 1.22535, -1.30246, 0.0610131, 0.00399715, -0.0569333, -0.0343522, -0.118137, -0.00193468, -0.000621003, 0.360787, 72.9517, 37.3551, 9.23523, 2.20386, 5.17428, -0.00999879, -0.00215696, -0.00278632, 0.00703921, 0.0178014, -0.00364822, 0.00336609, 0.0286638, -0.0237202, -0.0237266, -0.129821, 0.142417, 0.0443772, 0.470766, -0.542363, 0.335993, -2.08275, -2.16564, -0.130597, 0.467805, -0.543517, 0.328791, -2.07864, -2.15723, -0.106862, -0.00702078, 0.0308744, 0.00323103, 0.0168403, 0.00723679, -0.0253893
0.109216, 1.6934, -1.23015, -1.54793, -0.903439, -1.20093, 1.22534, -1.30245, 0.0604076, 0.00447484, -0.0578595, -0.0343373, -0.120687, -0.00158855, -0.000176643, 0.0949785, 72.8763, 37.3194, 9.34631, 2.17914, 5.18802, -0.0164075, -0.00218177, -0.00276018, 0.00706181, 0.017928, -0.0037885, 0.00334777, 0.0302218, -0.0230745, -0.0236709, -0.131308, 0.145824, 0.0423798, 0.470759, -0.542332, 0.335996, -2.08272, -2.16564, -0.130618, 0.467824, -0.543506, 0.328767, -2.0786, -2.15727, -0.106603, -0.00714347, 0.0314625, 0.00330314, 0.0161312, 0.00625278, -0.0254868
0.110216, 1.69345, -1.23015, -1.54798, -0.90348, -1.20105, 1.22534, -1.30245, 0.0600235, 0.00209033, -0.0562072, -0.033435, -0.123552, 0.000149527, 0.00106903, -0.0557783, 72.916, 37.2043, 9.42169, 2.17914, 5.15964, -0.0484509, -0.00221478, -0.00274015, 0.00708663, 0.018049, -0.00392767, 0.00334493, 0.0318777, -0.0230928, -0.024162, -0.129333, 0.147107, 0.0402358, 0.470751, -0.542301, 0.335999, -2.08269, -2.16563, -0.130639, 0.467837, -0.543502, 0.32874, -2.07857, -2.1573, -0.10635, -0.00726676, 0.032055, 0.00337613, 0.0160684, 0.00528882, -0.0261588
0.111216, 1.69351, -1.23014, -1.54803, -0.903526, -1.20117, 1.22534, -1.30245, 0.0540376, 0.00895706, -0.0542565, -0.036551, -0.120952, 0.000217733, -0.000474106, -0.357292, 72.7295, 37.1686, 9.53278, 2.17273, 5.15964, -0.0164075, -0.00224126, -0.0027154, 0.00710417, 0.0181739, -0.00407735, 0.00332279, 0.0326895, -0.0210596, -0.0195155, -0.126239, 0.152383, 0.040579, 0.470744, -0.542268, 0.336003, -2.08265, -2.16562, -0.13066, 0.467855, -0.543492, 0.328721, -2.07852, -2.15735, -0.106084, -0.00739066, 0.0326521, 0.00345001, 0.0141127, 0.0042817, -0.0215638
0.112216, 1.69356, -1.23014, -1.54807, -0.903569, -1.20129, 1.22533, -1.30246, 0.055664, 0.00449251, -0.0492359, -0.0403391, -0.122752, 0.000504959, -0.00129941, -0.658806, 72.8049, 36.9822, 9.56848, 2.15442, 5.15231, 0.0101428, -0.00226961, -0.00269038, 0.00712651, 0.0182874, -0.00421079, 0.00330063, 0.0312081, -0.0237537, -0.0209335, -0.124784, 0.150267, 0.0486177, 0.470737, -0.542236, 0.336006, -2.08262, -2.16562, -0.130682, 0.467872, -0.543483, 0.328697, -2.07847, -2.1574, -0.105847, -0.00751515, 0.0332538, 0.00352478, 0.0165737, 0.006678, -0.0227403
0.113216, 1.6936, -1.23013, -1.54811, -0.903617, -1.20142, 1.22533, -1.30245, 0.0501387, 0.00756999, -0.0484006, -0.0386043, -0.124619, -0.000139493, -0.000391559, -0.809562, 72.6184, 36.9068, 9.67957, 2.15442, 5.16696, -0.00267457, -0.00230129, -0.00267204, 0.00714038, 0.0184065, -0.00436286, 0.00329189, 0.0346342, -0.0201278, -0.0183098, -0.123468, 0.154774, 0.040791, 0.470729, -0.542203, 0.33601, -2.08258, -2.16561, -0.130704, 0.467884, -0.543478, 0.328682, -2.07844, -2.15744, -0.105584, -0.00764022, 0.0338599, 0.00360044, 0.0130472, 0.00334658, -0.0205008
0.114216, 1.69365, -1.23013, -1.54816, -0.903664, -1.20155, 1.22533, -1.30245, 0.0478341, 0.00736324, -0.0453439, -0.0428278, -0.126471, -4.31936e-05, 0.00143438, -1.0357, 72.6581, 36.8711, 9.75494, 2.15442, 5.16696, -0.0484509, -0.00233497, -0.00265119, 0.00716205, 0.0185264, -0.00450878, 0.00328317, 0.0347887, -0.0202391, -0.0177789, -0.123145, 0.156886, 0.0416141, 0.470722, -0.542169, 0.336013, -2.08255, -2.1656, -0.130727, 0.467897, -0.543473, 0.328658, -2.0784, -2.15748, -0.105328, -0.00776586, 0.0344704, 0.00367699, 0.013058, 0.00372801, -0.0199288
0.115216, 1.6937, -1.23011, -1.54819, -0.903711, -1.20167, 1.22532, -1.30245, 0.0452419, 0.00871952, -0.0412169, -0.0458602, -0.127411, -0.000262712, 0.000244178, -1.22613, 72.5113, 36.76, 9.83032, 2.14252, 5.17428, -0.0292249, -0.0023666, -0.00263037, 0.00717255, 0.0186372, -0.00466496, 0.00327018, 0.0348534, -0.0201342, -0.0157969, -0.120998, 0.159442, 0.0448948, 0.470714, -0.542134, 0.336017, -2.08251, -2.16559, -0.13075, 0.467911, -0.543467, 0.328646, -2.07837, -2.15753, -0.105071, -0.00789206, 0.0350854, 0.00375444, 0.0129019, 0.00396845, -0.0179027
0.116216, 1.69374, -1.23012, -1.54823, -0.903757, -1.2018, 1.22532, -1.30246, 0.0441674, 0.00760207, -0.0457976, -0.0442264, -0.129402, -0.00314193, -0.00200735, -1.45226, 72.5827, 36.8354, 9.87, 2.16083, 5.13125, 0.0293689, -0.00240299, -0.0026108, 0.00719521, 0.0187572, -0.00481062, 0.00325668, 0.0375798, -0.0177052, -0.017995, -0.127528, 0.159277, 0.0421844, 0.470706, -0.542099, 0.336021, -2.08248, -2.16559, -0.130773, 0.467923, -0.543463, 0.328621, -2.07833, -2.15758, -0.104816, -0.0080188, 0.0357048, 0.00383279, 0.0103682, 0.002138, -0.0203482
0.117216, 1.69378, -1.23012, -1.54827, -0.9038, -1.20193, 1.22532, -1.30246, 0.045521, 0.00470963, -0.0428866, -0.0430792, -0.130371, -0.00109965, -0.000863518, -1.63873, 72.6184, 36.7957, 9.9057, 2.17273, 5.09463, 0.0165515, -0.00244017, -0.00259097, 0.00721201, 0.0188605, -0.00495716, 0.00325181, 0.0380135, -0.0191566, -0.0183796, -0.123491, 0.158647, 0.0429031, 0.470698, -0.542063, 0.336024, -2.08244, -2.16558, -0.130797, 0.467936, -0.543461, 0.328602, -2.0783, -2.15762, -0.104577, -0.00814607, 0.0363285, 0.00391203, 0.0116923, 0.00245459, -0.020762
0.118216, 1.69383, -1.23011, -1.5483, -0.903846, -1.20206, 1.22532, -1.30245, 0.0445619, 0.00433257, -0.0409014, -0.0422654, -0.126506, -0.00447344, 0.000136398, -1.86486, 72.5827, 36.76, 9.94141, 2.18555, 5.05893, -0.00267457, -0.00247522, -0.00256964, 0.00722483, 0.0189617, -0.00510781, 0.00324239, 0.0378239, -0.0187204, -0.0180077, -0.1223, 0.153869, 0.0428346, 0.47069, -0.542027, 0.336028, -2.0824, -2.16557, -0.130821, 0.46795, -0.543456, 0.328587, -2.07828, -2.15766, -0.104338, -0.00827387, 0.0369566, 0.00399218, 0.0111359, 0.00319514, -0.020273
0.119216, 1.69387, -1.23012, -1.54833, -0.903898, -1.20219, 1.22531, -1.30246, 0.0429432, -0.00120511, -0.0389632, -0.0466583, -0.129322, -0.00777693, 0.000836917, -2.05529, 72.7692, 36.8354, 10.0565, 2.22858, 5.04519, -0.0228162, -0.002511, -0.00254894, 0.00724967, 0.0190759, -0.00524102, 0.00322683, 0.0381897, -0.0184149, -0.0213626, -0.127003, 0.1499, 0.0448827, 0.470682, -0.54199, 0.336032, -2.08236, -2.16556, -0.130845, 0.467962, -0.543449, 0.32856, -2.07823, -2.1577, -0.104103, -0.00840218, 0.0375891, 0.00407323, 0.0105935, 0.0039757, -0.0235533
0.120216, 1.69391, -1.23011, -1.54836, -0.903934, -1.20231, 1.22531, -1.30246, 0.0415751, 0.000325766, -0.0330958, -0.0413627, -0.125822, -0.00470585, -0.000662758, -2.24175, 72.7295, 36.8711, 9.94141, 2.25238, 5.00949, 0.0101428, -0.00255279, -0.0025331, 0.00726091, 0.0191745, -0.00539347, 0.00322851, 0.0392838, -0.018563, -0.0173001, -0.114645, 0.149846, 0.0447065, 0.470673, -0.541953, 0.336036, -2.08232, -2.16556, -0.13087, 0.467971, -0.54345, 0.328546, -2.07822, -2.15774, -0.103864, -0.008531, 0.0382258, 0.00415518, 0.010801, 0.00290929, -0.0196379
0.121216, 1.69395, -1.23012, -1.54839, -0.903975, -1.20244, 1.22531, -1.30246, 0.0438182, -0.000559979, -0.029668, -0.0395575, -0.124003, -0.00766428, 3.28791e-05, -2.43218, 72.7692, 36.9465, 9.9057, 2.28992, 4.98752, -0.00267457, -0.0025934, -0.0025146, 0.00727748, 0.0192767, -0.00553903, 0.00322768, 0.0381786, -0.0198215, -0.0167094, -0.112849, 0.146404, 0.0472639, 0.470665, -0.541914, 0.33604, -2.08228, -2.16555, -0.130895, 0.467982, -0.543449, 0.328527, -2.07819, -2.15778, -0.103629, -0.0086603, 0.0388668, 0.00423804, 0.0119103, 0.00460285, -0.0188386
0.122216, 1.69399, -1.23012, -1.54841, -0.904021, -1.20258, 1.22531, -1.30245, 0.0400642, -0.000260172, -0.0277742, -0.0431861, -0.126808, -0.00411146, 0.000767905, -2.65832, 72.7692, 37.0575, 9.94141, 2.32013, 4.93716, -0.0228162, -0.00263382, -0.0024939, 0.00729292, 0.0193762, -0.0056925, 0.0032228, 0.0399286, -0.0192991, -0.0158344, -0.11043, 0.151501, 0.0463774, 0.470656, -0.541875, 0.336045, -2.08224, -2.16554, -0.130921, 0.467994, -0.543446, 0.328509, -2.07817, -2.15782, -0.103389, -0.00879009, 0.039512, 0.00432181, 0.0113546, 0.00336441, -0.0181507
0.123216, 1.69402, -1.23011, -1.54844, -0.904063, -1.20271, 1.22532, -1.30245, 0.038725, -8.8587e-05, -0.0253998, -0.0449069, -0.129215, -0.00101756, 0.00173264, -2.80907, 72.7692, 37.1329, 9.94141, 2.35675, 4.87308, -0.0557752, -0.0026783, -0.0024773, 0.00730505, 0.0194706, -0.00584877, 0.0032283, 0.040964, -0.0197587, -0.0147667, -0.107285, 0.155821, 0.0463349, 0.470647, -0.541836, 0.336049, -2.0822, -2.16553, -0.130947, 0.468003, -0.543448, 0.328494, -2.07817, -2.15786, -0.103152, -0.00892034, 0.0401615, 0.0044065, 0.0117604, 0.00284633, -0.0171898
0.124216, 1.69406, -1.23011, -1.54846, -0.904105, -1.20284, 1.22532, -1.30245, 0.0403485, 0.00497621, -0.0226614, -0.0429697, -0.135561, -8.09342e-05, -0.000811595, -3.07488, 72.6938, 37.1686, 9.94141, 2.38788, 4.84378, -0.00267457, -0.00271735, -0.00245514, 0.00731391, 0.0195649, -0.00600681, 0.0032128, 0.0418162, -0.0202036, -0.0104992, -0.105841, 0.166923, 0.0482347, 0.470638, -0.541796, 0.336053, -2.08216, -2.16552, -0.130973, 0.468018, -0.543444, 0.328482, -2.07814, -2.15792, -0.102916, -0.00905105, 0.0408151, 0.00449209, 0.0122615, 0.00201549, -0.0130401
0.125216, 1.6941, -1.2301, -1.54849, -0.904145, -1.20298, 1.22532, -1.30246, 0.0396942, 0.00446779, -0.023234, -0.0444198, -0.135481, 0.00222518, 0.000204922, -3.26134, 72.6581, 37.3194, 9.94141, 2.4245, 4.77237, -0.0228162, -0.00276381, -0.00243778, 0.00732573, 0.0196649, -0.00617254, 0.00321598, 0.0427337, -0.0206046, -0.0109446, -0.104838, 0.168335, 0.0480139, 0.470629, -0.541755, 0.336058, -2.08212, -2.16551, -0.131, 0.468027, -0.543446, 0.328467, -2.07813, -2.15796, -0.102664, -0.00918221, 0.0414729, 0.0045786, 0.0125483, 0.00185468, -0.013551
0.126216, 1.69414, -1.23011, -1.54851, -0.904186, -1.20312, 1.22532, -1.30245, 0.0385975, 0.00154442, -0.0217402, -0.0468472, -0.140372, 0.00226032, 0.00108605, -3.4121, 72.7295, 37.3908, 9.98108, 2.46112, 4.74399, -0.0484509, -0.0028094, -0.00241872, 0.0073408, 0.019761, -0.0063279, 0.00321988, 0.0440961, -0.0204106, -0.0123761, -0.10691, 0.170234, 0.0477364, 0.47062, -0.541714, 0.336063, -2.08207, -2.1655, -0.131027, 0.468038, -0.543446, 0.328449, -2.07811, -2.158, -0.102427, -0.00931381, 0.0421348, 0.00466602, 0.0122206, 0.00138747, -0.0150861
0.127216, 1.69418, -1.2301, -1.54853, -0.904227, -1.20326, 1.22533, -1.30245, 0.0385394, 0.00594483, -0.0221083, -0.0452739, -0.139019, 0.00316612, -0.00070012, -3.60253, 72.6581, 37.3908, 10.0168, 2.48584, 4.69363, -0.00999879, -0.00285318, -0.0023968, 0.0073476, 0.0198509, -0.00649812, 0.0032116, 0.0447738, -0.0203086, -0.00958585, -0.104597, 0.174522, 0.0486328, 0.470611, -0.541671, 0.336067, -2.08203, -2.16549, -0.131055, 0.468052, -0.543445, 0.32844, -2.0781, -2.15806, -0.102183, -0.00944583, 0.0428008, 0.00475437, 0.0121141, 0.000947691, -0.0123483
0.128216, 1.69422, -1.2301, -1.54855, -0.904266, -1.2034, 1.22534, -1.30246, 0.0417452, 0.00668453, -0.0243201, -0.043292, -0.137825, 0.00409269, -0.000975373, -3.79296, 72.6938, 37.4662, 10.0168, 2.51056, 4.63595, 0.00373412, -0.00290189, -0.00237662, 0.00736094, 0.0199415, -0.00666289, 0.00320951, 0.044874, -0.0216687, -0.00971828, -0.104576, 0.175536, 0.0500524, 0.470601, -0.541629, 0.336072, -2.08198, -2.16548, -0.131083, 0.468064, -0.543447, 0.328423, -2.07809, -2.15811, -0.101944, -0.00957827, 0.043471, 0.00484363, 0.0133392, 0.00159726, -0.0124489
0.129216, 1.69426, -1.2301, -1.54857, -0.904302, -1.20354, 1.22534, -1.30246, 0.0389639, 0.00501177, -0.0232347, -0.0417703, -0.140427, 0.00552887, -0.000887608, -3.90404, 72.6938, 37.4305, 10.0168, 2.49866, 4.55722, 0.0101428, -0.00294993, -0.00235659, 0.00736818, 0.0200239, -0.00682971, 0.00320945, 0.0478259, -0.0200687, -0.00980328, -0.102494, 0.17711, 0.045986, 0.470592, -0.541585, 0.336077, -2.08194, -2.16548, -0.131111, 0.468076, -0.543449, 0.328412, -2.07808, -2.15816, -0.101712, -0.00971111, 0.0441452, 0.00493382, 0.0117135, -0.000694366, -0.0128589
0.130216, 1.6943, -1.23011, -1.54859, -0.904337, -1.20369, 1.22535, -1.30245, 0.0381329, 0.000324068, -0.0234356, -0.0398811, -0.143164, 0.00651525, 0.00134104, -4.0548, 72.8406, 37.4305, 9.98108, 2.51056, 4.47848, -0.0420422, -0.00300008, -0.00233377, 0.00738358, 0.0201103, -0.00699379, 0.00321897, 0.0505427, -0.0192066, -0.0122098, -0.102371, 0.175725, 0.0408056, 0.470582, -0.541541, 0.336082, -2.08189, -2.16547, -0.13114, 0.46809, -0.54345, 0.328394, -2.07808, -2.1582, -0.101478, -0.00984435, 0.0448234, 0.00502493, 0.0107306, -0.00235786, -0.0155454
0.131216, 1.69435, -1.23011, -1.54859, -0.904368, -1.20385, 1.22537, -1.30245, 0.0389267, -0.00030675, -0.0213003, -0.0384935, -0.145484, 0.00692326, 0.00140265, -4.13018, 72.8763, 37.3194, 9.94141, 2.52338, 4.40707, -0.0557752, -0.00305205, -0.00231207, 0.00739061, 0.0201885, -0.00717149, 0.00322313, 0.0514096, -0.0196609, -0.0116062, -0.100649, 0.177694, 0.0409744, 0.470572, -0.541496, 0.336087, -2.08185, -2.16546, -0.131169, 0.468103, -0.543455, 0.328383, -2.07809, -2.15826, -0.101241, -0.00997797, 0.0455056, 0.00511696, 0.011105, -0.00260501, -0.0150097
0.132216, 1.69439, -1.23012, -1.54861, -0.904405, -1.204, 1.22537, -1.30246, 0.0404809, -0.00256864, -0.0183326, -0.0383954, -0.146145, 0.00670292, -0.0015063, -4.24523, 72.9874, 37.2797, 9.94141, 2.51056, 4.34939, 0.0101428, -0.0031033, -0.00228899, 0.00740451, 0.020281, -0.00734574, 0.00321858, 0.0511438, -0.0210821, -0.0119521, -0.0988468, 0.176432, 0.0469855, 0.470562, -0.541451, 0.336092, -2.0818, -2.16545, -0.131199, 0.468118, -0.543456, 0.328365, -2.07807, -2.15831, -0.100992, -0.010112, 0.0461918, 0.00520992, 0.0123686, -0.00154198, -0.0152621
0.133216, 1.69444, -1.23013, -1.54863, -0.904433, -1.20417, 1.22538, -1.30246, 0.0415922, -0.00413514, -0.0188445, -0.0365015, -0.152043, 0.00653432, -0.00124156, -4.35632, 73.0984, 37.3551, 9.87, 2.51697, 4.29263, 0.0165515, -0.00316013, -0.00226793, 0.00741988, 0.0203765, -0.00752785, 0.00322979, 0.0533059, -0.0206293, -0.0128143, -0.101497, 0.180265, 0.044394, 0.470552, -0.541404, 0.336097, -2.08175, -2.16543, -0.131229, 0.46813, -0.543463, 0.328346, -2.07808, -2.15836, -0.10073, -0.0102463, 0.0468819, 0.00530381, 0.0118299, -0.00286906, -0.0163474
0.134216, 1.69449, -1.23014, -1.54864, -0.904468, -1.20435, 1.22539, -1.30245, 0.0415459, -0.00605863, -0.0115022, -0.0337898, -0.156828, 0.00619372, 0.00185106, -4.43169, 73.2452, 37.244, 9.87, 2.52338, 4.24228, -0.0557752, -0.00321201, -0.00224328, 0.00743187, 0.0204712, -0.00771069, 0.00323679, 0.054394, -0.020864, -0.0109636, -0.0963492, 0.182162, 0.0412392, 0.470542, -0.541358, 0.336102, -2.0817, -2.16542, -0.131259, 0.468146, -0.543464, 0.32833, -2.07808, -2.1584, -0.10047, -0.010381, 0.047576, 0.00539863, 0.0120379, -0.00352592, -0.0146063
0.135216, 1.69455, -1.23015, -1.54865, -0.904503, -1.20452, 1.2254, -1.30245, 0.0456074, -0.00913715, -0.0119523, -0.0325329, -0.160213, 0.00729594, 0.00123404, -4.54675, 73.4674, 37.244, 9.9057, 2.52887, 4.15622, -0.0557752, -0.00326679, -0.00221538, 0.00745092, 0.0205662, -0.00789555, 0.00323223, 0.054829, -0.0227697, -0.0128432, -0.0975566, 0.183229, 0.0439214, 0.470531, -0.54131, 0.336108, -2.08165, -2.16541, -0.13129, 0.468164, -0.543466, 0.328307, -2.07807, -2.15847, -0.100209, -0.0105161, 0.048274, 0.00549438, 0.0137535, -0.00288339, -0.016495
0.136216, 1.69459, -1.23016, -1.54867, -0.904531, -1.2047, 1.22541, -1.30246, 0.046104, -0.00945097, -0.0122459, -0.0299046, -0.166751, 0.0113792, -0.000872729, -4.54675, 73.6142, 37.244, 9.87, 2.51056, 4.10586, -0.00999879, -0.00332713, -0.00219513, 0.00746464, 0.020663, -0.00808661, 0.00324346, 0.0579032, -0.0225363, -0.012389, -0.0960764, 0.190827, 0.0423467, 0.470521, -0.541262, 0.336113, -2.0816, -2.1654, -0.131321, 0.468176, -0.543474, 0.328289, -2.07807, -2.15851, -0.0999382, -0.0106515, 0.0489759, 0.00559107, 0.0135148, -0.00529451, -0.0164287
0.137216, 1.69464, -1.23018, -1.54868, -0.904565, -1.20489, 1.22542, -1.30246, 0.0466396, -0.011442, -0.0156119, -0.0272339, -0.171742, 0.0139772, -0.000853087, -4.54675, 73.8364, 37.244, 9.94141, 2.49225, 4.07016, -0.00267457, -0.00338682, -0.00217182, 0.00748248, 0.020763, -0.00827802, 0.00325104, 0.0613019, -0.0216913, -0.0141348, -0.0979816, 0.194966, 0.0377319, 0.47051, -0.541213, 0.336119, -2.08155, -2.16539, -0.131353, 0.46819, -0.54348, 0.328267, -2.07807, -2.15856, -0.0996645, -0.0107872, 0.0496816, 0.00568869, 0.012596, -0.00770472, -0.0185656
0.138216, 1.6947, -1.23019, -1.54869, -0.904594, -1.20507, 1.22543, -1.30245, 0.0504194, -0.0110199, -0.0148148, -0.0266738, -0.174889, 0.0108058, 0.00163532, -4.54675, 73.9832, 37.244, 9.94141, 2.47394, 4.04819, -0.0621838, -0.0034469, -0.00214831, 0.00749661, 0.0208614, -0.00847472, 0.00326395, 0.0606064, -0.0229967, -0.0139553, -0.101658, 0.19722, 0.0381847, 0.470499, -0.541163, 0.336125, -2.0815, -2.16538, -0.131385, 0.468204, -0.543486, 0.328248, -2.07808, -2.15861, -0.099387, -0.0109232, 0.0503911, 0.00578725, 0.0137456, -0.00628054, -0.0182234
0.139216, 1.69475, -1.2302, -1.54871, -0.904625, -1.20526, 1.22543, -1.30245, 0.0533299, -0.00815057, -0.0151478, -0.0293551, -0.176607, 0.0118842, 0.00109022, -4.54675, 74.0189, 37.2797, 9.94141, 2.4245, 4.06283, -0.0621838, -0.0035051, -0.00212334, 0.00750703, 0.0209634, -0.00867936, 0.0032722, 0.0595174, -0.0252341, -0.0127809, -0.10316, 0.203139, 0.0435626, 0.470489, -0.541113, 0.33613, -2.08145, -2.16537, -0.131418, 0.46822, -0.54349, 0.328234, -2.07809, -2.15867, -0.0990983, -0.0110595, 0.0511045, 0.00588674, 0.0158478, -0.00458029, -0.0168649
0.140216, 1.6948, -1.2302, -1.54872, -0.904652, -1.20545, 1.22544, -1.30245, 0.0519812, -0.00717349, -0.0167558, -0.031445, -0.183161, 0.00764379, -0.00120597, -4.39599, 74.0942, 37.244, 9.94141, 2.38788, 4.09122, -0.00999879, -0.00356905, -0.00210397, 0.0075178, 0.0210659, -0.00888408, 0.00328435, 0.0613265, -0.0232195, -0.0132959, -0.11189, 0.208344, 0.043759, 0.470477, -0.541062, 0.336136, -2.0814, -2.16536, -0.13145, 0.46823, -0.543499, 0.328218, -2.07809, -2.15872, -0.0988091, -0.0111962, 0.0518216, 0.00598718, 0.0137474, -0.00565101, -0.0174988
0.141216, 1.69485, -1.23019, -1.54872, -0.904694, -1.20565, 1.22545, -1.30245, 0.0531925, -0.00216628, -0.0139388, -0.034238, -0.183323, 0.00567499, -0.000566621, -4.32061, 73.9832, 37.1686, 10.1279, 2.34485, 4.09122, -0.0164075, -0.00362544, -0.00207712, 0.00751862, 0.021164, -0.00910886, 0.00328372, 0.0594969, -0.0246726, -0.00994085, -0.112149, 0.213365, 0.0483038, 0.470466, -0.54101, 0.336142, -2.08134, -2.16535, -0.131484, 0.468248, -0.543501, 0.328214, -2.0781, -2.15879, -0.098506, -0.0113331, 0.0525425, 0.00608855, 0.0151191, -0.00358557, -0.0138454
0.142216, 1.69491, -1.23019, -1.54874, -0.90473, -1.20583, 1.22545, -1.30245, 0.0499368, -0.00143099, -0.0146186, -0.0333014, -0.183025, 0.0086508, 0.00131767, -4.20556, 73.9832, 37.2043, 10.2032, 2.28992, 4.09854, -0.0621838, -0.00368528, -0.00205376, 0.00752681, 0.0212696, -0.00931847, 0.00329499, 0.0622746, -0.0231883, -0.00916144, -0.108893, 0.215929, 0.0425712, 0.470455, -0.540957, 0.336148, -2.08129, -2.16533, -0.131518, 0.468262, -0.543505, 0.328202, -2.07811, -2.15885, -0.0982093, -0.0114702, 0.0532671, 0.00619087, 0.013631, -0.00578462, -0.0133687
0.143216, 1.69495, -1.2302, -1.54875, -0.904766, -1.20603, 1.22545, -1.30245, 0.0471396, -0.00177931, -0.0159253, -0.0317995, -0.183515, 0.00567119, 0.00159053, -4.0548, 74.0189, 37.2797, 10.2429, 2.25879, 4.12051, -0.0814099, -0.00374868, -0.00203302, 0.00753661, 0.0213774, -0.00952942, 0.00330867, 0.0647844, -0.0205542, -0.00969074, -0.11163, 0.215103, 0.0378222, 0.470443, -0.540904, 0.336154, -2.08123, -2.16532, -0.131552, 0.468273, -0.543512, 0.328187, -2.07812, -2.1589, -0.0979089, -0.0116077, 0.0539954, 0.00629413, 0.0109365, -0.00755959, -0.0141057
0.144216, 1.69501, -1.23019, -1.54876, -0.904806, -1.20621, 1.22545, -1.30245, 0.0465996, 0.000491648, -0.0151106, -0.0377987, -0.183667, 0.00353924, -0.00110979, -3.97942, 73.9474, 37.2797, 10.3143, 2.21576, 4.14157, -0.0228162, -0.00380713, -0.00200687, 0.00754218, 0.0214832, -0.00974588, 0.00330245, 0.0634348, -0.0213961, -0.00902626, -0.115274, 0.217622, 0.045917, 0.470432, -0.54085, 0.336161, -2.08118, -2.16531, -0.131586, 0.468289, -0.543513, 0.328178, -2.07811, -2.15897, -0.0976077, -0.0117453, 0.0547273, 0.00639834, 0.0116156, -0.00556276, -0.0131622
0.145216, 1.69506, -1.23019, -1.54877, -0.904849, -1.20641, 1.22545, -1.30245, 0.0462488, -0.00192291, -0.0153158, -0.0368972, -0.184199, 0.00171209, -2.7782e-05, -3.90404, 73.9078, 37.3194, 10.4294, 2.18555, 4.16995, -0.0420422, -0.00386791, -0.0019834, 0.00755024, 0.0215966, -0.00996235, 0.00330794, 0.064778, -0.0207163, -0.0105035, -0.116893, 0.215444, 0.0438828, 0.47042, -0.540795, 0.336167, -2.08112, -2.1653, -0.131621, 0.468303, -0.543516, 0.328166, -2.0781, -2.15903, -0.0972973, -0.0118833, 0.0554629, 0.00650349, 0.0107946, -0.00594881, -0.0147093
0.146216, 1.69511, -1.23018, -1.54877, -0.904888, -1.2066, 1.22545, -1.30245, 0.0459666, 0.000127317, -0.0118321, -0.0366628, -0.188216, 0.00117295, 0.000218838, -3.82867, 73.8364, 37.2043, 10.4294, 2.1297, 4.17727, -0.0484509, -0.00393064, -0.00196071, 0.00755142, 0.021698, -0.0101872, 0.00331493, 0.0655566, -0.0206548, -0.00801837, -0.115715, 0.221033, 0.0438237, 0.470408, -0.54074, 0.336174, -2.08106, -2.16528, -0.131657, 0.468316, -0.543521, 0.328161, -2.07811, -2.1591, -0.0969918, -0.0120214, 0.0562022, 0.00660959, 0.0107164, -0.00636746, -0.0122748
0.147216, 1.69515, -1.23018, -1.54878, -0.904934, -1.20681, 1.22544, -1.30244, 0.0400704, 0.00248745, -0.00994042, -0.0365222, -0.192004, 0.000195276, 0.00187522, -3.6422, 73.7253, 37.244, 10.4294, 2.08667, 4.19925, -0.0951428, -0.00399664, -0.00194308, 0.0075546, 0.0218127, -0.0104151, 0.00333281, 0.0690051, -0.0171075, -0.00566318, -0.115359, 0.226419, 0.0361975, 0.470396, -0.540684, 0.33618, -2.08101, -2.16527, -0.131692, 0.468323, -0.543528, 0.328153, -2.07813, -2.15915, -0.0966679, -0.0121598, 0.056945, 0.00671664, 0.00725039, -0.00954367, -0.0102816
0.148216, 1.69519, -1.23016, -1.54878, -0.904978, -1.20701, 1.22544, -1.30245, 0.0437671, 0.00578028, -0.00487174, -0.0394759, -0.191032, -0.000750641, -0.0009539, -3.52715, 73.5428, 37.1329, 10.4294, 2.08118, 4.22763, -0.0356336, -0.0040616, -0.00192345, 0.00755137, 0.0219193, -0.0106521, 0.00333863, 0.0656238, -0.0207504, -0.00260105, -0.112836, 0.22927, 0.0483126, 0.470384, -0.540627, 0.336187, -2.08095, -2.16526, -0.131729, 0.468333, -0.543534, 0.328152, -2.07813, -2.15922, -0.0963452, -0.0122984, 0.0576914, 0.00682465, 0.0107399, -0.00578485, -0.00673358
0.149216, 1.69524, -1.23017, -1.54879, -0.905025, -1.20721, 1.22543, -1.30244, 0.0469334, 0.00290811, -0.00703828, -0.0411338, -0.198327, -0.00223764, 0.000347411, -3.56683, 73.5785, 37.1329, 10.3897, 2.06195, 4.27798, -0.0621838, -0.00412464, -0.00189903, 0.0075609, 0.0220357, -0.010871, 0.0033434, 0.066491, -0.0215714, -0.00552423, -0.120794, 0.232871, 0.0486171, 0.470372, -0.540569, 0.336194, -2.08089, -2.16524, -0.131765, 0.468347, -0.543536, 0.328139, -2.07813, -2.15928, -0.0960308, -0.0124372, 0.0584414, 0.0069336, 0.0113459, -0.00539736, -0.00967561
0.150216, 1.69528, -1.23015, -1.54878, -0.905075, -1.20742, 1.22543, -1.30244, 0.0430879, 0.00705302, -0.00450166, -0.0457531, -0.200027, -0.00326091, 0.00145231, -3.48748, 73.3563, 37.0933, 10.354, 2.03815, 4.32834, -0.0951428, -0.00419099, -0.00188053, 0.00755707, 0.0221461, -0.0111119, 0.00335672, 0.066929, -0.0205536, -0.00267659, -0.121334, 0.238769, 0.0486943, 0.470359, -0.54051, 0.336201, -2.08083, -2.16523, -0.131802, 0.468356, -0.543542, 0.328138, -2.07814, -2.15935, -0.0957002, -0.0125762, 0.0591949, 0.00704351, 0.0103132, -0.00556334, -0.00679681
0.151216, 1.69531, -1.23015, -1.54879, -0.905128, -1.20762, 1.22542, -1.30244, 0.0403518, 0.00547525, -0.00355423, -0.0490946, -0.201259, -0.00474694, 0.00144292, -3.4121, 73.3206, 37.0933, 10.3143, 2.02533, 4.39975, -0.10796, -0.0042609, -0.00186483, 0.00756174, 0.0222609, -0.0113393, 0.00337101, 0.0679583, -0.0196573, -0.00368929, -0.123526, 0.238379, 0.0494187, 0.470347, -0.540451, 0.336208, -2.08077, -2.16522, -0.13184, 0.468361, -0.54355, 0.328129, -2.07815, -2.1594, -0.0953787, -0.0127154, 0.0599519, 0.00715437, 0.00928066, -0.00569996, -0.00782431
0.152216, 1.69534, -1.23014, -1.54878, -0.905184, -1.20783, 1.22541, -1.30244, 0.0360181, 0.0044389, -0.00278432, -0.0517482, -0.202943, -0.00497569, -0.00171682, -3.3764, 73.2849, 37.0933, 10.2786, 2.01984, 4.4501, -0.0356336, -0.00433036, -0.0018487, 0.00756473, 0.0223755, -0.0115693, 0.0033763, 0.0701084, -0.0178476, -0.00415433, -0.124395, 0.239372, 0.050875, 0.470334, -0.540391, 0.336215, -2.0807, -2.1652, -0.131878, 0.468367, -0.543557, 0.328122, -2.07815, -2.15947, -0.0950562, -0.0128547, 0.0607124, 0.00726618, 0.00739728, -0.00706334, -0.00845941
0.153216, 1.69537, -1.23013, -1.54879, -0.905239, -1.20803, 1.2254, -1.30244, 0.0288884, 0.00895653, -0.00309537, -0.0553113, -0.198609, -0.00619283, -0.000398558, -3.30102, 73.027, 37.1329, 10.1675, 1.99512, 4.52884, -0.0557752, -0.00440253, -0.00183694, 0.00756142, 0.0224886, -0.011807, 0.00339843, 0.0716649, -0.0148711, -0.00181179, -0.123763, 0.240549, 0.0472035, 0.470321, -0.540331, 0.336222, -2.08064, -2.16519, -0.131916, 0.468369, -0.543568, 0.32812, -2.07817, -2.15952, -0.0947262, -0.0129943, 0.0614763, 0.00737895, 0.00443094, -0.00832662, -0.00619305
0.154216, 1.6954, -1.23012, -1.54878, -0.905304, -1.20822, 1.22539, -1.30244, 0.0293183, 0.00770811, -0.0013689, -0.0606665, -0.194461, -0.0104874, -0.000774332, -3.33672, 72.9517, 37.0933, 10.1675, 1.93927, 4.57187, -0.0420422, -0.00446789, -0.00181803, 0.00756329, 0.0225997, -0.0120291, 0.00339592, 0.0691668, -0.016432, -0.00307329, -0.12661, 0.234946, 0.0553075, 0.470308, -0.540269, 0.33623, -2.08058, -2.16517, -0.131955, 0.468377, -0.543569, 0.328115, -2.07815, -2.15959, -0.0944172, -0.0131339, 0.0622436, 0.00749268, 0.0057125, -0.00482948, -0.00698178
0.155216, 1.69542, -1.23011, -1.54877, -0.905368, -1.20842, 1.22538, -1.30244, 0.0253197, 0.00938802, 0.00785676, -0.0627408, -0.194181, -0.0139342, 0.00145047, -3.33672, 72.7692, 36.9822, 10.0922, 1.96399, 4.62222, -0.0951428, -0.00453751, -0.00180289, 0.00755908, 0.0227021, -0.0122604, 0.00340947, 0.0686324, -0.0157916, 0.000818386, -0.121449, 0.234934, 0.0557666, 0.470295, -0.540207, 0.336237, -2.08051, -2.16516, -0.131994, 0.468381, -0.543575, 0.328115, -2.07817, -2.15965, -0.0941073, -0.0132738, 0.0630144, 0.00760737, 0.00505929, -0.00416741, -0.00292617
0.156216, 1.69544, -1.2301, -1.54877, -0.905435, -1.20861, 1.22537, -1.30243, 0.0222759, 0.00884243, 0.00739865, -0.0653613, -0.197067, -0.0107437, -1.63661e-05, -3.33672, 72.6581, 36.9068, 10.0565, 1.95758, 4.64328, -0.0685925, -0.00460994, -0.00179014, 0.00756028, 0.0228119, -0.0124868, 0.00342042, 0.0710384, -0.0149636, 0.00044262, -0.121107, 0.239257, 0.0558154, 0.470282, -0.540144, 0.336245, -2.08045, -2.16514, -0.132034, 0.468383, -0.543582, 0.328109, -2.07817, -2.15971, -0.0937947, -0.0134137, 0.0637885, 0.00772302, 0.00416878, -0.00574235, -0.00354068
0.157216, 1.69545, -1.23008, -1.54876, -0.90551, -1.2088, 1.22536, -1.30243, 0.019111, 0.0110808, 0.00606583, -0.06815, -0.194862, -0.0134745, -1.09107e-05, -3.30102, 72.4359, 36.8711, 10.0565, 1.95209, 4.67257, -0.0685925, -0.00468226, -0.00177922, 0.00755725, 0.022918, -0.0127155, 0.00343136, 0.0717643, -0.0133801, 0.000856189, -0.124117, 0.239321, 0.0555481, 0.470268, -0.54008, 0.336252, -2.08038, -2.16513, -0.132074, 0.468384, -0.54359, 0.328108, -2.07817, -2.15977, -0.0934845, -0.0135538, 0.064566, 0.00783963, 0.00249105, -0.00581202, -0.00308631
0.158216, 1.69546, -1.23008, -1.54876, -0.90559, -1.20898, 1.22535, -1.30243, 0.014457, 0.011406, 0.00510273, -0.0701777, -0.193544, -0.0102644, 0.0035713, -3.30102, 72.4002, 36.8354, 10.0565, 1.95758, 4.68631, -0.0356336, -0.00475571, -0.00176804, 0.00756185, 0.0230299, -0.0129352, 0.00343849, 0.0742617, -0.0118857, 0.000965617, -0.121615, 0.241042, 0.049571, 0.470255, -0.540016, 0.33626, -2.08032, -2.16511, -0.132115, 0.468384, -0.543596, 0.328099, -2.07816, -2.15983, -0.0931778, -0.013694, 0.0653468, 0.00795721, 0.000956528, -0.00757478, -0.00321445
0.159216, 1.69546, -1.23006, -1.54875, -0.905669, -1.20917, 1.22535, -1.30243, 0.00999728, 0.0130607, 0.00533279, -0.0738296, -0.19232, -0.0118188, 0.00423887, -3.26134, 72.178, 36.76, 10.0168, 1.95758, 4.67898, -0.0750012, -0.00483202, -0.0017593, 0.00755709, 0.0231323, -0.0131713, 0.00345745, 0.0753563, -0.0101658, 0.00163678, -0.12294, 0.24185, 0.0485702, 0.470241, -0.53995, 0.336268, -2.08025, -2.1651, -0.132156, 0.468382, -0.543606, 0.328099, -2.07818, -2.15988, -0.0928641, -0.0138343, 0.0661309, 0.00807574, -0.000834279, -0.00804793, -0.0025584
0.160216, 1.69545, -1.23005, -1.54875, -0.905754, -1.20936, 1.22534, -1.30243, 0.00679509, 0.0115004, 0.00544422, -0.0742042, -0.186535, -0.00897412, 0.00710522, -3.22564, 72.067, 36.6846, 10.0168, 1.95209, 4.68631, -0.0557752, -0.00490925, -0.00175233, 0.00755858, 0.0232391, -0.0133933, 0.00347137, 0.0767319, -0.00978537, 0.0011094, -0.117349, 0.237689, 0.0453396, 0.470227, -0.539884, 0.336276, -2.08018, -2.16508, -0.132197, 0.468378, -0.543615, 0.328093, -2.07818, -2.15994, -0.0925609, -0.0139747, 0.0669183, 0.00819524, -0.00132159, -0.0085502, -0.00317031
0.161216, 1.69545, -1.23004, -1.54874, -0.90584, -1.20954, 1.22533, -1.30243, 0.00280795, 0.012082, 0.0078174, -0.0771577, -0.182109, -0.0113012, 0.00460675, -3.26134, 71.8845, 36.6489, 10.0168, 1.95209, 4.68631, -0.0356336, -0.00498512, -0.00174333, 0.00755786, 0.0233466, -0.0136201, 0.00347926, 0.0767694, -0.00880229, 0.0018889, -0.115836, 0.234207, 0.0494655, 0.470213, -0.539817, 0.336284, -2.08012, -2.16506, -0.132239, 0.468375, -0.543622, 0.32809, -2.07818, -2.16, -0.092253, -0.0141153, 0.067709, 0.00831571, -0.00241167, -0.00795974, -0.00226098
0.162216, 1.69545, -1.23003, -1.54874, -0.905927, -1.20971, 1.22533, -1.30243, -0.00111484, 0.0107627, 0.00648191, -0.0782932, -0.177434, -0.00788051, 0.0035331, -3.26134, 71.7734, 36.6092, 9.94141, 1.93378, 4.67257, -0.0356336, -0.0050646, -0.00173723, 0.00755917, 0.0234446, -0.0138371, 0.00349355, 0.0788029, -0.00790059, 0.000979731, -0.111782, 0.231568, 0.0490771, 0.470199, -0.539749, 0.336293, -2.08005, -2.16505, -0.132281, 0.46837, -0.543632, 0.328084, -2.07818, -2.16005, -0.0919654, -0.0142558, 0.0685029, 0.00843714, -0.00340947, -0.00906662, -0.00333623
0.163216, 1.69543, -1.23001, -1.54874, -0.906027, -1.20989, 1.22532, -1.30242, -0.00797108, 0.0124542, 0.00541321, -0.0817369, -0.176416, -0.0100531, 0.00862139, -3.22564, 71.5512, 36.5735, 9.98108, 1.95209, 4.65793, -0.0685925, -0.00514379, -0.00173348, 0.00755806, 0.0235574, -0.0140673, 0.00350942, 0.0812742, -0.00441103, 0.00131896, -0.11438, 0.232297, 0.0404126, 0.470185, -0.539681, 0.336301, -2.07998, -2.16503, -0.132324, 0.468363, -0.543641, 0.32808, -2.07818, -2.1601, -0.0916483, -0.0143965, 0.0692999, 0.00855954, -0.00692876, -0.0109084, -0.0031681
0.164216, 1.69542, -1.23, -1.54873, -0.906128, -1.21007, 1.22531, -1.30242, -0.00986913, 0.0117981, 0.00463656, -0.0873477, -0.174981, -0.011971, 0.00616164, -3.18597, 71.4044, 36.5378, 10.0168, 1.95758, 4.6506, -0.0621838, -0.0052225, -0.00172833, 0.00755797, 0.0236638, -0.0142901, 0.00351712, 0.0810133, -0.00438599, -0.000175303, -0.118335, 0.230774, 0.0464463, 0.47017, -0.539612, 0.33631, -2.0799, -2.16502, -0.132367, 0.468356, -0.543649, 0.328076, -2.07817, -2.16016, -0.0913472, -0.0145372, 0.0701002, 0.0086829, -0.00715804, -0.00961582, -0.0044824
0.165216, 1.69541, -1.23, -1.54872, -0.906228, -1.21024, 1.22529, -1.30242, -0.00864876, 0.0096749, 0.00499868, -0.0896894, -0.173704, -0.00902415, 0.00385033, -3.26134, 71.329, 36.4625, 9.98108, 1.95758, 4.6506, -0.0420422, -0.00529954, -0.00172032, 0.00756242, 0.0237735, -0.0145039, 0.00352066, 0.0807711, -0.00649803, -0.00142942, -0.116202, 0.230105, 0.0531332, 0.470156, -0.539541, 0.336318, -2.07983, -2.165, -0.132411, 0.468352, -0.543653, 0.328068, -2.07815, -2.16022, -0.0910525, -0.014678, 0.0709037, 0.00880724, -0.00524365, -0.00828511, -0.00562795
0.166216, 1.69538, -1.22999, -1.54872, -0.90633, -1.21041, 1.22528, -1.30242, -0.0122444, 0.00815505, 0.00344076, -0.0973522, -0.173333, -0.0108332, 0.0069725, -3.15026, 71.2576, 36.4625, 9.94141, 1.97681, 4.62955, -0.0228162, -0.00538337, -0.00172057, 0.00756715, 0.0238858, -0.0147174, 0.00353641, 0.0811243, -0.00574983, -0.00389151, -0.121981, 0.22888, 0.0530139, 0.470141, -0.539471, 0.336327, -2.07976, -2.16498, -0.132455, 0.46834, -0.543664, 0.328058, -2.07814, -2.16026, -0.0907543, -0.0148189, 0.0717102, 0.00893254, -0.00620867, -0.00747001, -0.0079705
0.167216, 1.69537, -1.22997, -1.54872, -0.906434, -1.21058, 1.22526, -1.30242, -0.015226, 0.00889638, 0.00330308, -0.0955926, -0.168023, -0.0116646, 0.00701451, -3.15026, 71.1108, 36.4228, 9.83032, 1.97681, 4.59292, -0.0685925, -0.00546309, -0.00171638, 0.00756854, 0.0239946, -0.0149327, 0.00355266, 0.0826124, -0.0041959, -0.00317574, -0.118863, 0.225394, 0.0505673, 0.470126, -0.539399, 0.336336, -2.07969, -2.16496, -0.132499, 0.468333, -0.54367, 0.328053, -2.07813, -2.16031, -0.0904585, -0.0149597, 0.0725199, 0.00905882, -0.00781739, -0.00830613, -0.00733148
0.168216, 1.69534, -1.22997, -1.54871, -0.906543, -1.21074, 1.22525, -1.30241, -0.0193701, 0.00771366, 0.00226298, -0.0994389, -0.164457, -0.00786721, 0.0051794, -3.07488, 71.0355, 36.4228, 9.79462, 2.00061, 4.56454, -0.0685925, -0.00554549, -0.00171624, 0.00757398, 0.0241089, -0.0151399, 0.00356485, 0.0841493, -0.00376949, -0.00423439, -0.115965, 0.224207, 0.0528803, 0.470112, -0.539326, 0.336345, -2.07961, -2.16495, -0.132544, 0.468321, -0.543677, 0.328043, -2.07812, -2.16035, -0.0901657, -0.0151006, 0.0733327, 0.00918606, -0.00836464, -0.00885968, -0.00848546
0.169216, 1.69531, -1.22995, -1.54871, -0.90665, -1.2109, 1.22523, -1.30241, -0.02052, 0.0125766, 0.0041528, -0.0978649, -0.159445, -0.0135569, 0.00785728, -3.07488, 70.853, 36.3117, 9.71924, 1.9704, 4.51419, -0.0484509, -0.00562598, -0.00171451, 0.00757102, 0.0242108, -0.0153515, 0.00357473, 0.0835438, -0.00264946, -0.000909581, -0.115409, 0.222665, 0.0504496, 0.470096, -0.539253, 0.336354, -2.07954, -2.16493, -0.132589, 0.46831, -0.543683, 0.328042, -2.0781, -2.1604, -0.0898829, -0.0152415, 0.0741485, 0.00931428, -0.00952015, -0.00801704, -0.00495093
0.170216, 1.69528, -1.22994, -1.5487, -0.906758, -1.21105, 1.22521, -1.30242, -0.0272292, 0.0101984, 0.00584385, -0.0992581, -0.157373, -0.0180847, 0.00449476, -2.95983, 70.9244, 36.3117, 9.60815, 1.9704, 4.46383, -0.00999879, -0.00571205, -0.00171715, 0.00757897, 0.0243178, -0.0155458, 0.00358775, 0.0859182, 0.000959828, -0.00193463, -0.116613, 0.216869, 0.050337, 0.470081, -0.539179, 0.336364, -2.07946, -2.16491, -0.132635, 0.468295, -0.543692, 0.32803, -2.07808, -2.16044, -0.0896123, -0.0153825, 0.0749674, 0.00944347, -0.0132133, -0.009532, -0.00610445
0.171216, 1.69525, -1.22993, -1.5487, -0.906872, -1.2112, 1.22519, -1.30241, -0.0264455, 0.0148585, 0.00417502, -0.103712, -0.15602, -0.0162278, 0.00543983, -2.95983, 70.7419, 36.3117, 9.4931, 1.97681, 4.39975, -0.0621838, -0.00579421, -0.00171703, 0.00757798, 0.0244278, -0.0157586, 0.00360261, 0.0849487, -0.000693936, -0.00026745, -0.117475, 0.222702, 0.0540337, 0.470066, -0.539104, 0.336373, -2.07939, -2.16489, -0.132681, 0.468283, -0.543698, 0.328027, -2.07807, -2.16048, -0.0893195, -0.0155234, 0.0757893, 0.00957364, -0.0116743, -0.00794486, -0.00423214
0.172216, 1.69522, -1.22991, -1.5487, -0.906993, -1.21135, 1.22517, -1.30241, -0.025846, 0.0145486, 0.00615816, -0.106606, -0.155496, -0.0148894, 0.00448418, -2.95983, 70.7062, 36.3117, 9.4931, 1.99512, 4.33566, -0.0750012, -0.00587611, -0.00171503, 0.00758279, 0.024539, -0.0159639, 0.00360975, 0.0843234, -0.0024576, -6.25028e-05, -0.115656, 0.223615, 0.0596867, 0.47005, -0.539028, 0.336383, -2.07931, -2.16487, -0.132728, 0.468272, -0.543702, 0.328018, -2.07804, -2.16053, -0.0890345, -0.0156643, 0.0766142, 0.00970477, -0.0100676, -0.00645897, -0.00385998
0.173216, 1.69518, -1.2299, -1.54869, -0.907105, -1.2115, 1.22515, -1.30241, -0.0303385, 0.0104371, 0.00452624, -0.109495, -0.154148, -0.0178507, 0.00181857, -2.88445, 70.7062, 36.3117, 9.27094, 1.98871, 4.2496, -0.0356336, -0.00596291, -0.00171743, 0.0075851, 0.0246413, -0.0161659, 0.00362074, 0.0864387, -6.67147e-05, -0.00347165, -0.119931, 0.217916, 0.0606317, 0.470035, -0.538951, 0.336392, -2.07923, -2.16485, -0.132775, 0.468257, -0.54371, 0.328012, -2.07802, -2.16057, -0.0887628, -0.0158053, 0.0774421, 0.00983689, -0.0126429, -0.00728078, -0.00736023
0.174216, 1.69515, -1.22989, -1.54868, -0.907228, -1.21166, 1.22513, -1.30241, -0.0320109, 0.0098758, 0.0082531, -0.115645, -0.154716, -0.0208167, 0.00119041, -2.88445, 70.7419, 36.2363, 9.19556, 2.03815, 4.17727, -0.0292249, -0.00604601, -0.00171572, 0.007588, 0.0247481, -0.0163713, 0.00362198, 0.0852963, -0.000681579, -0.00349823, -0.122027, 0.217437, 0.066991, 0.470019, -0.538874, 0.336402, -2.07915, -2.16483, -0.132822, 0.468246, -0.543713, 0.328005, -2.07799, -2.16063, -0.088484, -0.0159461, 0.0782729, 0.00996998, -0.0122114, -0.00529111, -0.00709652
0.175216, 1.69511, -1.22988, -1.54867, -0.907352, -1.2118, 1.22512, -1.3024, -0.0322678, 0.0104373, 0.00683705, -0.118118, -0.149865, -0.0227134, 0.00677497, -2.92413, 70.7419, 36.2006, 9.04877, 2.06195, 4.09854, -0.0621838, -0.00612735, -0.00171168, 0.00758934, 0.0248464, -0.016572, 0.0036258, 0.0846212, -0.00112911, -0.00417239, -0.123532, 0.214284, 0.0646422, 0.470003, -0.538796, 0.336412, -2.07907, -2.16481, -0.13287, 0.468237, -0.543714, 0.328, -2.07796, -2.16068, -0.0882196, -0.016087, 0.0791067, 0.010104, -0.0119538, -0.00366427, -0.00754001
0.176216, 1.69507, -1.22987, -1.54866, -0.907482, -1.21194, 1.2251, -1.3024, -0.0363465, 0.00923495, 0.00722497, -0.121256, -0.146415, -0.016366, 0.00380036, -2.80907, 70.8173, 36.2363, 8.93372, 2.09308, 4.06283, -0.0292249, -0.00621359, -0.00171426, 0.00759527, 0.0249536, -0.0167668, 0.00362852, 0.0863533, -0.00129613, -0.00443287, -0.116902, 0.214288, 0.0682189, 0.469987, -0.538717, 0.336422, -2.07899, -2.16479, -0.132919, 0.468221, -0.543719, 0.32799, -2.07792, -2.16072, -0.0879519, -0.0162278, 0.0799433, 0.0102391, -0.0118708, -0.00448659, -0.00794954
0.177216, 1.69503, -1.22985, -1.54866, -0.907611, -1.21207, 1.22508, -1.3024, -0.0363869, 0.0119807, 0.00535837, -0.121965, -0.138558, -0.0146717, 0.00436995, -2.80907, 70.7419, 36.2363, 8.74725, 2.11139, 3.9841, -0.0685925, -0.0062946, -0.00170882, 0.00759271, 0.025047, -0.0169732, 0.00362676, 0.0857809, -0.00235239, -0.00345465, -0.113344, 0.212441, 0.0703164, 0.469971, -0.538637, 0.336433, -2.07891, -2.16477, -0.132968, 0.468214, -0.543718, 0.32799, -2.07789, -2.16079, -0.0876885, -0.0163686, 0.0807828, 0.0103751, -0.0109393, -0.00319039, -0.00679621
0.178216, 1.69499, -1.22983, -1.54864, -0.907747, -1.2122, 1.22507, -1.30241, -0.0386506, 0.0120993, 0.0079693, -0.123929, -0.138121, -0.0142907, 0.00126425, -2.84875, 70.7419, 36.2006, 8.63617, 2.14801, 3.92642, -0.0164075, -0.00637303, -0.00170082, 0.00759223, 0.0251371, -0.0171701, 0.00360544, 0.0864608, -0.00221439, -0.00257753, -0.11095, 0.213116, 0.0747221, 0.469954, -0.538556, 0.336443, -2.07883, -2.16475, -0.133017, 0.468208, -0.543714, 0.327988, -2.07784, -2.16086, -0.087441, -0.0165093, 0.0816252, 0.0105121, -0.0111571, -0.00316198, -0.00590431
0.179216, 1.69495, -1.22981, -1.54864, -0.907883, -1.21233, 1.22506, -1.3024, -0.0442122, 0.0114953, 0.00714648, -0.129502, -0.137164, -0.0145328, 0.00153035, -2.7337, 70.7776, 36.276, 8.56079, 2.17273, 3.88339, -0.0292249, -0.00645812, -0.00169943, 0.00759196, 0.0252312, -0.0173724, 0.00360812, 0.0881491, -0.00036082, -0.00372118, -0.113099, 0.212772, 0.0742227, 0.469938, -0.538474, 0.336454, -2.07875, -2.16473, -0.133067, 0.468196, -0.543716, 0.327984, -2.07781, -2.16092, -0.0871814, -0.01665, 0.0824704, 0.0106501, -0.0131264, -0.00387944, -0.00711288
0.180216, 1.69491, -1.2298, -1.54863, -0.908019, -1.21245, 1.22504, -1.3024, -0.0455559, 0.0143673, 0.00776779, -0.13123, -0.136081, -0.0156091, 0.00240054, -2.7337, 70.8173, 36.3117, 8.37433, 2.20386, 3.86966, -0.0621838, -0.00653841, -0.0016934, 0.00759164, 0.0253225, -0.0175658, 0.00359971, 0.0883844, -8.00696e-05, -0.00206346, -0.113169, 0.215131, 0.0745159, 0.469921, -0.538392, 0.336464, -2.07866, -2.16471, -0.133117, 0.468189, -0.543712, 0.327982, -2.07776, -2.16098, -0.0869356, -0.0167906, 0.0833185, 0.010789, -0.0134737, -0.00353675, -0.00537371
0.181216, 1.69485, -1.22978, -1.54862, -0.908161, -1.21257, 1.22503, -1.30239, -0.0500844, 0.0163855, 0.0104615, -0.131168, -0.131844, -0.0154374, 0.00121143, -2.58294, 70.853, 36.3871, 8.26324, 2.25238, 3.83304, -0.0484509, -0.00662534, -0.00169356, 0.00758957, 0.0254081, -0.0177652, 0.00359982, 0.0897069, 0.00141587, 0.000326361, -0.107646, 0.214214, 0.0742303, 0.469904, -0.538309, 0.336475, -2.07858, -2.16469, -0.133167, 0.468175, -0.543714, 0.327981, -2.07773, -2.16104, -0.0866896, -0.0169311, 0.0841693, 0.010929, -0.0149658, -0.00443231, -0.00304715
0.182216, 1.69481, -1.22975, -1.5486, -0.908304, -1.21268, 1.22503, -1.3024, -0.0489043, 0.0186541, 0.0120694, -0.135232, -0.122925, -0.0162247, -0.00103538, -2.62261, 70.853, 36.3514, 8.18787, 2.2771, 3.8193, 0.00373412, -0.00670259, -0.00168237, 0.00758498, 0.0254863, -0.0179605, 0.00357113, 0.086477, -0.00137705, 0.00148318, -0.104528, 0.209907, 0.0852837, 0.469887, -0.538224, 0.336486, -2.07849, -2.16467, -0.133218, 0.468172, -0.543706, 0.327983, -2.07767, -2.16113, -0.0864593, -0.0170715, 0.0850228, 0.0110699, -0.0123923, -0.000454638, -0.00134256
0.183216, 1.69476, -1.22973, -1.5486, -0.908453, -1.21278, 1.22502, -1.3024, -0.0525765, 0.0178627, 0.0109684, -0.134529, -0.121785, -0.0113745, 0.000123061, -2.47185, 70.9641, 36.5378, 8.11249, 2.32013, 3.79001, -0.0164075, -0.00678842, -0.00167972, 0.00758721, 0.0255736, -0.0181525, 0.00356486, 0.0897527, -9.62749e-05, 0.00134092, -0.0997562, 0.2113, 0.0802539, 0.46987, -0.538139, 0.336497, -2.07841, -2.16465, -0.13327, 0.468161, -0.543704, 0.327978, -2.07763, -2.16119, -0.0862205, -0.0172118, 0.0858791, 0.0112118, -0.0136915, -0.00286107, -0.00183181
0.184216, 1.6947, -1.22972, -1.54858, -0.908599, -1.21289, 1.22501, -1.30239, -0.0539765, 0.0165025, 0.0125981, -0.139709, -0.1153, -0.00857792, 0.0015906, -2.3568, 71.1108, 36.4982, 8.03711, 2.34485, 3.7836, -0.0557752, -0.00687091, -0.0016727, 0.00758406, 0.0256429, -0.0183404, 0.00355475, 0.0885133, -0.00214208, 0.000664013, -0.0950447, 0.207192, 0.0853918, 0.469853, -0.538053, 0.336508, -2.07832, -2.16463, -0.133322, 0.468154, -0.543699, 0.327978, -2.07759, -2.16126, -0.0860065, -0.017352, 0.0867382, 0.0113547, -0.0118585, -0.000582681, -0.00222953
0.185216, 1.69466, -1.22969, -1.54858, -0.908756, -1.21299, 1.22501, -1.30239, -0.0534793, 0.0189433, 0.0125623, -0.146188, -0.111898, -0.0111917, 0.000352289, -2.3211, 71.1108, 36.6489, 8.03711, 2.39978, 3.77627, -0.0356336, -0.00695028, -0.00166242, 0.00758166, 0.0257277, -0.0185393, 0.00352433, 0.0861102, -0.00382613, 0.000917608, -0.0985169, 0.206989, 0.0942348, 0.469836, -0.537967, 0.33652, -2.07823, -2.1646, -0.133374, 0.46815, -0.54369, 0.327978, -2.07752, -2.16135, -0.0857669, -0.0174921, 0.0875999, 0.0114985, -0.0103953, 0.00268313, -0.0015104
0.186216, 1.6946, -1.22966, -1.54856, -0.908914, -1.21308, 1.22501, -1.3024, -0.0559743, 0.0191889, 0.0152119, -0.146971, -0.108588, -0.00855596, -0.00214423, -2.16637, 71.1823, 36.6846, 8.0014, 2.43732, 3.77627, 0.0293689, -0.00703137, -0.0016541, 0.00757622, 0.0257954, -0.0187305, 0.0034947, 0.0869056, -0.00403743, 0.00222852, -0.09219, 0.206451, 0.0977711, 0.469818, -0.537879, 0.336531, -2.07815, -2.16458, -0.133427, 0.468144, -0.543683, 0.327982, -2.07746, -2.16144, -0.0855543, -0.0176321, 0.0884643, 0.0116434, -0.0102422, 0.00256516, -0.000213301
0.187216, 1.69454, -1.22964, -1.54856, -0.909076, -1.21317, 1.22501, -1.30239, -0.0565463, 0.0193051, 0.0144417, -0.154064, -0.106826, -0.00652511, -0.000458749, -2.05529, 71.2576, 36.8354, 8.0014, 2.49866, 3.77627, 0.00373412, -0.00711223, -0.0016428, 0.00757527, 0.0258683, -0.0189223, 0.00346931, 0.0859653, -0.00583783, 0.00122737, -0.0933307, 0.207678, 0.10242, 0.4698, -0.537791, 0.336543, -2.07806, -2.16456, -0.13348, 0.468141, -0.543673, 0.32798, -2.0774, -2.16153, -0.0853353, -0.0177719, 0.0893313, 0.0117892, -0.00865511, 0.00459789, -0.000968081
