alisrour97/Franka_experiments/Real_Robot_scripts/servo-franka/Data2/log_dyn_PI2_5.csv
Time,q1,q2,q3,q4,q5,q6,q7,dq1,dq2,dq3,dq4,dq5,dq6,dq7,t1,t2,t3,t4,t5,t6,t7,ex1,ex2,ex3,ex4,ex5,ex6,ev1,ev2,ev3,ev4,ev5,ev6,xd,yd,zd,uxd,uyd,uzd,x,y,z,ux,uy,uz,vxd,vyd,vzd,vx,vy,vz
4.88281e-07, 1.69129, -1.22789, -1.53965, -0.900436, -1.19249, 1.22796, -1.30254, -0.0043317, 0.00803612, -0.00504706, 0.00395161, 0.00106526, -0.000192717, 0.000229032, 0.0949785, 62.8232, 31.9556, 7.21588, 3.15509, 3.9841, -0.330433, 0.000383552, -0.00195592, 0.00212944, 0.00282579, 0.00143091, 0.000797425, 0.00306019, 0.00424851, 0.00374234, -0.000829552, 0.00687765, -0.0102747, 0.471008, -0.543389, 0.335894, -2.08385, -2.16584, -0.129887, 0.468976, -0.542751, 0.333903, -2.08241, -2.16311, -0.128138, -1.41255e-05, -9.11997e-05, -6.59526e-05, -0.00401265, -0.00386214, 0.00328242
0.0131379, 1.69126, -1.22787, -1.53967, -0.90038, -1.1925, 1.22796, -1.30254, -0.000274854, -0.000104859, -0.00321104, 0.00453902, -0.000357411, 0.000365714, 0.000350561, -0.281914, 63.1168, 32.1421, 7.29126, 3.1734, 3.96213, -0.356984, 0.000351079, -0.00198745, 0.0021198, 0.00282024, 0.0014124, 0.000890225, 0.00210253, 0.00168234, -0.000444003, -0.000409834, 0.000175515, -0.00640239, 0.471008, -0.543389, 0.335894, -2.08385, -2.16584, -0.129887, 0.468934, -0.542798, 0.333915, -2.08257, -2.163, -0.128099, -2.13283e-05, -0.000136675, -0.000102379, -0.00164234, -0.00221286, -0.000816408
0.0141379, 1.69126, -1.22787, -1.53967, -0.90038, -1.1925, 1.22796, -1.30254, -0.000274854, -0.000104859, -0.00321104, 0.00453902, -0.000357411, 0.000365714, 0.000350561, -0.281914, 63.1168, 32.1421, 7.29126, 3.1734, 3.96213, -0.356984, 0.000351091, -0.00198745, 0.0021198, 0.00282023, 0.0014124, 0.000890224, 0.00204765, 0.00167366, -0.000412057, -0.000381491, 0.000185141, -0.00646321, 0.471008, -0.543389, 0.335894, -2.08385, -2.16584, -0.129887, 0.468934, -0.542798, 0.333915, -2.08257, -2.163, -0.128099, -2.91898e-05, -0.000186294, -0.000142179, -0.00164234, -0.00221286, -0.000816408
0.0151379, 1.69126, -1.22787, -1.53967, -0.90038, -1.1925, 1.22796, -1.30254, -0.000274854, -0.000104859, -0.00321104, 0.00453902, -0.000357411, 0.000365714, 0.000350561, -0.281914, 63.1168, 32.1421, 7.29126, 3.1734, 3.96213, -0.356984, 0.000351122, -0.00198745, 0.00211978, 0.00282021, 0.00141241, 0.00089022, 0.00198802, 0.00166422, -0.000377299, -0.000350545, 0.000195762, -0.00652945, 0.471008, -0.543389, 0.335894, -2.08385, -2.16584, -0.129887, 0.468934, -0.542798, 0.333915, -2.08257, -2.163, -0.128099, -3.77325e-05, -0.000240197, -0.00018547, -0.00164234, -0.00221286, -0.000816408
0.0161379, 1.69126, -1.22787, -1.53967, -0.90038, -1.1925, 1.22796, -1.30254, -0.000274854, -0.000104859, -0.00321104, 0.00453902, -0.000357411, 0.000365714, 0.000350561, -0.281914, 63.1168, 32.1421, 7.29126, 3.1734, 3.96213, -0.356984, 0.000351181, -0.00198744, 0.00211974, 0.00282016, 0.00141242, 0.000890212, 0.0019235, 0.00165402, -0.000339632, -0.0003169, 0.000207422, -0.00660131, 0.471008, -0.543389, 0.335894, -2.08385, -2.16584, -0.129887, 0.468934, -0.542798, 0.333915, -2.08257, -2.163, -0.128099, -4.69786e-05, -0.000298522, -0.00023237, -0.00164234, -0.00221286, -0.000816408
0.0171379, 1.69126, -1.22787, -1.53967, -0.90038, -1.1925, 1.22796, -1.30254, -0.000274854, -0.000104859, -0.00321104, 0.00453902, -0.000357411, 0.000365714, 0.000350561, -0.281914, 63.1168, 32.1421, 7.29126, 3.1734, 3.96213, -0.356984, 0.00035128, -0.00198742, 0.00211969, 0.00282008, 0.00141244, 0.000890198, 0.00185392, 0.00164301, -0.000298965, -0.000280462, 0.000220166, -0.00667896, 0.471008, -0.54339, 0.335894, -2.08385, -2.16584, -0.129887, 0.468934, -0.542798, 0.333915, -2.08257, -2.163, -0.128099, -5.69498e-05, -0.000361405, -0.000282992, -0.00164234, -0.00221286, -0.000816408
0.0181379, 1.69126, -1.22787, -1.53967, -0.90038, -1.1925, 1.22796, -1.30254, -0.000274854, -0.000104859, -0.00321104, 0.00453902, -0.000357411, 0.000365714, 0.000350561, -0.281914, 63.1168, 32.1421, 7.29126, 3.1734, 3.96213, -0.356984, 0.000351426, -0.0019874, 0.0021196, 0.00281995, 0.00141248, 0.000890179, 0.00177914, 0.00163118, -0.000255207, -0.000241139, 0.000234038, -0.0067626, 0.471008, -0.54339, 0.335894, -2.08385, -2.16584, -0.129886, 0.468934, -0.542798, 0.333915, -2.08257, -2.163, -0.128099, -6.7667e-05, -0.000428975, -0.000337449, -0.00164234, -0.00221286, -0.000816408
0.0191379, 1.69126, -1.22787, -1.53967, -0.90038, -1.1925, 1.22796, -1.30254, -0.000274854, -0.000104859, -0.00321104, 0.00453902, -0.000357411, 0.000365714, 0.000350561, -0.281914, 63.1168, 32.1421, 7.29126, 3.1734, 3.96213, -0.356984, 0.000351628, -0.00198737, 0.00211948, 0.00281978, 0.00141252, 0.000890152, 0.00169902, 0.00161851, -0.00020827, -0.000198839, 0.00024908, -0.00685239, 0.471008, -0.54339, 0.335893, -2.08385, -2.16584, -0.129886, 0.468934, -0.542798, 0.333915, -2.08257, -2.163, -0.128099, -7.91509e-05, -0.000501362, -0.000395848, -0.00164234, -0.00221286, -0.000816408
0.0201379, 1.69126, -1.22787, -1.53967, -0.90038, -1.1925, 1.22796, -1.30254, -0.000274854, -0.000104859, -0.00321104, 0.00453902, -0.000357411, 0.000365714, 0.000350561, -0.281914, 63.1168, 32.1421, 7.29126, 3.1734, 3.96213, -0.356984, 0.000351897, -0.00198732, 0.00211933, 0.00281955, 0.00141258, 0.000890115, 0.00161343, 0.00160498, -0.000158066, -0.000153472, 0.000265339, -0.00694851, 0.471008, -0.54339, 0.335893, -2.08385, -2.16584, -0.129886, 0.468934, -0.542798, 0.333915, -2.08257, -2.163, -0.128099, -9.14213e-05, -0.000578688, -0.000458296, -0.00164234, -0.00221286, -0.000816408
0.0211389, 1.69126, -1.22787, -1.53967, -0.90038, -1.1925, 1.22796, -1.30254, -0.000274854, -0.000104859, -0.00321104, 0.00453902, -0.000357411, 0.000365714, 0.000350561, -0.281914, 63.1168, 32.1421, 7.29126, 3.1734, 3.96213, -0.356984, 0.000352241, -0.00198727, 0.00211913, 0.00281926, 0.00141265, 0.000890069, 0.00152223, 0.00159055, -0.000104512, -0.000104951, 0.000282856, -0.00705113, 0.471008, -0.54339, 0.335893, -2.08385, -2.16584, -0.129885, 0.468934, -0.542798, 0.333915, -2.08257, -2.163, -0.128099, -0.000104498, -0.000661074, -0.000524897, -0.00164234, -0.00221286, -0.000816408
0.0221389, 1.69123, -1.22787, -1.5397, -0.900393, -1.1925, 1.22796, -1.30254, -0.00481836, 0.000263406, -0.00269277, -0.00270798, 0.000522085, 0.000150552, 0.00141093, -0.242241, 63.45, 32.4039, 7.40631, 3.15509, 3.95572, -0.356984, 0.000334734, -0.00200989, 0.00212536, 0.00284117, 0.00140579, 0.000928525, 0.000953794, 0.00236251, -0.000431413, -0.00208032, 0.000300427, -0.00582387, 0.471008, -0.543391, 0.335893, -2.08385, -2.16584, -0.129885, 0.468912, -0.542815, 0.333907, -2.0826, -2.16296, -0.128063, -0.000118398, -0.000748633, -0.000595748, -0.00245932, -0.0017205, -0.00109857
0.0231389, 1.69122, -1.22787, -1.5397, -0.900387, -1.1925, 1.22796, -1.30254, -0.00361358, -0.00757753, -0.00319432, -0.000263021, 0.000551598, -0.000136992, -0.000760017, -0.242241, 63.5214, 32.3285, 7.33093, 3.1496, 3.96213, -0.311207, 0.000333528, -0.00201086, 0.00212607, 0.00283561, 0.00141258, 0.00092767, 0.00184094, 0.00221267, -0.00490571, -0.00238043, -0.00780458, -0.0048052, 0.471008, -0.543391, 0.335892, -2.08385, -2.16584, -0.129884, 0.468911, -0.542817, 0.333905, -2.0826, -2.16296, -0.128076, -0.000133141, -0.000841478, -0.000670947, -0.00245421, -0.00199438, -0.00573399
0.0241389, 1.69122, -1.22789, -1.53971, -0.900388, -1.1925, 1.22796, -1.30254, 0.0019345, -0.0162881, -0.0100391, 0.00058697, -0.00294635, 0.0012311, -0.000273232, -0.166862, 63.45, 32.2532, 7.29126, 3.11206, 3.92642, -0.317616, 0.000327916, -0.00201482, 0.00213837, 0.00284902, 0.00142123, 0.000941413, 0.0025911, 0.000466703, -0.0124412, -0.00993943, -0.0123781, -0.0049797, 0.471008, -0.543392, 0.335892, -2.08385, -2.16584, -0.129884, 0.468907, -0.542821, 0.333892, -2.0826, -2.16293, -0.128068, -0.000148743, -0.000939713, -0.000750586, -0.000971297, -0.00160195, -0.0134234
0.0251389, 1.69122, -1.22789, -1.53971, -0.900388, -1.1925, 1.22796, -1.30254, 0.0019345, -0.0162881, -0.0100391, 0.00058697, -0.00294635, 0.0012311, -0.000273232, -0.166862, 63.45, 32.2532, 7.29126, 3.11206, 3.92642, -0.317616, 0.000328646, -0.0020147, 0.00213794, 0.00284839, 0.00142139, 0.000941315, 0.00247623, 0.000448532, -0.0123734, -0.00987745, -0.0123551, -0.0051099, 0.471008, -0.543393, 0.335891, -2.08385, -2.16584, -0.129883, 0.468907, -0.542821, 0.333892, -2.0826, -2.16293, -0.128068, -0.00016522, -0.00104344, -0.000834754, -0.000971297, -0.00160195, -0.0134234
0.0261389, 1.69122, -1.22789, -1.53971, -0.900388, -1.1925, 1.22796, -1.30254, 0.0019345, -0.0162881, -0.0100391, 0.00058697, -0.00294635, 0.0012311, -0.000273232, -0.166862, 63.45, 32.2532, 7.29126, 3.11206, 3.92642, -0.317616, 0.000329494, -0.00201456, 0.00213745, 0.00284767, 0.00142157, 0.000941201, 0.00235515, 0.00042938, -0.012302, -0.00981191, -0.0123306, -0.00524736, 0.471007, -0.543393, 0.335891, -2.08385, -2.16584, -0.129882, 0.468907, -0.542821, 0.333892, -2.0826, -2.16293, -0.128068, -0.000182589, -0.00115275, -0.000923534, -0.000971297, -0.00160195, -0.0134234
0.0271389, 1.69124, -1.22792, -1.53979, -0.900397, -1.19253, 1.22796, -1.30254, 0.00346083, -0.0124528, -0.0260924, -0.00104954, -0.00236962, 0.00419642, 0.00376745, -0.317619, 61.9028, 31.3248, 6.99371, 2.58472, 3.76163, -0.166554, 0.000314783, -0.00202107, 0.00218592, 0.00293797, 0.00142644, 0.000962518, 0.00423441, 0.00148305, -0.0157131, -0.021634, -0.006258, -0.014087, 0.471007, -0.543394, 0.33589, -2.08385, -2.16584, -0.129881, 0.468899, -0.54283, 0.333841, -2.08257, -2.16287, -0.127969, -0.000200863, -0.00126774, -0.00101701, -0.00209783, -0.0030903, -0.0171449
0.0281389, 1.69124, -1.22793, -1.53983, -0.900402, -1.19255, 1.22796, -1.30254, 0.00854534, -0.0106123, -0.0292762, -0.000913293, -0.0123657, 0.00357751, 0.00287165, -0.43267, 61.4584, 30.8765, 6.84296, 2.45563, 3.74057, -0.160145, 0.000306917, -0.00202402, 0.00220972, 0.00298642, 0.00142041, 0.000979876, 0.00428799, 0.000474794, -0.0159832, -0.0301178, 0.00383613, -0.0133521, 0.471007, -0.543395, 0.335889, -2.08384, -2.16584, -0.129879, 0.468895, -0.542835, 0.333816, -2.08257, -2.16284, -0.127906, -0.000220057, -0.00138849, -0.00111525, -0.00111793, -0.00318113, -0.0175486
0.0291389, 1.69126, -1.22795, -1.53988, -0.900413, -1.19258, 1.22796, -1.30254, 0.00867761, -0.0111897, -0.0347579, -0.00362569, -0.0166757, 0.00319881, 0.000667045, -0.543754, 61.0934, 30.5433, 6.80725, 2.36957, 3.7186, -0.114369, 0.000299208, -0.00202568, 0.00223895, 0.00304858, 0.00140981, 0.000987187, 0.00528919, 0.00128635, -0.0185985, -0.0385297, 0.00722326, -0.0128665, 0.471007, -0.543396, 0.335888, -2.08384, -2.16584, -0.129878, 0.468892, -0.542839, 0.333785, -2.08255, -2.16281, -0.127824, -0.000240182, -0.00151507, -0.00121833, -0.00200719, -0.00392681, -0.020365
0.0301389, 1.69126, -1.22797, -1.53993, -0.900423, -1.19262, 1.22797, -1.30254, 0.0077369, -0.0137856, -0.0394899, -0.00554498, -0.0257252, 0.00372623, 0.00176407, -0.468376, 60.8356, 30.095, 6.77154, 2.32013, 3.67557, -0.140919, 0.000284396, -0.00203411, 0.00226713, 0.00310857, 0.0013916, 0.00101547, 0.00805918, 0.00307653, -0.0218843, -0.047332, 0.0127841, -0.0186305, 0.471007, -0.543398, 0.335887, -2.08384, -2.16584, -0.129876, 0.468883, -0.542851, 0.333754, -2.08255, -2.16277, -0.127735, -0.000261251, -0.00164757, -0.00132632, -0.00383574, -0.00636146, -0.0240934
0.0311389, 1.69126, -1.22799, -1.53999, -0.900438, -1.19266, 1.22797, -1.30253, 0.00565865, -0.0182157, -0.0456251, -0.00768645, -0.0268088, 0.00458648, 0.00336084, -0.468376, 60.6848, 29.7617, 6.77154, 2.25238, 3.6188, -0.193104, 0.000268949, -0.0020417, 0.00230217, 0.00318185, 0.00137215, 0.00104571, 0.0101814, 0.0047105, -0.0266839, -0.0534365, 0.0102347, -0.0238041, 0.471007, -0.543399, 0.335886, -2.08384, -2.16584, -0.129874, 0.468875, -0.542863, 0.333716, -2.08256, -2.16272, -0.127629, -0.000283275, -0.00178604, -0.00143928, -0.00558707, -0.00792313, -0.0292257
0.0321389, 1.69126, -1.22802, -1.54004, -0.900452, -1.19271, 1.22798, -1.30253, 0.0074044, -0.0199481, -0.0489889, -0.00916581, -0.0333075, 0.00573642, 0.00242958, -0.468376, 60.6134, 29.3888, 6.77154, 2.20386, 3.54648, -0.193104, 0.000252342, -0.00204974, 0.00233622, 0.00325322, 0.00134886, 0.0010724, 0.0110722, 0.00446175, -0.0289951, -0.0594408, 0.0148342, -0.0237917, 0.471006, -0.543401, 0.335885, -2.08384, -2.16584, -0.129872, 0.468866, -0.542876, 0.333679, -2.08256, -2.16267, -0.127522, -0.000306264, -0.00193055, -0.00155726, -0.00541327, -0.00858126, -0.0317716
0.0331389, 1.69127, -1.22803, -1.54011, -0.900456, -1.19276, 1.22799, -1.30253, 0.00897268, -0.0149759, -0.0524772, -0.00673881, -0.03769, 0.0059266, 0.00499485, -0.468376, 60.4309, 29.1666, 6.62079, 2.16083, 3.48971, -0.153737, 0.000233619, -0.00205865, 0.00236529, 0.00333018, 0.00130686, 0.00110337, 0.0120764, 0.005264, -0.0269387, -0.0629563, 0.0235745, -0.0303588, 0.471006, -0.543402, 0.335883, -2.08384, -2.16584, -0.12987, 0.468856, -0.542892, 0.333646, -2.08257, -2.16263, -0.127388, -0.000330225, -0.00208114, -0.00168032, -0.00612834, -0.0100725, -0.0299957
0.0341389, 1.69128, -1.22804, -1.54017, -0.900472, -1.19282, 1.228, -1.30253, 0.00999684, -0.0128408, -0.0537615, -0.0116911, -0.0487817, 0.00476487, 0.00308119, -0.468376, 60.3198, 28.9048, 6.62079, 2.09949, 3.46774, -0.133595, 0.000219135, -0.00206499, 0.00239579, 0.00341203, 0.00126692, 0.00112841, 0.0121208, 0.00528643, -0.0268751, -0.0724961, 0.0347937, -0.0276608, 0.471006, -0.543404, 0.335882, -2.08384, -2.16584, -0.129868, 0.468849, -0.542904, 0.333613, -2.08257, -2.1626, -0.127252, -0.000355167, -0.00223786, -0.0018085, -0.00617184, -0.0102838, -0.0300673
0.0351389, 1.6913, -1.22804, -1.54023, -0.900488, -1.19287, 1.228, -1.30253, 0.0123861, -0.00859844, -0.0526938, -0.0153008, -0.0532164, 0.00986545, 0.0029357, -0.543754, 60.0977, 28.6826, 6.62079, 2.02533, 3.41739, -0.147328, 0.000210284, -0.00206616, 0.0024191, 0.003494, 0.00121383, 0.00114585, 0.010604, 0.00256598, -0.0240746, -0.0708279, 0.0455399, -0.023249, 0.471005, -0.543406, 0.33588, -2.08384, -2.16584, -0.129865, 0.468847, -0.542911, 0.333587, -2.08258, -2.16258, -0.127103, -0.000381096, -0.00240075, -0.00194184, -0.003434, -0.00926899, -0.027282
0.0361389, 1.69132, -1.22805, -1.5403, -0.900497, -1.19293, 1.22802, -1.30253, 0.0125304, -0.00975668, -0.0572656, -0.0129655, -0.0576104, 0.0101663, 0.00247421, -0.543754, 60.062, 28.5715, 6.54541, 1.97681, 3.33133, -0.153737, 0.000192639, -0.00207292, 0.00244622, 0.0035752, 0.00115737, 0.00118266, 0.013001, 0.00420664, -0.0259198, -0.0755207, 0.0482705, -0.0285462, 0.471005, -0.543408, 0.335878, -2.08384, -2.16584, -0.129862, 0.46884, -0.542927, 0.333555, -2.0826, -2.16254, -0.126949, -0.000408018, -0.00256985, -0.00208038, -0.00508045, -0.0115876, -0.029565
0.0371389, 1.69133, -1.22805, -1.54036, -0.900517, -1.19299, 1.22803, -1.30253, 0.0126656, -0.00719137, -0.0604373, -0.0140791, -0.0605137, 0.00918138, 0.00138454, -0.543754, 60.0223, 28.4565, 6.58508, 1.92096, 3.27456, -0.140919, 0.000182254, -0.00207401, 0.00246875, 0.00365732, 0.00109267, 0.00119859, 0.0133075, 0.00496772, -0.0256655, -0.0807299, 0.053065, -0.0291123, 0.471005, -0.543411, 0.335877, -2.08384, -2.16583, -0.129859, 0.468838, -0.542936, 0.33353, -2.0826, -2.16252, -0.126788, -0.000435936, -0.00274516, -0.00222414, -0.00584838, -0.0121359, -0.0294823
0.0381389, 1.69134, -1.22805, -1.54042, -0.900536, -1.19306, 1.22804, -1.30253, 0.0137431, -0.00600545, -0.0611409, -0.0176746, -0.0581187, 0.0126322, -0.00112368, -0.43267, 60.0223, 28.4208, 6.62079, 1.87244, 3.23153, -0.0814099, 0.00016887, -0.00207968, 0.00249019, 0.00374059, 0.00102704, 0.00121949, 0.0114845, 0.00277329, -0.0253505, -0.0788908, 0.0544278, -0.0221787, 0.471004, -0.543413, 0.335874, -2.08384, -2.16583, -0.129855, 0.468831, -0.542948, 0.333504, -2.08262, -2.1625, -0.126623, -0.000464854, -0.00292672, -0.00237315, -0.00373958, -0.0104764, -0.0291035
0.0391389, 1.69135, -1.22804, -1.54048, -0.900552, -1.19313, 1.22805, -1.30252, 0.0118379, -0.00407682, -0.0591358, -0.0164216, -0.062084, 0.013655, 0.000352231, -0.206535, 59.9866, 28.4208, 6.62079, 1.84772, 3.23153, -0.10796, 0.000153351, -0.00208882, 0.00250588, 0.00382457, 0.000949621, 0.00125802, 0.0127884, 0.00403186, -0.0230156, -0.0769275, 0.0598547, -0.0272697, 0.471004, -0.543416, 0.335872, -2.08384, -2.16583, -0.129852, 0.468822, -0.542965, 0.333485, -2.08265, -2.16247, -0.126444, -0.000494774, -0.00311453, -0.00252743, -0.00489555, -0.0123623, -0.0271166
0.0401389, 1.69136, -1.22803, -1.54054, -0.900575, -1.1932, 1.22805, -1.30252, 0.00860127, -0.0019857, -0.0574201, -0.0171268, -0.0655667, 0.00808213, 0.000798042, -0.0161054, 60.062, 28.4208, 6.69617, 1.8349, 3.28097, -0.120778, 0.000143482, -0.00209368, 0.00252331, 0.00391146, 0.000878524, 0.00127855, 0.0133566, 0.00680648, -0.0214603, -0.0814271, 0.0619301, -0.0309232, 0.471003, -0.543419, 0.33587, -2.08384, -2.16583, -0.129848, 0.468816, -0.542975, 0.333464, -2.08266, -2.16246, -0.12627, -0.000525695, -0.00330858, -0.00268698, -0.00762109, -0.0134702, -0.0257449
0.0411389, 1.69137, -1.22801, -1.54059, -0.900599, -1.19328, 1.22805, -1.30252, 0.00875474, 0.000193185, -0.0546365, -0.0176402, -0.0677652, 0.00772764, 0.00107312, 0.21003, 59.9866, 28.4961, 6.77154, 1.81659, 3.36062, -0.133595, 0.000132328, -0.00210226, 0.00253425, 0.00400298, 0.000792985, 0.00130417, 0.0125325, 0.00643188, -0.0191669, -0.080284, 0.065649, -0.030293, 0.471003, -0.543422, 0.335867, -2.08384, -2.16583, -0.129843, 0.468807, -0.542988, 0.333449, -2.08268, -2.16244, -0.126075, -0.000557617, -0.00350887, -0.00285182, -0.00722557, -0.0131946, -0.0235286
0.0421389, 1.69137, -1.228, -1.54064, -0.900621, -1.19336, 1.22805, -1.30252, 0.00700486, 0.00214636, -0.0522093, -0.0193358, -0.0697979, 0.00308135, -0.00116758, 0.511544, 60.0223, 28.5715, 6.77154, 1.81018, 3.43936, -0.0814099, 0.00011923, -0.00211228, 0.00254799, 0.00408798, 0.000717623, 0.00132865, 0.0118092, 0.00768668, -0.0175665, -0.0833834, 0.0669442, -0.0281136, 0.471002, -0.543426, 0.335864, -2.08384, -2.16583, -0.129839, 0.468796, -0.543002, 0.333431, -2.0827, -2.16242, -0.125897, -0.000590537, -0.00371538, -0.00302192, -0.00847978, -0.0129848, -0.0219683
0.0431389, 1.69138, -1.22798, -1.54069, -0.900643, -1.19343, 1.22805, -1.30252, 0.00365, 0.00814965, -0.0510744, -0.0174841, -0.0704233, 4.36611e-05, -0.000978408, 0.777352, 59.8755, 28.6826, 6.77154, 1.78638, 3.51077, -0.0750012, 0.000108335, -0.00212306, 0.00255082, 0.00417093, 0.000626393, 0.00135553, 0.0126239, 0.0104822, -0.0133223, -0.0832825, 0.0716465, -0.0332938, 0.471002, -0.543429, 0.335861, -2.08384, -2.16583, -0.129834, 0.468785, -0.543017, 0.333424, -2.08273, -2.16241, -0.125705, -0.000624453, -0.00392809, -0.0031973, -0.0111231, -0.0147693, -0.0179948
0.0441389, 1.69139, -1.22798, -1.54073, -0.900657, -1.19351, 1.22805, -1.30251, 0.0116712, 0.00539422, -0.0499085, -0.0203698, -0.0754544, -0.00136014, -0.000149551, 0.888436, 60.0223, 28.7937, 6.69617, 1.75525, 3.56112, -0.0878186, 0.00010177, -0.00212548, 0.0025623, 0.00424593, 0.000557048, 0.0013749, 0.00883214, 0.00586525, -0.015323, -0.0885363, 0.0728237, -0.025027, 0.471001, -0.543433, 0.335858, -2.08384, -2.16582, -0.129829, 0.468782, -0.543025, 0.333408, -2.08275, -2.1624, -0.125545, -0.000659358, -0.00414696, -0.00337792, -0.00675502, -0.010748, -0.0197019
0.0451389, 1.6914, -1.22796, -1.54076, -0.900674, -1.19359, 1.22805, -1.30251, 0.0127113, 0.00772529, -0.0466397, -0.0167701, -0.0752516, -0.00268621, -7.86984e-05, 1.03919, 60.1334, 28.9405, 6.62079, 1.74335, 3.6188, -0.0878186, 9.26141e-05, -0.00213173, 0.00256769, 0.00431661, 0.000476267, 0.00139702, 0.00811515, 0.00573024, -0.0123125, -0.0848483, 0.0738932, -0.025924, 0.471, -0.543437, 0.335855, -2.08383, -2.16582, -0.129823, 0.468775, -0.543038, 0.333398, -2.08277, -2.1624, -0.125377, -0.000695248, -0.00437195, -0.00356376, -0.00657296, -0.010723, -0.0168078
0.0461389, 1.69141, -1.22795, -1.5408, -0.90069, -1.19367, 1.22805, -1.30251, 0.0145679, 0.0105202, -0.0437082, -0.01332, -0.0752619, 0.00093473, 0.000709271, 1.15424, 60.2087, 29.2023, 6.5097, 1.73694, 3.68289, -0.10796, 8.45257e-05, -0.00213688, 0.00257288, 0.00439529, 0.000388318, 0.00141905, 0.00757017, 0.00428836, -0.00877652, -0.0774104, 0.0781133, -0.0268477, 0.471, -0.543442, 0.335851, -2.08383, -2.16582, -0.129818, 0.46877, -0.54305, 0.333389, -2.0828, -2.16239, -0.125192, -0.000732114, -0.004603, -0.00375481, -0.00506154, -0.0109013, -0.0134663
0.0471389, 1.69143, -1.22795, -1.54083, -0.900698, -1.19376, 1.22805, -1.30251, 0.0142908, 0.00751141, -0.040263, -0.00992649, -0.0753971, -0.00141838, 0.00072202, 1.18995, 60.5023, 29.4245, 6.35895, 1.73694, 3.7543, -0.114369, 7.51958e-05, -0.0021418, 0.00258112, 0.00446772, 0.000311013, 0.00144497, 0.00778109, 0.00494343, -0.00888333, -0.0749509, 0.0735998, -0.0287489, 0.470999, -0.543446, 0.335848, -2.08383, -2.16582, -0.129812, 0.468764, -0.543062, 0.333375, -2.08282, -2.16238, -0.125025, -0.000769946, -0.00484006, -0.003951, -0.00574996, -0.0113569, -0.0137809
0.0481389, 1.69143, -1.22794, -1.54086, -0.900702, -1.19386, 1.22805, -1.30251, 0.0102397, 0.00961443, -0.0361381, -0.00675562, -0.0800918, -0.00317186, 1.54894e-05, 1.38038, 60.7602, 29.722, 6.17248, 1.73694, 3.82663, -0.101552, 5.9724e-05, -0.00215409, 0.00258645, 0.00453974, 0.000227356, 0.00148229, 0.00994155, 0.00804371, -0.00551773, -0.0725879, 0.078063, -0.0347678, 0.470998, -0.543451, 0.335844, -2.08383, -2.16582, -0.129805, 0.468751, -0.543082, 0.333364, -2.08287, -2.16235, -0.12485, -0.000808735, -0.00508306, -0.00415231, -0.00868615, -0.0143776, -0.0109005
0.0491389, 1.69144, -1.22793, -1.54089, -0.900716, -1.19395, 1.22805, -1.30251, 0.00919321, 0.0084315, -0.0302057, -0.00578056, -0.0884692, -0.00387753, 0.0034951, 1.49146, 61.0181, 29.9085, 6.17248, 1.75525, 3.88339, -0.0685925, 5.01604e-05, -0.00216133, 0.00258822, 0.00460709, 0.00013977, 0.00150503, 0.0108804, 0.00880943, -0.00380905, -0.0712306, 0.0829727, -0.0403889, 0.470997, -0.543456, 0.33584, -2.08383, -2.16582, -0.129798, 0.468744, -0.543097, 0.333357, -2.0829, -2.16235, -0.124678, -0.000848468, -0.00533191, -0.00435868, -0.0093953, -0.0158476, -0.00954221
0.0501389, 1.69145, -1.22792, -1.54091, -0.900727, -1.19405, 1.22804, -1.30251, 0.0124366, 0.00920446, -0.0284113, -0.00481131, -0.0912886, -0.0031443, 0.00394732, 1.57081, 61.3513, 30.206, 6.17248, 1.79187, 3.90536, -0.101552, 4.00038e-05, -0.00216793, 0.00259325, 0.00467646, 5.52097e-05, 0.00153086, 0.00963691, 0.00704081, -0.00251544, -0.0701508, 0.0863929, -0.0389166, 0.470997, -0.543461, 0.335835, -2.08383, -2.16581, -0.129791, 0.468736, -0.543111, 0.333346, -2.08293, -2.16234, -0.124505, -0.000889131, -0.00558652, -0.00457004, -0.00766733, -0.0150014, -0.00833663
0.0511389, 1.69146, -1.22792, -1.54093, -0.90074, -1.19415, 1.22804, -1.3025, 0.012566, 0.0109885, -0.0274461, -0.00790786, -0.0930075, 0.00147295, 0.00340368, 1.60651, 61.6449, 30.3925, 6.20819, 1.823, 3.94107, -0.114369, 3.22433e-05, -0.002173, 0.00259477, 0.0047431, -3.30804e-05, 0.00155396, 0.00882886, 0.00544071, -0.000979599, -0.0672639, 0.0921488, -0.0360157, 0.470996, -0.543467, 0.335831, -2.08383, -2.16581, -0.129784, 0.468731, -0.543125, 0.333339, -2.08296, -2.16234, -0.124332, -0.00093071, -0.0058468, -0.00478633, -0.00608422, -0.0146348, -0.00695929
0.0521389, 1.69147, -1.22792, -1.54095, -0.900756, -1.19425, 1.22804, -1.3025, 0.0123259, 0.00661719, -0.0259693, -0.00876406, -0.0945559, 0.000194432, 0.00225482, 1.64619, 62.0496, 30.5433, 6.32324, 1.85962, 3.97677, -0.10796, 2.42179e-05, -0.0021779, 0.00260112, 0.00481227, -0.000115141, 0.0015717, 0.00865829, 0.00540669, -0.00306199, -0.0683665, 0.0884741, -0.0344274, 0.470995, -0.543473, 0.335826, -2.08383, -2.16581, -0.129776, 0.468725, -0.543138, 0.333327, -2.08299, -2.16234, -0.124163, -0.000973186, -0.00611264, -0.00500747, -0.00617416, -0.0144104, -0.00921115
0.0531389, 1.69149, -1.22792, -1.54096, -0.900766, -1.19436, 1.22803, -1.3025, 0.0145713, 0.00932259, -0.0226882, -0.0121986, -0.0999399, -0.00160544, 0.00444638, 1.57081, 62.3431, 30.7297, 6.43433, 1.88434, 4.03445, -0.0557752, 1.70757e-05, -0.00218216, 0.00260296, 0.00488459, -0.000207893, 0.00158857, 0.00628954, 0.00373602, -0.000870569, -0.0711397, 0.0949345, -0.0320313, 0.470994, -0.543479, 0.335821, -2.08382, -2.16581, -0.129768, 0.46872, -0.543151, 0.333319, -2.08301, -2.16234, -0.123979, -0.00101654, -0.00638391, -0.00523338, -0.00455441, -0.0126121, -0.00695607
0.0541389, 1.6915, -1.22791, -1.54098, -0.90078, -1.19447, 1.22802, -1.3025, 0.0136541, 0.00590728, -0.0202474, -0.0123725, -0.103973, -0.0120634, 0.00348211, 1.60651, 62.601, 30.9162, 6.58508, 1.90906, 4.08389, -0.0557752, 7.15394e-06, -0.002191, 0.00260568, 0.00495969, -0.000299543, 0.00161491, 0.00585478, 0.00604113, -0.00270913, -0.0800151, 0.0895641, -0.0323092, 0.470993, -0.543485, 0.335816, -2.08382, -2.1658, -0.129759, 0.46871, -0.543167, 0.33331, -2.08304, -2.16233, -0.123791, -0.00106076, -0.00666049, -0.00546395, -0.00698284, -0.0122708, -0.00886492
0.0551389, 1.6915, -1.22791, -1.541, -0.900788, -1.19458, 1.22802, -1.3025, 0.0103984, 0.00719673, -0.0184302, -0.0113819, -0.105887, -0.0101989, 0.0038966, 1.60651, 62.8232, 31.1027, 6.69617, 1.90906, 4.12692, -0.0878186, -4.02171e-06, -0.00220039, 0.00260735, 0.00503039, -0.000391741, 0.00164831, 0.00735484, 0.00761821, -0.000641366, -0.076427, 0.0931127, -0.0369712, 0.470992, -0.543492, 0.33581, -2.08382, -2.1658, -0.12975, 0.4687, -0.543185, 0.333302, -2.08309, -2.16232, -0.123607, -0.00110581, -0.00694224, -0.0056991, -0.0084745, -0.0144162, -0.00724334
0.0561389, 1.69151, -1.22791, -1.54101, -0.900812, -1.19469, 1.22801, -1.3025, 0.0113136, 0.00586195, -0.0153129, -0.0180563, -0.11179, -0.0090864, 0.00241431, 1.60651, 63.0057, 31.2137, 6.99371, 1.90265, 4.17727, -0.0750012, -1.07128e-05, -0.00220644, 0.00261032, 0.00510499, -0.000485025, 0.00166319, 0.00541395, 0.00544877, -0.000997753, -0.0787118, 0.0976634, -0.0295679, 0.470991, -0.543499, 0.335805, -2.08382, -2.1658, -0.12974, 0.468693, -0.543198, 0.333292, -2.08311, -2.16232, -0.123419, -0.00115168, -0.007229, -0.00593872, -0.00643602, -0.0126432, -0.00759923
0.0571389, 1.69152, -1.22791, -1.54103, -0.90082, -1.1948, 1.228, -1.3025, 0.0103186, 0.000594682, -0.0154162, -0.0143607, -0.111714, -0.00878174, -0.000104767, 1.53114, 63.2278, 31.2891, 7.06909, 1.89075, 4.24228, -0.0228162, -1.78859e-05, -0.00221167, 0.00261281, 0.00517342, -0.0005721, 0.0016819, 0.00715203, 0.00664182, -0.00334009, -0.0768443, 0.0922347, -0.0315768, 0.47099, -0.543506, 0.335799, -2.08382, -2.16579, -0.129731, 0.468687, -0.543212, 0.333283, -2.08313, -2.16232, -0.123243, -0.00119834, -0.00752062, -0.00618267, -0.00769689, -0.0143391, -0.0103896
0.0581389, 1.69153, -1.2279, -1.54105, -0.900838, -1.19492, 1.228, -1.3025, 0.0130978, 0.0032302, -0.014212, -0.0143554, -0.116263, -0.00768567, -0.000889335, 1.57081, 63.3032, 31.4359, 7.25555, 1.87793, 4.28531, 0.00373412, -2.90203e-05, -0.00222159, 0.00261661, 0.00525152, -0.000670449, 0.00170766, 0.00611195, 0.00517754, -0.00120493, -0.0769655, 0.0992297, -0.029442, 0.470988, -0.543514, 0.335793, -2.08381, -2.16579, -0.12972, 0.468676, -0.54323, 0.333272, -2.08317, -2.16232, -0.123044, -0.00124576, -0.00781692, -0.00643084, -0.0062418, -0.0138773, -0.00841233
0.0591389, 1.69154, -1.22791, -1.54106, -0.90085, -1.19505, 1.22799, -1.30249, 0.0149985, -0.00162575, -0.0131304, -0.0148815, -0.120904, -0.00635305, 0.005896, 1.49146, 63.5214, 31.4359, 7.33093, 1.89075, 4.31369, -0.0484509, -3.83173e-05, -0.00222755, 0.00262256, 0.00532341, -0.000761151, 0.00173986, 0.00606178, 0.00394065, -0.00352318, -0.0777712, 0.0990032, -0.0352252, 0.470987, -0.543521, 0.335786, -2.08381, -2.16579, -0.12971, 0.468669, -0.543247, 0.333258, -2.08321, -2.1623, -0.122858, -0.00129392, -0.00811772, -0.00668309, -0.00514045, -0.0137212, -0.0109833
0.0601389, 1.69155, -1.22792, -1.54108, -0.900866, -1.19518, 1.22798, -1.3025, 0.0152235, -0.00352384, -0.0190513, -0.0130251, -0.12404, -0.00569138, 0.00466354, 1.45576, 63.6682, 31.5867, 7.44202, 1.89624, 4.34939, -0.0557752, -4.91918e-05, -0.00223604, 0.00263196, 0.00541117, -0.000857516, 0.00176562, 0.00826557, 0.00542419, -0.00621923, -0.0829467, 0.100324, -0.0396554, 0.470986, -0.54353, 0.335779, -2.08381, -2.16578, -0.129699, 0.468659, -0.543265, 0.333241, -2.08323, -2.16229, -0.122649, -0.00134278, -0.00842284, -0.00693927, -0.00668991, -0.0158478, -0.0141986
0.0611389, 1.69157, -1.22792, -1.5411, -0.90088, -1.19531, 1.22798, -1.3025, 0.017259, -0.00336721, -0.0192795, -0.0108259, -0.127178, -0.00389444, 0.00247188, 1.34071, 63.7436, 31.6977, 7.51739, 1.93378, 4.34939, -0.0292249, -5.90592e-05, -0.00224114, 0.00263988, 0.00549161, -0.000958387, 0.00178599, 0.0085114, 0.00478726, -0.00563566, -0.0820977, 0.103921, -0.0389544, 0.470984, -0.543538, 0.335772, -2.08381, -2.16578, -0.129687, 0.468653, -0.543282, 0.333224, -2.08326, -2.16229, -0.122444, -0.00139231, -0.00873205, -0.00719924, -0.00607346, -0.0164635, -0.0139397
0.0621389, 1.69158, -1.22795, -1.54111, -0.900892, -1.19543, 1.22799, -1.30251, 0.0134432, -0.0147645, -0.0169398, -0.00750166, -0.128854, -0.001349, -2.52066e-05, 1.305, 64.0372, 31.6977, 7.51739, 1.94568, 4.31369, 0.0229602, -7.30456e-05, -0.00224806, 0.00265443, 0.00556161, -0.00104379, 0.0018094, 0.0120059, 0.00672211, -0.0104104, -0.0772039, 0.0947218, -0.0427609, 0.470983, -0.543547, 0.335765, -2.0838, -2.16578, -0.129675, 0.468644, -0.543302, 0.333201, -2.08329, -2.16229, -0.122266, -0.00144249, -0.00904515, -0.00746282, -0.00810426, -0.0195709, -0.0194015
0.0631389, 1.6916, -1.22795, -1.54113, -0.900897, -1.19557, 1.22798, -1.3025, 0.0142431, -0.00994138, -0.0202112, -0.00345119, -0.129655, -0.000955692, 0.00112737, 1.11457, 64.0372, 31.7731, 7.44202, 1.95209, 4.31369, -0.00267457, -8.32678e-05, -0.00225348, 0.00265946, 0.00564116, -0.00114864, 0.00184128, 0.0129292, 0.00780909, -0.00795602, -0.0776781, 0.100363, -0.0490347, 0.470982, -0.543556, 0.335758, -2.0838, -2.16577, -0.129663, 0.468638, -0.543321, 0.333187, -2.08333, -2.16228, -0.122056, -0.00149327, -0.00936199, -0.00772991, -0.00911873, -0.0212215, -0.0173553
0.0641389, 1.6916, -1.22797, -1.54115, -0.900911, -1.1957, 1.22799, -1.3025, 0.0126084, -0.0110631, -0.0179979, -0.003296, -0.130415, -0.000408127, 0.0023557, 1.15424, 64.2236, 31.7731, 7.47772, 1.95758, 4.30636, -0.0420422, -9.66827e-05, -0.00226124, 0.00267043, 0.00571477, -0.00124449, 0.0018758, 0.0131946, 0.00827945, -0.00745333, -0.0751665, 0.100034, -0.0516148, 0.47098, -0.543565, 0.33575, -2.0838, -2.16577, -0.12965, 0.468628, -0.543342, 0.333167, -2.08338, -2.16226, -0.121861, -0.00154466, -0.00968246, -0.00800043, -0.00961224, -0.0219006, -0.0171563
0.0651389, 1.69162, -1.22797, -1.54117, -0.900924, -1.19584, 1.22799, -1.3025, 0.0142302, -0.00910117, -0.0235128, -0.00543644, -0.130504, -3.25171e-05, 0.00218863, 1.07887, 64.295, 31.8088, 7.47772, 1.95209, 4.29904, -0.0557752, -0.000107274, -0.00226687, 0.00267787, 0.0057942, -0.00134951, 0.00190522, 0.0124996, 0.00778796, -0.00837436, -0.0805827, 0.102949, -0.0511236, 0.470979, -0.543575, 0.335742, -2.0838, -2.16576, -0.129636, 0.468621, -0.543361, 0.33315, -2.08342, -2.16226, -0.12165, -0.00159663, -0.0100065, -0.00827433, -0.0092317, -0.0213767, -0.0182466
0.0661389, 1.69164, -1.22798, -1.5412, -0.900936, -1.19597, 1.22799, -1.3025, 0.0172745, -0.0100184, -0.0245445, -0.00705922, -0.134025, 0.000191906, -0.000662805, 0.928108, 64.3347, 31.8445, 7.47772, 1.91546, 4.29263, 0.00373412, -0.000116134, -0.00227119, 0.00268408, 0.00587526, -0.00145726, 0.00192418, 0.0113234, 0.00618083, -0.00941143, -0.0840226, 0.10544, -0.0459411, 0.470977, -0.543585, 0.335734, -2.08379, -2.16576, -0.129623, 0.468615, -0.543379, 0.333134, -2.08344, -2.16226, -0.121435, -0.00164918, -0.0103339, -0.00855153, -0.00775897, -0.0203177, -0.019414
0.0671389, 1.69166, -1.22798, -1.54122, -0.90095, -1.1961, 1.22799, -1.3025, 0.0185327, -0.00779371, -0.0235922, -0.00932415, -0.132422, -0.00412599, -0.000380253, 0.813057, 64.3704, 31.8088, 7.51739, 1.88434, 4.27798, 0.00373412, -0.000123182, -0.00227396, 0.00268903, 0.00595304, -0.0015646, 0.00194637, 0.00855587, 0.00539112, -0.00829038, -0.0870399, 0.104495, -0.0425103, 0.470975, -0.543595, 0.335725, -2.08379, -2.16576, -0.129608, 0.468611, -0.543396, 0.33312, -2.08348, -2.16226, -0.121223, -0.00170228, -0.0106648, -0.00883197, -0.00708167, -0.0180565, -0.018182
0.0681389, 1.69167, -1.22799, -1.54125, -0.900959, -1.19624, 1.22799, -1.30251, 0.0150881, -0.00800395, -0.0237756, -0.00905982, -0.137043, -0.00289098, -0.000919367, 0.737679, 64.4815, 31.8088, 7.47772, 1.87793, 4.27066, 0.0229602, -0.000136117, -0.00228129, 0.00269891, 0.0060415, -0.00167587, 0.00197912, 0.0108883, 0.00765238, -0.00791453, -0.0874085, 0.108666, -0.0476856, 0.470974, -0.543606, 0.335716, -2.08379, -2.16575, -0.129594, 0.468602, -0.543418, 0.3331, -2.08352, -2.16225, -0.120995, -0.00175593, -0.0109989, -0.0091156, -0.00929677, -0.0208436, -0.0183876
0.0691389, 1.69169, -1.22798, -1.54127, -0.90097, -1.19639, 1.22799, -1.3025, 0.0192479, -0.00289477, -0.0239705, -0.00679009, -0.139418, -0.00169348, 0.00159189, 0.6623, 64.3704, 31.8088, 7.47772, 1.84772, 4.25601, -0.0356336, -0.000147276, -0.002289, 0.00269845, 0.00612568, -0.00180314, 0.00202037, 0.00950273, 0.00594045, -0.00453493, -0.0865398, 0.116369, -0.0495312, 0.470972, -0.543617, 0.335707, -2.08378, -2.16575, -0.129578, 0.468593, -0.543441, 0.333089, -2.08358, -2.16224, -0.120753, -0.0018101, -0.0113362, -0.00940234, -0.00756808, -0.020263, -0.0151742
0.0701389, 1.69171, -1.22798, -1.5413, -0.900977, -1.19653, 1.22799, -1.3025, 0.0174621, -0.000284561, -0.0232613, -0.00736714, -0.143774, -0.000309348, 0.0020706, 0.511544, 64.295, 31.7731, 7.44202, 1.81659, 4.22763, -0.0621838, -0.000156332, -0.00229253, 0.00270144, 0.00621158, -0.00192749, 0.0020534, 0.0103609, 0.00691596, -0.00236785, -0.0862813, 0.123286, -0.0529022, 0.47097, -0.543628, 0.335698, -2.08378, -2.16574, -0.129563, 0.468588, -0.543461, 0.333076, -2.08363, -2.16224, -0.120512, -0.00186479, -0.0116765, -0.00969213, -0.00848769, -0.0218239, -0.0134275
0.0711389, 1.69173, -1.22797, -1.54134, -0.900992, -1.19668, 1.228, -1.3025, 0.0173849, 0.000557049, -0.0295714, -0.0105228, -0.144819, 0.00121382, -0.000295527, 0.436165, 64.2593, 31.8842, 7.51739, 1.79187, 4.1846, -0.0164075, -0.000167538, -0.00229909, 0.00270719, 0.00630572, -0.0020551, 0.00208211, 0.0106739, 0.00716778, -0.00416191, -0.0921366, 0.126528, -0.051707, 0.470968, -0.54364, 0.335688, -2.08378, -2.16574, -0.129546, 0.46858, -0.543483, 0.333059, -2.08367, -2.16224, -0.120259, -0.00191999, -0.0120199, -0.00998491, -0.00884844, -0.0222106, -0.0155326
0.0721389, 1.69176, -1.22798, -1.54137, -0.900996, -1.19684, 1.228, -1.3025, 0.0185062, -0.00145822, -0.0277875, -0.0060269, -0.145524, 0.00200141, -0.000691023, 0.325081, 64.3347, 31.7335, 7.44202, 1.76166, 4.14889, -0.00267457, -0.000179777, -0.00230416, 0.00271254, 0.00638931, -0.00217986, 0.00211598, 0.0111597, 0.00706615, -0.00383617, -0.0881872, 0.125135, -0.0539606, 0.470966, -0.543652, 0.335678, -2.08377, -2.16573, -0.12953, 0.468573, -0.543506, 0.333042, -2.08372, -2.16223, -0.12002, -0.00197567, -0.0123662, -0.0102806, -0.0087735, -0.0230824, -0.015585
0.0731389, 1.69179, -1.22798, -1.54139, -0.900998, -1.19699, 1.22801, -1.3025, 0.0244257, -0.00185712, -0.0286468, -0.00594766, -0.146367, 0.00228776, -0.000178448, 0.134651, 64.3704, 31.6581, 7.36664, 1.74335, 4.12051, -0.00999879, -0.000188663, -0.00230588, 0.00271785, 0.00647687, -0.00230519, 0.00214758, 0.00858179, 0.0038849, -0.00439898, -0.089739, 0.125943, -0.0498659, 0.470964, -0.543664, 0.335668, -2.08377, -2.16572, -0.129512, 0.468569, -0.543527, 0.333025, -2.08377, -2.16223, -0.119775, -0.00203183, -0.0127153, -0.0105792, -0.00576516, -0.0206698, -0.016136
0.0741389, 1.69181, -1.22799, -1.54143, -0.901005, -1.19715, 1.22801, -1.3025, 0.0218757, -0.00294584, -0.0271275, -0.00466033, -0.150749, 0.0125532, 0.00131341, 0.0949785, 64.4418, 31.6224, 7.36664, 1.71222, 4.07748, -0.0484509, -0.000202031, -0.00231258, 0.00272664, 0.00656802, -0.00242985, 0.00219079, 0.011422, 0.00387028, -0.00303986, -0.0803677, 0.133366, -0.0561789, 0.470962, -0.543677, 0.335657, -2.08377, -2.16572, -0.129495, 0.468561, -0.543552, 0.333004, -2.08383, -2.16221, -0.119526, -0.00208844, -0.0130671, -0.0108805, -0.00565636, -0.0240341, -0.0155363
0.0751389, 1.69183, -1.228, -1.54146, -0.901012, -1.1973, 1.22802, -1.3025, 0.0183144, -0.00375512, -0.029026, -0.00674005, -0.150464, 0.0101913, 0.00040706, 0.134651, 64.5172, 31.5867, 7.36664, 1.69391, 4.04819, -0.0356336, -0.000215552, -0.00231954, 0.00273418, 0.00665691, -0.00255641, 0.00222945, 0.0121547, 0.00606813, -0.0042424, -0.0841972, 0.131467, -0.0582637, 0.47096, -0.54369, 0.335646, -2.08376, -2.16571, -0.129476, 0.468552, -0.543577, 0.332984, -2.08388, -2.1622, -0.119277, -0.00214551, -0.0134215, -0.0111846, -0.00792607, -0.0250169, -0.0170745
0.0761389, 1.69187, -1.22801, -1.54149, -0.901017, -1.19747, 1.22802, -1.3025, 0.0276643, -0.00512286, -0.0305616, -0.00607176, -0.154894, 0.00921216, -0.000198718, -0.0557783, 64.6283, 31.547, 7.40631, 1.6756, 3.99783, -0.0228162, -0.000222482, -0.00231648, 0.00274464, 0.00675196, -0.00268684, 0.00225263, 0.00902881, 0.00182845, -0.00581058, -0.0894339, 0.133735, -0.0516975, 0.470958, -0.543704, 0.335635, -2.08376, -2.16571, -0.129457, 0.468553, -0.543596, 0.332961, -2.08392, -2.16221, -0.119018, -0.00220301, -0.0137786, -0.0114914, -0.00391823, -0.0218732, -0.0185739
0.0771389, 1.6919, -1.22801, -1.54153, -0.901015, -1.19764, 1.22803, -1.3025, 0.0289112, -0.00510142, -0.0334782, -0.0036076, -0.154359, 0.00760737, -0.00158707, -0.131157, 64.6997, 31.5867, 7.36664, 1.6756, 3.96945, 0.0165515, -0.000236006, -0.00232177, 0.00275424, 0.00685005, -0.00281886, 0.00229108, 0.00913372, 0.00236909, -0.00643536, -0.091895, 0.132665, -0.0529648, 0.470956, -0.543717, 0.335624, -2.08375, -2.1657, -0.129438, 0.468545, -0.543622, 0.332938, -2.08397, -2.1622, -0.118752, -0.00226092, -0.014138, -0.0118008, -0.0045352, -0.0222622, -0.0194999
0.0781389, 1.69193, -1.22803, -1.54157, -0.901013, -1.19781, 1.22803, -1.3025, 0.0361089, -0.00916304, -0.0355098, -0.0027709, -0.158157, 0.00643381, 0.000877335, -0.206535, 64.8108, 31.6224, 7.36664, 1.66919, 3.94107, -0.0356336, -0.000249309, -0.00232557, 0.00276716, 0.00694725, -0.00294672, 0.00233826, 0.00721217, -0.000620492, -0.00964198, -0.0972477, 0.131596, -0.0517211, 0.470954, -0.543731, 0.335612, -2.08375, -2.16569, -0.129418, 0.468539, -0.543647, 0.332912, -2.08402, -2.16218, -0.11849, -0.00231925, -0.0144999, -0.0121127, -0.00179343, -0.0201115, -0.0227712
0.0791389, 1.69197, -1.22804, -1.5416, -0.901005, -1.19797, 1.22804, -1.3025, 0.037209, -0.0120426, -0.0342226, 0.00587956, -0.160312, 0.00506505, 0.00106156, -0.242241, 64.9219, 31.547, 7.29126, 1.65729, 3.92642, -0.0484509, -0.000261235, -0.00232893, 0.00277529, 0.00703767, -0.00307517, 0.00238095, 0.00916052, 0.000848738, -0.00959401, -0.0943671, 0.129144, -0.058963, 0.470951, -0.543746, 0.3356, -2.08374, -2.16569, -0.129398, 0.468533, -0.543672, 0.33289, -2.08408, -2.16216, -0.118235, -0.00237796, -0.014864, -0.0124272, -0.00324831, -0.0224667, -0.0232956
0.0801389, 1.69201, -1.22804, -1.54164, -0.901002, -1.19814, 1.22804, -1.3025, 0.0360812, -0.00932255, -0.0383207, 0.00330573, -0.160776, 0.00460284, 0.000234452, -0.317619, 64.9576, 31.547, 7.33093, 1.66369, 3.89804, -0.0356336, -0.000270373, -0.00232898, 0.00278294, 0.00713306, -0.00321222, 0.00241467, 0.00913053, 0.00175748, -0.0095141, -0.0991137, 0.132597, -0.0596872, 0.470949, -0.543761, 0.335587, -2.08374, -2.16568, -0.129377, 0.468531, -0.543695, 0.332869, -2.08413, -2.16216, -0.117966, -0.00243706, -0.0152304, -0.012744, -0.00421329, -0.0228529, -0.0235012
0.0811389, 1.69204, -1.22806, -1.54168, -0.901001, -1.1983, 1.22805, -1.3025, 0.0354808, -0.0124391, -0.0421904, 0.00483969, -0.158001, 0.00347106, -0.00153802, -0.281914, 65.0687, 31.5867, 7.36664, 1.65088, 3.89071, 0.0101428, -0.000280348, -0.00233192, 0.00279737, 0.00723128, -0.00333, 0.00244723, 0.00986165, 0.00289931, -0.0123103, -0.101368, 0.126888, -0.0612377, 0.470946, -0.543776, 0.335575, -2.08373, -2.16567, -0.129355, 0.468525, -0.543718, 0.33284, -2.08417, -2.16215, -0.117712, -0.00249652, -0.0155988, -0.0130633, -0.00548921, -0.0235598, -0.0266599
0.0821389, 1.69209, -1.22806, -1.54171, -0.900998, -1.19847, 1.22805, -1.3025, 0.0391203, -0.00882436, -0.0392302, 0.00589039, -0.16071, 0.00241247, 0.000433538, -0.392998, 65.0687, 31.5113, 7.40631, 1.63898, 3.89071, -0.0292249, -0.00028276, -0.00232656, 0.00280277, 0.00732311, -0.00346244, 0.00247505, 0.00762318, 0.00106472, -0.00899727, -0.100428, 0.132178, -0.060633, 0.470944, -0.543792, 0.335562, -2.08373, -2.16567, -0.129333, 0.468528, -0.543735, 0.332821, -2.08421, -2.16215, -0.117451, -0.00255634, -0.0159693, -0.0133848, -0.00367602, -0.022155, -0.0234188
0.0831389, 1.69213, -1.22807, -1.54176, -0.90099, -1.19863, 1.22805, -1.3025, 0.0372008, -0.0110728, -0.0408139, 0.00452378, -0.158607, 0.00168213, 0.00127299, -0.317619, 65.144, 31.5867, 7.40631, 1.63898, 3.89071, -0.0557752, -0.000292759, -0.00232923, 0.00281289, 0.00741766, -0.0035877, 0.00251983, 0.00769646, 0.00191023, -0.0107664, -0.101729, 0.128161, -0.0627121, 0.470941, -0.543808, 0.335548, -2.08372, -2.16566, -0.129311, 0.468523, -0.543759, 0.332796, -2.08427, -2.16213, -0.117192, -0.0026165, -0.0163418, -0.0137086, -0.00464275, -0.0223623, -0.025475
0.0841389, 1.69218, -1.22808, -1.54179, -0.900991, -1.19879, 1.22805, -1.3025, 0.0436661, -0.00876848, -0.0358443, 0.00388631, -0.160256, 0.000905518, 0.000849121, -0.43267, 65.1797, 31.547, 7.51739, 1.61426, 3.89804, -0.0557752, -0.000291907, -0.00232153, 0.00282235, 0.00751706, -0.00371457, 0.00253719, 0.00322636, -0.00244443, -0.00786853, -0.0996299, 0.131531, -0.0541069, 0.470939, -0.543824, 0.335534, -2.08372, -2.16565, -0.129287, 0.468528, -0.543773, 0.332773, -2.08429, -2.16213, -0.116929, -0.00267698, -0.0167161, -0.0140346, -0.000408134, -0.018591, -0.0223793
0.0851389, 1.69222, -1.22809, -1.54183, -0.900981, -1.19895, 1.22806, -1.3025, 0.0444217, -0.00802241, -0.0353934, 0.00410639, -0.162491, 0.00118774, -0.00163762, -0.357292, 65.2551, 31.5113, 7.47772, 1.60144, 3.88339, 0.00373412, -0.000298832, -0.00232106, 0.00283155, 0.00760508, -0.00383617, 0.00256687, 0.0028444, -0.0027505, -0.00697553, -0.0996965, 0.134366, -0.0521543, 0.470936, -0.543841, 0.33552, -2.08371, -2.16564, -0.129264, 0.468525, -0.543795, 0.332749, -2.08433, -2.16213, -0.116681, -0.00273778, -0.0170921, -0.0143627, -0.000144392, -0.0187149, -0.0217758
0.0861389, 1.69227, -1.22809, -1.54187, -0.90098, -1.19912, 1.22806, -1.3025, 0.0495558, -0.00222474, -0.0343742, 0.00141498, -0.164205, 0.0005517, -0.00109149, -0.357292, 65.1083, 31.4359, 7.5531, 1.59595, 3.89071, 0.00373412, -0.000299171, -0.00231601, 0.00283213, 0.00769795, -0.0039776, 0.0025908, -0.00112358, -0.00607076, -0.00361503, -0.101423, 0.141738, -0.0460296, 0.470933, -0.543858, 0.335506, -2.08371, -2.16563, -0.129239, 0.468527, -0.543812, 0.332734, -2.08437, -2.16214, -0.116408, -0.00279888, -0.0174699, -0.0146928, 0.0030916, -0.0155562, -0.0182741
0.0871389, 1.69232, -1.2281, -1.54191, -0.900969, -1.19928, 1.22807, -1.3025, 0.0474195, -0.00422142, -0.041232, 0.00436121, -0.163653, -0.000151378, -0.000490103, -0.357292, 65.2155, 31.547, 7.5531, 1.57764, 3.90536, -0.00267457, -0.000305831, -0.00231554, 0.0028442, 0.00779572, -0.00410046, 0.00262958, 0.00169318, -0.00302626, -0.00648043, -0.105939, 0.139218, -0.0549297, 0.470931, -0.543875, 0.335491, -2.0837, -2.16563, -0.129214, 0.468525, -0.543835, 0.332706, -2.08442, -2.16212, -0.116146, -0.00286026, -0.0178492, -0.015025, -1.47253e-05, -0.0184003, -0.0217793
0.0881389, 1.69236, -1.22811, -1.54195, -0.900956, -1.19944, 1.22807, -1.3025, 0.0441608, -0.00616045, -0.0393079, 0.00828882, -0.164859, -0.00113456, 0.000419397, -0.281914, 65.2155, 31.5113, 7.47772, 1.56482, 3.93374, -0.0228162, -0.000310603, -0.00231582, 0.00284925, 0.00788726, -0.00422614, 0.0026694, 0.00378885, -0.000440148, -0.00603119, -0.103183, 0.137364, -0.0625019, 0.470928, -0.543893, 0.335476, -2.0837, -2.16562, -0.129189, 0.468522, -0.543856, 0.332686, -2.08447, -2.1621, -0.115887, -0.00292192, -0.0182301, -0.0153591, -0.00256801, -0.0210251, -0.0219156
0.0891389, 1.69241, -1.22811, -1.542, -0.900948, -1.1996, 1.22807, -1.3025, 0.0471847, -0.00450212, -0.0399563, 0.00523613, -0.161296, -0.00128577, 0.00197513, -0.317619, 65.2155, 31.547, 7.51739, 1.55932, 3.94839, -0.0685925, -0.000313254, -0.00231212, 0.0028553, 0.00798039, -0.00435834, 0.002706, 0.000378681, -0.0031204, -0.00560046, -0.103679, 0.136609, -0.0581108, 0.470925, -0.543911, 0.335461, -2.08369, -2.16561, -0.129163, 0.468522, -0.543876, 0.332664, -2.08452, -2.16209, -0.11562, -0.00298385, -0.0186124, -0.0156951, -5.92199e-05, -0.0179973, -0.0213796
0.0901389, 1.69246, -1.22811, -1.54204, -0.900938, -1.19976, 1.22807, -1.3025, 0.0466219, -0.00575044, -0.0416578, 0.00627622, -0.162577, -0.00162722, -0.000378586, -0.357292, 65.1797, 31.5113, 7.5531, 1.53461, 3.96945, -0.0228162, -0.000312441, -0.00230605, 0.00285777, 0.0080692, -0.00449032, 0.00272722, 0.00119117, -0.00215021, -0.00650761, -0.105294, 0.1364, -0.059004, 0.470922, -0.54393, 0.335445, -2.08368, -2.1656, -0.129136, 0.468525, -0.543893, 0.332646, -2.08456, -2.1621, -0.115359, -0.00304602, -0.0189961, -0.016033, -0.0010947, -0.0190833, -0.0227095
0.0911389, 1.69251, -1.22812, -1.54208, -0.900928, -1.19992, 1.22808, -1.3025, 0.0480558, -0.00516511, -0.0406431, 0.00705245, -0.163939, -0.00212858, -0.000998314, -0.357292, 65.2155, 31.5113, 7.59277, 1.52179, 3.99783, -0.00267457, -0.000314643, -0.00230317, 0.00286562, 0.00816331, -0.00461586, 0.0027576, 0.000306589, -0.00277274, -0.00552654, -0.104974, 0.137931, -0.0582008, 0.470919, -0.543949, 0.335429, -2.08368, -2.16559, -0.129109, 0.468525, -0.543913, 0.332622, -2.08459, -2.1621, -0.115097, -0.00310843, -0.019381, -0.0163726, -0.000531113, -0.0187204, -0.0219624
0.0921389, 1.69256, -1.22813, -1.54212, -0.900919, -1.20008, 1.22808, -1.3025, 0.0479825, -0.00557884, -0.0429602, 0.00991945, -0.164911, -0.00300721, -0.000665496, -0.43267, 65.2908, 31.5113, 7.66418, 1.5163, 4.04086, -0.00267457, -0.000314134, -0.00229698, 0.00287435, 0.00825617, -0.00473909, 0.0027847, 0.00137336, -0.00148006, -0.0059764, -0.106582, 0.137945, -0.0631186, 0.470916, -0.543968, 0.335413, -2.08367, -2.16558, -0.129081, 0.468527, -0.543931, 0.332597, -2.08463, -2.16209, -0.114838, -0.00317106, -0.0197671, -0.0167139, -0.0018633, -0.0201434, -0.0228737
0.0931389, 1.69261, -1.22813, -1.54217, -0.900908, -1.20024, 1.22808, -1.3025, 0.0478514, -0.00223514, -0.0454726, 0.00908982, -0.16621, -0.00335699, 0.00101443, -0.508049, 65.2155, 31.547, 7.73956, 1.50989, 4.07748, -0.0420422, -0.000314383, -0.00229321, 0.00287605, 0.00834518, -0.00487303, 0.00282114, 0.00118467, -0.000939916, -0.00474071, -0.10946, 0.142579, -0.0664858, 0.470912, -0.543988, 0.335396, -2.08366, -2.16557, -0.129052, 0.468528, -0.54395, 0.332578, -2.08468, -2.16208, -0.114571, -0.00323391, -0.0201544, -0.0170569, -0.00242707, -0.0205565, -0.0219506
0.0941389, 1.69266, -1.22813, -1.54221, -0.900898, -1.2004, 1.22808, -1.3025, 0.0478914, -0.00346269, -0.0458659, 0.010748, -0.166662, -0.00301477, 0.000676314, -0.619133, 65.2908, 31.5113, 7.85065, 1.49158, 4.09854, -0.0420422, -0.000312807, -0.0022877, 0.00288286, 0.00843644, -0.00499559, 0.00284846, 0.00154132, -0.00062187, -0.00505492, -0.108733, 0.141948, -0.0684521, 0.470909, -0.544008, 0.335379, -2.08366, -2.16556, -0.129023, 0.46853, -0.543968, 0.332554, -2.08472, -2.16208, -0.114314, -0.00329695, -0.0205426, -0.0174015, -0.00280668, -0.0212616, -0.022651
0.0951389, 1.69271, -1.22813, -1.54225, -0.900885, -1.20056, 1.22809, -1.3025, 0.0458651, 0.000132976, -0.0471057, 0.00982563, -0.162201, -0.00227877, -0.00124453, -0.619133, 65.1797, 31.5113, 7.92602, 1.47327, 4.10586, 0.00373412, -0.000316146, -0.00228864, 0.00288281, 0.00852402, -0.00513065, 0.00288508, 0.000850433, -0.000108961, -0.00304837, -0.106607, 0.142498, -0.0674876, 0.470906, -0.544029, 0.335362, -2.08365, -2.16555, -0.128993, 0.468526, -0.543991, 0.332537, -2.08477, -2.16207, -0.114046, -0.00336018, -0.0209318, -0.0177477, -0.00333312, -0.0212982, -0.0208929
0.0961389, 1.69276, -1.22814, -1.54231, -0.900876, -1.20072, 1.22809, -1.3025, 0.0484689, -0.000864333, -0.0497442, 0.0106147, -0.158725, -0.00229732, -0.00106703, -0.809562, 65.2155, 31.5867, 8.07678, 1.44855, 4.12692, 0.0101428, -0.000313788, -0.00228302, 0.00289173, 0.00862021, -0.00525211, 0.00291227, -0.000558105, -0.00140253, -0.00431064, -0.107106, 0.139021, -0.0664502, 0.470903, -0.54405, 0.335344, -2.08364, -2.16554, -0.128963, 0.468527, -0.544008, 0.33251, -2.0848, -2.16206, -0.113783, -0.00342359, -0.0213219, -0.0180953, -0.00220141, -0.0200507, -0.0223084
0.0971389, 1.69281, -1.22814, -1.54235, -0.90086, -1.20087, 1.22809, -1.3025, 0.0473606, 0.000170672, -0.048073, 0.00986064, -0.161451, -0.0026153, 0.00098408, -0.884941, 65.1797, 31.5113, 8.15216, 1.44855, 4.15622, -0.0356336, -0.0003137, -0.00228212, 0.00289182, 0.00870559, -0.00537852, 0.00295447, -0.000664645, -0.000926863, -0.00288403, -0.106958, 0.142238, -0.069662, 0.470899, -0.544071, 0.335326, -2.08363, -2.16553, -0.128932, 0.468525, -0.54403, 0.332492, -2.08486, -2.16204, -0.113525, -0.00348715, -0.0217127, -0.0184443, -0.0026914, -0.0205752, -0.0212176
0.0981389, 1.69285, -1.22814, -1.5424, -0.900846, -1.20103, 1.22809, -1.3025, 0.0444564, -0.00133626, -0.0493411, 0.0136922, -0.161163, -0.00201382, 0.00140205, -0.996025, 65.1083, 31.547, 8.29895, 1.40552, 4.16354, -0.0557752, -0.000315028, -0.00228209, 0.00289522, 0.00879539, -0.00550506, 0.00299712, 0.00172333, 0.00155414, -0.00319182, -0.104968, 0.140623, -0.0773771, 0.470896, -0.544093, 0.335307, -2.08363, -2.16552, -0.1289, 0.468521, -0.544052, 0.33247, -2.08491, -2.16202, -0.113261, -0.00355087, -0.0221042, -0.0187947, -0.00515911, -0.0233785, -0.0221656
0.0991389, 1.6929, -1.22815, -1.54244, -0.900837, -1.20118, 1.22809, -1.3025, 0.0460767, -0.00203026, -0.0449687, 0.0150917, -0.163128, -0.0021217, -0.00103198, -1.15075, 65.144, 31.3605, 8.52509, 1.3927, 4.1846, -0.00267457, -0.000311359, -0.00227906, 0.00289819, 0.00888293, -0.0056243, 0.00302014, 0.00051401, 0.000340674, -0.00165499, -0.101473, 0.141312, -0.0737215, 0.470892, -0.544115, 0.335289, -2.08362, -2.16551, -0.128868, 0.46852, -0.54407, 0.332449, -2.08494, -2.16202, -0.113009, -0.00361472, -0.0224964, -0.0191465, -0.00399763, -0.0227633, -0.0208498
0.100139, 1.6929, -1.22815, -1.54244, -0.900837, -1.20118, 1.22809, -1.3025, 0.0460767, -0.00203026, -0.0449687, 0.0150917, -0.163128, -0.0021217, -0.00103198, -1.15075, 65.144, 31.3605, 8.52509, 1.3927, 4.1846, -0.00267457, -0.000286297, -0.00227505, 0.00288267, 0.00885713, -0.00562038, 0.00301687, 7.38609e-05, 0.00027159, -0.00136446, -0.101143, 0.141497, -0.0743266, 0.470888, -0.544138, 0.335269, -2.08361, -2.1655, -0.128835, 0.46852, -0.54407, 0.332449, -2.08494, -2.16202, -0.113009, -0.00367869, -0.0228891, -0.0194995, -0.00399763, -0.0227633, -0.0208498
0.101139, 1.6929, -1.22815, -1.54244, -0.900837, -1.20118, 1.22809, -1.3025, 0.0460767, -0.00203026, -0.0449687, 0.0150917, -0.163128, -0.0021217, -0.00103198, -1.15075, 65.144, 31.3605, 8.52509, 1.3927, 4.1846, -0.00267457, -0.000260795, -0.00227096, 0.00286685, 0.00883079, -0.00561641, 0.00301354, -0.000366924, 0.000202428, -0.0010728, -0.100811, 0.141684, -0.0749349, 0.470885, -0.54416, 0.33525, -2.0836, -2.16549, -0.128801, 0.46852, -0.54407, 0.332449, -2.08494, -2.16202, -0.113009, -0.00374278, -0.0232822, -0.0198537, -0.00399763, -0.0227633, -0.0208498
0.102139, 1.6929, -1.22815, -1.54244, -0.900837, -1.20118, 1.22809, -1.3025, 0.0460767, -0.00203026, -0.0449687, 0.0150917, -0.163128, -0.0021217, -0.00103198, -1.15075, 65.144, 31.3605, 8.52509, 1.3927, 4.1846, -0.00267457, -0.000234852, -0.00226681, 0.00285075, 0.00880392, -0.0056124, 0.00301015, -0.00080826, 0.000133205, -0.000780052, -0.100477, 0.141874, -0.0755463, 0.470881, -0.544184, 0.33523, -2.08359, -2.16547, -0.128767, 0.46852, -0.54407, 0.332449, -2.08494, -2.16202, -0.113009, -0.00380697, -0.0236758, -0.020209, -0.00399763, -0.0227633, -0.0208498
0.103139, 1.69308, -1.22814, -1.54266, -0.900782, -1.20184, 1.22809, -1.3025, 0.0411328, 0.00131171, -0.0530043, 0.017186, -0.162745, 6.89674e-05, 0.000294737, -1.82915, 64.9219, 31.3605, 9.12018, 1.39911, 4.15622, -0.0292249, -0.000319678, -0.00228596, 0.00291056, 0.0092723, -0.00616458, 0.00320327, 0.00306504, 0.00437074, -0.00058513, -0.103071, 0.146346, -0.0879665, 0.470877, -0.544207, 0.33521, -2.08358, -2.16546, -0.128732, 0.468498, -0.544169, 0.332357, -2.08516, -2.16193, -0.111875, -0.00387125, -0.0240696, -0.0205654, -0.00814862, -0.0271846, -0.0214828
0.104139, 1.69312, -1.22813, -1.54272, -0.900772, -1.202, 1.22809, -1.3025, 0.0448768, 0.00599919, -0.0556272, 0.0155671, -0.165922, -0.000225114, 0.00117984, -2.05529, 64.6997, 31.3605, 9.30664, 1.43573, 4.16354, -0.0557752, -0.000318368, -0.00228751, 0.00290859, 0.0093747, -0.00630877, 0.00324839, 0.00119362, 0.00280132, 0.00112074, -0.107688, 0.154126, -0.0867683, 0.470873, -0.544231, 0.335189, -2.08357, -2.16545, -0.128697, 0.468493, -0.544192, 0.332339, -2.08522, -2.16191, -0.111575, -0.00393561, -0.0244637, -0.0209229, -0.00664922, -0.025929, -0.0199143
0.105139, 1.69317, -1.22814, -1.54278, -0.900763, -1.20216, 1.22809, -1.3025, 0.0436561, 0.00218208, -0.0584452, 0.0144379, -0.166769, 0.000121323, -0.00165485, -2.24175, 64.7751, 31.4002, 9.4931, 1.44214, 4.15622, 0.0101428, -0.000320866, -0.00228938, 0.00291999, 0.00947859, -0.00643552, 0.00328676, 0.00209484, 0.00363147, -0.00188284, -0.110598, 0.151617, -0.0863016, 0.470869, -0.544256, 0.335168, -2.08357, -2.16544, -0.128661, 0.468486, -0.544218, 0.332306, -2.08526, -2.16189, -0.111291, -0.00400003, -0.0248579, -0.0212814, -0.00762178, -0.0267853, -0.0233524
0.106139, 1.69321, -1.22814, -1.54284, -0.900743, -1.20232, 1.22809, -1.3025, 0.0443824, 0.00317735, -0.0536589, 0.0180725, -0.167954, -0.000190286, 0.000354832, -2.3568, 64.6997, 31.2891, 9.4931, 1.45404, 4.16354, -0.0292249, -0.000323554, -0.002295, 0.00291992, 0.00957405, -0.00656903, 0.00334513, 0.0015227, 0.00332966, 0.00114155, -0.105188, 0.153026, -0.0895396, 0.470865, -0.544281, 0.335147, -2.08356, -2.16543, -0.128624, 0.468477, -0.544245, 0.332285, -2.08533, -2.16185, -0.111007, -0.0040645, -0.0252522, -0.0216408, -0.0072932, -0.0270673, -0.020646
0.107139, 1.69325, -1.22814, -1.5429, -0.900731, -1.20248, 1.22809, -1.3025, 0.0458156, 0.00208778, -0.0576333, 0.0155352, -0.163492, 0.000144484, 0.000236555, -2.50756, 64.6997, 31.2137, 9.56848, 1.44855, 4.15622, -0.0292249, -0.000323674, -0.00229684, 0.00292374, 0.00967401, -0.0067036, 0.0033904, -0.000229953, 0.00200776, -0.00100554, -0.107463, 0.149194, -0.0867821, 0.470861, -0.544306, 0.335125, -2.08355, -2.16541, -0.128586, 0.468471, -0.54427, 0.33226, -2.08538, -2.16183, -0.110717, -0.00412902, -0.0256465, -0.022001, -0.0061796, -0.0253471, -0.0228957
0.108139, 1.6933, -1.22813, -1.54296, -0.900719, -1.20264, 1.22809, -1.3025, 0.0472777, 0.00387467, -0.0622963, 0.0136509, -0.159707, 0.000367645, 0.000869781, -2.65832, 64.5926, 31.2137, 9.64386, 1.43024, 4.14889, -0.0484509, -0.000322893, -0.0022983, 0.002925, 0.00977339, -0.00684331, 0.00343818, -0.00180184, 0.00108927, -0.0016167, -0.110196, 0.14872, -0.0859441, 0.470857, -0.544332, 0.335103, -2.08354, -2.1654, -0.128548, 0.468465, -0.544295, 0.332237, -2.08544, -2.1618, -0.110422, -0.00419356, -0.0260407, -0.0223621, -0.00540558, -0.0240579, -0.0236452
0.109139, 1.69334, -1.22812, -1.54303, -0.900708, -1.2028, 1.22809, -1.3025, 0.0452478, 0.00201384, -0.0639625, 0.0130995, -0.163011, 0.000245139, 0.000342495, -2.69799, 64.4815, 31.1384, 9.67957, 1.45404, 4.14889, -0.0420422, -0.000323708, -0.00230392, 0.00292502, 0.00987562, -0.00698265, 0.00348878, -0.000353231, 0.00270027, -0.0029682, -0.113067, 0.149807, -0.0894206, 0.470853, -0.544358, 0.335081, -2.08353, -2.16539, -0.128509, 0.468455, -0.544322, 0.332214, -2.0855, -2.16177, -0.110124, -0.00425812, -0.0264347, -0.0227239, -0.00707765, -0.0257403, -0.0255158
0.110139, 1.69339, -1.22811, -1.54309, -0.900698, -1.20297, 1.22809, -1.3025, 0.047049, 0.00450083, -0.0662888, 0.0124619, -0.158951, 0.000434724, -0.00146709, -2.84875, 64.3347, 31.1027, 9.71924, 1.43573, 4.14157, 0.00373412, -0.000320835, -0.00230385, 0.00292387, 0.00997604, -0.00712871, 0.00352663, -0.00231246, 0.00144278, -0.00218767, -0.113059, 0.149529, -0.0857144, 0.470849, -0.544384, 0.335058, -2.08352, -2.16537, -0.12847, 0.468451, -0.544346, 0.332193, -2.08555, -2.16176, -0.109821, -0.00432269, -0.0268285, -0.0230865, -0.00592726, -0.0242683, -0.0248431
0.111139, 1.69343, -1.22811, -1.54316, -0.900682, -1.20312, 1.22809, -1.3025, 0.0466359, 0.00455725, -0.0678139, 0.0138572, -0.161282, 0.000561107, -0.000740701, -2.92413, 64.2593, 31.063, 9.67957, 1.42383, 4.13424, -0.00267457, -0.000318845, -0.00230642, 0.00292472, 0.0100738, -0.00726112, 0.00357508, -0.00137606, 0.00243598, -0.00215167, -0.11429, 0.151738, -0.0902123, 0.470844, -0.544411, 0.335035, -2.08351, -2.16536, -0.12843, 0.468444, -0.544371, 0.33217, -2.0856, -2.16173, -0.109533, -0.00438725, -0.027222, -0.0234497, -0.00694907, -0.0256325, -0.0252849
0.112139, 1.69348, -1.22809, -1.54322, -0.900672, -1.20328, 1.22809, -1.3025, 0.0448505, 0.00715214, -0.068212, 0.0126783, -0.158793, 0.0103941, 0.000252185, -2.95983, 64.0768, 30.9876, 9.71924, 1.42383, 4.12051, -0.0228162, -0.0003145, -0.00230744, 0.0029212, 0.0101714, -0.00740421, 0.00362044, -0.00100092, 0.00114372, 0.000327661, -0.104638, 0.157449, -0.0919344, 0.47084, -0.544438, 0.335012, -2.08349, -2.16534, -0.128389, 0.468438, -0.544394, 0.332151, -2.08566, -2.16171, -0.109234, -0.00445179, -0.0276151, -0.0238135, -0.00561743, -0.0267241, -0.0232991
0.113139, 1.69353, -1.22809, -1.54329, -0.900669, -1.20344, 1.22809, -1.3025, 0.0451205, 0.00557993, -0.0702794, 0.0102597, -0.160636, 0.00799329, 0.00138883, -3.03521, 64.0372, 30.9876, 9.83032, 1.39911, 4.11319, -0.0557752, -0.000309789, -0.00230723, 0.00292647, 0.0102802, -0.00754143, 0.00366322, -0.00159145, 0.00137055, -0.00157109, -0.110345, 0.156793, -0.0928952, 0.470836, -0.544466, 0.334988, -2.08348, -2.16533, -0.128348, 0.468433, -0.544416, 0.332123, -2.08571, -2.16169, -0.108929, -0.00451631, -0.0280078, -0.0241779, -0.00600026, -0.0262513, -0.0254396
0.114139, 1.69357, -1.22807, -1.54335, -0.900657, -1.2036, 1.2281, -1.3025, 0.0475719, 0.00873693, -0.0666107, 0.00886998, -0.162913, 0.00646587, -0.00151552, -3.07488, 63.819, 30.7654, 9.79462, 1.3927, 4.09854, 0.0101428, -0.00030398, -0.00230731, 0.00291867, 0.010371, -0.00768818, 0.00369826, -0.00428924, -0.000444668, 0.00145437, -0.109913, 0.161228, -0.0860842, 0.470831, -0.544494, 0.334964, -2.08347, -2.16531, -0.128305, 0.468429, -0.54444, 0.332107, -2.08576, -2.16168, -0.108633, -0.00458078, -0.0283999, -0.0245428, -0.00423514, -0.0243705, -0.0224559
0.115139, 1.69362, -1.22806, -1.54343, -0.900645, -1.20376, 1.2281, -1.3025, 0.0451829, 0.00928574, -0.0703331, 0.00994297, -0.163392, 0.00580759, -0.000264363, -3.07488, 63.6682, 30.8051, 9.79462, 1.36249, 4.07016, -0.00999879, -0.000303789, -0.0023123, 0.00291859, 0.0104748, -0.00783392, 0.00375471, -0.00260855, 0.00192445, 0.000993733, -0.112688, 0.162133, -0.0932305, 0.470826, -0.544522, 0.334939, -2.08346, -2.1653, -0.128263, 0.468419, -0.544468, 0.332083, -2.08582, -2.16165, -0.108322, -0.00464521, -0.0287914, -0.0249081, -0.00662284, -0.0264475, -0.0234621
0.116139, 1.69367, -1.22806, -1.54348, -0.900632, -1.20394, 1.2281, -1.3025, 0.0473505, 0.00864713, -0.0673617, 0.0106124, -0.174149, 0.00501992, 0.000773194, -3.22564, 63.5611, 30.6186, 9.79462, 1.37439, 4.04819, -0.0356336, -0.000299551, -0.00231185, 0.00291519, 0.0105728, -0.00798595, 0.0038017, -0.00232635, 0.00161047, 0.00192139, -0.115475, 0.169983, -0.0955203, 0.470822, -0.544551, 0.334914, -2.08345, -2.16528, -0.128219, 0.468415, -0.544494, 0.332062, -2.08589, -2.16163, -0.10801, -0.00470957, -0.0291822, -0.0252738, -0.00632887, -0.0272467, -0.0229654
0.117139, 1.69371, -1.22805, -1.54356, -0.90062, -1.20412, 1.2281, -1.3025, 0.0455654, 0.00832645, -0.069563, 0.011257, -0.172471, 0.00410603, 0.00173617, -3.26134, 63.45, 30.6186, 9.79462, 1.35608, 4.03445, -0.0685925, -0.000300478, -0.00231773, 0.00291374, 0.0106808, -0.00814245, 0.00386268, -0.00172676, 0.00305911, 0.00136766, -0.116499, 0.168092, -0.0999466, 0.470817, -0.54458, 0.334889, -2.08344, -2.16527, -0.128175, 0.468404, -0.544524, 0.332038, -2.08596, -2.1616, -0.107681, -0.00477385, -0.0295723, -0.0256399, -0.00783917, -0.0282029, -0.0239255
0.118139, 1.69375, -1.22804, -1.54362, -0.900607, -1.2043, 1.22811, -1.3025, 0.0440894, 0.00895707, -0.0696396, 0.0116021, -0.176333, 0.00373925, -0.000775336, -3.26134, 63.3032, 30.5433, 9.79462, 1.34418, 4.01248, -0.0164075, -0.000302184, -0.0023236, 0.00291078, 0.0107823, -0.00830169, 0.0039153, -0.000728026, 0.00443328, 0.00213167, -0.117883, 0.171842, -0.101187, 0.470812, -0.54461, 0.334863, -2.08342, -2.16525, -0.12813, 0.468394, -0.544556, 0.332016, -2.08603, -2.16157, -0.107357, -0.00483806, -0.0299616, -0.0260062, -0.00921149, -0.0297518, -0.0236489
0.119139, 1.6938, -1.22803, -1.5437, -0.900592, -1.20448, 1.22811, -1.3025, 0.0485945, 0.00771394, -0.0673548, 0.0119131, -0.180265, 0.0034138, -0.00075425, -3.3764, 63.2278, 30.5036, 9.79462, 1.35608, 3.99142, -0.00999879, -0.00030165, -0.00232649, 0.00291204, 0.0108903, -0.00845635, 0.00396907, -0.00268783, 0.00197649, 0.00231383, -0.118263, 0.173891, -0.0978756, 0.470808, -0.54464, 0.334837, -2.08341, -2.16524, -0.128084, 0.468386, -0.544586, 0.331989, -2.08609, -2.16154, -0.107029, -0.00490216, -0.0303499, -0.0263728, -0.00688491, -0.0281327, -0.0236092
0.120139, 1.69385, -1.22803, -1.54376, -0.900576, -1.20466, 1.22811, -1.3025, 0.0466338, 0.00679755, -0.0680865, 0.0120071, -0.181039, 0.0029242, -0.0007741, -3.4121, 63.1564, 30.4322, 9.79462, 1.32587, 3.97677, -0.00267457, -0.000302841, -0.00233233, 0.00291074, 0.0109947, -0.00861299, 0.00402748, -0.00189227, 0.00332785, 0.00190489, -0.119057, 0.173574, -0.101116, 0.470803, -0.54467, 0.334811, -2.0834, -2.16522, -0.128038, 0.468375, -0.544618, 0.331964, -2.08616, -2.16151, -0.106702, -0.00496616, -0.0307373, -0.0267396, -0.00828541, -0.029298, -0.0244603
0.121139, 1.69389, -1.22802, -1.54383, -0.900556, -1.20485, 1.22812, -1.3025, 0.0441996, 0.00711853, -0.0683904, 0.0162781, -0.182276, 0.00230009, 0.00168798, -3.52715, 63.0453, 30.3568, 9.75494, 1.30115, 3.96945, -0.0621838, -0.000304397, -0.00233751, 0.00290694, 0.0110968, -0.00877617, 0.004096, 0.000223503, 0.00590946, 0.00297001, -0.117651, 0.174398, -0.110956, 0.470798, -0.544701, 0.334784, -2.08339, -2.1652, -0.127991, 0.468365, -0.544651, 0.331941, -2.08625, -2.16147, -0.106369, -0.00503004, -0.0311236, -0.0271065, -0.0108121, -0.0320425, -0.0240216
0.122139, 1.69394, -1.22801, -1.54389, -0.90054, -1.20503, 1.22812, -1.3025, 0.0434726, 0.0065002, -0.0678955, 0.0174602, -0.17786, 0.00159291, 0.000616694, -3.56683, 62.97, 30.2457, 9.79462, 1.26453, 3.96945, -0.0484509, -0.00030444, -0.00234246, 0.00290323, 0.0111946, -0.00893403, 0.00415257, -0.000532972, 0.00604966, 0.00322244, -0.114789, 0.169882, -0.110579, 0.470793, -0.544732, 0.334757, -2.08337, -2.16519, -0.127943, 0.468355, -0.544683, 0.331917, -2.08633, -2.16145, -0.106047, -0.0050938, -0.0315088, -0.0274735, -0.0110331, -0.0317253, -0.0240175
0.123139, 1.69398, -1.22801, -1.54395, -0.900526, -1.20523, 1.22812, -1.3025, 0.044978, 0.00599736, -0.0644436, 0.017575, -0.183932, 0.00137784, 0.000411129, -3.67791, 62.8986, 30.1346, 9.87, 1.2334, 3.96213, -0.0484509, -0.000303076, -0.00234596, 0.00289902, 0.0112972, -0.0090986, 0.00420733, -0.00109301, 0.00526634, 0.00439878, -0.114615, 0.174316, -0.110017, 0.470788, -0.544764, 0.33473, -2.08336, -2.16517, -0.127895, 0.468346, -0.544714, 0.331894, -2.0864, -2.16142, -0.105712, -0.00515741, -0.0318928, -0.0278405, -0.01029, -0.0317051, -0.0231608
0.124139, 1.69403, -1.228, -1.54402, -0.900499, -1.20542, 1.22813, -1.3025, 0.0445202, 0.00575657, -0.0640114, 0.0212123, -0.185471, 0.00146066, -0.00189605, -3.71758, 62.8232, 29.9839, 9.79462, 1.17847, 3.94839, 0.0101428, -0.000305431, -0.0023522, 0.00289242, 0.0113894, -0.00926127, 0.00426725, -4.92143e-06, 0.00635644, 0.00526502, -0.112753, 0.175239, -0.112317, 0.470782, -0.544796, 0.334702, -2.08335, -2.16515, -0.127846, 0.468335, -0.544749, 0.331873, -2.08648, -2.1614, -0.10539, -0.00522087, -0.0322756, -0.0282076, -0.0113706, -0.0333398, -0.0228063
0.125139, 1.69408, -1.22799, -1.54408, -0.900488, -1.2056, 1.22814, -1.3025, 0.0464748, 0.00810292, -0.0666477, 0.0178712, -0.190618, 0.00154142, 0.000668745, -3.86834, 62.6407, 29.9482, 9.98108, 1.15375, 3.93374, -0.0420422, -0.000300279, -0.00235277, 0.0028839, 0.0114904, -0.00943344, 0.00432268, -0.000934477, 0.00552434, 0.00550091, -0.118652, 0.182649, -0.113709, 0.470777, -0.544828, 0.334674, -2.08333, -2.16513, -0.127796, 0.468329, -0.544778, 0.331854, -2.08656, -2.16138, -0.105047, -0.00528417, -0.032657, -0.0285745, -0.0106268, -0.0328056, -0.0228225
0.126139, 1.69413, -1.22798, -1.54414, -0.900458, -1.2058, 1.22814, -1.3025, 0.0470907, 0.00716243, -0.0668017, 0.0239922, -0.190152, 0.00158898, -0.00842103, -3.97942, 62.5653, 29.8371, 9.94141, 1.14734, 3.9191, -0.0557752, -0.000302248, -0.00235824, 0.00287611, 0.0115815, -0.00959986, 0.00439194, 0.000199962, 0.00643989, 0.00602666, -0.115486, 0.181035, -0.109945, 0.470772, -0.54486, 0.334645, -2.08332, -2.16511, -0.127746, 0.468319, -0.544814, 0.331833, -2.08665, -2.16134, -0.10472, -0.0053473, -0.0330371, -0.0289414, -0.0115439, -0.0344239, -0.0228167
0.127139, 1.69417, -1.22798, -1.54421, -0.900438, -1.20599, 1.22815, -1.3025, 0.0478397, 0.00653612, -0.0685418, 0.0249312, -0.189456, 0.00158207, -0.00666658, -3.97942, 62.4899, 29.7974, 10.0565, 1.12903, 3.90536, -0.0484509, -0.00030466, -0.00236617, 0.00287114, 0.0116786, -0.00976413, 0.00445893, -5.17048e-06, 0.00638817, 0.00545003, -0.116025, 0.180161, -0.11303, 0.470766, -0.544894, 0.334616, -2.0833, -2.1651, -0.127694, 0.468306, -0.54485, 0.331809, -2.08674, -2.16131, -0.104387, -0.00541024, -0.0334157, -0.0293081, -0.011584, -0.0345092, -0.0237223
0.128139, 1.69422, -1.22798, -1.54427, -0.900412, -1.20618, 1.22815, -1.3025, 0.0492667, 0.0060263, -0.0648462, 0.0266542, -0.187337, 0.00133657, -0.00475908, -4.13018, 62.4185, 29.6863, 10.1279, 1.11713, 3.89804, -0.0557752, -0.000302451, -0.00236804, 0.00286398, 0.0117684, -0.00992752, 0.00451842, -0.0017195, 0.00504464, 0.00690662, -0.111061, 0.177719, -0.113231, 0.470761, -0.544927, 0.334587, -2.08329, -2.16508, -0.127643, 0.468299, -0.544883, 0.331787, -2.08682, -2.16128, -0.104064, -0.00547299, -0.0337927, -0.0296745, -0.0103106, -0.0333624, -0.0224276
0.129139, 1.69427, -1.22796, -1.54433, -0.900389, -1.20638, 1.22816, -1.3025, 0.0449589, 0.00837806, -0.0629299, 0.0240156, -0.191598, 0.000627724, -0.00557889, -4.20556, 62.2321, 29.611, 10.2429, 1.09241, 3.90536, -0.00267457, -0.000302418, -0.00237346, 0.00285274, 0.0118617, -0.0101036, 0.00457806, -0.000861666, 0.00713179, 0.00910003, -0.11198, 0.183404, -0.115593, 0.470756, -0.544961, 0.334557, -2.08327, -2.16506, -0.12759, 0.468288, -0.544918, 0.331769, -2.08691, -2.16126, -0.103723, -0.00553554, -0.0341681, -0.0300408, -0.0123436, -0.035007, -0.020694
0.130139, 1.69432, -1.22796, -1.5444, -0.900354, -1.20659, 1.22817, -1.3025, 0.0438346, 0.00725494, -0.0657493, 0.0287104, -0.19388, 0.00525025, -0.0037776, -4.24523, 62.1606, 29.5752, 10.2032, 1.03656, 3.90536, -0.00999879, -0.000308397, -0.00238225, 0.00284372, 0.0119526, -0.0102809, 0.0046578, 0.00221455, 0.00865425, 0.00887707, -0.108829, 0.186442, -0.125339, 0.47075, -0.544995, 0.334527, -2.08326, -2.16504, -0.127537, 0.468274, -0.54496, 0.331747, -2.08701, -2.16122, -0.10338, -0.00559787, -0.0345419, -0.0304067, -0.0138251, -0.038446, -0.0217076
0.131139, 1.69436, -1.22796, -1.54446, -0.900325, -1.20679, 1.22818, -1.3025, 0.0444328, 0.00483597, -0.064515, 0.0294448, -0.201538, 0.00834363, -0.00205353, -4.32061, 62.1606, 29.5395, 10.2786, 1.01276, 3.91269, -0.0292249, -0.000312166, -0.00238859, 0.00283939, 0.0120506, -0.0104553, 0.00473241, 0.00354152, 0.00845713, 0.00856689, -0.108186, 0.191996, -0.129669, 0.470744, -0.545029, 0.334497, -2.08324, -2.16502, -0.127483, 0.468262, -0.544999, 0.331721, -2.08711, -2.16118, -0.103033, -0.00565998, -0.0349139, -0.0307722, -0.0136546, -0.0400723, -0.0225909
0.132139, 1.69442, -1.22795, -1.54452, -0.900291, -1.20701, 1.22819, -1.3025, 0.0466954, 0.00582194, -0.0615602, 0.027796, -0.202196, 0.00625973, -0.000333719, -4.47137, 62.0496, 29.4245, 10.3143, 0.981627, 3.91269, -0.0621838, -0.000312616, -0.0023916, 0.00282643, 0.0121378, -0.0106387, 0.00480453, 0.000841749, 0.00669831, 0.00998813, -0.108329, 0.192802, -0.127233, 0.470739, -0.545064, 0.334466, -2.08323, -2.165, -0.127428, 0.468254, -0.545037, 0.331703, -2.08722, -2.16115, -0.102687, -0.00572185, -0.0352841, -0.0311374, -0.0120015, -0.0379232, -0.0211905
0.133139, 1.69447, -1.22795, -1.54458, -0.900245, -1.20722, 1.2282, -1.3025, 0.04928, 0.00304571, -0.0576431, 0.0330721, -0.20737, 0.00550993, -0.00158224, -4.54675, 62.0853, 29.3531, 10.2032, 0.956908, 3.89071, -0.0292249, -0.000319133, -0.00239785, 0.00281733, 0.0122213, -0.0108186, 0.00488242, 0.0012204, 0.00634244, 0.0105956, -0.105722, 0.193531, -0.128536, 0.470733, -0.5451, 0.334435, -2.08321, -2.16498, -0.127372, 0.468243, -0.54508, 0.33168, -2.08733, -2.16111, -0.102349, -0.00578347, -0.0356524, -0.0315021, -0.0116707, -0.038744, -0.0210252
0.134139, 1.69452, -1.22795, -1.54464, -0.900208, -1.20744, 1.22821, -1.3025, 0.0499735, 0.00286541, -0.0551348, 0.0333182, -0.215696, 0.00484542, -0.00214246, -4.54675, 62.0496, 29.3134, 10.2429, 0.951415, 3.86966, -0.00267457, -0.000326517, -0.00240729, 0.00280607, 0.012308, -0.011005, 0.00496308, 0.00163886, 0.00656336, 0.0116624, -0.107586, 0.199953, -0.129767, 0.470727, -0.545135, 0.334403, -2.08319, -2.16496, -0.127316, 0.468228, -0.545125, 0.331659, -2.08745, -2.16108, -0.101998, -0.00584484, -0.0360188, -0.0318663, -0.0118967, -0.0396964, -0.0203934
0.135139, 1.69458, -1.22795, -1.5447, -0.900167, -1.20767, 1.22823, -1.3025, 0.0550335, 0.00191007, -0.0570971, 0.0344905, -0.222781, 0.00379572, -0.00150652, -4.62212, 62.0496, 29.3134, 10.2429, 0.938597, 3.86233, -0.00267457, -0.000333272, -0.00241362, 0.00279659, 0.0123985, -0.011197, 0.0050451, 0.00110971, 0.00524619, 0.0105633, -0.113407, 0.204787, -0.130388, 0.470721, -0.545171, 0.334371, -2.08318, -2.16494, -0.127259, 0.468216, -0.54517, 0.331636, -2.08756, -2.16104, -0.101638, -0.00590595, -0.0363832, -0.0322299, -0.0107026, -0.0393155, -0.0218025
0.136139, 1.69463, -1.22795, -1.54475, -0.900123, -1.2079, 1.22824, -1.3025, 0.0588074, -0.000947001, -0.0569723, 0.0361772, -0.223188, 0.00811755, 0.00114104, -4.65783, 62.0139, 29.238, 10.2032, 0.926695, 3.84768, -0.0621838, -0.00034002, -0.0024193, 0.00278375, 0.012476, -0.0113885, 0.0051344, 0.000286415, 0.00261676, 0.00965383, -0.109345, 0.204702, -0.131433, 0.470716, -0.545208, 0.334339, -2.08316, -2.16492, -0.127202, 0.468205, -0.545215, 0.331616, -2.08769, -2.161, -0.10129, -0.00596678, -0.0367455, -0.032593, -0.00820105, -0.0386176, -0.0230207
0.137139, 1.69468, -1.22795, -1.54481, -0.900077, -1.20812, 1.22826, -1.3025, 0.0574018, -0.000886071, -0.0579393, 0.0396873, -0.219207, 0.00597917, 0.000954053, -4.65783, 62.0139, 29.2023, 10.2032, 0.913878, 3.84768, -0.0685925, -0.000346752, -0.00242666, 0.00277341, 0.012554, -0.011569, 0.00521994, 0.000718844, 0.00425606, 0.0100236, -0.107932, 0.200408, -0.135547, 0.47071, -0.545245, 0.334306, -2.08314, -2.16489, -0.127143, 0.468192, -0.545261, 0.331593, -2.08782, -2.16096, -0.100953, -0.00602732, -0.0371056, -0.0329554, -0.0098687, -0.0395285, -0.0230319
0.138139, 1.69474, -1.22796, -1.54487, -0.900035, -1.20834, 1.22828, -1.3025, 0.0609392, -0.00161698, -0.0554505, 0.0396561, -0.221274, 0.00965493, -0.000855025, -4.73321, 62.0496, 29.1666, 10.3143, 0.920287, 3.83304, -0.0292249, -0.000349543, -0.0024284, 0.00276409, 0.0126382, -0.0117576, 0.00529017, -0.000925468, 0.00129829, 0.0109286, -0.103734, 0.203448, -0.130351, 0.470704, -0.545282, 0.334273, -2.08313, -2.16487, -0.127084, 0.468185, -0.545302, 0.331569, -2.08792, -2.16093, -0.100602, -0.00608756, -0.0374636, -0.0333171, -0.00699843, -0.0382807, -0.0223408
0.139139, 1.69479, -1.22796, -1.54493, -0.899982, -1.20857, 1.22829, -1.3025, 0.0580951, -0.00122128, -0.0552895, 0.043369, -0.223026, 0.0109795, -0.00157811, -4.6975, 62.0496, 29.2023, 10.2786, 0.926695, 3.85501, -0.00267457, -0.000359719, -0.00243849, 0.00275368, 0.0127199, -0.011945, 0.00538232, 0.00143548, 0.00361701, 0.012317, -0.10066, 0.205757, -0.136886, 0.470697, -0.545319, 0.33424, -2.08311, -2.16485, -0.127025, 0.468169, -0.545351, 0.331544, -2.08805, -2.16089, -0.100251, -0.0061475, -0.0378192, -0.0336781, -0.00923636, -0.0412754, -0.0216214
0.140139, 1.69485, -1.22796, -1.54499, -0.899927, -1.2088, 1.22831, -1.3025, 0.0563459, -0.00175687, -0.057357, 0.04515, -0.224249, 0.0137434, -8.729e-05, -4.6975, 62.0853, 29.2023, 10.2786, 0.938597, 3.83304, -0.0292249, -0.000368292, -0.0024441, 0.0027434, 0.0127955, -0.0121351, 0.00547562, 0.00333486, 0.00493973, 0.0121693, -0.0991824, 0.207804, -0.143701, 0.470691, -0.545357, 0.334206, -2.08309, -2.16483, -0.126964, 0.468158, -0.5454, 0.33152, -2.08819, -2.16084, -0.0999039, -0.00620712, -0.0381726, -0.0340383, -0.0105546, -0.0435355, -0.0223784
0.141139, 1.69491, -1.22797, -1.54505, -0.899867, -1.20904, 1.22833, -1.30249, 0.0558261, -0.00041663, -0.0565466, 0.0481503, -0.228629, 0.015185, 0.00162331, -4.6975, 62.0496, 29.238, 10.2032, 0.932189, 3.82663, -0.0750012, -0.000378524, -0.00245179, 0.00273, 0.0128701, -0.012331, 0.005577, 0.00477066, 0.00596863, 0.0141484, -0.0972395, 0.213399, -0.15034, 0.470685, -0.545395, 0.334172, -2.08307, -2.1648, -0.126903, 0.468145, -0.54545, 0.331498, -2.08833, -2.16079, -0.0995503, -0.00626642, -0.0385235, -0.0343977, -0.0115137, -0.0456499, -0.0209723
0.142139, 1.69497, -1.22797, -1.54511, -0.899814, -1.20927, 1.22835, -1.3025, 0.0588731, -0.000912708, -0.0557256, 0.0495295, -0.22763, 0.0208002, 8.84195e-05, -4.6975, 61.9385, 29.2777, 10.2786, 0.913878, 3.82663, -0.0484509, -0.000385664, -0.00245678, 0.00271547, 0.0129464, -0.012532, 0.00566351, 0.00368912, 0.00320636, 0.014981, -0.090632, 0.215099, -0.146902, 0.470679, -0.545434, 0.334138, -2.08305, -2.16478, -0.126841, 0.468135, -0.545498, 0.331477, -2.08846, -2.16076, -0.0991903, -0.00632538, -0.038872, -0.0347562, -0.00881984, -0.044945, -0.0204308
0.143139, 1.69503, -1.22797, -1.54518, -0.899756, -1.20951, 1.22838, -1.3025, 0.0572895, -0.00175344, -0.0583439, 0.0529857, -0.232245, 0.0208165, -0.00089832, -4.6975, 61.9742, 29.3134, 10.2786, 0.913878, 3.81198, -0.0228162, -0.000397405, -0.00246399, 0.00270609, 0.0130227, -0.01273, 0.00575835, 0.00654198, 0.00579906, 0.0144554, -0.0928852, 0.21814, -0.153957, 0.470673, -0.545473, 0.334103, -2.08303, -2.16476, -0.126778, 0.468122, -0.545551, 0.33145, -2.0886, -2.16071, -0.0988318, -0.006384, -0.0392179, -0.0351138, -0.0113859, -0.0481331, -0.0216644
0.144139, 1.69508, -1.22797, -1.54523, -0.899696, -1.20975, 1.2284, -1.3025, 0.0549695, 0.0020324, -0.053552, 0.0544994, -0.235763, 0.0199725, -0.0015881, -4.62212, 61.8274, 29.2023, 10.3143, 0.913878, 3.8193, 0.00373412, -0.000406566, -0.00247094, 0.00268582, 0.0130886, -0.0129382, 0.00585103, 0.00688917, 0.00716702, 0.018968, -0.0892513, 0.224116, -0.156577, 0.470666, -0.545512, 0.334068, -2.08301, -2.16473, -0.126715, 0.468109, -0.545602, 0.331434, -2.08875, -2.16068, -0.0984738, -0.00644226, -0.0395612, -0.0354704, -0.012623, -0.0495678, -0.017574
0.145139, 1.69514, -1.22799, -1.5453, -0.899633, -1.21, 1.22843, -1.3025, 0.0535416, -0.00687388, -0.0585701, 0.056656, -0.24313, 0.0238609, -0.000825777, -4.58245, 61.9028, 29.3134, 10.3143, 0.913878, 3.83304, -0.00267457, -0.000420938, -0.00247934, 0.00268231, 0.0131691, -0.0131312, 0.00595598, 0.0114718, 0.00925588, 0.0129814, -0.0928791, 0.223606, -0.165893, 0.47066, -0.545551, 0.334033, -2.08299, -2.16471, -0.126651, 0.468095, -0.545657, 0.3314, -2.0889, -2.16062, -0.0981133, -0.00650015, -0.0399019, -0.035826, -0.0148349, -0.0535996, -0.0244816
0.146139, 1.69521, -1.22799, -1.54535, -0.899567, -1.21025, 1.22845, -1.3025, 0.0606863, -0.00898501, -0.060799, 0.0612647, -0.246891, 0.0218187, 0.00188758, -4.58245, 61.7917, 29.238, 10.3143, 0.883666, 3.85501, -0.0685925, -0.000430507, -0.00248507, 0.00266439, 0.0132384, -0.013341, 0.00606133, 0.0104596, 0.00737411, 0.0113734, -0.097021, 0.223906, -0.168553, 0.470653, -0.545591, 0.333997, -2.08297, -2.16469, -0.126586, 0.468084, -0.545709, 0.331381, -2.08905, -2.16057, -0.0977471, -0.00655767, -0.0402399, -0.0361806, -0.0131107, -0.0526143, -0.0263284
0.147139, 1.69527, -1.228, -1.54541, -0.899501, -1.2105, 1.22848, -1.3025, 0.0575648, -0.0101755, -0.059019, 0.0608305, -0.247437, 0.0256401, 0.00101855, -4.50707, 61.7917, 29.2777, 10.354, 0.901976, 3.86233, -0.0621838, -0.000444313, -0.00249308, 0.00265581, 0.0133117, -0.0135409, 0.00616552, 0.0115707, 0.00800551, 0.0120422, -0.0918401, 0.225165, -0.170338, 0.470647, -0.545631, 0.333961, -2.08295, -2.16466, -0.12652, 0.46807, -0.545765, 0.331351, -2.0892, -2.16052, -0.0973861, -0.00661481, -0.0405751, -0.036534, -0.0137325, -0.054175, -0.0261724
0.148139, 1.69533, -1.22802, -1.54546, -0.899434, -1.21075, 1.22851, -1.3025, 0.0588451, -0.0090939, -0.0572211, 0.0635715, -0.246913, 0.0291067, 0.000677177, -4.47137, 61.7163, 29.1666, 10.3897, 0.895568, 3.85501, -0.0621838, -0.000455459, -0.00249896, 0.00263976, 0.0133694, -0.0137437, 0.00626592, 0.0112132, 0.00685553, 0.0142412, -0.0854075, 0.22752, -0.170791, 0.47064, -0.545672, 0.333924, -2.08293, -2.16464, -0.126454, 0.468058, -0.545819, 0.331329, -2.08936, -2.16048, -0.0970389, -0.00667155, -0.0409074, -0.0368864, -0.0125675, -0.0544446, -0.0243353
0.149139, 1.69539, -1.22804, -1.54553, -0.899364, -1.211, 1.22853, -1.3025, 0.0614676, -0.0143644, -0.0645295, 0.0635419, -0.250231, 0.0304852, -0.00148272, -4.47137, 61.756, 29.2777, 10.3897, 0.865355, 3.87607, -0.00999879, -0.000470034, -0.00250651, 0.00263665, 0.0134484, -0.013939, 0.00636767, 0.0124499, 0.00664848, 0.00885732, -0.0926547, 0.226573, -0.17111, 0.470633, -0.545713, 0.333887, -2.08291, -2.16461, -0.126387, 0.468044, -0.545875, 0.331294, -2.0895, -2.16042, -0.096675, -0.00672789, -0.0412368, -0.0372375, -0.0125818, -0.0551603, -0.0302004
0.150139, 1.69545, -1.22805, -1.54559, -0.899286, -1.21126, 1.22856, -1.3025, 0.0618599, -0.0177018, -0.0645114, 0.0689969, -0.253763, 0.0272094, -0.000514809, -4.43169, 61.6449, 29.1666, 10.2786, 0.858946, 3.89071, -0.0228162, -0.000486629, -0.00251721, 0.00262218, 0.0135103, -0.0141446, 0.00648455, 0.014161, 0.00854543, 0.0076604, -0.0945156, 0.224351, -0.178277, 0.470627, -0.545754, 0.33385, -2.08289, -2.16458, -0.126319, 0.468028, -0.545936, 0.331269, -2.08967, -2.16036, -0.0963172, -0.00678382, -0.0415633, -0.0375874, -0.0145176, -0.0570703, -0.031934
0.151139, 1.69552, -1.22807, -1.54565, -0.899216, -1.21153, 1.22859, -1.3025, 0.0597867, -0.019633, -0.0642386, 0.0685514, -0.255927, 0.0294928, 0.000130728, -4.43169, 61.6449, 29.1666, 10.354, 0.852538, 3.90536, -0.0356336, -0.000504028, -0.00252592, 0.00261651, 0.0135877, -0.0143556, 0.00659794, 0.015354, 0.00930738, 0.00717505, -0.0929628, 0.225598, -0.181776, 0.47062, -0.545796, 0.333812, -2.08287, -2.16456, -0.126251, 0.468013, -0.545996, 0.331234, -2.08983, -2.1603, -0.0959363, -0.00683932, -0.0418868, -0.0379361, -0.0153103, -0.0585284, -0.0329208
0.152139, 1.69558, -1.22808, -1.54572, -0.899141, -1.21179, 1.22862, -1.30249, 0.0579225, -0.0178187, -0.0628887, 0.0701061, -0.258454, 0.0305021, 0.00178199, -4.39599, 61.4981, 29.1269, 10.354, 0.858946, 3.93374, -0.0814099, -0.000521097, -0.00253639, 0.00260516, 0.0136616, -0.014569, 0.0067196, 0.0164223, 0.0105608, 0.00944366, -0.0904854, 0.229999, -0.187558, 0.470613, -0.545838, 0.333774, -2.08285, -2.16453, -0.126182, 0.467997, -0.546056, 0.331205, -2.09001, -2.16024, -0.0955552, -0.0068944, -0.0422071, -0.0382834, -0.0164903, -0.0603029, -0.0311514
0.153139, 1.69565, -1.22811, -1.54578, -0.899059, -1.21207, 1.22864, -1.3025, 0.0598753, -0.0183242, -0.0631061, 0.0723682, -0.26446, 0.0271051, -3.3154e-05, -4.39599, 61.4227, 29.0159, 10.3143, 0.858946, 3.94839, -0.0484509, -0.000539908, -0.00254627, 0.00259805, 0.0137345, -0.0147782, 0.00683508, 0.0167754, 0.01126, 0.00932158, -0.0952983, 0.232923, -0.188607, 0.470606, -0.54588, 0.333736, -2.08282, -2.1645, -0.126112, 0.467981, -0.546119, 0.331172, -2.09017, -2.16017, -0.0951795, -0.00694903, -0.0425243, -0.0386293, -0.017235, -0.0609787, -0.0316487
0.154139, 1.69571, -1.22812, -1.54585, -0.898982, -1.21234, 1.22868, -1.3025, 0.0610297, -0.0143711, -0.0674405, 0.0749073, -0.26908, 0.0251778, -0.00195521, -4.35632, 61.1649, 29.0555, 10.354, 0.865355, 3.94839, 0.00373412, -0.000559697, -0.00255751, 0.00258669, 0.0138115, -0.0150043, 0.00695153, 0.017891, 0.0128716, 0.0105968, -0.101151, 0.240102, -0.192176, 0.470599, -0.545922, 0.333697, -2.0828, -2.16448, -0.126041, 0.467964, -0.546183, 0.331142, -2.09034, -2.16012, -0.0947811, -0.00700322, -0.0428383, -0.0389739, -0.0188087, -0.0626559, -0.0308526
0.155139, 1.69578, -1.22815, -1.54591, -0.898895, -1.21262, 1.2287, -1.3025, 0.0654572, -0.0193695, -0.0663125, 0.0808522, -0.273082, 0.0228956, -0.000795097, -4.32061, 61.0934, 29.0555, 10.2429, 0.877257, 3.96945, -0.00999879, -0.000582406, -0.0025706, 0.00258232, 0.0138894, -0.0152149, 0.00708277, 0.0180916, 0.0122471, 0.00875339, -0.101912, 0.237162, -0.195554, 0.470592, -0.545965, 0.333659, -2.08278, -2.16445, -0.12597, 0.467944, -0.54625, 0.331104, -2.09052, -2.16004, -0.0943953, -0.00705695, -0.0431491, -0.039317, -0.0183034, -0.0628563, -0.0330669
0.156139, 1.69584, -1.22817, -1.54597, -0.898818, -1.2129, 1.22873, -1.3025, 0.0645699, -0.0202435, -0.0650545, 0.0807347, -0.270139, 0.025915, 0.00140253, -4.28094, 60.907, 28.9048, 10.3143, 0.870848, 3.99142, -0.0621838, -0.000599098, -0.00257958, 0.00257199, 0.0139579, -0.0154288, 0.00720449, 0.0176422, 0.0115457, 0.00926275, -0.096385, 0.235616, -0.197574, 0.470585, -0.546008, 0.333619, -2.08275, -2.16442, -0.125898, 0.467929, -0.546311, 0.331073, -2.0907, -2.15997, -0.0940167, -0.00711021, -0.0434565, -0.0396587, -0.0176517, -0.0627693, -0.0328586
0.157139, 1.69591, -1.22819, -1.54604, -0.898726, -1.21317, 1.22876, -1.3025, 0.0657761, -0.0227976, -0.0670079, 0.0874609, -0.269326, 0.0230529, 0.000697521, -4.28094, 60.7959, 28.8691, 10.2429, 0.883666, 4.02713, -0.0557752, -0.000621108, -0.0025923, 0.00256477, 0.014028, -0.0156387, 0.0073349, 0.0189103, 0.0130768, 0.00797922, -0.0970633, 0.230871, -0.202885, 0.470578, -0.546052, 0.33358, -2.08273, -2.16439, -0.125825, 0.46791, -0.546378, 0.331038, -2.09088, -2.15989, -0.0936388, -0.007163, -0.0437605, -0.0399988, -0.0192386, -0.0641913, -0.0346104
0.158139, 1.69597, -1.22822, -1.54612, -0.898644, -1.21344, 1.22879, -1.3025, 0.0640537, -0.0225836, -0.0701617, 0.0834315, -0.272172, 0.0266456, -0.00123051, -4.20556, 60.7245, 28.9048, 10.2786, 0.870848, 4.03445, -0.00999879, -0.0006417, -0.00260501, 0.00256246, 0.0141052, -0.0158424, 0.00745642, 0.0196971, 0.0133295, 0.00716138, -0.0992492, 0.236038, -0.202202, 0.470571, -0.546096, 0.33354, -2.08271, -2.16437, -0.125751, 0.467891, -0.546443, 0.330997, -2.09104, -2.15982, -0.0932596, -0.0072153, -0.0440611, -0.0403373, -0.0195473, -0.0651536, -0.0358689
0.159139, 1.69604, -1.22825, -1.54617, -0.898554, -1.21372, 1.22882, -1.3025, 0.0592872, -0.0252022, -0.0649138, 0.0852771, -0.274757, 0.0240652, -0.00082042, -4.09447, 60.6491, 28.754, 10.2429, 0.883666, 4.05551, -0.00999879, -0.000664709, -0.00261922, 0.00255235, 0.0141691, -0.0160569, 0.00758928, 0.0213947, 0.0161751, 0.00803647, -0.0963411, 0.233883, -0.207959, 0.470564, -0.54614, 0.333499, -2.08268, -2.16434, -0.125677, 0.467871, -0.546512, 0.330964, -2.09123, -2.15974, -0.0928821, -0.0072671, -0.0443582, -0.0406742, -0.0223458, -0.0673778, -0.0355082
0.160139, 1.69611, -1.22827, -1.54625, -0.898467, -1.21401, 1.22885, -1.3025, 0.063621, -0.0246159, -0.0664621, 0.0889848, -0.276814, 0.0274086, 0.00040243, -4.0191, 60.4666, 28.8294, 10.2429, 0.883666, 4.06283, -0.0356336, -0.000686197, -0.00263185, 0.00254478, 0.0142491, -0.01628, 0.00771973, 0.0212407, 0.014438, 0.00873785, -0.0941827, 0.238104, -0.210237, 0.470556, -0.546184, 0.333458, -2.08266, -2.16431, -0.125602, 0.467852, -0.546579, 0.330928, -2.09141, -2.15967, -0.0924774, -0.00731841, -0.0446518, -0.0410095, -0.0206397, -0.0675556, -0.0351843
0.161139, 1.69618, -1.2283, -1.54631, -0.898369, -1.2143, 1.22888, -1.3025, 0.068739, -0.0248263, -0.064836, 0.0905669, -0.278977, 0.0306772, 0.0017263, -4.0548, 60.4309, 28.7937, 10.1675, 0.895568, 4.04819, -0.0750012, -0.000707272, -0.00264129, 0.00253794, 0.0143177, -0.0164961, 0.00785653, 0.0195469, 0.0112173, 0.00974233, -0.0905272, 0.241599, -0.208482, 0.470549, -0.546229, 0.333417, -2.08263, -2.16428, -0.125526, 0.467836, -0.546646, 0.330891, -2.0916, -2.15958, -0.0920912, -0.0073692, -0.0449417, -0.0413431, -0.017494, -0.066195, -0.0343714
0.162139, 1.69625, -1.22833, -1.54637, -0.898277, -1.21459, 1.22891, -1.3025, 0.0663471, -0.027644, -0.0600741, 0.0908527, -0.284597, 0.0324571, -6.98663e-05, -3.94372, 60.3912, 28.6072, 10.2429, 0.889159, 4.04819, -0.0420422, -0.000729931, -0.002655, 0.00252737, 0.0143851, -0.0167175, 0.00798726, 0.0209147, 0.0120001, 0.0103851, -0.0867906, 0.244166, -0.209503, 0.470542, -0.546274, 0.333376, -2.08261, -2.16425, -0.12545, 0.467816, -0.546716, 0.330857, -2.09178, -2.15951, -0.0917007, -0.00741948, -0.0452279, -0.0416749, -0.0182516, -0.0679625, -0.0342531
0.163139, 1.69632, -1.22836, -1.54644, -0.898178, -1.21489, 1.22894, -1.3025, 0.0671182, -0.0305055, -0.0635614, 0.0950953, -0.289442, 0.033076, -0.000758679, -3.82867, 60.3912, 28.5715, 10.1675, 0.901976, 4.07016, -0.0228162, -0.000755148, -0.00267046, 0.0025216, 0.0144604, -0.0169351, 0.00812686, 0.0234851, 0.013497, 0.00838312, -0.0895619, 0.245813, -0.215638, 0.470534, -0.546319, 0.333334, -2.08258, -2.16422, -0.125373, 0.467794, -0.546787, 0.330818, -2.09197, -2.15942, -0.0913039, -0.00746922, -0.0455105, -0.042005, -0.0197842, -0.0705372, -0.0369062
0.164139, 1.69639, -1.22839, -1.54651, -0.89807, -1.21518, 1.22897, -1.3025, 0.0654774, -0.0286962, -0.064468, 0.0987606, -0.287881, 0.0296005, -0.000743164, -3.75329, 60.3555, 28.6072, 10.0565, 0.920287, 4.07016, -0.0164075, -0.000781914, -0.00268667, 0.00251281, 0.0145317, -0.0171578, 0.00827405, 0.0243111, 0.0158788, 0.00971296, -0.0901097, 0.244606, -0.221175, 0.470527, -0.546364, 0.333292, -2.08255, -2.16419, -0.125295, 0.467772, -0.546861, 0.330781, -2.09217, -2.15933, -0.0909045, -0.00751843, -0.0457892, -0.0423333, -0.0221293, -0.0719332, -0.0359676
0.165139, 1.69647, -1.22841, -1.54657, -0.897966, -1.21546, 1.22899, -1.3025, 0.0675436, -0.0274031, -0.0662429, 0.100758, -0.281906, 0.0320088, 0.000962606, -3.6422, 60.3198, 28.5715, 9.98108, 0.920287, 4.06283, -0.0557752, -0.000800382, -0.00269672, 0.00250109, 0.0145942, -0.0173699, 0.00841052, 0.0229787, 0.0143487, 0.010505, -0.0856076, 0.242581, -0.222129, 0.470519, -0.54641, 0.33325, -2.08253, -2.16416, -0.125216, 0.467755, -0.546928, 0.330748, -2.09236, -2.15925, -0.0905261, -0.00756709, -0.0460641, -0.0426597, -0.0206651, -0.0709513, -0.0353565
0.166139, 1.69655, -1.22844, -1.54664, -0.897865, -1.21574, 1.22901, -1.3025, 0.0721394, -0.0249241, -0.0691617, 0.099502, -0.283148, 0.0274074, 0.000641727, -3.56683, 60.3555, 28.6072, 10.0168, 0.945006, 4.09854, -0.0557752, -0.000816961, -0.00270525, 0.00249566, 0.0146705, -0.0175779, 0.00853781, 0.0203941, 0.0129881, 0.0104523, -0.0933452, 0.244635, -0.218752, 0.470512, -0.546456, 0.333207, -2.0825, -2.16412, -0.125137, 0.467739, -0.546991, 0.330709, -2.09253, -2.15917, -0.090137, -0.0076152, -0.0463352, -0.0429842, -0.0194473, -0.0686066, -0.0353783
0.167139, 1.69662, -1.22847, -1.54671, -0.897748, -1.21602, 1.22904, -1.3025, 0.0707431, -0.0258463, -0.065832, 0.105294, -0.28308, 0.0301847, 0.00042781, -3.3764, 60.3912, 28.5319, 9.9057, 0.945006, 4.09854, -0.0557752, -0.000840377, -0.00271977, 0.00248364, 0.0147238, -0.0177845, 0.00868383, 0.0220685, 0.0139277, 0.0124732, -0.0847414, 0.244573, -0.224039, 0.470504, -0.546503, 0.333164, -2.08247, -2.16409, -0.125057, 0.467718, -0.547063, 0.330675, -2.09273, -2.15907, -0.0897718, -0.00766275, -0.0466022, -0.0433068, -0.0202925, -0.0708752, -0.0339317
0.168139, 1.6967, -1.2285, -1.54678, -0.897638, -1.21631, 1.22906, -1.3025, 0.0714317, -0.0274418, -0.0669953, 0.105273, -0.287385, 0.0271342, 1.39333e-05, -3.22564, 60.4666, 28.6072, 9.83032, 0.926695, 4.10586, -0.0484509, -0.00086132, -0.00273183, 0.00247821, 0.0147951, -0.0179919, 0.00882263, 0.022356, 0.0147275, 0.011129, -0.0902538, 0.245459, -0.225574, 0.470496, -0.546549, 0.333121, -2.08245, -2.16406, -0.124976, 0.4677, -0.547132, 0.330634, -2.09292, -2.15898, -0.089386, -0.00770973, -0.0468653, -0.0436274, -0.0211811, -0.0712488, -0.0355957
0.169139, 1.69679, -1.22853, -1.54685, -0.897529, -1.21659, 1.22909, -1.3025, 0.0744732, -0.0274972, -0.0682409, 0.109775, -0.285064, 0.0251317, -0.00168614, -3.11059, 60.5023, 28.5715, 9.83032, 0.908385, 4.10586, -0.00267457, -0.000878776, -0.00274065, 0.00246619, 0.0148597, -0.0182083, 0.00895049, 0.02162, 0.0143222, 0.0112301, -0.0899438, 0.242647, -0.225342, 0.470489, -0.546596, 0.333077, -2.08242, -2.16403, -0.124894, 0.467684, -0.547198, 0.3306, -2.09309, -2.1589, -0.0889989, -0.00775613, -0.0471243, -0.043946, -0.0208441, -0.0707801, -0.0357133
0.170139, 1.69687, -1.22855, -1.54692, -0.897403, -1.21688, 1.22911, -1.3025, 0.0750052, -0.0259414, -0.0659858, 0.114412, -0.284176, 0.0183573, 9.66088e-05, -2.88445, 60.4666, 28.5319, 9.64386, 0.889159, 4.12051, -0.0356336, -0.000901862, -0.00275582, 0.00244934, 0.0149185, -0.0184268, 0.00910605, 0.0209547, 0.0158126, 0.0132509, -0.0907521, 0.239903, -0.23012, 0.470481, -0.546643, 0.333034, -2.08239, -2.164, -0.124812, 0.467662, -0.547271, 0.33057, -2.09331, -2.1588, -0.0886124, -0.00780194, -0.0473792, -0.0442625, -0.0223197, -0.0707491, -0.0338795
0.171139, 1.69696, -1.22857, -1.54699, -0.897285, -1.21717, 1.22913, -1.3025, 0.0806573, -0.02982, -0.0702414, 0.115369, -0.283332, 0.0183367, 0.000810389, -2.77337, 60.5023, 28.6072, 9.56848, 0.870848, 4.12692, -0.0557752, -0.000919777, -0.00276502, 0.00243999, 0.0149905, -0.0186411, 0.0092461, 0.0194929, 0.0133931, 0.00958489, -0.094421, 0.236156, -0.228378, 0.470473, -0.546691, 0.332989, -2.08236, -2.16396, -0.124729, 0.467646, -0.547338, 0.330533, -2.09349, -2.15871, -0.0882163, -0.00784715, -0.04763, -0.044577, -0.0201473, -0.0688952, -0.0376694
0.172139, 1.69705, -1.22861, -1.54706, -0.897163, -1.21746, 1.22915, -1.3025, 0.0805686, -0.0321558, -0.068178, 0.116535, -0.283065, 0.0177083, 0.000777616, -2.58294, 60.6491, 28.6072, 9.4574, 0.865355, 4.14889, -0.0621838, -0.000940126, -0.00277619, 0.00242975, 0.0150565, -0.0188551, 0.00939001, 0.0192436, 0.0133453, 0.00931443, -0.0922623, 0.233411, -0.229011, 0.470465, -0.546738, 0.332945, -2.08233, -2.16393, -0.124645, 0.467628, -0.547408, 0.330496, -2.09368, -2.15862, -0.0878262, -0.00789177, -0.0478765, -0.0448893, -0.0201633, -0.0688523, -0.0382109
0.173139, 1.69713, -1.22862, -1.54713, -0.897039, -1.21775, 1.22917, -1.3025, 0.0826823, -0.0291239, -0.069676, 0.11774, -0.28252, 0.0136688, -0.000939653, -2.3211, 60.6134, 28.6072, 9.34631, 0.846129, 4.14157, -0.0228162, -0.000958725, -0.00278807, 0.00241224, 0.015114, -0.0190707, 0.00953017, 0.0178743, 0.0134032, 0.010583, -0.0958751, 0.234406, -0.227601, 0.470457, -0.546786, 0.3329, -2.0823, -2.16389, -0.124561, 0.46761, -0.547478, 0.330466, -2.09388, -2.15853, -0.0874434, -0.00793577, -0.0481188, -0.0451995, -0.0202615, -0.0679394, -0.0370536
0.174139, 1.69722, -1.22865, -1.5472, -0.896914, -1.21803, 1.22919, -1.3025, 0.0873294, -0.0281587, -0.071248, 0.120217, -0.283626, 0.0150127, -0.000863795, -2.091, 60.7602, 28.6072, 9.30664, 0.870848, 4.14157, -0.0164075, -0.000976855, -0.00279931, 0.00240253, 0.0151792, -0.0192741, 0.00967213, 0.0168508, 0.0114912, 0.011122, -0.0956084, 0.237393, -0.227059, 0.470449, -0.546834, 0.332855, -2.08227, -2.16386, -0.124476, 0.467591, -0.547546, 0.330428, -2.09406, -2.15843, -0.0870637, -0.00797915, -0.0483568, -0.0455074, -0.0184092, -0.0671709, -0.0367361
0.175139, 1.69732, -1.22869, -1.54728, -0.896785, -1.21831, 1.22921, -1.3025, 0.0839911, -0.0312128, -0.0707899, 0.121931, -0.284268, 0.0107536, -0.000101146, -1.94024, 60.9427, 28.6826, 9.27094, 0.889159, 4.15622, -0.0292249, -0.000994299, -0.00280886, 0.00239772, 0.015248, -0.01947, 0.00981576, 0.0184105, 0.0144522, 0.00977922, -0.0977646, 0.232803, -0.233262, 0.470441, -0.546883, 0.332809, -2.08224, -2.16383, -0.12439, 0.467574, -0.547612, 0.330385, -2.09424, -2.15832, -0.0866867, -0.00802191, -0.0485903, -0.0458132, -0.0214075, -0.0688602, -0.0385055
0.176139, 1.69741, -1.22872, -1.54736, -0.896648, -1.21858, 1.22922, -1.3025, 0.089259, -0.031682, -0.0734997, 0.128698, -0.284291, 0.0132262, 0.00139063, -1.75378, 61.0538, 28.754, 9.12018, 0.901976, 4.14889, -0.0685925, -0.00101384, -0.00282063, 0.00239019, 0.0153113, -0.0196658, 0.00997054, 0.0186514, 0.0130127, 0.00971152, -0.0952328, 0.233759, -0.237416, 0.470433, -0.546931, 0.332763, -2.08221, -2.16379, -0.124304, 0.467555, -0.547682, 0.330344, -2.09444, -2.15821, -0.0863141, -0.00806403, -0.0488195, -0.0461166, -0.0200058, -0.0692577, -0.0389619
0.177139, 1.6975, -1.22874, -1.54744, -0.896511, -1.21887, 1.22924, -1.3025, 0.0872679, -0.0272377, -0.0778733, 0.131154, -0.284489, 0.0138642, -5.62576e-05, -1.56335, 61.0934, 28.7937, 9.08447, 0.932189, 4.16995, -0.0420422, -0.00103418, -0.0028343, 0.00237559, 0.0153776, -0.0198806, 0.0101216, 0.0205811, 0.0154582, 0.0115951, -0.0963508, 0.239019, -0.24302, 0.470425, -0.54698, 0.332717, -2.08218, -2.16375, -0.124217, 0.467535, -0.547754, 0.33031, -2.09464, -2.1581, -0.0859185, -0.00810551, -0.0490442, -0.0464177, -0.0223439, -0.0717769, -0.0376158
0.178139, 1.6976, -1.22877, -1.54753, -0.896374, -1.21914, 1.22925, -1.3025, 0.0876404, -0.0256035, -0.0771359, 0.135408, -0.28545, 0.0157681, -0.00149557, -1.41259, 61.2006, 28.9405, 9.04877, 0.969725, 4.15622, -0.00267457, -0.00105285, -0.00284639, 0.00236952, 0.0154506, -0.0200785, 0.0102682, 0.0214812, 0.0158567, 0.0138398, -0.0920059, 0.242321, -0.245624, 0.470417, -0.547029, 0.332671, -2.08215, -2.16372, -0.124129, 0.467515, -0.547823, 0.330268, -2.09482, -2.15799, -0.0855324, -0.00814634, -0.0492643, -0.0467165, -0.0226586, -0.0732462, -0.0358224
0.179139, 1.69769, -1.2288, -1.54761, -0.896226, -1.21942, 1.22927, -1.3025, 0.0876529, -0.0266271, -0.0754228, 0.141684, -0.280716, 0.0165383, -0.000488419, -1.18645, 61.2759, 28.9048, 8.93372, 0.988036, 4.15622, -0.0164075, -0.00107539, -0.00286217, 0.00235698, 0.015508, -0.0202788, 0.0104318, 0.021941, 0.0162476, 0.0150037, -0.0843661, 0.237493, -0.25039, 0.470409, -0.547078, 0.332624, -2.08211, -2.16368, -0.12404, 0.467493, -0.547897, 0.33023, -2.09502, -2.15787, -0.0851585, -0.00818651, -0.0494799, -0.0470129, -0.0230244, -0.0741102, -0.0350258
0.180139, 1.69779, -1.22883, -1.5477, -0.896074, -1.2197, 1.22928, -1.3025, 0.0926731, -0.0257917, -0.0769625, 0.144312, -0.277496, 0.0173834, 0.00113245, -1.11108, 61.2759, 28.9802, 8.89801, 1.01276, 4.14889, -0.0557752, -0.00109696, -0.00287577, 0.00234564, 0.0155736, -0.0204853, 0.0105981, 0.0199258, 0.0137538, 0.0154038, -0.0824604, 0.236588, -0.249695, 0.470401, -0.547128, 0.332577, -2.08208, -2.16365, -0.123951, 0.467472, -0.54797, 0.330192, -2.09523, -2.15774, -0.0847683, -0.00822601, -0.0496909, -0.0473069, -0.0206273, -0.0722902, -0.0346991
0.181139, 1.69789, -1.22885, -1.54779, -0.895924, -1.21998, 1.22929, -1.30249, 0.0966533, -0.0239048, -0.0780095, 0.146594, -0.274984, 0.0180013, 0.0017044, -0.960319, 61.3513, 29.0555, 8.85834, 1.03656, 4.14157, -0.0814099, -0.0011192, -0.00289156, 0.00233687, 0.015641, -0.0206841, 0.010765, 0.0181926, 0.011827, 0.0165891, -0.0805685, 0.237145, -0.248711, 0.470393, -0.547178, 0.33253, -2.08205, -2.16361, -0.123861, 0.467449, -0.548043, 0.330151, -2.09544, -2.15761, -0.0843832, -0.00826484, -0.0498971, -0.0475984, -0.0187534, -0.0708877, -0.0336187
0.182139, 1.69799, -1.22888, -1.54788, -0.895768, -1.22025, 1.2293, -1.3025, 0.0938049, -0.0229742, -0.0800931, 0.147145, -0.270738, 0.0134667, -0.00127123, -0.845268, 61.3116, 29.0555, 8.85834, 1.01276, 4.14157, -0.0164075, -0.00113928, -0.00290686, 0.00232174, 0.0156992, -0.0208824, 0.0109213, 0.018398, 0.0142848, 0.0164791, -0.0831877, 0.232669, -0.249354, 0.470384, -0.547228, 0.332482, -2.08201, -2.16357, -0.12377, 0.467426, -0.548116, 0.330116, -2.09563, -2.1575, -0.0840091, -0.00830299, -0.0500987, -0.0478874, -0.0212419, -0.0713762, -0.0339607
0.183139, 1.6981, -1.22891, -1.54796, -0.895611, -1.22052, 1.22931, -1.3025, 0.0978139, -0.0251739, -0.0815407, 0.153363, -0.276328, 0.0106197, -0.00183083, -0.809562, 61.387, 29.0555, 8.85834, 0.999938, 4.12692, 0.0101428, -0.00115525, -0.002916, 0.00231307, 0.0157552, -0.0210668, 0.0110711, 0.0195033, 0.0147917, 0.0153663, -0.0870113, 0.233722, -0.253487, 0.470376, -0.547278, 0.332434, -2.08198, -2.16353, -0.123678, 0.46741, -0.548184, 0.330075, -2.09582, -2.15738, -0.0836516, -0.00834046, -0.0502955, -0.0481739, -0.0217911, -0.0725146, -0.0354979
0.184139, 1.6982, -1.22894, -1.54806, -0.895446, -1.22079, 1.22932, -1.3025, 0.101564, -0.0226203, -0.0865475, 0.160083, -0.268487, 0.0073618, -0.000745836, -0.734184, 61.4227, 29.0912, 8.78693, 0.999938, 4.14157, -0.00267457, -0.0011756, -0.00293036, 0.00230302, 0.0158154, -0.0212551, 0.0112394, 0.0184938, 0.0148357, 0.0158045, -0.08731, 0.228506, -0.257308, 0.470368, -0.547328, 0.332386, -2.08195, -2.1635, -0.123586, 0.467388, -0.548256, 0.330034, -2.09602, -2.15724, -0.0832828, -0.00837722, -0.0504874, -0.0484579, -0.0218882, -0.0717788, -0.0351902
0.185139, 1.69831, -1.22897, -1.54815, -0.895277, -1.22105, 1.22933, -1.3025, 0.103458, -0.0288616, -0.0859355, 0.163676, -0.26726, 0.00968071, 0.00194418, -0.658806, 61.5338, 29.0555, 8.78693, 0.993529, 4.15622, -0.0685925, -0.0011958, -0.00294483, 0.00229553, 0.0158738, -0.0214342, 0.0114136, 0.018911, 0.0137616, 0.0131547, -0.0829298, 0.222573, -0.261036, 0.470359, -0.547378, 0.332338, -2.08191, -2.16346, -0.123493, 0.467366, -0.548329, 0.32999, -2.09623, -2.15709, -0.0829242, -0.00841329, -0.0506745, -0.0487392, -0.0209454, -0.0719277, -0.0381892
0.186139, 1.69842, -1.229, -1.54824, -0.895104, -1.22133, 1.22934, -1.3025, 0.104566, -0.0277029, -0.0877608, 0.164941, -0.27194, 0.00758029, 0.000312777, -0.619133, 61.5338, 28.9802, 8.78693, 1.00635, 4.14889, -0.0420422, -0.001218, -0.00295997, 0.00228371, 0.0159275, -0.0216245, 0.0115799, 0.0195294, 0.0146825, 0.013432, -0.0875845, 0.22696, -0.262563, 0.470351, -0.547429, 0.332289, -2.08188, -2.16342, -0.1234, 0.467344, -0.548404, 0.329951, -2.09643, -2.15696, -0.0825593, -0.00844864, -0.0508567, -0.0490179, -0.021866, -0.0728009, -0.0382559
