alisrour97/Franka_experiments/Real_Robot_scripts/servo-franka/Data_video/log_dyn_INIT2_0.csv
Time,q1,q2,q3,q4,q5,q6,q7,dq1,dq2,dq3,dq4,dq5,dq6,dq7,t1,t2,t3,t4,t5,t6,t7,ex1,ex2,ex3,ex4,ex5,ex6,ev1,ev2,ev3,ev4,ev5,ev6,xd,yd,zd,uxd,uyd,uzd,x,y,z,ux,uy,uz,vxd,vyd,vzd,vx,vy,vz
1.70898e-06, 1.69144, -1.22473, -1.53822, -0.89995, -1.1917, 1.22859, -1.30263, 0.00288893, -0.00715169, 0.00320465, 0.004957, 0.000853909, 0.00111007, 0.00112631, -0.884941, 56.4874, 27.417, 6.47003, 1.77356, 2.81589, -0.160145, 0.000997068, -0.00157547, -0.000347169, 0.000184622, -0.00124958, 8.08332e-05, 0.00018773, -0.00151913, -0.00241977, 0.00547227, -0.00777952, -0.000614237, 0.471008, -0.543389, 0.335894, -2.08385, -2.16584, -0.129887, 0.46941, -0.542522, 0.336435, -2.08447, -2.16638, -0.128394, -1.48327e-05, 4.00419e-05, -1.29039e-06, 0.0014217, 0.000289295, -0.00246554
0.0123372, 1.69144, -1.22475, -1.53813, -0.899946, -1.19169, 1.22861, -1.30263, -0.00202159, -0.00241378, 0.00373814, 0.00193647, 0.00139992, -0.000146244, -0.000499961, -0.809562, 56.5231, 27.417, 6.39465, 1.71863, 2.82962, -0.160145, 0.00100945, -0.00156089, -0.000367399, 8.78727e-05, -0.00121833, 4.39452e-05, 0.000708691, 0.000713415, 0.000281624, 0.00481475, -0.00400076, -0.000809542, 0.471008, -0.543389, 0.335894, -2.08385, -2.16584, -0.129887, 0.469426, -0.542513, 0.33646, -2.08448, -2.16645, -0.128549, -2.49008e-05, 7.8927e-05, 1.60533e-06, -0.000701889, -0.00069325, 0.000191199
0.0133372, 1.69144, -1.22475, -1.53813, -0.899946, -1.19169, 1.22861, -1.30263, -0.00202159, -0.00241378, 0.00373814, 0.00193647, 0.00139992, -0.000146244, -0.000499961, -0.809562, 56.5231, 27.417, 6.39465, 1.71863, 2.82962, -0.160145, 0.00100945, -0.00156088, -0.0003674, 8.78706e-05, -0.00121833, 4.39492e-05, 0.000751758, 0.000704053, 0.000285423, 0.0048148, -0.00395266, -0.000778759, 0.471008, -0.543389, 0.335894, -2.08385, -2.16584, -0.129887, 0.469426, -0.542513, 0.33646, -2.08448, -2.16645, -0.128549, -3.59273e-05, 0.000121646, 4.81928e-06, -0.000701889, -0.00069325, 0.000191199
0.0143372, 1.69144, -1.22475, -1.53813, -0.899946, -1.19169, 1.22861, -1.30263, -0.00202159, -0.00241378, 0.00373814, 0.00193647, 0.00139992, -0.000146244, -0.000499961, -0.809562, 56.5231, 27.417, 6.39465, 1.71863, 2.82962, -0.160145, 0.00100942, -0.00156088, -0.000367402, 8.78648e-05, -0.00121836, 4.39599e-05, 0.000798846, 0.000693852, 0.000289543, 0.00481493, -0.00390013, -0.000745177, 0.471008, -0.543389, 0.335894, -2.08385, -2.16584, -0.129887, 0.469426, -0.542513, 0.33646, -2.08448, -2.16645, -0.128549, -4.79476e-05, 0.000168349, 8.36616e-06, -0.000701889, -0.00069325, 0.000191199
0.0153372, 1.69144, -1.22475, -1.53813, -0.899946, -1.19169, 1.22861, -1.30263, -0.00202159, -0.00241378, 0.00373814, 0.00193647, 0.00139992, -0.000146244, -0.000499961, -0.809562, 56.5231, 27.417, 6.39465, 1.71863, 2.82962, -0.160145, 0.00100938, -0.00156087, -0.000367406, 8.78535e-05, -0.0012184, 4.39807e-05, 0.000850106, 0.000682782, 0.000293993, 0.00481514, -0.00384301, -0.000708696, 0.471008, -0.543389, 0.335894, -2.08385, -2.16584, -0.129887, 0.469426, -0.542513, 0.33646, -2.08448, -2.16645, -0.128549, -6.09969e-05, 0.000219187, 1.22607e-05, -0.000701889, -0.00069325, 0.000191199
0.0163372, 1.69144, -1.22475, -1.53813, -0.899946, -1.19169, 1.22861, -1.30263, -0.00202159, -0.00241378, 0.00373814, 0.00193647, 0.00139992, -0.000146244, -0.000499961, -0.809562, 56.5231, 27.417, 6.39465, 1.71863, 2.82962, -0.160145, 0.0010093, -0.00156085, -0.000367412, 8.78349e-05, -0.00121847, 4.40149e-05, 0.000905688, 0.000670814, 0.000298783, 0.00481544, -0.00378113, -0.000669217, 0.471008, -0.543389, 0.335894, -2.08385, -2.16584, -0.129887, 0.469426, -0.542513, 0.33646, -2.08448, -2.16645, -0.128549, -7.51097e-05, 0.000274308, 1.65177e-05, -0.000701889, -0.00069325, 0.000191199
0.0173372, 1.69144, -1.22475, -1.53813, -0.899946, -1.19169, 1.22861, -1.30263, -0.00202159, -0.00241378, 0.00373814, 0.00193647, 0.00139992, -0.000146244, -0.000499961, -0.809562, 56.5231, 27.417, 6.39465, 1.71863, 2.82962, -0.160145, 0.00100918, -0.00156083, -0.000367422, 8.78071e-05, -0.00121858, 4.40659e-05, 0.000965742, 0.00065792, 0.000303922, 0.00481585, -0.00371432, -0.000626643, 0.471008, -0.543389, 0.335894, -2.08385, -2.16584, -0.129887, 0.469426, -0.542513, 0.33646, -2.08448, -2.16645, -0.128549, -9.03198e-05, 0.000333859, 2.1152e-05, -0.000701889, -0.00069325, 0.000191199
0.0183372, 1.69144, -1.22475, -1.53813, -0.899946, -1.19169, 1.22861, -1.30263, -0.00202159, -0.00241378, 0.00373814, 0.00193647, 0.00139992, -0.000146244, -0.000499961, -0.809562, 56.5231, 27.417, 6.39465, 1.71863, 2.82962, -0.160145, 0.00100903, -0.00156079, -0.000367436, 8.77683e-05, -0.00121873, 4.41367e-05, 0.00103041, 0.000644073, 0.000309419, 0.00481637, -0.00364245, -0.000580877, 0.471008, -0.543389, 0.335894, -2.08385, -2.16584, -0.129887, 0.469426, -0.542513, 0.33646, -2.08448, -2.16645, -0.128549, -0.000106661, 0.000397984, 2.61782e-05, -0.000701889, -0.00069325, 0.000191199
0.0193374, 1.69144, -1.22475, -1.53813, -0.899946, -1.19169, 1.22861, -1.30263, -0.00202159, -0.00241378, 0.00373814, 0.00193647, 0.00139992, -0.000146244, -0.000499961, -0.809562, 56.5231, 27.417, 6.39465, 1.71863, 2.82962, -0.160145, 0.00100882, -0.00156075, -0.000367455, 8.77167e-05, -0.00121893, 4.42308e-05, 0.00109984, 0.000629244, 0.000315282, 0.004817, -0.00356534, -0.000531826, 0.471008, -0.543389, 0.335894, -2.08385, -2.16584, -0.129887, 0.469426, -0.542513, 0.33646, -2.08448, -2.16645, -0.128549, -0.000124165, 0.000466826, 3.16113e-05, -0.000701889, -0.00069325, 0.000191199
0.0203374, 1.69144, -1.22475, -1.53813, -0.899946, -1.19169, 1.22861, -1.30263, -0.00202159, -0.00241378, 0.00373814, 0.00193647, 0.00139992, -0.000146244, -0.000499961, -0.809562, 56.5231, 27.417, 6.39465, 1.71863, 2.82962, -0.160145, 0.00100854, -0.00156069, -0.000367478, 8.76504e-05, -0.00121919, 4.43513e-05, 0.00117418, 0.000613407, 0.00032152, 0.00481777, -0.00348286, -0.000479397, 0.471008, -0.543388, 0.335894, -2.08385, -2.16584, -0.129887, 0.469426, -0.542513, 0.33646, -2.08448, -2.16645, -0.128549, -0.000142864, 0.000540525, 3.74658e-05, -0.000701889, -0.00069325, 0.000191199
0.0213374, 1.69144, -1.22475, -1.53813, -0.899946, -1.19169, 1.22861, -1.30263, -0.00202159, -0.00241378, 0.00373814, 0.00193647, 0.00139992, -0.000146244, -0.000499961, -0.809562, 56.5231, 27.417, 6.39465, 1.71863, 2.82962, -0.160145, 0.00100821, -0.00156062, -0.000367507, 8.75677e-05, -0.00121951, 4.45014e-05, 0.00125356, 0.000596538, 0.00032814, 0.00481867, -0.00339485, -0.000423502, 0.471008, -0.543388, 0.335894, -2.08384, -2.16584, -0.129888, 0.469426, -0.542513, 0.33646, -2.08448, -2.16645, -0.128549, -0.000162789, 0.000619218, 4.37565e-05, -0.000701889, -0.00069325, 0.000191199
0.0223376, 1.69144, -1.22475, -1.53813, -0.899946, -1.19169, 1.22861, -1.30263, -0.00202159, -0.00241378, 0.00373814, 0.00193647, 0.00139992, -0.000146244, -0.000499961, -0.809562, 56.5231, 27.417, 6.39465, 1.71863, 2.82962, -0.160145, 0.0010078, -0.00156053, -0.000367542, 8.74665e-05, -0.0012199, 4.46842e-05, 0.00133811, 0.00057861, 0.000335151, 0.00481972, -0.00330117, -0.000364052, 0.471008, -0.543388, 0.335894, -2.08384, -2.16584, -0.129888, 0.469426, -0.542513, 0.33646, -2.08448, -2.16645, -0.128549, -0.000183971, 0.000703042, 5.04979e-05, -0.000701889, -0.00069325, 0.000191199
0.0233379, 1.69144, -1.22475, -1.53813, -0.899946, -1.19169, 1.22861, -1.30263, -0.00202159, -0.00241378, 0.00373814, 0.00193647, 0.00139992, -0.000146244, -0.000499961, -0.809562, 56.5231, 27.417, 6.39465, 1.71863, 2.82962, -0.160145, 0.0010073, -0.00156042, -0.000367584, 8.73452e-05, -0.00122037, 4.49029e-05, 0.00142798, 0.000559599, 0.000342558, 0.00482093, -0.00320167, -0.000300963, 0.471008, -0.543387, 0.335894, -2.08384, -2.16584, -0.129888, 0.469426, -0.542513, 0.33646, -2.08448, -2.16645, -0.128549, -0.000206438, 0.000792126, 5.77046e-05, -0.000701889, -0.00069325, 0.000191199
0.0243379, 1.69144, -1.22475, -1.53813, -0.899946, -1.19169, 1.22861, -1.30263, -0.00202159, -0.00241378, 0.00373814, 0.00193647, 0.00139992, -0.000146244, -0.000499961, -0.809562, 56.5231, 27.417, 6.39465, 1.71863, 2.82962, -0.160145, 0.00100672, -0.00156029, -0.000367634, 8.72019e-05, -0.00122093, 4.51605e-05, 0.0015233, 0.000539483, 0.000350369, 0.0048223, -0.00309622, -0.000234152, 0.471007, -0.543387, 0.335894, -2.08384, -2.16584, -0.129889, 0.469426, -0.542513, 0.33646, -2.08448, -2.16645, -0.128549, -0.000230219, 0.000886601, 6.53909e-05, -0.000701889, -0.00069325, 0.000191199
0.0253379, 1.69145, -1.22477, -1.53802, -0.899963, -1.19166, 1.22862, -1.30263, 0.00233013, -0.000703658, 0.00444687, -0.00166375, 0.00219578, 0.000289442, -0.00150578, -0.960319, 56.7096, 27.2306, 6.58508, 1.5401, 2.82229, -0.133595, 0.00104358, -0.00152352, -0.000396509, -2.13015e-05, -0.00118411, -5.03474e-05, -0.00179913, -0.00298963, 0.000921853, 0.00394633, -0.0013151, 0.00886886, 0.471007, -0.543386, 0.335894, -2.08384, -2.16584, -0.129889, 0.469463, -0.542479, 0.336493, -2.08442, -2.16657, -0.128717, -0.000255341, 0.00098659, 7.35711e-05, 0.00269937, 0.00274317, 0.00117297
0.0263381, 1.69144, -1.22477, -1.53801, -0.899962, -1.19165, 1.22862, -1.30263, 0.00166235, -0.00130656, 0.00636382, -0.00017988, 0.00190463, 0.000730339, -0.000495231, -0.845268, 56.7453, 27.2306, 6.54541, 1.5282, 2.80856, -0.147328, 0.00104089, -0.00152608, -0.000398054, -3.18394e-05, -0.00117863, -4.69715e-05, -0.00119542, -0.00270149, 0.00153639, 0.00663101, -0.00161618, 0.00681249, 0.471007, -0.543385, 0.335894, -2.08384, -2.16584, -0.12989, 0.46946, -0.542481, 0.336495, -2.08442, -2.16657, -0.128734, -0.00028183, 0.00109222, 8.22592e-05, 0.00242888, 0.00214641, 0.00170345
0.0273381, 1.69145, -1.22477, -1.53801, -0.899965, -1.19165, 1.22862, -1.30263, 0.00227888, -0.000590873, 0.00012041, -0.00328569, 0.00286342, 0.000237188, 0.0011279, -0.884941, 56.5985, 27.1552, 6.54541, 1.48517, 2.81589, -0.186696, 0.00104424, -0.00152182, -0.000398274, -3.31793e-05, -0.00117663, -4.95238e-05, -0.00128287, -0.00267278, -0.000754964, -0.000318211, -0.0011127, 0.00589241, 0.471007, -0.543384, 0.335894, -2.08384, -2.16584, -0.129891, 0.469464, -0.542477, 0.336495, -2.08442, -2.16657, -0.128738, -0.000309711, 0.0012036, 9.14692e-05, 0.0022865, 0.00269565, -0.000535437
0.0283381, 1.69146, -1.22476, -1.53801, -0.899968, -1.19165, 1.22862, -1.30263, 0.00346446, 0.00292384, 0.000165879, -0.00470463, 0.00373998, -0.000605596, -0.00216419, -0.960319, 56.3049, 27.0084, 6.5097, 1.43573, 2.83694, -0.10796, 0.00104978, -0.00151532, -0.000402535, -3.71256e-05, -0.00118079, -6.72515e-05, -0.00271886, -0.00356806, 0.000999427, -0.00116926, 0.00154295, 0.011934, 0.471007, -0.543383, 0.335894, -2.08384, -2.16584, -0.129891, 0.46947, -0.542471, 0.3365, -2.0844, -2.16659, -0.128741, -0.000339009, 0.00132085, 0.000101215, 0.00316329, 0.00399714, 0.00140252
0.0293381, 1.69146, -1.22476, -1.53801, -0.899971, -1.19165, 1.22862, -1.30263, 0.0015181, 0.00350144, -0.000619098, -0.00182776, -0.00131097, 0.00206244, 0.00186814, -0.920646, 56.0828, 26.8934, 6.43433, 1.41192, 2.89462, -0.0814099, 0.00104902, -0.0015147, -0.000402685, -3.43246e-05, -0.0011857, -6.63729e-05, 0.000508081, -0.00163047, 0.0018093, -0.000163394, 0.00744959, 0.00146592, 0.471006, -0.543382, 0.335894, -2.08384, -2.16584, -0.129892, 0.469471, -0.542471, 0.3365, -2.0844, -2.16659, -0.128734, -0.000369746, 0.00144407, 0.00011151, 0.0013421, 0.000730688, 0.00177007
0.0303381, 1.69146, -1.22477, -1.53801, -0.899976, -1.19165, 1.22862, -1.30263, 0.00111442, 0.000880859, 0.0024676, -0.00155943, -0.000111598, 0.0043373, 0.00211191, -0.920646, 56.1185, 26.7466, 6.43433, 1.3808, 2.95138, -0.0951428, 0.00105154, -0.0015096, -0.000398111, -3.38305e-05, -0.00117864, -7.43574e-05, 0.000502701, -0.00251217, 0.00163391, 0.0050438, 0.00488974, 0.00261732, 0.471006, -0.543381, 0.335894, -2.08384, -2.16584, -0.129893, 0.469475, -0.542466, 0.336496, -2.08439, -2.1666, -0.128742, -0.000401943, 0.00157338, 0.000122367, 0.00218394, 0.000928376, 0.00158201
0.0313381, 1.69146, -1.22477, -1.53801, -0.899978, -1.19165, 1.22862, -1.30262, 0.00288732, 0.00459858, 0.000394841, -0.0026988, -0.000808085, 0.00665768, 0.00238841, -0.884941, 56.1938, 26.7823, 6.35895, 1.3927, 2.99441, -0.114369, 0.00104981, -0.0015065, -0.000393521, -3.25421e-05, -0.00118079, -7.07067e-05, -2.97407e-05, -0.00370384, 0.00304528, 0.00442138, 0.0107497, 0.00388658, 0.471006, -0.54338, 0.335895, -2.08384, -2.16584, -0.129894, 0.469478, -0.542465, 0.336491, -2.08439, -2.16659, -0.128739, -0.00043562, 0.00170887, 0.000133799, 0.0033723, 0.00142102, 0.00303378
0.0323381, 1.69146, -1.22477, -1.53801, -0.899983, -1.19165, 1.22864, -1.30263, 0.00139211, 0.00240261, -4.80281e-05, -0.00542657, -0.00167391, 0.00506926, -0.000139214, -0.734184, 56.2296, 26.7823, 6.35895, 1.41742, 3.00174, -0.0621838, 0.00104884, -0.00150257, -0.000395659, -4.30575e-05, -0.0011906, -7.944e-05, 0.0002781, -0.00307821, 0.00117003, 0.00100119, 0.00886622, 0.00695623, 0.471005, -0.543378, 0.335895, -2.08383, -2.16584, -0.129895, 0.469481, -0.542465, 0.336493, -2.08439, -2.16661, -0.128743, -0.000470796, 0.00185063, 0.00014582, 0.00265562, 0.00152193, 0.00116521
0.0333381, 1.69147, -1.22477, -1.53801, -0.899991, -1.19165, 1.22865, -1.30262, 0.00612888, -3.24189e-05, -0.00119348, -0.00730276, -0.0017554, 0.00897306, 0.00175358, -0.694511, 56.3049, 26.822, 6.35895, 1.43024, 2.99441, -0.10796, 0.00105147, -0.00149346, -0.000396551, -5.29472e-05, -0.00120118, -8.79488e-05, -0.00133776, -0.0067333, -0.000820071, 0.00153142, 0.00898285, 0.0109505, 0.471005, -0.543376, 0.335895, -2.08383, -2.16584, -0.129896, 0.46949, -0.54246, 0.336495, -2.08439, -2.16663, -0.128745, -0.000507488, 0.00199877, 0.000158442, 0.00613967, 0.00372118, -0.000646585
0.0343381, 1.69147, -1.22477, -1.53801, -0.899996, -1.19165, 1.22867, -1.30262, 0.00425887, -0.000760021, -0.00264117, -0.00557964, -0.000819106, 0.0117293, 0.00223172, -0.543754, 56.3406, 26.8934, 6.35895, 1.41742, 2.98709, -0.133595, 0.00104893, -0.00148924, -0.000398147, -6.69734e-05, -0.00121258, -9.0602e-05, 0.0006325, -0.00570018, -0.00116708, 0.00415167, 0.00891114, 0.00685651, 0.471004, -0.543375, 0.335895, -2.08383, -2.16584, -0.129898, 0.469494, -0.542461, 0.336496, -2.0844, -2.16664, -0.128751, -0.000545713, 0.00215336, 0.000171677, 0.00512759, 0.0019418, -0.00125066
0.0353381, 1.69148, -1.22478, -1.53801, -0.900002, -1.19165, 1.22869, -1.30262, 0.00477276, -0.00303253, -0.00189209, -0.00735629, 3.94297e-05, 0.013023, 0.00157273, -0.468376, 56.4517, 26.8934, 6.35895, 1.39911, 3.00174, -0.133595, 0.00104941, -0.00148056, -0.000396517, -7.8671e-05, -0.00122002, -0.000102664, 6.59984e-05, -0.00692497, -0.00238348, 0.00521893, 0.00688529, 0.0103792, 0.471004, -0.543373, 0.335895, -2.08383, -2.16584, -0.129899, 0.469502, -0.542458, 0.336494, -2.08439, -2.16667, -0.128759, -0.000585484, 0.00231447, 0.000185536, 0.00624685, 0.00289956, -0.00238689
0.0363381, 1.69148, -1.22478, -1.538, -0.900006, -1.19165, 1.22871, -1.30263, 0.00342453, -0.00280245, -0.000524659, -0.0055628, 0.000397595, 0.0132005, -0.00129532, -0.317619, 56.4874, 26.8577, 6.35895, 1.38721, 3.03744, -0.0685925, 0.00104694, -0.00147544, -0.000397982, -9.57317e-05, -0.00122966, -0.00011083, 0.00100544, -0.00611169, -0.00141469, 0.00781912, 0.00680823, 0.0112393, 0.471003, -0.54337, 0.335895, -2.08383, -2.16584, -0.129901, 0.469507, -0.542458, 0.336495, -2.0844, -2.16669, -0.128771, -0.000626814, 0.0024822, 0.000200032, 0.00546186, 0.00195744, -0.0015371
0.0373381, 1.69149, -1.22476, -1.538, -0.900007, -1.19165, 1.22873, -1.30262, 0.00597158, 0.00244143, -0.000423635, -0.00336727, 0.000687655, 0.013445, 0.000642284, -0.317619, 56.3049, 26.8577, 6.32324, 1.37439, 3.07315, -0.10796, 0.00104969, -0.00146452, -0.000406901, -0.000112586, -0.00125419, -0.000117396, 0.00014539, -0.00708592, 0.00190551, 0.00934966, 0.0119864, 0.010073, 0.471003, -0.543368, 0.335896, -2.08382, -2.16584, -0.129903, 0.469517, -0.542454, 0.336504, -2.08441, -2.16671, -0.128767, -0.000669715, 0.00265659, 0.000215176, 0.00648104, 0.00250968, 0.00186062
0.0383381, 1.6915, -1.22477, -1.538, -0.900009, -1.19165, 1.22874, -1.30262, 0.00904536, -1.21818e-05, 0.00142542, -0.00478318, 0.000181984, 0.013391, -1.07026e-05, -0.242241, 56.3763, 26.7823, 6.28357, 1.3808, 3.11618, -0.0951428, 0.0010487, -0.00145574, -0.000405541, -0.000127492, -0.00126218, -0.000127057, -0.00151331, -0.00946649, 0.000770779, 0.00933335, 0.0102267, 0.0158902, 0.471002, -0.543365, 0.335896, -2.08382, -2.16584, -0.129904, 0.469525, -0.542452, 0.336503, -2.08441, -2.16673, -0.128778, -0.000714195, 0.00283772, 0.000230977, 0.00871376, 0.00460042, 0.00094167
0.0393381, 1.6915, -1.22476, -1.53801, -0.900011, -1.19165, 1.22876, -1.30262, 0.00750695, 0.00883926, -1.92891e-05, -0.00288941, 0.000329361, 0.0139294, -0.000488892, -0.131157, 56.2653, 26.822, 6.24786, 1.37439, 3.14548, -0.0814099, 0.00104801, -0.00144754, -0.000410119, -0.000143123, -0.00128026, -0.000131497, -0.000598709, -0.00791949, 0.00586103, 0.01049, 0.0192801, 0.0125229, 0.471001, -0.543363, 0.335896, -2.08382, -2.16584, -0.129906, 0.469533, -0.54245, 0.336507, -2.08442, -2.16675, -0.12878, -0.000760263, 0.00302564, 0.000247448, 0.00733918, 0.00303853, 0.00588901
0.0403381, 1.69151, -1.22477, -1.53801, -0.900017, -1.19165, 1.22879, -1.30262, 0.00920479, 0.00466566, -4.40201e-05, -0.00316337, 0.000638393, 0.0182444, -0.00152648, -0.0161054, 56.3406, 26.822, 6.28357, 1.36249, 3.19583, -0.0484509, 0.00104735, -0.00143606, -0.000407203, -0.000158035, -0.00129169, -0.000146169, -0.000445304, -0.0098688, 0.00366991, 0.0136275, 0.0172938, 0.0157781, 0.471001, -0.54336, 0.335896, -2.08381, -2.16584, -0.129908, 0.469544, -0.542447, 0.336504, -2.08441, -2.16678, -0.128788, -0.000807924, 0.0032204, 0.000264596, 0.00916469, 0.00349891, 0.00366004
0.0413381, 1.69152, -1.22476, -1.53801, -0.90002, -1.19165, 1.22882, -1.30262, 0.00600043, 0.00527572, -5.27172e-05, -0.00549895, 0.000646461, 0.0223449, 0.000726791, 0.170357, 56.2653, 26.822, 6.28357, 1.35608, 3.22421, -0.0951428, 0.00104549, -0.00142701, -0.00041307, -0.000178987, -0.00131551, -0.000147168, 0.000856865, -0.00937252, 0.00424564, 0.0166292, 0.0202543, 0.0125335, 0.471, -0.543357, 0.335896, -2.08381, -2.16584, -0.129911, 0.469552, -0.542447, 0.33651, -2.08443, -2.1668, -0.12879, -0.000857184, 0.00342203, 0.000282433, 0.00868716, 0.00230607, 0.00405919
0.0423381, 1.69152, -1.22476, -1.53801, -0.90002, -1.19164, 1.22885, -1.30262, 0.00652051, 0.00289066, -5.26727e-05, -0.00238617, 0.00109677, 0.0260205, 0.000224595, 0.360787, 56.3049, 26.822, 6.20819, 1.33777, 3.23886, -0.0878186, 0.00104154, -0.00141738, -0.000414419, -0.000205934, -0.00133046, -0.000152458, 0.00228018, -0.00977817, 0.00359113, 0.0212437, 0.0192985, 0.0111646, 0.470999, -0.543353, 0.335897, -2.08381, -2.16584, -0.129913, 0.469561, -0.542447, 0.33651, -2.08445, -2.16683, -0.128807, -0.000908043, 0.00363059, 0.000300968, 0.00906871, 0.00122684, 0.00319827
0.0433381, 1.69154, -1.22477, -1.53801, -0.900019, -1.19164, 1.22887, -1.30262, 0.0088711, -0.00128042, -0.000883479, -0.00434224, 0.000721905, 0.0275792, -0.00177455, 0.475838, 56.4517, 26.8577, 6.17248, 1.33777, 3.28097, -0.0356336, 0.00103924, -0.00140503, -0.000408245, -0.000223733, -0.00133471, -0.000164804, 0.00168317, -0.0117507, 0.000605834, 0.0200612, 0.0167541, 0.0168913, 0.470998, -0.54335, 0.335897, -2.0838, -2.16584, -0.129916, 0.469572, -0.542444, 0.336504, -2.08444, -2.16685, -0.128827, -0.000960503, 0.00384608, 0.000320207, 0.0108571, 0.00257206, 0.000302987
0.0443381, 1.69155, -1.22476, -1.53802, -0.900019, -1.19164, 1.22891, -1.30261, 0.008897, 0.00191446, -0.00143406, -0.00477052, 0.000474312, 0.0300742, 0.000756124, 0.6623, 56.3406, 26.8934, 6.09711, 1.33777, 3.2883, -0.0878186, 0.00103555, -0.00139401, -0.000414994, -0.000250328, -0.00136527, -0.00016227, 0.00188625, -0.0121798, 0.00246196, 0.021701, 0.0216925, 0.0145121, 0.470997, -0.543346, 0.335897, -2.0838, -2.16584, -0.129919, 0.469583, -0.542445, 0.33651, -2.08447, -2.16687, -0.128828, -0.00101456, 0.00406854, 0.000340161, 0.0113059, 0.00232585, 0.00211124
0.0453381, 1.69156, -1.22477, -1.53802, -0.900023, -1.19165, 1.22894, -1.30261, 0.0103784, -0.000359724, -0.000963437, -0.003844, -0.00012982, 0.0324215, 0.000271506, 0.777352, 56.416, 26.8934, 6.09711, 1.34967, 3.28097, -0.0814099, 0.00103418, -0.00137811, -0.000412809, -0.000276023, -0.0013814, -0.00017749, 0.00221735, -0.013336, 0.00156885, 0.0239017, 0.0212669, 0.0158716, 0.470996, -0.543342, 0.335898, -2.08379, -2.16583, -0.129921, 0.469598, -0.542441, 0.336507, -2.08447, -2.16691, -0.128844, -0.00107022, 0.00429798, 0.000360835, 0.0123845, 0.00241326, 0.00116378
0.0463381, 1.69158, -1.22478, -1.53802, -0.900021, -1.19164, 1.22898, -1.30262, 0.0117974, -0.00181484, -0.000647837, -0.00222519, 0.000587708, 0.034517, -0.00174819, 0.888436, 56.4874, 26.8934, 6.0614, 1.33136, 3.25992, -0.0292249, 0.00103127, -0.00136225, -0.000411876, -0.000307918, -0.00139814, -0.000194209, 0.00245449, -0.0143644, 0.00117918, 0.0267703, 0.0204057, 0.0184581, 0.470995, -0.543338, 0.335898, -2.08379, -2.16583, -0.129925, 0.469613, -0.542439, 0.336506, -2.08447, -2.16695, -0.128867, -0.00112746, 0.0045344, 0.000382238, 0.0133488, 0.00251768, 0.000732582
0.0473381, 1.69159, -1.22477, -1.53803, -0.900014, -1.19165, 1.22902, -1.30262, 0.0164312, -0.00113834, -0.00438379, 0.000741695, -8.5848e-05, 0.035177, -0.000179425, 0.963814, 56.4874, 26.933, 5.95032, 1.34418, 3.25992, -0.0557752, 0.00102655, -0.00134707, -0.000415131, -0.000340281, -0.00142612, -0.000196398, 0.00243876, -0.015727, 0.000497318, 0.0245296, 0.0223452, 0.0169982, 0.470994, -0.543333, 0.335898, -2.08379, -2.16583, -0.129928, 0.469627, -0.542439, 0.336508, -2.0845, -2.16698, -0.128878, -0.00118629, 0.0047778, 0.000404375, 0.0146256, 0.0029374, 4.27812e-05
0.0483381, 1.69161, -1.22477, -1.53803, -0.900007, -1.19165, 1.22906, -1.30261, 0.0177476, 0.000965208, -0.00718297, 0.00197772, -0.000737602, 0.035221, 0.00581025, 1.00349, 56.416, 26.9687, 5.87494, 1.36249, 3.27456, -0.0951428, 0.00102349, -0.00133027, -0.000418761, -0.000367215, -0.00145744, -0.000200549, 0.0029897, -0.015645, 0.000865217, 0.0223931, 0.0253829, 0.00979482, 0.470993, -0.543328, 0.335899, -2.08378, -2.16583, -0.129931, 0.469643, -0.542437, 0.336511, -2.08452, -2.16701, -0.12888, -0.00124669, 0.00502817, 0.000427252, 0.0145163, 0.00258389, 0.000345839
0.0493381, 1.69163, -1.22477, -1.53804, -0.900003, -1.19165, 1.2291, -1.30262, 0.0141257, 0.000683722, -0.00921539, 0.00287174, -0.000730745, 0.0395653, 0.00228081, 1.11457, 56.416, 27.0084, 5.79956, 1.3689, 3.30295, -0.0420422, 0.00101859, -0.00131426, -0.00041933, -0.000396217, -0.00148462, -0.000210466, 0.00602487, -0.013909, 0.000697145, 0.025366, 0.0274726, 0.00817145, 0.470992, -0.543323, 0.335899, -2.08377, -2.16583, -0.129935, 0.469658, -0.542436, 0.336511, -2.08453, -2.16704, -0.12889, -0.00130866, 0.00528549, 0.000450875, 0.0128231, -0.000200342, -0.000215426
0.0503381, 1.69165, -1.22477, -1.53805, -0.899999, -1.19165, 1.22914, -1.30262, 0.0177711, 0.000486002, -0.00673867, 0.00259222, -0.000251043, 0.0378393, 0.00108896, 1.18995, 56.416, 27.0084, 5.76385, 1.36249, 3.33865, -0.0228162, 0.00101569, -0.0012965, -0.000420518, -0.000425854, -0.00150946, -0.000222822, 0.00381638, -0.0162465, 0.00109449, 0.0255495, 0.0262929, 0.0147462, 0.47099, -0.543318, 0.3359, -2.08377, -2.16583, -0.129939, 0.469674, -0.542433, 0.336512, -2.08454, -2.16708, -0.128902, -0.00137217, 0.00554973, 0.000475247, 0.0150294, 0.00227874, 0.000473683
0.0513381, 1.69167, -1.22478, -1.53805, -0.899988, -1.19166, 1.22918, -1.30261, 0.0139434, -0.00308703, -0.00401073, 0.00430129, -0.000405649, 0.0413083, 0.00310648, 1.305, 56.5628, 26.9687, 5.6488, 1.3689, 3.37436, -0.0814099, 0.00100772, -0.00128104, -0.000417953, -0.00046096, -0.00152857, -0.000218555, 0.00646061, -0.0149332, 0.00072914, 0.0319961, 0.0244301, 0.00896503, 0.470989, -0.543313, 0.3359, -2.08376, -2.16583, -0.129943, 0.469688, -0.542435, 0.336508, -2.08457, -2.1671, -0.128926, -0.00143722, 0.00582086, 0.000500373, 0.0137342, -5.80514e-05, -0.000232956
0.0523381, 1.69169, -1.22478, -1.53805, -0.899983, -1.19165, 1.22923, -1.30261, 0.01412, -0.00204104, -0.00217334, 0.00361416, 0.000644398, 0.0444802, 0.00151669, 1.41608, 56.5628, 26.933, 5.6131, 1.34418, 3.39633, -0.0621838, 0.00100294, -0.0012634, -0.000420848, -0.000498908, -0.00155523, -0.000226166, 0.00609631, -0.0162433, 0.00218913, 0.0365903, 0.0264318, 0.0127421, 0.470987, -0.543307, 0.335901, -2.08376, -2.16583, -0.129947, 0.469705, -0.542433, 0.33651, -2.08459, -2.16714, -0.128946, -0.00150377, 0.00609884, 0.000526256, 0.0150157, 0.000408433, 0.00125156
0.0533381, 1.69171, -1.22478, -1.53806, -0.899979, -1.19166, 1.22928, -1.30261, 0.0143921, -0.00218318, -0.00790876, 0.002343, -1.17334e-05, 0.0443575, 0.000146118, 1.53114, 56.5985, 26.933, 5.6131, 1.35608, 3.36062, -0.0356336, 0.000996587, -0.00124334, -0.000421087, -0.000538327, -0.00158794, -0.000237552, 0.00721514, -0.015636, -0.000108577, 0.0305186, 0.0275708, 0.012705, 0.470986, -0.543301, 0.335901, -2.08375, -2.16583, -0.129951, 0.469724, -0.542433, 0.336509, -2.08461, -2.16718, -0.128962, -0.00157182, 0.00638361, 0.000552899, 0.0142983, -8.23236e-05, -0.00114606
0.0543381, 1.69172, -1.22479, -1.53807, -0.899974, -1.19166, 1.22933, -1.30261, 0.0171072, -0.00228112, -0.0092609, 0.00234739, 0.000229145, 0.0476447, 0.00116951, 1.64619, 56.6342, 26.933, 5.57739, 1.34967, 3.3533, -0.0621838, 0.000989324, -0.00122549, -0.000421011, -0.000575036, -0.00161626, -0.000240281, 0.00688997, -0.0176088, -0.000477081, 0.0318945, 0.0293883, 0.0139899, 0.470984, -0.543294, 0.335902, -2.08374, -2.16583, -0.129956, 0.46974, -0.542433, 0.336508, -2.08463, -2.16721, -0.128979, -0.00164135, 0.0066751, 0.000580303, 0.0161741, 0.000667792, -0.00149157
0.0553381, 1.69174, -1.22479, -1.53808, -0.89996, -1.19166, 1.22939, -1.30261, 0.0174657, -0.00151358, -0.00920181, 0.00737931, 0.000152469, 0.0512133, 0.00108359, 1.72157, 56.6342, 26.8934, 5.46234, 1.34967, 3.31759, -0.0685925, 0.000979251, -0.00120775, -0.00042449, -0.000622918, -0.00165027, -0.000239819, 0.00882341, -0.0173856, 0.00101238, 0.0374303, 0.031872, 0.0102217, 0.470983, -0.543288, 0.335902, -2.08374, -2.16583, -0.12996, 0.469757, -0.542436, 0.33651, -2.08467, -2.16725, -0.129002, -0.00171231, 0.00697325, 0.000608468, 0.0160033, -0.00118126, -0.000286277
0.0563381, 1.69177, -1.22479, -1.53809, -0.899959, -1.19166, 1.22944, -1.30261, 0.0186345, -0.000168464, -0.0128487, 0.00515488, -0.000610651, 0.0524388, -0.00139782, 1.75727, 56.5985, 27.0084, 5.46234, 1.3689, 3.31759, -0.00999879, 0.000971897, -0.00118735, -0.000424069, -0.000654263, -0.00169035, -0.000254652, 0.00886357, -0.018072, 0.000268101, 0.0338379, 0.035244, 0.0139746, 0.470981, -0.543281, 0.335903, -2.08373, -2.16582, -0.129965, 0.469776, -0.542435, 0.336508, -2.08468, -2.1673, -0.129003, -0.00178469, 0.00727797, 0.000637396, 0.0165909, -0.000773383, -0.00101927
0.0573381, 1.69179, -1.22479, -1.5381, -0.899956, -1.19167, 1.2295, -1.3026, 0.018675, -0.000943497, -0.00947762, 0.00670899, -0.00554876, 0.0572068, 0.00151306, 1.83265, 56.6342, 27.0084, 5.46234, 1.3808, 3.33865, -0.0750012, 0.000963509, -0.00116678, -0.000424101, -0.000693801, -0.00172797, -0.000252504, 0.0104629, -0.0187314, 0.00166628, 0.0393151, 0.0408581, 0.00993999, 0.470979, -0.543273, 0.335904, -2.08372, -2.16582, -0.129971, 0.469795, -0.542435, 0.336507, -2.08472, -2.16733, -0.129013, -0.00185846, 0.00758918, 0.000667086, 0.0172835, -0.0022293, 0.000122638
0.0583381, 1.69181, -1.22478, -1.53811, -0.899948, -1.19167, 1.22956, -1.3026, 0.0184634, 0.00104446, -0.00916674, 0.00885751, -0.00385366, 0.0565381, 0.00151151, 1.90803, 56.5628, 26.9687, 5.42664, 1.37439, 3.3533, -0.0878186, 0.000955627, -0.00114653, -0.000430216, -0.000740071, -0.00176892, -0.00025655, 0.0108539, -0.0182823, 0.00321679, 0.0410313, 0.041252, 0.00875222, 0.470977, -0.543266, 0.335904, -2.08371, -2.16582, -0.129976, 0.469814, -0.542436, 0.336512, -2.08475, -2.16738, -0.129029, -0.00193359, 0.00790677, 0.000697537, 0.0168299, -0.00255496, 0.00163677
0.0593381, 1.69183, -1.22479, -1.53812, -0.899941, -1.19167, 1.22962, -1.30261, 0.0192634, -0.00189988, -0.0109715, 0.0105249, -0.00310035, 0.0608663, -0.00137877, 1.9477, 56.6739, 27.0084, 5.38696, 1.3808, 3.36062, -0.0228162, 0.000943973, -0.0011267, -0.000426216, -0.00077907, -0.00180284, -0.000266337, 0.0122797, -0.0190354, 0.00144288, 0.0440047, 0.040191, 0.010628, 0.470975, -0.543258, 0.335905, -2.0837, -2.16582, -0.129982, 0.469832, -0.542438, 0.336506, -2.08477, -2.16742, -0.129045, -0.00201003, 0.00823062, 0.000728745, 0.0174926, -0.00333445, -0.000327849
0.0603381, 1.69185, -1.22479, -1.53813, -0.899946, -1.19167, 1.22967, -1.3026, 0.0197467, -0.00126489, -0.00942764, 0.00500373, -0.00204996, 0.0589715, 0.000317321, 1.98341, 56.6739, 26.933, 5.50201, 1.37439, 3.38168, -0.0557752, 0.000937976, -0.001104, -0.000427582, -0.000816963, -0.00184292, -0.000278461, 0.00997231, -0.0206361, 0.0014236, 0.0415628, 0.0397831, 0.0155477, 0.470973, -0.54325, 0.335906, -2.08369, -2.16582, -0.129988, 0.469853, -0.542435, 0.336507, -2.08479, -2.16747, -0.129053, -0.00208776, 0.00856062, 0.000760709, 0.0189302, -0.000657935, -4.9365e-06
0.0613381, 1.69187, -1.22479, -1.53815, -0.899935, -1.19168, 1.22974, -1.3026, 0.0216401, 0.00175647, -0.0152583, 0.00560783, -0.00176931, 0.058481, 0.00517462, 1.9477, 56.5628, 27.0084, 5.42664, 1.3808, 3.38168, -0.0685925, 0.00092691, -0.00108239, -0.00043102, -0.000860171, -0.00189122, -0.000275957, 0.0104717, -0.0204922, 0.00109485, 0.0364418, 0.043068, 0.00949094, 0.470971, -0.543241, 0.335906, -2.08369, -2.16582, -0.129994, 0.469873, -0.542437, 0.336509, -2.08483, -2.16751, -0.129058, -0.00216672, 0.00889664, 0.000793423, 0.0187136, -0.000770121, -0.000370181
0.0623381, 1.6919, -1.2248, -1.53816, -0.899934, -1.19168, 1.2298, -1.3026, 0.020201, -0.00226174, -0.011705, 0.00328491, -0.000625353, 0.0577063, 0.00430639, 1.90803, 56.7096, 26.8934, 5.46234, 1.36249, 3.38901, -0.0814099, 0.000919685, -0.00105658, -0.000428438, -0.000905925, -0.00192391, -0.000289723, 0.0101032, -0.020955, -0.000298301, 0.0382029, 0.0380461, 0.0133643, 0.470969, -0.543232, 0.335907, -2.08368, -2.16582, -0.13, 0.469896, -0.542434, 0.336505, -2.08485, -2.16756, -0.129083, -0.0022469, 0.00923859, 0.000826888, 0.0190321, 0.000169342, -0.00166915
0.0633381, 1.69192, -1.2248, -1.53818, -0.899933, -1.19169, 1.22987, -1.3026, 0.0198404, -0.00150711, -0.017048, 0.00471607, -0.00118806, 0.0627599, 0.00146195, 1.9477, 56.7096, 26.9687, 5.50201, 1.3808, 3.37436, -0.0356336, 0.000905781, -0.00103683, -0.000425435, -0.000938451, -0.00197255, -0.000296079, 0.0127197, -0.0204096, -0.00106054, 0.0384809, 0.042349, 0.0120615, 0.470967, -0.543223, 0.335908, -2.08367, -2.16581, -0.130006, 0.469914, -0.542437, 0.3365, -2.08487, -2.1676, -0.129077, -0.00232828, 0.00958644, 0.000861108, 0.0184722, -0.00197063, -0.00277772
0.0643381, 1.69194, -1.2248, -1.53819, -0.899926, -1.19169, 1.22993, -1.3026, 0.0215795, -0.000168982, -0.0199964, 0.00362268, -0.000420969, 0.0613737, 0.000952109, 1.90803, 56.6739, 27.0084, 5.50201, 1.3689, 3.36703, -0.0292249, 0.000894319, -0.00101434, -0.000426713, -0.000979273, -0.00201959, -0.000301346, 0.0121719, -0.020989, -0.00166309, 0.0343979, 0.0430931, 0.014296, 0.470965, -0.543213, 0.335909, -2.08366, -2.16581, -0.130013, 0.469935, -0.542438, 0.3365, -2.0849, -2.16765, -0.129082, -0.00241084, 0.00994017, 0.000896084, 0.018927, -0.000959407, -0.00327022
0.0653381, 1.69197, -1.2248, -1.53821, -0.899924, -1.19169, 1.22999, -1.30259, 0.0197964, -0.000112251, -0.0170981, 0.00193888, -0.0047723, 0.0649857, 0.00272864, 1.87232, 56.6739, 26.9687, 5.53772, 1.36249, 3.3533, -0.0814099, 0.000884789, -0.00098983, -0.00042681, -0.00102136, -0.00206287, -0.000306629, 0.0134529, -0.0211133, -0.000398464, 0.0375445, 0.0487945, 0.012413, 0.470962, -0.543204, 0.33591, -2.08365, -2.16581, -0.13002, 0.469957, -0.542436, 0.336499, -2.08493, -2.16769, -0.129093, -0.00249458, 0.0102997, 0.000931821, 0.019059, -0.00205416, -0.00218873
0.0663381, 1.69199, -1.22479, -1.53822, -0.899921, -1.1917, 1.23005, -1.30259, 0.0205486, -7.45317e-05, -0.0173848, 0.000633797, -0.00361049, 0.0623207, 0.00146522, 1.87232, 56.6739, 26.8934, 5.57739, 1.36249, 3.36703, -0.0685925, 0.000873175, -0.000967896, -0.000428685, -0.00106016, -0.00211178, -0.000311135, 0.0126501, -0.0214901, -0.000911333, 0.0348032, 0.0471156, 0.0160551, 0.47096, -0.543193, 0.335911, -2.08363, -2.16581, -0.130028, 0.469977, -0.542437, 0.336499, -2.08496, -2.16774, -0.129094, -0.00257947, 0.0106651, 0.000968322, 0.0193031, -0.000801628, -0.00254544
0.0673381, 1.69201, -1.22479, -1.53824, -0.899915, -1.19171, 1.23012, -1.3026, 0.0182548, 0.00254899, -0.0204592, 0.00372277, -0.00272871, 0.0560727, -0.00110269, 1.87232, 56.5628, 26.933, 5.57739, 1.36249, 3.36703, -0.00999879, 0.000858283, -0.000948946, -0.000432028, -0.0010961, -0.00216714, -0.000314194, 0.0145292, -0.0179539, -0.000437351, 0.0291583, 0.046186, 0.0126689, 0.470957, -0.543183, 0.335912, -2.08362, -2.16581, -0.130035, 0.469994, -0.542441, 0.3365, -2.08499, -2.16778, -0.129085, -0.00266552, 0.0110363, 0.00100559, 0.01577, -0.0025034, -0.00222563
0.0683381, 1.69203, -1.22479, -1.53826, -0.899913, -1.19171, 1.23018, -1.30259, 0.0192351, 0.000864282, -0.0167646, 0.00516068, -0.0011449, 0.0564808, 0.00174035, 1.87232, 56.5985, 26.8577, 5.6131, 1.33777, 3.36062, -0.0750012, 0.000847085, -0.000924879, -0.000431147, -0.00113767, -0.00220979, -0.000316539, 0.0140186, -0.0191875, 9.14678e-05, 0.0338961, 0.0434812, 0.0121271, 0.470954, -0.543172, 0.335913, -2.08361, -2.1658, -0.130043, 0.470016, -0.54244, 0.336498, -2.08502, -2.16783, -0.129096, -0.00275269, 0.0114132, 0.00104363, 0.0169157, -0.00165317, -0.0016235
0.0693381, 1.69206, -1.22479, -1.53828, -0.89991, -1.19172, 1.23024, -1.30259, 0.021841, 0.00141153, -0.0191881, 0.00317116, -0.00118159, 0.0553559, 0.000227867, 1.79694, 56.5628, 26.8577, 5.6488, 1.34418, 3.38901, -0.0484509, 0.000834015, -0.000901636, -0.000430005, -0.00117158, -0.00226081, -0.000325344, 0.0130012, -0.0205222, -0.000936083, 0.029501, 0.0443251, 0.0170192, 0.470952, -0.54316, 0.335914, -2.0836, -2.1658, -0.130051, 0.470037, -0.54244, 0.336495, -2.08505, -2.16787, -0.129091, -0.00284098, 0.0117958, 0.00108244, 0.0180868, -5.29115e-05, -0.00248163
0.0703381, 1.69209, -1.22478, -1.5383, -0.899911, -1.19172, 1.2303, -1.3026, 0.0237741, 0.00353957, -0.0208783, 0.000775315, -0.000923451, 0.0549037, 0.00326692, 1.72157, 56.4517, 26.8577, 5.72418, 1.34418, 3.41006, -0.0164075, 0.000823277, -0.000877128, -0.000431244, -0.00120216, -0.0023163, -0.000339476, 0.0118744, -0.0218271, -0.000736961, 0.0265174, 0.0468058, 0.0174805, 0.470949, -0.543148, 0.335915, -2.08359, -2.1658, -0.130059, 0.470059, -0.542438, 0.336495, -2.08506, -2.16793, -0.129078, -0.00293038, 0.0121842, 0.00112203, 0.0192674, 0.0014707, -0.00210988
0.0713381, 1.69212, -1.22477, -1.53831, -0.899901, -1.19173, 1.23036, -1.30259, 0.0250945, 0.00495824, -0.0202918, 0.00167043, -0.000480068, 0.0553289, 0.00401998, 1.64619, 56.3406, 26.7823, 5.68848, 1.33777, 3.41006, -0.0557752, 0.000811097, -0.000853029, -0.00043653, -0.00124185, -0.00237191, -0.000337394, 0.0116484, -0.0226478, 0.000421482, 0.0279726, 0.0484145, 0.0179178, 0.470946, -0.543136, 0.335916, -2.08357, -2.1658, -0.130068, 0.470081, -0.542438, 0.336499, -2.0851, -2.16797, -0.129074, -0.00302087, 0.0125781, 0.0011624, 0.0200304, 0.00194307, -0.000915512
0.0723381, 1.69214, -1.22478, -1.53833, -0.899896, -1.19174, 1.23043, -1.30259, 0.0285169, -0.000128124, -0.0216232, 0.00135237, -0.00553603, 0.0564068, 0.00320533, 1.60651, 56.4874, 26.7823, 5.68848, 1.34967, 3.38901, -0.0621838, 0.000794306, -0.000830165, -0.000428645, -0.00127434, -0.00241533, -0.00033808, 0.0123154, -0.0242022, -0.0031409, 0.0243114, 0.04867, 0.0204069, 0.470943, -0.543124, 0.335917, -2.08356, -2.16579, -0.130077, 0.470101, -0.54244, 0.336489, -2.08513, -2.16801, -0.129075, -0.00311245, 0.0129778, 0.00120355, 0.0213864, 0.00229732, -0.0045426
0.0733381, 1.69217, -1.22478, -1.53836, -0.899895, -1.19175, 1.23049, -1.30259, 0.0277776, -8.53757e-05, -0.0234797, 0.000245425, -0.00485159, 0.0566204, 0.00136953, 1.57081, 56.4874, 26.822, 5.72418, 1.3689, 3.38168, -0.0356336, 0.000779745, -0.000806919, -0.000425486, -0.00130072, -0.00246866, -0.000346327, 0.012996, -0.023901, -0.00384544, 0.0228078, 0.0488927, 0.0220841, 0.47094, -0.543111, 0.335918, -2.08355, -2.16579, -0.130086, 0.470121, -0.54244, 0.336484, -2.08515, -2.16806, -0.129061, -0.00320508, 0.013383, 0.00124549, 0.0209919, 0.00212719, -0.00529322
0.0743381, 1.6922, -1.22478, -1.53837, -0.899886, -1.19176, 1.23054, -1.30259, 0.0282558, -5.68869e-05, -0.026052, 0.00206115, -0.00885364, 0.0571232, 0.000125571, 1.49146, 56.4874, 26.7823, 5.6488, 1.38721, 3.36703, -0.00999879, 0.000764463, -0.000783399, -0.000425484, -0.0013359, -0.00252137, -0.000352343, 0.0151169, -0.0230307, -0.00444156, 0.0199519, 0.0529168, 0.0199037, 0.470937, -0.543097, 0.33592, -2.08353, -2.16579, -0.130095, 0.470142, -0.54244, 0.336482, -2.08517, -2.1681, -0.129056, -0.00329877, 0.0137938, 0.00128822, 0.0200836, 0.000500691, -0.00614278
0.0753381, 1.69222, -1.22478, -1.5384, -0.899886, -1.19178, 1.23061, -1.30258, 0.0258348, -3.79019e-05, -0.0267135, 0.00281234, -0.0116875, 0.0573148, 0.00237534, 1.53114, 56.4874, 26.822, 5.72418, 1.39911, 3.3533, -0.0685925, 0.000747731, -0.000761243, -0.000423387, -0.00136413, -0.00257859, -0.000345264, 0.0175546, -0.0211828, -0.00438882, 0.0189843, 0.0557064, 0.0136132, 0.470933, -0.543083, 0.335921, -2.08352, -2.16579, -0.130105, 0.470161, -0.542442, 0.336478, -2.08521, -2.16814, -0.129038, -0.00339351, 0.0142102, 0.00133174, 0.0182327, -0.00157315, -0.00637066
0.0763381, 1.69226, -1.22477, -1.53841, -0.899877, -1.19179, 1.23066, -1.30259, 0.0276973, 0.00164518, -0.0235049, 0.00397207, -0.0138291, 0.0574997, 0.00021662, 1.41608, 56.416, 26.7069, 5.6488, 1.41192, 3.33865, -0.0292249, 0.000735783, -0.000734318, -0.000428073, -0.00140169, -0.00263587, -0.000358773, 0.017107, -0.0223737, -0.00215686, 0.0213832, 0.0594297, 0.017676, 0.47093, -0.543069, 0.335922, -2.0835, -2.16578, -0.130115, 0.470186, -0.542439, 0.336481, -2.08523, -2.16819, -0.129033, -0.00348927, 0.0146321, 0.00137605, 0.0193911, -0.00100449, -0.00408921
0.0773381, 1.69228, -1.22477, -1.53843, -0.899874, -1.1918, 1.23072, -1.30259, 0.0290673, 0.00202482, -0.0226453, 0.00197048, -0.0107034, 0.0616772, -0.000499325, 1.41608, 56.3763, 26.7823, 5.68848, 1.42383, 3.33865, -0.00999879, 0.000718684, -0.000712815, -0.000426185, -0.00142602, -0.00269187, -0.00036186, 0.0159341, -0.0249292, -0.00158632, 0.0261171, 0.059932, 0.0232359, 0.470926, -0.543055, 0.335924, -2.08349, -2.16578, -0.130125, 0.470204, -0.54244, 0.336478, -2.08525, -2.16824, -0.129014, -0.00358604, 0.0150594, 0.00142116, 0.0218252, 0.000597903, -0.00337583
0.0783381, 1.69231, -1.22477, -1.53846, -0.899867, -1.19181, 1.23078, -1.30259, 0.0310832, 0.000421871, -0.0249102, 0.0056498, -0.0128066, 0.0603586, 0.000667807, 1.38038, 56.416, 26.8577, 5.6488, 1.43024, 3.33865, -0.0356336, 0.000701853, -0.000688477, -0.000421249, -0.00145019, -0.00274465, -0.000362382, 0.017474, -0.0244728, -0.0030144, 0.0233502, 0.0597588, 0.019355, 0.470923, -0.543039, 0.335925, -2.08347, -2.16578, -0.130135, 0.470225, -0.54244, 0.336471, -2.08527, -2.16827, -0.128998, -0.00368381, 0.0154923, 0.00146708, 0.0212752, -0.00028772, -0.00496597
0.0793381, 1.69235, -1.22477, -1.53847, -0.899861, -1.19182, 1.23083, -1.30258, 0.0335633, 0.00204449, -0.0239194, 0.00501099, -0.0148873, 0.0588555, 0.00122963, 1.305, 56.3406, 26.822, 5.6131, 1.44855, 3.3533, -0.0557752, 0.00068782, -0.000663459, -0.000423306, -0.00147795, -0.00280252, -0.000367944, 0.0165173, -0.0257244, -0.0020367, 0.0214224, 0.0628723, 0.021842, 0.470919, -0.543024, 0.335926, -2.08345, -2.16578, -0.130146, 0.470247, -0.542438, 0.336471, -2.0853, -2.16832, -0.128981, -0.00378258, 0.0159305, 0.0015138, 0.0224276, 0.000995918, -0.00384322
0.0803381, 1.69238, -1.22477, -1.5385, -0.899862, -1.19184, 1.23088, -1.30259, 0.0324534, 0.0075914, -0.0227279, 0.00420591, -0.0163023, 0.0528282, -0.000846837, 1.22962, 56.3406, 26.8934, 5.72418, 1.46045, 3.37436, -0.00999879, 0.000674121, -0.000636228, -0.000418689, -0.00149574, -0.00285878, -0.000382174, 0.0160932, -0.0242113, 0.00108292, 0.0168475, 0.0670174, 0.0238211, 0.470915, -0.543008, 0.335928, -2.08344, -2.16577, -0.130157, 0.470271, -0.542433, 0.336465, -2.0853, -2.16837, -0.128957, -0.00388232, 0.0163742, 0.00156132, 0.0209145, 0.00131502, -0.000604139
0.0813381, 1.69241, -1.22477, -1.53851, -0.899858, -1.19185, 1.23094, -1.30258, 0.0294762, 0.00557997, -0.0160505, 0.00547603, -0.0177033, 0.0488002, -0.000542935, 1.22962, 56.3406, 26.8577, 5.76385, 1.48517, 3.38168, -0.00999879, 0.000659802, -0.00061026, -0.000420226, -0.00152647, -0.00291496, -0.000391378, 0.0169036, -0.0226561, 0.00227291, 0.0194567, 0.0640165, 0.0225369, 0.470911, -0.542992, 0.335929, -2.08342, -2.16577, -0.130169, 0.470293, -0.54243, 0.336465, -2.08532, -2.16842, -0.128946, -0.00398302, 0.0168232, 0.00160966, 0.019333, 0.0007168, 0.000539726
0.0823381, 1.69244, -1.22477, -1.53853, -0.899851, -1.19187, 1.23099, -1.30258, 0.027567, 0.00327404, -0.0151624, 0.00747971, -0.0138022, 0.0504601, 0.00134968, 1.22962, 56.3763, 26.8577, 5.76385, 1.50348, 3.38901, -0.0557752, 0.000641723, -0.000586982, -0.000417993, -0.00155239, -0.00296874, -0.000388939, 0.0182422, -0.0221618, 0.00178531, 0.0245826, 0.0595408, 0.0190749, 0.470907, -0.542975, 0.335931, -2.0834, -2.16577, -0.13018, 0.470313, -0.54243, 0.336461, -2.08535, -2.16845, -0.128932, -0.00408468, 0.0172776, 0.00165881, 0.0187681, -9.51551e-05, -8.62499e-05
0.0833381, 1.69248, -1.22476, -1.53855, -0.899847, -1.19188, 1.23104, -1.30258, 0.0259982, 0.00507311, -0.0192707, 0.00488957, -0.0155662, 0.0518069, -0.000546111, 1.11457, 56.2653, 26.933, 5.79956, 1.52179, 3.38901, -0.0164075, 0.000625762, -0.000561321, -0.000418743, -0.00157173, -0.0030345, -0.000400149, 0.0198119, -0.0212386, 0.00125388, 0.0205341, 0.064388, 0.0193899, 0.470903, -0.542958, 0.335933, -2.08338, -2.16576, -0.130192, 0.470335, -0.542428, 0.336461, -2.08536, -2.16851, -0.1289, -0.00418727, 0.0177373, 0.00170878, 0.0177808, -0.00114076, -0.000777724
0.0843381, 1.69251, -1.22476, -1.53857, -0.899839, -1.1919, 1.23109, -1.30259, 0.0296269, 0.00267302, -0.0214433, 0.00691664, -0.0164689, 0.0485382, -0.0013383, 1.03919, 56.3049, 26.9687, 5.79956, 1.5282, 3.38168, 0.0101428, 0.000607772, -0.000536324, -0.000415751, -0.00159166, -0.00309217, -0.000407048, 0.0197946, -0.0218702, -0.00109833, 0.0156119, 0.0616932, 0.0209824, 0.470899, -0.54294, 0.335934, -2.08336, -2.16576, -0.130204, 0.470357, -0.542426, 0.336456, -2.08538, -2.16855, -0.128876, -0.00429078, 0.0182023, 0.00175956, 0.0182224, -0.000269514, -0.00306621
0.0853381, 1.69254, -1.22477, -1.53859, -0.899832, -1.19192, 1.23114, -1.30259, 0.0276624, 0.000275806, -0.0190743, 0.00844426, -0.0178417, 0.0508142, 0.00353859, 1.03919, 56.3763, 26.9687, 5.79956, 1.55292, 3.37436, 0.0101428, 0.000586044, -0.000515413, -0.00041236, -0.00161347, -0.00314816, -0.000404877, 0.0218397, -0.0212344, -0.00112111, 0.0198937, 0.0617086, 0.0138576, 0.470895, -0.542922, 0.335936, -2.08334, -2.16576, -0.130217, 0.470374, -0.542428, 0.33645, -2.0854, -2.16859, -0.128856, -0.00439521, 0.0186725, 0.00181117, 0.0175557, -0.00184046, -0.00333659
0.0863381, 1.69258, -1.22476, -1.5386, -0.899828, -1.19195, 1.23119, -1.30258, 0.0287007, 0.00197748, -0.0187494, 0.00774426, -0.0181191, 0.0475867, 0.00442828, 0.928108, 56.3049, 26.8934, 5.87494, 1.55932, 3.37436, -0.0356336, 0.000571668, -0.000487876, -0.000414485, -0.00163174, -0.00321361, -0.000412662, 0.0211396, -0.0214652, -0.000418443, 0.0169318, 0.0626144, 0.0149466, 0.47089, -0.542903, 0.335938, -2.08332, -2.16575, -0.13023, 0.470398, -0.542423, 0.336451, -2.08541, -2.16864, -0.128824, -0.00450054, 0.019148, 0.0018636, 0.0176814, -0.000772593, -0.00248884
0.0873381, 1.69261, -1.22476, -1.53862, -0.899821, -1.19197, 1.23124, -1.30258, 0.0277674, 0.00233872, -0.0158929, 0.00824826, -0.0186144, 0.0452416, 0.00228309, 0.888436, 56.2653, 26.9687, 5.91064, 1.57123, 3.36703, -0.00999879, 0.000550556, -0.000466062, -0.000413965, -0.00164988, -0.00327718, -0.000414495, 0.0214128, -0.0209275, 0.000744908, 0.0176076, 0.0624784, 0.017242, 0.470886, -0.542884, 0.33594, -2.0833, -2.16575, -0.130243, 0.470416, -0.542423, 0.336448, -2.08543, -2.16868, -0.128793, -0.00460676, 0.0196287, 0.00191686, 0.0170903, -0.000763088, -0.0013137
0.0883381, 1.69264, -1.22477, -1.53864, -0.899817, -1.19199, 1.23128, -1.30258, 0.0316801, -0.00273327, -0.0139999, 0.00772748, -0.018792, 0.0441812, 0.00173232, 0.777352, 56.4517, 26.933, 5.98602, 1.57764, 3.34598, -0.00999879, 0.000531275, -0.000440277, -0.00040519, -0.00166905, -0.00332392, -0.000422414, 0.0200253, -0.0235391, -0.00191153, 0.0170184, 0.0576021, 0.0233615, 0.470881, -0.542864, 0.335942, -2.08328, -2.16574, -0.130257, 0.470437, -0.54242, 0.336438, -2.08544, -2.16871, -0.128781, -0.00471385, 0.0201145, 0.00197095, 0.0194454, 0.00161027, -0.00374585
0.0893381, 1.69268, -1.22476, -1.53866, -0.899807, -1.19201, 1.23133, -1.30258, 0.0316807, 0.00166346, -0.0162606, 0.0100668, -0.0194856, 0.0425324, 0.00202465, 0.6623, 56.3049, 27.0441, 5.95032, 1.59595, 3.34598, -0.0292249, 0.000509539, -0.000418891, -0.000407386, -0.00168002, -0.00339645, -0.000416584, 0.0212331, -0.0222486, 7.7516e-05, 0.0148104, 0.062206, 0.0199436, 0.470877, -0.542844, 0.335944, -2.08326, -2.16574, -0.13027, 0.470455, -0.542421, 0.336438, -2.08547, -2.16875, -0.128733, -0.00482181, 0.0206055, 0.00202587, 0.0181643, 0.000548974, -0.00187659
0.0903381, 1.69271, -1.22477, -1.53868, -0.899803, -1.19204, 1.23137, -1.30258, 0.0313197, 0.00176685, -0.0173463, 0.0059953, -0.0193834, 0.0411269, 0.00218012, 0.551216, 56.416, 27.0084, 6.02173, 1.60144, 3.34598, -0.0484509, 0.000488377, -0.000394195, -0.000402712, -0.00169583, -0.0034572, -0.000415791, 0.0207386, -0.022608, -0.000894122, 0.0108557, 0.0624748, 0.0228222, 0.470872, -0.542823, 0.335946, -2.08324, -2.16574, -0.130285, 0.470475, -0.54242, 0.336431, -2.08549, -2.16879, -0.128703, -0.00493062, 0.0211016, 0.00208162, 0.0183615, 0.00169836, -0.00271453
0.0913381, 1.69274, -1.22476, -1.5387, -0.899799, -1.19207, 1.23141, -1.30258, 0.0342658, 0.0040737, -0.0192394, 0.00915106, -0.0195585, 0.0452591, -0.0013401, 0.436165, 56.3049, 27.0084, 6.09711, 1.61426, 3.33865, 0.0293689, 0.000468908, -0.000369677, -0.000405541, -0.00170678, -0.0035321, -0.000428462, 0.021509, -0.0240067, 0.000467825, 0.0139902, 0.0674336, 0.0258081, 0.470867, -0.542802, 0.335948, -2.08322, -2.16573, -0.130299, 0.470496, -0.542417, 0.336433, -2.08549, -2.16884, -0.128655, -0.00504026, 0.0216028, 0.00213822, 0.019726, 0.0012866, -0.00147604
0.0923381, 1.69278, -1.22477, -1.53871, -0.89979, -1.1921, 1.23146, -1.30258, 0.0326707, -0.000494867, -0.0206987, 0.00715444, -0.0191692, 0.0430919, 0.00158062, 0.360787, 56.4517, 27.0084, 6.09711, 1.61426, 3.34598, -0.0356336, 0.000444951, -0.000346918, -0.000398518, -0.00171996, -0.00358749, -0.000419911, 0.0225815, -0.0231239, -0.00309389, 0.00997153, 0.0622517, 0.0228842, 0.470862, -0.542781, 0.33595, -2.08319, -2.16573, -0.130314, 0.470514, -0.542417, 0.336423, -2.08552, -2.16886, -0.128627, -0.00515073, 0.022109, 0.00219565, 0.0186435, 0.00124828, -0.0050761
0.0933381, 1.69281, -1.22476, -1.53873, -0.899785, -1.19213, 1.2315, -1.30258, 0.0315624, 0.00327102, -0.0216491, 0.00379669, -0.0189941, 0.0419343, 0.00110364, 0.285408, 56.3049, 27.0084, 6.17248, 1.61426, 3.33865, -0.0356336, 0.000423055, -0.000324565, -0.000403629, -0.00173225, -0.00366619, -0.000420905, 0.0222777, -0.0229167, -0.00170429, 0.0071499, 0.066155, 0.02507, 0.470857, -0.542759, 0.335952, -2.08317, -2.16572, -0.130329, 0.470532, -0.542417, 0.336426, -2.08554, -2.16891, -0.128576, -0.00526201, 0.0226203, 0.00225393, 0.0183648, 0.00183662, -0.00359279
0.0943381, 1.69284, -1.22476, -1.53875, -0.899783, -1.19216, 1.23153, -1.30258, 0.0305718, 0.000635684, -0.0219838, 0.00453232, -0.0188881, 0.0368822, -0.0011596, 0.21003, 56.3763, 27.1195, 6.24786, 1.61426, 3.31759, 0.0165515, 0.000398787, -0.000302754, -0.000397106, -0.00173164, -0.00373258, -0.000426364, 0.0232384, -0.0213665, -0.00363786, 0.00283638, 0.0614265, 0.0259524, 0.470851, -0.542736, 0.335954, -2.08315, -2.16572, -0.130344, 0.470549, -0.542416, 0.336418, -2.08554, -2.16895, -0.128524, -0.0053741, 0.0231366, 0.00231306, 0.0166692, 0.00163978, -0.00554608
0.0953381, 1.69288, -1.22476, -1.53877, -0.899774, -1.19219, 1.23157, -1.30258, 0.0292646, -0.00041015, -0.019299, 0.00785859, -0.0234463, 0.0418911, 0.000475706, 0.170357, 56.416, 27.1195, 6.20819, 1.60785, 3.31027, -0.0164075, 0.000373209, -0.000281868, -0.000394861, -0.00174338, -0.0037964, -0.000418484, 0.0262948, -0.0208758, -0.00229363, 0.00916051, 0.0666445, 0.0202391, 0.470846, -0.542713, 0.335957, -2.08312, -2.16571, -0.13036, 0.470565, -0.542417, 0.336413, -2.08556, -2.16898, -0.128487, -0.00548698, 0.0236579, 0.00237303, 0.0162253, -0.00108352, -0.00462095
0.0963381, 1.69291, -1.22476, -1.53877, -0.899775, -1.19223, 1.23161, -1.30258, 0.0290819, -0.00103809, -0.0189472, 0.00334613, -0.0227131, 0.0412429, 0.000812905, 0.0949785, 56.4517, 27.0441, 6.32324, 1.62067, 3.29562, -0.0292249, 0.000352856, -0.0002561, -0.000393989, -0.00175411, -0.00386359, -0.000428065, 0.0253437, -0.0219129, -0.00318998, 0.00712184, 0.0660198, 0.0244297, 0.470841, -0.542689, 0.335959, -2.0831, -2.16571, -0.130376, 0.470586, -0.542412, 0.336411, -2.08557, -2.16902, -0.128448, -0.00560063, 0.0241841, 0.00243385, 0.0170808, 0.000563191, -0.00532894
0.0973381, 1.69295, -1.22476, -1.53879, -0.899773, -1.19226, 1.23164, -1.30258, 0.0290621, 0.000196078, -0.0191846, 0.00282949, -0.0271691, 0.0359069, -0.00042562, 0.0196001, 56.416, 27.1195, 6.32324, 1.63898, 3.2883, -0.00267457, 0.000329392, -0.00023278, -0.000393525, -0.00175361, -0.00394169, -0.000433597, 0.0259971, -0.0205705, -0.00306432, 0.000109042, 0.0688892, 0.024807, 0.470835, -0.542665, 0.335962, -2.08307, -2.16571, -0.130393, 0.470605, -0.54241, 0.336409, -2.08558, -2.16907, -0.128385, -0.00571505, 0.0247152, 0.00249553, 0.015654, 0.000374973, -0.00520508
0.0983381, 1.69298, -1.22476, -1.5388, -0.89977, -1.1923, 1.23167, -1.30258, 0.0298612, -0.000664809, -0.0175408, 0.00233538, -0.0345298, 0.0315082, -0.000983983, -0.0914839, 56.4517, 27.1195, 6.32324, 1.63898, 3.2883, 0.0165515, 0.000306237, -0.000208998, -0.000389959, -0.001752, -0.00401087, -0.000440306, 0.0267775, -0.0198965, -0.00345857, -0.00608665, 0.0724173, 0.0252658, 0.470829, -0.54264, 0.335964, -2.08305, -2.1657, -0.13041, 0.470624, -0.542407, 0.336403, -2.08558, -2.16911, -0.128331, -0.00583022, 0.0252512, 0.00255806, 0.0148798, 0.000174231, -0.00563374
0.0993381, 1.69301, -1.22477, -1.53881, -0.899767, -1.19234, 1.23171, -1.30258, 0.0302274, -0.00208387, -0.0121493, 0.00189371, -0.0352062, 0.0285335, 0.00128567, -0.0914839, 56.5231, 27.0798, 6.32324, 1.63898, 3.28097, -0.0356336, 0.000280409, -0.000186977, -0.00038749, -0.00175913, -0.00407862, -0.000435583, 0.0258639, -0.0206495, -0.00270004, -0.0046065, 0.0703527, 0.026476, 0.470823, -0.542615, 0.335967, -2.08302, -2.16569, -0.130427, 0.470641, -0.542406, 0.336399, -2.0856, -2.16914, -0.128287, -0.00594613, 0.0257921, 0.00262146, 0.0155106, 0.00153105, -0.00470254
0.100338, 1.69305, -1.22477, -1.53883, -0.899769, -1.19238, 1.23174, -1.30258, 0.0326897, -0.00229494, -0.0132231, 0.000679852, -0.0359835, 0.0264802, -0.00106901, -0.166862, 56.5628, 27.1195, 6.35895, 1.64447, 3.26724, 0.0165515, 0.000254522, -0.000164926, -0.000384298, -0.00175518, -0.00415437, -0.000443273, 0.0251469, -0.0217507, -0.00366025, -0.00861922, 0.0705938, 0.0318929, 0.470817, -0.542589, 0.335969, -2.08299, -2.16569, -0.130444, 0.470658, -0.542404, 0.336393, -2.0856, -2.16919, -0.128224, -0.00606278, 0.0263379, 0.00268571, 0.0164333, 0.00297891, -0.00550857
0.101338, 1.69308, -1.22476, -1.53884, -0.899766, -1.19242, 1.23177, -1.30258, 0.038423, 0.0042557, -0.0120585, 0.0014779, -0.0364574, 0.0286648, -0.00169102, -0.281914, 56.4517, 27.0798, 6.32324, 1.64447, 3.27456, 0.0431018, 0.000232668, -0.000139654, -0.000389121, -0.00175827, -0.00423522, -0.000454152, 0.0228352, -0.0253162, 0.000629744, -0.00582126, 0.079194, 0.0381226, 0.470811, -0.542563, 0.335972, -2.08296, -2.16568, -0.130462, 0.470678, -0.542399, 0.336397, -2.0856, -2.16924, -0.128164, -0.00618014, 0.0268884, 0.00275083, 0.0199494, 0.00529546, -0.000956145
0.102338, 1.69311, -1.22476, -1.53885, -0.899768, -1.19246, 1.2318, -1.30258, 0.0332081, 0.000515439, -0.0122488, 0.00112735, -0.0373239, 0.0272384, 0.00131781, -0.242241, 56.5628, 27.0798, 6.32324, 1.65729, 3.24527, -0.0228162, 0.0002034, -0.000119806, -0.000385308, -0.00175946, -0.00430796, -0.00044485, 0.0260381, -0.0222421, -0.00150758, -0.00725002, 0.0759474, 0.0302974, 0.470805, -0.542536, 0.335975, -2.08294, -2.16568, -0.13048, 0.470692, -0.5424, 0.33639, -2.08562, -2.16927, -0.128109, -0.0062982, 0.0274437, 0.00281681, 0.0167994, 0.00289325, -0.00340754
0.103338, 1.69315, -1.22476, -1.53886, -0.899766, -1.19251, 1.23182, -1.30258, 0.0350188, 0.000551199, -0.0133122, 0.00178615, -0.0370988, 0.0294747, 0.000881347, -0.317619, 56.5628, 27.1195, 6.28357, 1.65088, 3.25259, -0.0228162, 0.000175773, -9.89238e-05, -0.000382985, -0.00175072, -0.00438552, -0.000443666, 0.0264015, -0.0234547, -0.0016428, -0.00603843, 0.0775629, 0.0318623, 0.470799, -0.542509, 0.335978, -2.08291, -2.16567, -0.130499, 0.470708, -0.542398, 0.336386, -2.08563, -2.1693, -0.128039, -0.00641697, 0.0280038, 0.00288366, 0.0179, 0.00316604, -0.00356843
0.104338, 1.69317, -1.22476, -1.53887, -0.899771, -1.19255, 1.23184, -1.30258, 0.0316951, -0.000312073, -0.0115937, -0.00049255, -0.0371908, 0.0263237, -0.00158047, -0.317619, 56.5985, 27.1909, 6.35895, 1.65088, 3.26724, 0.0357776, 0.000148385, -7.98463e-05, -0.000379455, -0.00173662, -0.00445966, -0.000451147, 0.0271914, -0.0219285, -0.00193652, -0.00791359, 0.0758066, 0.0341953, 0.470793, -0.542481, 0.33598, -2.08288, -2.16567, -0.130518, 0.470721, -0.542396, 0.336381, -2.08562, -2.16934, -0.127968, -0.00653641, 0.0285686, 0.00295138, 0.0162745, 0.00293394, -0.00386852
0.105338, 1.69322, -1.22476, -1.53888, -0.899771, -1.1926, 1.23187, -1.30258, 0.032945, 0.00391814, -0.0108507, -0.000268425, -0.0377492, 0.0249595, 0.000134731, -0.468376, 56.5628, 27.1552, 6.35895, 1.66369, 3.25259, 0.00373412, 0.000125659, -5.29652e-05, -0.000382054, -0.00173346, -0.00454232, -0.000458827, 0.0266845, -0.0224188, 0.000683226, -0.00837694, 0.0803724, 0.0339729, 0.470786, -0.542452, 0.335983, -2.08285, -2.16566, -0.130537, 0.470742, -0.542389, 0.336382, -2.08562, -2.16939, -0.127901, -0.00665653, 0.0291381, 0.00301998, 0.0167214, 0.00361904, -0.00115011
0.106338, 1.69325, -1.22476, -1.53889, -0.899779, -1.19264, 1.23189, -1.30258, 0.0300603, -0.000469493, -0.0120625, -0.00273245, -0.038476, 0.0236348, 0.00107435, -0.468376, 56.7096, 27.1909, 6.47003, 1.68201, 3.24527, -0.0228162, 9.69458e-05, -3.17156e-05, -0.000374881, -0.00172254, -0.00461388, -0.00045943, 0.0285021, -0.0209935, -0.00260699, -0.011964, 0.0767562, 0.0319425, 0.470779, -0.542423, 0.335986, -2.08282, -2.16566, -0.130557, 0.470758, -0.542387, 0.336373, -2.08562, -2.16942, -0.127836, -0.0067773, 0.0297122, 0.00308945, 0.0151234, 0.00284996, -0.00457035
0.107338, 1.69327, -1.22476, -1.5389, -0.899779, -1.19269, 1.23191, -1.30258, 0.0302177, -4.89296e-05, -0.0150118, -0.00178792, -0.0425358, 0.0220907, 0.000242405, -0.43267, 56.7096, 27.1909, 6.47003, 1.66919, 3.25259, -0.00999879, 6.6167e-05, -1.34882e-05, -0.000374186, -0.00171316, -0.00469335, -0.000453397, 0.0305204, -0.019705, -0.00338927, -0.0172547, 0.080468, 0.0296762, 0.470773, -0.542393, 0.335989, -2.08278, -2.16565, -0.130577, 0.47077, -0.542386, 0.33637, -2.08563, -2.16945, -0.127764, -0.00689872, 0.030291, 0.0031598, 0.0137598, 0.00150485, -0.00554927
0.108338, 1.69331, -1.22477, -1.53891, -0.899787, -1.19274, 1.23193, -1.30258, 0.0346387, -0.00150501, -0.0121182, -0.00292989, -0.0410915, 0.0168298, 0.00016227, -0.583427, 56.781, 27.2306, 6.54541, 1.66369, 3.24527, -0.00999879, 4.11226e-05, 1.22281e-05, -0.00037042, -0.0017005, -0.00477075, -0.000467616, 0.027508, -0.0222769, -0.00405669, -0.0199127, 0.0758864, 0.0373755, 0.470766, -0.542363, 0.335993, -2.08275, -2.16564, -0.130597, 0.47079, -0.542379, 0.336364, -2.08562, -2.16949, -0.127693, -0.00702078, 0.0308744, 0.00323103, 0.0160734, 0.00527193, -0.00574556
0.109338, 1.69334, -1.22476, -1.53891, -0.89979, -1.19279, 1.23195, -1.30258, 0.0338599, 0.00165085, -0.00803743, -0.00286232, -0.0451178, 0.0175111, -0.000637305, -0.583427, 56.6739, 27.1909, 6.58508, 1.66919, 3.23886, 0.0101428, 1.20308e-05, 3.11972e-05, -0.000376073, -0.00169141, -0.00485976, -0.000470223, 0.0281788, -0.0222557, -0.000615617, -0.0171486, 0.0829883, 0.0382779, 0.470759, -0.542332, 0.335996, -2.08272, -2.16564, -0.130618, 0.470803, -0.542377, 0.336368, -2.08563, -2.16954, -0.127614, -0.00714347, 0.0314625, 0.00330314, 0.0160794, 0.00466453, -0.00238127
0.110338, 1.69337, -1.22477, -1.53892, -0.89979, -1.19284, 1.23197, -1.30257, 0.0328021, -1.47733e-06, -0.00778654, -0.00189399, -0.0479899, 0.0133655, 0.000796208, -0.658806, 56.8564, 27.2663, 6.58508, 1.6756, 3.23153, -0.0228162, -2.10846e-05, 4.96208e-05, -0.000367263, -0.00167685, -0.00492663, -0.000459554, 0.0297838, -0.0205398, -0.00164652, -0.0213194, 0.0821375, 0.0344987, 0.470751, -0.542301, 0.335999, -2.08269, -2.16563, -0.130639, 0.470815, -0.542376, 0.336357, -2.08563, -2.16955, -0.12755, -0.00726676, 0.032055, 0.00337613, 0.0142632, 0.00376204, -0.00352565
0.111338, 1.6934, -1.22476, -1.53893, -0.899795, -1.19289, 1.23198, -1.30258, 0.0346338, 0.00210043, -0.00799901, -0.00208721, -0.0501995, 0.00997551, -0.00140169, -0.734184, 56.781, 27.2306, 6.62079, 1.6756, 3.23153, 0.0293689, -4.92317e-05, 7.11392e-05, -0.000371434, -0.00166527, -0.00501488, -0.000469009, 0.0294448, -0.0207677, -0.000884348, -0.025617, 0.0850814, 0.0381603, 0.470744, -0.542268, 0.336003, -2.08265, -2.16562, -0.13066, 0.470831, -0.542372, 0.336359, -2.08563, -2.1696, -0.12747, -0.00739066, 0.0326521, 0.00345001, 0.0143827, 0.00458556, -0.0026543
0.112338, 1.69343, -1.22476, -1.53894, -0.899798, -1.19294, 1.232, -1.30257, 0.0321323, -0.000109325, -0.00773201, -0.00533166, -0.0469982, 0.0125235, 0.000252543, -0.76989, 56.8564, 27.306, 6.65649, 1.6756, 3.22421, -0.00267457, -8.37872e-05, 8.82518e-05, -0.000366957, -0.00164942, -0.00509282, -0.000459328, 0.0299923, -0.0211044, -0.00215972, -0.0229545, 0.0823363, 0.0384845, 0.470737, -0.542236, 0.336006, -2.08262, -2.16562, -0.130682, 0.470841, -0.542372, 0.336352, -2.08563, -2.16962, -0.127394, -0.00751515, 0.0332538, 0.00352478, 0.0145681, 0.00485889, -0.00393545
0.113338, 1.69346, -1.22475, -1.53894, -0.899806, -1.19299, 1.23201, -1.30257, 0.0321715, 0.00504854, -0.00646697, -0.00557109, -0.0491561, 0.0093484, 0.000677147, -0.884941, 56.781, 27.3417, 6.73187, 1.66919, 3.22421, -0.0164075, -0.000113077, 0.000108567, -0.000370911, -0.00163162, -0.00518364, -0.00046141, 0.0298542, -0.0205861, 0.00102989, -0.0252285, 0.0882486, 0.0384754, 0.470729, -0.542203, 0.33601, -2.08258, -2.16561, -0.130704, 0.470855, -0.542367, 0.336355, -2.08563, -2.16966, -0.127305, -0.00764022, 0.0338599, 0.00360044, 0.0140371, 0.00508593, -0.000674622
0.114338, 1.69349, -1.22476, -1.53894, -0.899809, -1.19305, 1.23202, -1.30258, 0.0320726, 0.0011739, -0.00696733, -0.00705629, -0.0514723, 0.00725308, -0.00124387, -0.996025, 56.8921, 27.306, 6.73187, 1.68201, 3.21689, 0.0293689, -0.000145531, 0.000128482, -0.00036989, -0.00161883, -0.00526447, -0.000467187, 0.0307967, -0.0203047, -0.00178591, -0.0295209, 0.0860522, 0.0410172, 0.470722, -0.542169, 0.336013, -2.08255, -2.1656, -0.130727, 0.470869, -0.542364, 0.336352, -2.08563, -2.1697, -0.127232, -0.00776586, 0.0344704, 0.00367699, 0.0135623, 0.00519149, -0.00351783
0.115338, 1.69351, -1.22475, -1.53895, -0.899813, -1.1931, 1.23203, -1.30258, 0.0264486, 0.00192282, -0.00600958, -0.00913333, -0.0530063, 0.00566881, -0.000591799, -0.996025, 56.8564, 27.3417, 6.77154, 1.6875, 3.20956, 0.0229602, -0.000182027, 0.000141812, -0.000372141, -0.0016026, -0.00534963, -0.000456525, 0.0331741, -0.0174082, -0.00111149, -0.0307635, 0.0878674, 0.0369359, 0.470714, -0.542134, 0.336017, -2.08251, -2.16559, -0.13075, 0.470876, -0.542366, 0.336351, -2.08564, -2.16972, -0.127149, -0.00789206, 0.0350854, 0.00375444, 0.0106545, 0.00323576, -0.00305943
0.116338, 1.69354, -1.22476, -1.53895, -0.899818, -1.19316, 1.23203, -1.30257, 0.0287943, -0.00108783, 0.00200185, -0.00748601, -0.0532633, 0.00834604, 0.00177567, -1.15075, 56.9675, 27.3417, 6.80725, 1.66919, 3.22421, -0.0356336, -0.000213452, 0.000162385, -0.000367739, -0.00158256, -0.00542258, -0.000457655, 0.0321854, -0.0203827, 0.000325666, -0.0213088, 0.0864445, 0.039646, 0.470706, -0.542099, 0.336021, -2.08248, -2.16559, -0.130773, 0.470889, -0.54236, 0.336345, -2.08563, -2.16975, -0.127076, -0.0080188, 0.0357048, 0.00383279, 0.0135153, 0.00473196, -0.0014993
0.117338, 1.69357, -1.22475, -1.53895, -0.899826, -1.19322, 1.23204, -1.30258, 0.0283357, 0.00120958, 0.00157052, -0.0102932, -0.0592976, 0.0113339, 0.000234396, -1.22613, 56.8921, 27.3417, 6.88263, 1.6875, 3.21689, -0.00999879, -0.000247743, 0.000179966, -0.000372583, -0.0015659, -0.0055177, -0.00045984, 0.0335614, -0.0206059, 0.00145137, -0.022898, 0.0960689, 0.0413131, 0.470698, -0.542063, 0.336024, -2.08244, -2.16558, -0.130797, 0.4709, -0.542358, 0.336348, -2.08563, -2.16979, -0.126985, -0.00814607, 0.0363285, 0.00391203, 0.0137023, 0.00383275, -0.000532008
0.118338, 1.6936, -1.22476, -1.53895, -0.899831, -1.19327, 1.23204, -1.30258, 0.0254189, -0.000828181, 0.000388755, -0.00743806, -0.0532855, 0.00848539, -0.00181039, -1.30151, 56.9675, 27.3774, 6.88263, 1.66919, 3.21689, 0.0431018, -0.000283532, 0.000197438, -0.000369526, -0.00154647, -0.00559668, -0.00046003, 0.0353039, -0.0184194, 0.000155907, -0.0219093, 0.0881044, 0.0398267, 0.47069, -0.542027, 0.336028, -2.0824, -2.16557, -0.130821, 0.470911, -0.542356, 0.336343, -2.08562, -2.16982, -0.126908, -0.00827387, 0.0369566, 0.00399218, 0.0114072, 0.00285163, -0.00193822
0.119338, 1.69362, -1.22476, -1.53895, -0.899835, -1.19332, 1.23205, -1.30258, 0.0240831, 0.0003796, -0.000536129, -0.00539063, -0.0535213, 0.00689655, 0.00123451, -1.41259, 56.9318, 27.417, 6.88263, 1.65088, 3.20224, -0.0228162, -0.00031988, 0.000212963, -0.000371631, -0.00153019, -0.00567942, -0.000449197, 0.0371074, -0.0168139, 0.00077964, -0.0228443, 0.0892171, 0.0335044, 0.470682, -0.54199, 0.336032, -2.08236, -2.16556, -0.130845, 0.470919, -0.542355, 0.336343, -2.08562, -2.16984, -0.126829, -0.00840218, 0.0375891, 0.00407323, 0.00976422, 0.00154101, -0.00147619
0.120338, 1.69364, -1.22476, -1.53895, -0.899844, -1.19338, 1.23205, -1.30258, 0.0241572, -0.00218021, 0.000670142, -0.0087744, -0.0542464, 0.00562915, -0.000635034, -1.45226, 57.0389, 27.3774, 6.95801, 1.64447, 3.18851, 0.0165515, -0.000359487, 0.000227003, -0.000369442, -0.0015119, -0.00576126, -0.000443395, 0.0367229, -0.0176626, -0.000862139, -0.0249965, 0.0875174, 0.0391714, 0.470673, -0.541953, 0.336036, -2.08232, -2.16556, -0.13087, 0.470926, -0.542355, 0.336338, -2.08562, -2.16987, -0.12675, -0.008531, 0.0382258, 0.00415518, 0.0104095, 0.00284788, -0.00298208
0.121338, 1.69367, -1.22476, -1.53894, -0.899846, -1.19344, 1.23206, -1.30258, 0.0249482, -0.000563972, 0.00219185, -0.00542232, -0.0495209, 0.00573858, -0.00113542, -1.63873, 57.0032, 27.306, 6.91833, 1.62616, 3.14548, 0.0357776, -0.000393648, 0.000247169, -0.000375789, -0.00150413, -0.00584911, -0.000446125, 0.0366164, -0.0182504, 0.0010832, -0.0196886, 0.0856073, 0.0401893, 0.470665, -0.541914, 0.33604, -2.08228, -2.16555, -0.130895, 0.47094, -0.542351, 0.336342, -2.08562, -2.16991, -0.126678, -0.0086603, 0.0388668, 0.00423804, 0.010935, 0.00331685, -0.000981456
0.122338, 1.69369, -1.22476, -1.53894, -0.899855, -1.19349, 1.23206, -1.30258, 0.0254546, 0.000499949, 0.000682009, -0.0088642, -0.0503939, 0.00439107, 0.000938488, -1.7141, 56.9675, 27.3417, 6.99371, 1.60144, 3.13815, -0.00999879, -0.000433923, 0.000260145, -0.000375175, -0.00147899, -0.00593566, -0.00043448, 0.0362718, -0.01878, 0.000570972, -0.0241261, 0.0878023, 0.0409758, 0.470656, -0.541875, 0.336045, -2.08224, -2.16554, -0.130921, 0.470945, -0.542351, 0.336339, -2.08562, -2.16993, -0.126587, -0.00879009, 0.039512, 0.00432181, 0.0113033, 0.00440431, -0.00136699
0.123338, 1.69371, -1.22476, -1.53894, -0.899864, -1.19355, 1.23206, -1.30258, 0.0231779, -0.0013066, 0.00133188, -0.00728557, -0.0524039, 0.00369048, 0.000117041, -1.78948, 57.0389, 27.306, 7.02942, 1.60785, 3.1235, 0.00373412, -0.000472685, 0.000275041, -0.000374614, -0.0014595, -0.00601516, -0.000432318, 0.0387764, -0.0170476, 4.53735e-05, -0.0240779, 0.087732, 0.0382248, 0.470647, -0.541836, 0.336049, -2.0822, -2.16553, -0.130947, 0.470953, -0.542349, 0.336336, -2.08561, -2.16996, -0.12651, -0.00892034, 0.0401615, 0.0044065, 0.00951524, 0.00259182, -0.00214226
0.124338, 1.69373, -1.22476, -1.53894, -0.899867, -1.19361, 1.23206, -1.30258, 0.0213948, -0.00261141, 0.000919418, -0.00442749, -0.0527069, 0.00313437, -0.000871402, -1.86486, 57.1143, 27.306, 6.99371, 1.58313, 3.10977, 0.0293689, -0.000514636, 0.000288822, -0.000372759, -0.00144013, -0.00609568, -0.000421665, 0.0412967, -0.0153287, -0.000397864, -0.0234628, 0.0868111, 0.0350612, 0.470638, -0.541796, 0.336053, -2.08216, -2.16552, -0.130973, 0.470959, -0.54235, 0.336332, -2.08562, -2.16997, -0.126432, -0.00905105, 0.0408151, 0.00449209, 0.00774385, 0.000755818, -0.00283834
0.125338, 1.69375, -1.22476, -1.53894, -0.899878, -1.19367, 1.23206, -1.30258, 0.0211199, 3.94763e-05, -0.00103387, -0.00409112, -0.0583452, 0.00275618, 0.000131147, -1.97991, 57.0389, 27.3774, 7.02942, 1.57764, 3.09512, 0.0101428, -0.000555634, 0.000303449, -0.000374016, -0.00141241, -0.00619147, -0.000411012, 0.0434171, -0.0141093, 0.000526941, -0.0276094, 0.0946614, 0.0310136, 0.470629, -0.541755, 0.336058, -2.08212, -2.16551, -0.131, 0.470966, -0.542349, 0.336331, -2.08562, -2.17, -0.12633, -0.00918221, 0.0414729, 0.0045786, 0.00650642, -0.000873082, -0.00213574
0.126338, 1.69377, -1.22476, -1.53894, -0.899885, -1.19373, 1.23206, -1.30257, 0.0197754, 3.91991e-05, 0.000163688, -0.0029556, -0.0625068, 0.00165924, 0.00107078, -2.05529, 57.0389, 27.3417, 7.02942, 1.57123, 3.10245, -0.0164075, -0.000597874, 0.000316078, -0.00037498, -0.00138986, -0.00627662, -0.000397664, 0.0454835, -0.0127483, 0.00111247, -0.0286192, 0.0979983, 0.0273276, 0.47062, -0.541714, 0.336063, -2.08207, -2.1655, -0.131027, 0.470971, -0.542349, 0.336329, -2.08562, -2.17001, -0.126245, -0.00931381, 0.0421348, 0.00466602, 0.0051129, -0.00239782, -0.00175456
0.127338, 1.69379, -1.22476, -1.53894, -0.899897, -1.19379, 1.23206, -1.30258, 0.0160745, -0.00172744, 0.000122413, -0.00306956, -0.0564014, 0.00117595, -0.00121892, -2.13067, 57.1143, 27.3417, 7.06909, 1.57123, 3.10245, 0.0357776, -0.000640671, 0.000331297, -0.000373021, -0.00136659, -0.00636529, -0.000396705, 0.0466941, -0.0114266, 0.000215111, -0.0257939, 0.0915895, 0.0285066, 0.470611, -0.541671, 0.336067, -2.08203, -2.16549, -0.131055, 0.470979, -0.542348, 0.336325, -2.08561, -2.17004, -0.126156, -0.00944583, 0.0428008, 0.00475437, 0.00367285, -0.00284161, -0.00270346
0.128338, 1.6938, -1.22476, -1.53895, -0.899908, -1.19385, 1.23206, -1.30257, 0.0154663, -0.000309165, -0.00167166, -0.00533895, -0.0564478, 0.00110757, 0.000882807, -2.16637, 57.0786, 27.417, 7.06909, 1.57764, 3.09512, -0.00999879, -0.000685912, 0.000343684, -0.000372596, -0.00134207, -0.00645712, -0.000379414, 0.0472132, -0.0113402, 0.000146208, -0.0282158, 0.0939983, 0.0272838, 0.470601, -0.541629, 0.336072, -2.08198, -2.16548, -0.131083, 0.470983, -0.542349, 0.336322, -2.08562, -2.17006, -0.126062, -0.00957827, 0.043471, 0.00484363, 0.0034712, -0.00267615, -0.00276295
0.129338, 1.69382, -1.22476, -1.53894, -0.899924, -1.1939, 1.23206, -1.30258, 0.0178436, -0.00187111, -0.000178949, -0.00884299, -0.0566028, 0.00132017, -0.000157446, -2.20605, 57.15, 27.3774, 7.14447, 1.57764, 3.08047, 0.0101428, -0.000729582, 0.000358356, -0.000371449, -0.00132229, -0.00654412, -0.000376176, 0.0456905, -0.0138778, -0.000818015, -0.0288787, 0.0936509, 0.0348309, 0.470592, -0.541585, 0.336077, -2.08194, -2.16548, -0.131111, 0.47099, -0.542348, 0.336318, -2.08561, -2.17009, -0.12598, -0.00971111, 0.0441452, 0.00493382, 0.00578247, -0.000242815, -0.00346517
0.130338, 1.69384, -1.22476, -1.53894, -0.899935, -1.19396, 1.23206, -1.30258, 0.0176734, -0.00124333, -0.000113694, -0.00860261, -0.0613183, 0.00196072, -0.000342321, -2.28143, 57.15, 27.3774, 7.1048, 1.57764, 3.05209, 0.0165515, -0.000774364, 0.000372663, -0.000370516, -0.00130031, -0.00663218, -0.000368391, 0.0474514, -0.0134219, -0.00029742, -0.0301767, 0.0991297, 0.0334824, 0.470582, -0.541541, 0.336082, -2.08189, -2.16547, -0.13114, 0.470996, -0.542347, 0.336315, -2.08561, -2.17011, -0.125895, -0.00984435, 0.0448234, 0.00502493, 0.00527785, -0.00140193, -0.00312457
0.131338, 1.69385, -1.22477, -1.53894, -0.899945, -1.19402, 1.23206, -1.30258, 0.01477, -0.00175385, 0.00308891, -0.00777478, -0.0551799, 0.00187176, -0.000228213, -2.24175, 57.1896, 27.3774, 7.02942, 1.57123, 3.03744, 0.0165515, -0.000821906, 0.000384323, -0.000369831, -0.00128396, -0.0067157, -0.000354944, 0.0478351, -0.0129607, 0.000815282, -0.0237137, 0.0938795, 0.0337795, 0.470572, -0.541496, 0.336087, -2.08185, -2.16546, -0.131169, 0.470999, -0.542349, 0.336311, -2.08561, -2.17013, -0.12582, -0.00997797, 0.0455056, 0.00511696, 0.00473916, -0.00129017, -0.00198239
0.132338, 1.69387, -1.22477, -1.53894, -0.899961, -1.19407, 1.23206, -1.30257, 0.0156455, -0.00200216, 0.0023258, -0.0100229, -0.0500674, 0.00177303, 0.00154328, -2.3211, 57.2253, 27.3774, 7.06909, 1.55292, 3.02371, -0.0292249, -0.000865005, 0.000401101, -0.000369564, -0.00126258, -0.00680411, -0.000350823, 0.0466373, -0.0144901, 4.56458e-05, -0.0232165, 0.0903732, 0.0365893, 0.470562, -0.541451, 0.336092, -2.0818, -2.16545, -0.131199, 0.471008, -0.542345, 0.336309, -2.0856, -2.17016, -0.125735, -0.010112, 0.0461918, 0.00520992, 0.00606136, 0.000762409, -0.00250997
0.133338, 1.69388, -1.22477, -1.53894, -0.899979, -1.19412, 1.23206, -1.30257, 0.010536, -0.00133305, 0.00175043, -0.0106662, -0.0470365, 0.00119444, 0.000791494, -2.28143, 57.2253, 27.3774, 7.06909, 1.55292, 3.02371, -0.0228162, -0.000912264, 0.000413362, -0.000369252, -0.00124298, -0.00689106, -0.000339931, 0.0488177, -0.0119953, 0.000385623, -0.0221873, 0.0889235, 0.0339851, 0.470552, -0.541404, 0.336097, -2.08175, -2.16543, -0.131229, 0.471012, -0.542345, 0.336306, -2.0856, -2.17018, -0.125654, -0.0102463, 0.0468819, 0.00530381, 0.00352833, -0.000855902, -0.00234883
0.134338, 1.69389, -1.22477, -1.53894, -0.899994, -1.19417, 1.23206, -1.30258, 0.0134851, -0.00172263, 0.000388854, -0.00940705, -0.0450939, 0.000805609, -0.00116776, -2.28143, 57.261, 27.417, 6.99371, 1.55932, 3.02371, 0.0229602, -0.000958734, 0.000428004, -0.000367194, -0.00122335, -0.00697464, -0.000337652, 0.0484826, -0.0133918, -0.000321582, -0.0226131, 0.0875357, 0.03816, 0.470542, -0.541358, 0.336102, -2.0817, -2.16542, -0.131259, 0.471018, -0.542343, 0.336301, -2.08558, -2.1702, -0.125578, -0.010381, 0.047576, 0.00539863, 0.00475086, 0.000338074, -0.00294438
0.135338, 1.69391, -1.22477, -1.53894, -0.900016, -1.19422, 1.23206, -1.30258, 0.0130309, 0.00201926, 0.00341871, -0.0134821, -0.0479361, 0.0003067, -6.6428e-05, -2.28143, 57.261, 27.417, 6.99371, 1.55932, 3.03012, 0.00373412, -0.00100329, 0.000443969, -0.000366924, -0.00120425, -0.00706001, -0.000334661, 0.0476973, -0.014209, 0.00238604, -0.0231727, 0.0942074, 0.0410266, 0.470531, -0.54131, 0.336108, -2.08165, -2.16541, -0.13129, 0.471025, -0.542339, 0.336299, -2.08557, -2.17023, -0.125501, -0.0105161, 0.048274, 0.00549438, 0.00550353, 0.00142406, -7.9783e-05
0.136338, 1.69392, -1.22477, -1.53894, -0.900038, -1.19426, 1.23206, -1.30257, 0.00972751, 0.00161079, 0.00261739, -0.0155451, -0.0404333, 0.000447066, 0.0007017, -2.28143, 57.261, 27.417, 6.95801, 1.55292, 3.02371, -0.0164075, -0.00104762, 0.000461273, -0.000366059, -0.00118667, -0.00714344, -0.000333409, 0.0480056, -0.013661, 0.00177474, -0.0206715, 0.088576, 0.0413405, 0.470521, -0.541262, 0.336113, -2.0816, -2.1654, -0.131321, 0.471033, -0.542333, 0.336296, -2.08555, -2.17026, -0.125428, -0.0106515, 0.0489759, 0.00559107, 0.00481046, 0.00189457, -0.000620512
0.137338, 1.69393, -1.22477, -1.53894, -0.900065, -1.19431, 1.23207, -1.30257, 0.0112888, 0.000437109, 0.0011634, -0.0179848, -0.0399781, 0.000844509, 0.000230441, -2.20605, 57.2968, 27.4528, 6.95801, 1.55932, 3.00906, -0.00999879, -0.00109441, 0.000476094, -0.000364326, -0.00116748, -0.00722818, -0.000332521, 0.047674, -0.0150815, 0.000201217, -0.0227892, 0.0883122, 0.0453722, 0.47051, -0.541213, 0.336119, -2.08155, -2.16539, -0.131353, 0.471039, -0.54233, 0.336292, -2.08554, -2.17029, -0.125352, -0.0107872, 0.0496816, 0.00568869, 0.00602425, 0.00323284, -0.00206978
0.138338, 1.69394, -1.22477, -1.53894, -0.900085, -1.19435, 1.23207, -1.30258, 0.0133511, 0.00357734, -0.000797374, -0.0194522, -0.0399668, 0.00110849, -0.00106708, -2.16637, 57.2968, 27.5281, 6.80725, 1.57123, 2.99441, 0.0229602, -0.00114241, 0.000491072, -0.000363782, -0.00114925, -0.00731409, -0.000330507, 0.0471742, -0.0163226, 0.00108196, -0.0249233, 0.0926113, 0.0494086, 0.470499, -0.541163, 0.336125, -2.0815, -2.16538, -0.131385, 0.471045, -0.542327, 0.336289, -2.08552, -2.17032, -0.125277, -0.0109232, 0.0503911, 0.00578725, 0.00714255, 0.00435101, -0.0010636
0.139338, 1.69395, -1.22477, -1.53894, -0.900121, -1.19439, 1.23207, -1.30257, 0.0132543, 0.000994715, 0.000539137, -0.028283, -0.0397713, -0.00375683, 0.000984037, -2.05529, 57.3721, 27.4885, 6.84296, 1.58313, 2.98709, -0.0228162, -0.00118735, 0.000507962, -0.000359686, -0.00113187, -0.00739015, -0.000329391, 0.0447512, -0.0177684, -0.00160657, -0.0321895, 0.0888857, 0.0561426, 0.470489, -0.541113, 0.33613, -2.08145, -2.16537, -0.131418, 0.471052, -0.542319, 0.336283, -2.0855, -2.17034, -0.125213, -0.0110595, 0.0511045, 0.00588674, 0.00826328, 0.00793613, -0.00328338
0.140338, 1.69395, -1.22477, -1.53894, -0.900148, -1.19442, 1.23207, -1.30257, 0.0133214, 0.00270618, -0.00222481, -0.0282064, -0.0401186, -0.00317161, -0.000327319, -1.94024, 57.2968, 27.6035, 6.73187, 1.60785, 2.99441, 0.00373412, -0.00123782, 0.000519159, -0.00035962, -0.00111119, -0.00747567, -0.000322675, 0.0460166, -0.0174479, -0.0014988, -0.0339908, 0.0920788, 0.0563916, 0.470477, -0.541062, 0.336136, -2.0814, -2.16536, -0.13145, 0.471054, -0.542317, 0.33628, -2.08549, -2.17036, -0.125136, -0.0111962, 0.0518216, 0.00598718, 0.00785767, 0.00737506, -0.00326818
0.141338, 1.69396, -1.22476, -1.53894, -0.900182, -1.19445, 1.23207, -1.30257, 0.00866834, 0.00201396, 0.0016429, -0.0290902, -0.0349239, -0.00241124, -0.00093029, -1.86486, 57.2968, 27.6035, 6.65649, 1.61426, 2.99441, 0.0229602, -0.00128162, 0.000537898, -0.000359405, -0.00109707, -0.00755441, -0.000334074, 0.046863, -0.0165584, -0.000330355, -0.0271984, 0.0879282, 0.0572003, 0.470466, -0.54101, 0.336142, -2.08134, -2.16535, -0.131484, 0.471064, -0.542308, 0.336279, -2.08546, -2.1704, -0.125075, -0.0113331, 0.0525425, 0.00608855, 0.00690729, 0.00704185, -0.00212184
0.142338, 1.69397, -1.22477, -1.53894, -0.900217, -1.19449, 1.23207, -1.30257, 0.00517864, -0.00109843, 0.00140929, -0.0290407, -0.0323982, -0.00105023, 0.00131259, -1.78948, 57.4078, 27.6035, 6.54541, 1.65729, 2.97336, -0.0292249, -0.00132849, 0.000555493, -0.000354565, -0.0010831, -0.00762766, -0.000337921, 0.0491589, -0.0152467, -0.00191121, -0.0246368, 0.0840767, 0.052673, 0.470455, -0.540957, 0.336148, -2.08129, -2.16533, -0.131518, 0.471071, -0.5423, 0.336272, -2.08543, -2.17043, -0.125019, -0.0114702, 0.0532671, 0.00619087, 0.00548686, 0.00569327, -0.00390367
0.143338, 1.69397, -1.22476, -1.53894, -0.900256, -1.19451, 1.23207, -1.30257, 0.00549815, 0.000220971, 0.000339821, -0.0330557, -0.0285673, -0.000324589, 0.00134978, -1.7141, 57.3721, 27.6392, 6.47003, 1.65088, 2.95871, -0.0420422, -0.00137373, 0.000573477, -0.000355015, -0.00106895, -0.00770886, -0.000343729, 0.0479794, -0.0167847, -0.00201481, -0.0249016, 0.083786, 0.0576287, 0.470443, -0.540904, 0.336154, -2.08123, -2.16532, -0.131552, 0.47108, -0.542291, 0.336271, -2.0854, -2.17046, -0.124956, -0.0116077, 0.0539954, 0.00629413, 0.00683912, 0.00766713, -0.00376665
0.144338, 1.69397, -1.22477, -1.53894, -0.900295, -1.19453, 1.23207, -1.30257, 0.00489406, -0.00236261, -0.00136005, -0.0359142, -0.0260192, -7.03541e-05, -0.00150765, -1.60302, 57.4832, 27.7146, 6.39465, 1.65088, 2.95138, 0.0229602, -0.00142054, 0.000590003, -0.000347146, -0.00105248, -0.00776977, -0.000358654, 0.0482744, -0.0172765, -0.00446495, -0.0263728, 0.0803425, 0.0628888, 0.470432, -0.54085, 0.336161, -2.08118, -2.16531, -0.131586, 0.471086, -0.542281, 0.336261, -2.08535, -2.1705, -0.124912, -0.0117453, 0.0547273, 0.00639834, 0.00711379, 0.00851226, -0.00614497
0.145338, 1.69397, -1.22477, -1.53895, -0.900339, -1.19455, 1.23207, -1.30257, 0.00363359, -0.00410713, -0.00253746, -0.0382542, -0.0247797, 0.000367802, -0.000767739, -1.45226, 57.5943, 27.79, 6.32324, 1.66919, 2.93765, 0.0165515, -0.00146878, 0.000605936, -0.00034048, -0.00103453, -0.00783864, -0.000365382, 0.049106, -0.0172465, -0.00611122, -0.0274014, 0.0787999, 0.0632506, 0.47042, -0.540795, 0.336167, -2.08112, -2.1653, -0.131621, 0.471092, -0.542272, 0.336253, -2.08531, -2.17052, -0.124858, -0.0118833, 0.0554629, 0.00650349, 0.00691649, 0.00868429, -0.00779748
0.146338, 1.69398, -1.22477, -1.53894, -0.900381, -1.19457, 1.23207, -1.30256, 0.00454571, -0.00176027, -0.00159228, -0.0413316, -0.0245596, 0.00017476, 0.00189567, -1.37688, 57.5546, 27.79, 6.17248, 1.70581, 2.93765, -0.0484509, -0.00151458, 0.000624249, -0.000340654, -0.00102362, -0.00791383, -0.000370215, 0.0480492, -0.0186682, -0.004876, -0.0279272, 0.0818498, 0.0650893, 0.470408, -0.54074, 0.336174, -2.08106, -2.16528, -0.131657, 0.4711, -0.542261, 0.336252, -2.08528, -2.17055, -0.124806, -0.0120214, 0.0562022, 0.00660959, 0.00820573, 0.0103343, -0.00635192
0.147338, 1.69397, -1.22477, -1.53894, -0.900434, -1.19459, 1.23207, -1.30257, 0.0012877, -0.00206419, -0.000987004, -0.0433829, -0.0193886, 0.000334944, 0.00357483, -1.26183, 57.5943, 27.79, 6.13678, 1.73694, 2.93033, 0.00373412, -0.00156066, 0.000641799, -0.000337284, -0.00101196, -0.00798239, -0.000392193, 0.0485412, -0.0181304, -0.00492805, -0.0252398, 0.0781848, 0.0644363, 0.470396, -0.540684, 0.33618, -2.08101, -2.16527, -0.131692, 0.471107, -0.542249, 0.336247, -2.08523, -2.1706, -0.124762, -0.0121598, 0.056945, 0.00671664, 0.00754721, 0.0105782, -0.00636001
0.148338, 1.69397, -1.22477, -1.53893, -0.900486, -1.1946, 1.23207, -1.30257, 0.000734612, -0.00218333, 0.000325906, -0.046886, -0.01456, 0.00045494, 0.00297423, -1.22613, 57.63, 27.7503, 6.0614, 1.74335, 2.923, -0.00267457, -0.00160357, 0.000663436, -0.000336619, -0.00100528, -0.008051, -0.000414726, 0.0472997, -0.0195108, -0.004973, -0.0232267, 0.0751312, 0.0702293, 0.470384, -0.540627, 0.336187, -2.08095, -2.16526, -0.131729, 0.471118, -0.542234, 0.336246, -2.08518, -2.17065, -0.124724, -0.0122984, 0.0576914, 0.00682465, 0.00874072, 0.012616, -0.00614568
0.149338, 1.69396, -1.22476, -1.53893, -0.900542, -1.1946, 1.23207, -1.30257, -0.00166799, -0.000599328, 0.00249291, -0.0503056, -0.010517, 0.00108738, 0.00323141, -1.11108, 57.5943, 27.79, 6.02173, 1.73694, 2.90103, -0.0292249, -0.00164864, 0.000682267, -0.000336754, -0.000998734, -0.00812101, -0.000431699, 0.0467729, -0.0199582, -0.00355749, -0.0199144, 0.0745547, 0.0733864, 0.470372, -0.540569, 0.336194, -2.08089, -2.16524, -0.131765, 0.471126, -0.54222, 0.336245, -2.08513, -2.17069, -0.124684, -0.0124372, 0.0584414, 0.0069336, 0.00908242, 0.0136844, -0.00457297
0.150338, 1.69395, -1.22476, -1.53893, -0.900603, -1.19461, 1.23207, -1.30257, -0.00340311, -0.000624363, 0.0034284, -0.0566349, -0.00939083, 0.00121126, 0.00187848, -0.996025, 57.7411, 27.8614, 6.02173, 1.77997, 2.8873, -0.0164075, -0.00169757, 0.000698525, -0.000328746, -0.000986091, -0.00818141, -0.000445996, 0.0460298, -0.0208237, -0.00400855, -0.0211042, 0.0748745, 0.079818, 0.470359, -0.54051, 0.336201, -2.08083, -2.16523, -0.131802, 0.471132, -0.542208, 0.336236, -2.08508, -2.17072, -0.124648, -0.0125762, 0.0591949, 0.00704351, 0.0097646, 0.0152794, -0.00482033
0.151338, 1.69394, -1.22476, -1.53893, -0.900658, -1.19462, 1.23207, -1.30256, -0.00652618, 0.0016249, 0.00276862, -0.0557641, -0.00708725, 0.00184195, 0.00116416, -0.920646, 57.6657, 27.8614, 5.91064, 1.78638, 2.85892, -0.00999879, -0.00174442, 0.000716087, -0.000331075, -0.000980668, -0.00825312, -0.000462764, 0.0479765, -0.0192012, -0.00256111, -0.0188663, 0.0761804, 0.077527, 0.470347, -0.540451, 0.336208, -2.08077, -2.16522, -0.13184, 0.471138, -0.542194, 0.336237, -2.08504, -2.17076, -0.124608, -0.0127154, 0.0599519, 0.00715437, 0.00813123, 0.0138215, -0.00354113
0.152338, 1.69393, -1.22475, -1.53893, -0.900718, -1.19462, 1.23208, -1.30256, -0.00902358, 0.00599956, 0.00127999, -0.0530535, -0.00537029, 0.00121543, 0.00607373, -0.845268, 57.7411, 27.9011, 5.83527, 1.79187, 2.85892, -0.0356336, -0.00179124, 0.000734831, -0.000328683, -0.000976593, -0.00831544, -0.000477642, 0.0501474, -0.017037, -4.50409e-05, -0.0177354, 0.0793753, 0.0679843, 0.470334, -0.540391, 0.336215, -2.0807, -2.1652, -0.131878, 0.471146, -0.542179, 0.336234, -2.08499, -2.1708, -0.12458, -0.0128547, 0.0607124, 0.00726618, 0.00600473, 0.0119554, -0.00122527
0.153338, 1.69392, -1.22476, -1.53893, -0.900787, -1.19461, 1.23208, -1.30256, -0.0108871, 0.00527104, 0.00345653, -0.0558732, -0.00458986, 0.00161469, 0.00496082, -0.76989, 57.8522, 27.9368, 5.83527, 1.81018, 2.83694, -0.0484509, -0.00183837, 0.000754178, -0.000321613, -0.000968699, -0.00837367, -0.000500407, 0.0504171, -0.0172874, 5.26351e-05, -0.0161277, 0.0790295, 0.0714753, 0.470321, -0.540331, 0.336222, -2.08064, -2.16519, -0.131916, 0.471154, -0.542163, 0.336226, -2.08493, -2.17084, -0.124554, -0.0129943, 0.0614763, 0.00737895, 0.00612989, 0.0124495, -0.00106947
0.154338, 1.69391, -1.22475, -1.53892, -0.900859, -1.19461, 1.23208, -1.30256, -0.0114129, 0.00836534, 0.00581188, -0.0609167, -0.00378325, 0.0018493, 0.000990069, -0.734184, 57.8125, 27.9368, 5.83527, 1.823, 2.81589, 0.0229602, -0.00188215, 0.000775921, -0.000324325, -0.000964486, -0.00844759, -0.000539816, 0.0490035, -0.0187193, 0.00206098, -0.0154481, 0.0826176, 0.0811199, 0.470308, -0.540269, 0.33623, -2.08058, -2.16517, -0.131955, 0.471164, -0.542144, 0.336228, -2.08486, -2.17091, -0.124517, -0.0131339, 0.0622436, 0.00749268, 0.00744353, 0.0143583, 0.00120263
0.155338, 1.69388, -1.22474, -1.53891, -0.900926, -1.19461, 1.23208, -1.30256, -0.0174876, 0.00688616, 0.00749368, -0.0616877, -0.00203047, 0.00122758, 0.00066847, -0.583427, 57.9236, 27.9368, 5.72418, 1.80469, 2.81589, 0.0293689, -0.00193172, 0.000790809, -0.000322656, -0.000962522, -0.00850436, -0.00056021, 0.0516405, -0.0159972, 0.00196309, -0.0131433, 0.0799532, 0.0779661, 0.470295, -0.540207, 0.336237, -2.08051, -2.16516, -0.131994, 0.471168, -0.54213, 0.336226, -2.0848, -2.17094, -0.124499, -0.0132738, 0.0630144, 0.00760737, 0.00468003, 0.0124281, 0.000884512
0.156338, 1.69386, -1.22475, -1.5389, -0.901003, -1.19461, 1.23208, -1.30256, -0.0181569, 0.00509836, 0.00790473, -0.0662659, -0.00101878, 0.00108569, 0.00761288, -0.468376, 58.0704, 27.9725, 5.76385, 1.79187, 2.80856, -0.0420422, -0.00198097, 0.000808988, -0.000318157, -0.000956397, -0.00856885, -0.000578804, 0.0512405, -0.0169478, 0.000452918, -0.0145128, 0.0784056, 0.0753646, 0.470282, -0.540144, 0.336245, -2.08045, -2.16514, -0.132034, 0.471175, -0.542114, 0.33622, -2.08475, -2.17098, -0.124469, -0.0134137, 0.0637885, 0.00772302, 0.00541963, 0.0138748, -0.000459555
0.157338, 1.69384, -1.22474, -1.53889, -0.901081, -1.19461, 1.23208, -1.30256, -0.0196475, 0.00478089, 0.00829132, -0.0685598, -0.00102144, 0.000992082, 0.00462557, -0.43267, 58.1815, 28.0121, 5.76385, 1.79828, 2.80124, -0.0164075, -0.00202951, 0.000828113, -0.000315575, -0.000950179, -0.00863657, -0.000607548, 0.0519545, -0.0167892, 0.000168183, -0.0150374, 0.0789627, 0.0795084, 0.470268, -0.54008, 0.336252, -2.08038, -2.16513, -0.132074, 0.471182, -0.542097, 0.336217, -2.08468, -2.17104, -0.124436, -0.0135538, 0.064566, 0.00783963, 0.00513802, 0.0139867, -0.000735317
0.158338, 1.69383, -1.22473, -1.53888, -0.901157, -1.19461, 1.23208, -1.30256, -0.0209475, 0.00648387, 0.0117416, -0.0725462, -0.000522266, 0.000930424, 0.00152575, -0.392998, 58.2172, 28.0478, 5.72418, 1.79187, 2.79391, 0.0357776, -0.00207643, 0.000847433, -0.00031838, -0.000947325, -0.00870622, -0.000643057, 0.0511477, -0.017679, 0.00190903, -0.0132888, 0.0810941, 0.0870435, 0.470255, -0.540016, 0.33626, -2.08032, -2.16511, -0.132115, 0.47119, -0.542078, 0.33622, -2.08461, -2.1711, -0.124407, -0.013694, 0.0653468, 0.00795721, 0.00592244, 0.015329, 0.00119723
0.159338, 1.6938, -1.22473, -1.53886, -0.901244, -1.1946, 1.23208, -1.30255, -0.0256901, 0.00988129, 0.0129838, -0.0750294, 3.36319e-05, 0.000889877, 0.00370578, -0.317619, 58.2925, 28.0121, 5.79956, 1.77997, 2.78659, -0.0292249, -0.00212326, 0.000866917, -0.000321155, -0.000946961, -0.00877688, -0.000668244, 0.0526114, -0.0158906, 0.00426116, -0.0120125, 0.0847861, 0.0835098, 0.470241, -0.53995, 0.336268, -2.08025, -2.1651, -0.132156, 0.471197, -0.542059, 0.336222, -2.08456, -2.17115, -0.124379, -0.0138343, 0.0661309, 0.00807574, 0.004139, 0.0142247, 0.00345714
0.160338, 1.69377, -1.22472, -1.53885, -0.901332, -1.1946, 1.23208, -1.30255, -0.0254367, 0.00842163, 0.0103216, -0.0790311, 0.00021553, 0.000591996, 0.000985933, -0.281914, 58.4036, 28.1232, 5.83527, 1.77356, 2.78659, 0.0165515, -0.00217286, 0.000885008, -0.0003186, -0.000940314, -0.00884278, -0.000704189, 0.0527485, -0.0165615, 0.00187257, -0.0164666, 0.084362, 0.0892172, 0.470227, -0.539884, 0.336276, -2.08018, -2.16508, -0.132197, 0.471203, -0.54204, 0.336219, -2.08448, -2.17121, -0.12435, -0.0139747, 0.0669183, 0.00819524, 0.00458598, 0.0152813, 0.00117344
0.161338, 1.69375, -1.22472, -1.53883, -0.901417, -1.1946, 1.23208, -1.30256, -0.0273385, 0.0113457, 0.0141721, -0.0811842, -0.00012686, 0.000122455, 0.000103338, -0.281914, 58.475, 28.1232, 5.83527, 1.77997, 2.79391, 0.0357776, -0.00222226, 0.00090376, -0.00032131, -0.000942095, -0.00891339, -0.000739507, 0.0526836, -0.0165812, 0.00472609, -0.0140334, 0.0880016, 0.0922269, 0.470213, -0.539817, 0.336284, -2.08012, -2.16506, -0.132239, 0.47121, -0.542022, 0.336221, -2.08441, -2.17127, -0.124326, -0.0141153, 0.067709, 0.00831571, 0.00457018, 0.0156892, 0.00411612
0.162338, 1.69372, -1.22471, -1.53881, -0.901501, -1.1946, 1.23208, -1.30255, -0.025959, 0.015074, 0.0153449, -0.0809676, 0.00436501, 0.000860825, 0.00235763, -0.281914, 58.475, 28.1986, 5.76385, 1.78638, 2.77286, -0.0228162, -0.00227519, 0.000919799, -0.000328634, -0.000945273, -0.00899593, -0.000755066, 0.0515172, -0.0181913, 0.00735859, -0.00993915, 0.0891434, 0.0935855, 0.470199, -0.539749, 0.336293, -2.08005, -2.16505, -0.132281, 0.471214, -0.542007, 0.336228, -2.08437, -2.17132, -0.12429, -0.0142558, 0.0685029, 0.00843714, 0.00609369, 0.0172893, 0.00696701
0.163338, 1.69369, -1.22471, -1.53879, -0.901592, -1.1946, 1.23208, -1.30255, -0.0270499, 0.0111471, 0.0149214, -0.0828337, 0.00308054, -0.00410519, 0.00477911, -0.317619, 58.6258, 28.1986, 5.76385, 1.79187, 2.77286, 0.0101428, -0.00232583, 0.00093791, -0.000328469, -0.000945424, -0.00906084, -0.000792983, 0.0524744, -0.0170505, 0.00427151, -0.0161326, 0.0847892, 0.0915715, 0.470185, -0.539681, 0.336301, -2.07998, -2.16503, -0.132324, 0.47122, -0.541987, 0.336227, -2.08429, -2.17138, -0.124272, -0.0143965, 0.0692999, 0.00855954, 0.00473542, 0.0175795, 0.00392279
0.164338, 1.69365, -1.2247, -1.53878, -0.901691, -1.19459, 1.23208, -1.30254, -0.0296987, 0.0135446, 0.0175615, -0.0881505, 0.00301235, -0.00258453, 0.00361438, -0.281914, 58.6972, 28.3454, 5.79956, 1.77356, 2.75821, 0.0101428, -0.00237953, 0.000954308, -0.000328075, -0.000942717, -0.00913518, -0.000821526, 0.05227, -0.0175499, 0.0061583, -0.0143324, 0.089004, 0.0964209, 0.47017, -0.539612, 0.33631, -2.0799, -2.16502, -0.132367, 0.471224, -0.54197, 0.336226, -2.08423, -2.17143, -0.12424, -0.0145372, 0.0701002, 0.0086829, 0.00515758, 0.0183068, 0.00592143
0.165338, 1.69361, -1.22469, -1.53875, -0.901784, -1.19459, 1.23208, -1.30254, -0.0309651, 0.0120362, 0.0214073, -0.0862951, 0.00198124, -0.00174446, 0.00371415, -0.392998, 58.7726, 28.274, 5.72418, 1.77997, 2.75088, -0.0164075, -0.00243015, 0.000974123, -0.000335455, -0.000956507, -0.00920927, -0.000856036, 0.0538284, -0.017273, 0.00705242, -0.00963576, 0.0891192, 0.0954218, 0.470156, -0.539541, 0.336318, -2.07983, -2.165, -0.132411, 0.471231, -0.54195, 0.336234, -2.08417, -2.1715, -0.124227, -0.014678, 0.0709037, 0.00880724, 0.00483286, 0.0174208, 0.00668557
0.166338, 1.69357, -1.22469, -1.53872, -0.901882, -1.19459, 1.23208, -1.30254, -0.0348753, 0.00865669, 0.0215691, -0.0892117, 0.00124124, -0.00111124, 0.00197104, -0.392998, 58.8083, 28.3097, 5.68848, 1.78638, 2.74356, 0.00373412, -0.00248442, 0.000989104, -0.000339322, -0.000960592, -0.00928129, -0.000890346, 0.0560309, -0.0159623, 0.00499612, -0.0102302, 0.0876084, 0.0961847, 0.470141, -0.539471, 0.336327, -2.07976, -2.16498, -0.132455, 0.471234, -0.541933, 0.336237, -2.0841, -2.17156, -0.124207, -0.0148189, 0.0717102, 0.00893254, 0.00338949, 0.016323, 0.00446866
0.167338, 1.69353, -1.22468, -1.5387, -0.901996, -1.19458, 1.23208, -1.30254, -0.0345267, 0.0100462, 0.0207747, -0.0937203, 0.00612865, -0.000634205, -0.000200706, -0.43267, 58.8083, 28.3851, 5.76385, 1.77356, 2.73623, 0.0495105, -0.0025349, 0.00100765, -0.0003429, -0.0009569, -0.00936032, -0.000936665, 0.0544749, -0.017744, 0.00492353, -0.0102012, 0.0864918, 0.104314, 0.470126, -0.539399, 0.336336, -2.07969, -2.16496, -0.132499, 0.47124, -0.541911, 0.336241, -2.08401, -2.17164, -0.124172, -0.0149597, 0.0725199, 0.00905882, 0.00496872, 0.018756, 0.00471124
0.168338, 1.69349, -1.22468, -1.53866, -0.902101, -1.19458, 1.23208, -1.30253, -0.0395718, 0.0082923, 0.0199012, -0.099957, 0.00944702, -0.00500776, 0.00268048, -0.468376, 58.9194, 28.3454, 5.72418, 1.76807, 2.72983, -0.0228162, -0.00258982, 0.00102392, -0.000346348, -0.000967987, -0.00943074, -0.000965447, 0.0549438, -0.0158665, 0.00259591, -0.0154142, 0.0811259, 0.10305, 0.470112, -0.539326, 0.336345, -2.07961, -2.16495, -0.132544, 0.471243, -0.541892, 0.336244, -2.08395, -2.1717, -0.124161, -0.0151006, 0.0733327, 0.00918606, 0.00288466, 0.0193937, 0.00252138
0.169338, 1.69344, -1.22467, -1.53863, -0.902219, -1.19458, 1.23208, -1.30253, -0.0423822, 0.00975377, 0.0245117, -0.105174, 0.00660775, -0.00355142, 0.00548226, -0.543754, 58.9194, 28.3454, 5.79956, 1.77997, 2.7225, -0.00267457, -0.00264238, 0.00104103, -0.000349992, -0.000967162, -0.00950843, -0.00100922, 0.0550743, -0.0162917, 0.00465115, -0.013217, 0.0865207, 0.103727, 0.470096, -0.539253, 0.336354, -2.07954, -2.16493, -0.132589, 0.471247, -0.541871, 0.336247, -2.08387, -2.17177, -0.124132, -0.0152415, 0.0741485, 0.00931428, 0.00325157, 0.0197759, 0.00463974
0.170338, 1.69339, -1.22467, -1.53861, -0.902333, -1.19457, 1.23208, -1.30254, -0.0492038, 0.00906964, 0.0260372, -0.108444, 0.00520543, -0.00245948, 0.00215992, -0.543754, 58.9908, 28.4208, 5.72418, 1.77356, 2.71518, 0.0495105, -0.00270056, 0.00105387, -0.000352341, -0.000971215, -0.00958197, -0.00104792, 0.0581065, -0.0136238, 0.00480908, -0.0120247, 0.0883302, 0.103895, 0.470081, -0.539179, 0.336364, -2.07946, -2.16491, -0.132635, 0.471247, -0.541854, 0.336249, -2.08379, -2.17184, -0.124112, -0.0153825, 0.0749674, 0.00944347, 0.000566736, 0.0174653, 0.00452124
0.171338, 1.69333, -1.22465, -1.53858, -0.902455, -1.19457, 1.23208, -1.30253, -0.0524545, 0.00878306, 0.0274329, -0.112845, 0.0032143, -0.00191201, 0.00370112, -0.619133, 58.9194, 28.4961, 5.72418, 1.79187, 2.71518, -0.00267457, -0.00275639, 0.00106861, -0.000357991, -0.000969823, -0.00966745, -0.00108289, 0.0592672, -0.0130165, 0.00475437, -0.0127249, 0.0909665, 0.103447, 0.470066, -0.539104, 0.336373, -2.07939, -2.16489, -0.132681, 0.471249, -0.541834, 0.336255, -2.08372, -2.1719, -0.124074, -0.0155234, 0.0757893, 0.00957364, -0.000137929, 0.0171256, 0.0044273
0.172338, 1.69328, -1.22464, -1.53854, -0.902576, -1.19457, 1.23208, -1.30253, -0.0558148, 0.0114749, 0.0328385, -0.116411, 0.00668176, -0.00147894, 0.00101829, -0.658806, 58.844, 28.3851, 5.6131, 1.80469, 2.71518, 0.0431018, -0.002811, 0.00108405, -0.000368882, -0.000980578, -0.00975018, -0.00112907, 0.0584973, -0.0134011, 0.00797194, -0.00684501, 0.0917106, 0.110093, 0.47005, -0.539028, 0.336383, -2.07931, -2.16487, -0.132728, 0.471251, -0.541813, 0.336265, -2.08364, -2.17198, -0.124054, -0.0156643, 0.0766142, 0.00970477, 0.000198862, 0.0182194, 0.0078396
0.173338, 1.69322, -1.22464, -1.5385, -0.902713, -1.19456, 1.23208, -1.30253, -0.0540077, 0.00590594, 0.0331693, -0.119846, 0.00440523, -0.00086789, 0.00113485, -0.76989, 58.9551, 28.4208, 5.6488, 1.823, 2.70785, 0.0357776, -0.00286375, 0.00110442, -0.000365975, -0.000977892, -0.00982247, -0.00118517, 0.0585064, -0.015307, 0.00430869, -0.00931482, 0.0894937, 0.114705, 0.470035, -0.538951, 0.336392, -2.07923, -2.16485, -0.132775, 0.471258, -0.541787, 0.336263, -2.08354, -2.17207, -0.124031, -0.0158053, 0.0774421, 0.00983689, 0.00182559, 0.019699, 0.00429181
0.174338, 1.69317, -1.22464, -1.53847, -0.902844, -1.19456, 1.23208, -1.30253, -0.0505977, 0.00541335, 0.0325424, -0.126002, 0.00699762, -0.000422225, 0.000623844, -0.845268, 58.9194, 28.4961, 5.57739, 1.85321, 2.70053, 0.0431018, -0.00292123, 0.00112067, -0.00036826, -0.000974434, -0.0099087, -0.00123192, 0.055722, -0.0189741, 0.00279111, -0.0116309, 0.0886121, 0.124986, 0.470019, -0.538874, 0.336402, -2.07915, -2.16483, -0.132822, 0.471261, -0.541766, 0.336265, -2.08346, -2.17214, -0.123993, -0.0159461, 0.0782729, 0.00996998, 0.00518719, 0.0236743, 0.00325244
0.175338, 1.69311, -1.22463, -1.53843, -0.902985, -1.19456, 1.23207, -1.30253, -0.0518301, 0.00585277, 0.0340658, -0.128092, 0.0046991, 0.000140969, 0.000519803, -0.884941, 58.844, 28.4961, 5.53772, 1.87244, 2.6868, 0.0431018, -0.00297568, 0.00113792, -0.000373221, -0.000975059, -0.00999181, -0.0012836, 0.0566464, -0.0189583, 0.00342473, -0.0115023, 0.0920946, 0.126102, 0.470003, -0.538796, 0.336412, -2.07907, -2.16481, -0.13287, 0.471264, -0.541741, 0.336271, -2.08337, -2.17223, -0.123963, -0.016087, 0.0791067, 0.010104, 0.00509046, 0.0234964, 0.00386044
0.176338, 1.69305, -1.22462, -1.5384, -0.903125, -1.19456, 1.23208, -1.30253, -0.0516977, 0.00509754, 0.0373574, -0.132196, 0.00767075, 0.000843151, -0.00052497, -0.960319, 58.8083, 28.5319, 5.46234, 1.89075, 2.66482, 0.0687366, -0.0030316, 0.00115627, -0.000376049, -0.000975866, -0.0100757, -0.00134018, 0.0550846, -0.0211086, 0.00362896, -0.00853444, 0.0902425, 0.133909, 0.469987, -0.538717, 0.336422, -2.07899, -2.16479, -0.132919, 0.471269, -0.541717, 0.336274, -2.08327, -2.17232, -0.123934, -0.0162278, 0.0799433, 0.0102391, 0.0070477, 0.0259349, 0.00437454
0.177338, 1.69299, -1.22462, -1.53836, -0.903273, -1.19455, 1.23208, -1.30253, -0.0563405, 0.00683793, 0.0408384, -0.138434, 0.00994964, 0.00156479, 0.00463628, -0.960319, 58.8083, 28.5319, 5.38696, 1.90906, 2.63644, 0.0559192, -0.00308793, 0.00117438, -0.000377798, -0.000979116, -0.0101566, -0.00139298, 0.05487, -0.0209676, 0.00532531, -0.00574638, 0.0914838, 0.132476, 0.469971, -0.538637, 0.336433, -2.07891, -2.16477, -0.132968, 0.471273, -0.541692, 0.336276, -2.08317, -2.1724, -0.12391, -0.0163686, 0.0807828, 0.0103751, 0.00682344, 0.0267128, 0.0062185
0.178338, 1.69292, -1.22461, -1.53832, -0.903431, -1.19454, 1.23208, -1.30252, -0.0578211, 0.00762394, 0.0401135, -0.141843, 0.00719027, 0.00100684, 0.00594719, -0.920646, 58.6972, 28.5319, 5.38696, 1.92096, 2.63644, -0.00999879, -0.00314198, 0.00119211, -0.000381129, -0.000974456, -0.0102402, -0.00144815, 0.0559381, -0.0204479, 0.00509269, -0.00932166, 0.0953941, 0.131836, 0.469954, -0.538556, 0.336443, -2.07883, -2.16475, -0.133017, 0.471277, -0.541664, 0.33628, -2.08307, -2.17249, -0.123876, -0.0165093, 0.0816252, 0.0105121, 0.00619651, 0.026517, 0.00596717
0.179338, 1.69285, -1.22461, -1.53828, -0.903589, -1.19454, 1.23208, -1.30252, -0.0615388, 0.00543278, 0.0424112, -0.14881, 0.00865641, 0.000915226, 0.0023093, -0.884941, 58.6972, 28.5319, 5.31555, 1.96399, 2.62912, 0.0431018, -0.00319926, 0.00120938, -0.000381716, -0.000970908, -0.0103248, -0.00151487, 0.0558146, -0.0206141, 0.00383882, -0.00950817, 0.09316, 0.139978, 0.469938, -0.538474, 0.336454, -2.07875, -2.16473, -0.133067, 0.47128, -0.541639, 0.336281, -2.08296, -2.17258, -0.123843, -0.01665, 0.0824704, 0.0106501, 0.00617157, 0.0276908, 0.00487789
0.180338, 1.69278, -1.22459, -1.53824, -0.903755, -1.19453, 1.23208, -1.30252, -0.0661081, 0.00815336, 0.0371234, -0.15378, 0.00580912, 0.00113224, 0.00177293, -0.76989, 58.5147, 28.5715, 5.24017, 1.98871, 2.61447, 0.0431018, -0.00325626, 0.00122517, -0.000388772, -0.000967492, -0.0104213, -0.0015767, 0.0586683, -0.0180042, 0.00313852, -0.0165523, 0.0997878, 0.137238, 0.469921, -0.538392, 0.336464, -2.07866, -2.16471, -0.133117, 0.471281, -0.541613, 0.336289, -2.08286, -2.17268, -0.123799, -0.0167906, 0.0833185, 0.010789, 0.00350689, 0.0257236, 0.00394687
0.181338, 1.69271, -1.2246, -1.5382, -0.903922, -1.19453, 1.23208, -1.30252, -0.0694253, 0.00630906, 0.0405025, -0.160207, 0.00390986, 0.000739487, 0.0025777, -0.76989, 58.6258, 28.5715, 5.12909, 2.00702, 2.61447, 0.0101428, -0.003312, 0.00124551, -0.0003852, -0.000965624, -0.0104962, -0.00164389, 0.0589054, -0.0180238, 0.00250506, -0.0173674, 0.10041, 0.140248, 0.469904, -0.538309, 0.336475, -2.07858, -2.16469, -0.133167, 0.471287, -0.541583, 0.336287, -2.08274, -2.17277, -0.123779, -0.0169311, 0.0841693, 0.010929, 0.00337263, 0.0264429, 0.00341843
0.182338, 1.69263, -1.22458, -1.53815, -0.904108, -1.19452, 1.23207, -1.30252, -0.076587, 0.0120354, 0.044893, -0.167825, 0.00246486, 0.000990115, 0.00113768, -0.694511, 58.4393, 28.4961, 5.12909, 2.02533, 2.60074, 0.0293689, -0.00336236, 0.0012655, -0.000394636, -0.000959247, -0.0105933, -0.00172817, 0.0595188, -0.0163545, 0.00676526, -0.0158963, 0.108449, 0.143251, 0.469887, -0.538224, 0.336486, -2.07849, -2.16467, -0.133218, 0.471292, -0.541549, 0.336298, -2.08261, -2.1729, -0.123734, -0.0170715, 0.0850228, 0.0110699, 0.00175098, 0.0259452, 0.00771182
0.183338, 1.69255, -1.22458, -1.53811, -0.904287, -1.19452, 1.23207, -1.30252, -0.0792029, 0.0109307, 0.0452834, -0.173729, 0.00113006, 0.00119398, -0.000363788, -0.619133, 58.475, 28.5319, 5.01404, 2.05005, 2.58609, 0.0623279, -0.00342116, 0.0012817, -0.000394155, -0.000950901, -0.0106815, -0.00179717, 0.0601117, -0.016284, 0.00559215, -0.0183512, 0.10981, 0.147538, 0.46987, -0.538139, 0.336497, -2.07841, -2.16465, -0.13327, 0.471294, -0.541521, 0.336298, -2.0825, -2.173, -0.123694, -0.0172118, 0.0858791, 0.0112118, 0.00151996, 0.0264006, 0.00659861
