alisrour97/Franka_experiments/Real_Robot_scripts/servo-franka/Data_video/log_dyn_PI1_0.csv
Time,q1,q2,q3,q4,q5,q6,q7,dq1,dq2,dq3,dq4,dq5,dq6,dq7,t1,t2,t3,t4,t5,t6,t7,ex1,ex2,ex3,ex4,ex5,ex6,ev1,ev2,ev3,ev4,ev5,ev6,xd,yd,zd,uxd,uyd,uzd,x,y,z,ux,uy,uz,vxd,vyd,vzd,vx,vy,vz
4.88281e-07, 1.69146, -1.2246, -1.53805, -0.899965, -1.19182, 1.22877, -1.30268, -0.00659725, -0.000318513, 0.000802889, 0.00836899, -0.0064642, 8.00675e-06, 0.00139722, 0.325081, 56.2296, 27.7503, 6.13678, 2.08118, 2.73623, -0.114369, 0.00101399, -0.00151503, -0.000495407, -7.25052e-05, -0.00155256, -4.2377e-05, 0.00668758, 0.0061133, 0.00156731, 0.00260957, 0.00408566, -0.017131, 0.471008, -0.543389, 0.335894, -2.08385, -2.16584, -0.129887, 0.469488, -0.542515, 0.336587, -2.08461, -2.16682, -0.128407, -4.06186e-05, 0.000124715, 6.6488e-05, -0.00585032, -0.00696883, 0.00076042
0.0119836, 1.69143, -1.2246, -1.53804, -0.899913, -1.19182, 1.22877, -1.30268, 0.000790775, 0.00017315, 1.05136e-06, 0.00483483, -0.000752123, -0.00290372, 0.000704284, -0.0914839, 56.1938, 27.7146, 6.28357, 2.08667, 2.72983, -0.127186, 0.000987652, -0.00154211, -0.000505219, -9.54696e-05, -0.00155034, 3.18802e-05, 0.0011478, 0.00119389, 0.000399848, -0.000789225, -0.000890405, -0.00461088, 0.471008, -0.543389, 0.335894, -2.08385, -2.16584, -0.129887, 0.469451, -0.542555, 0.336592, -2.08473, -2.16672, -0.128416, -6.68636e-05, 0.000218577, 0.000115026, -0.00120373, -0.00102495, 0.000367688
0.0129836, 1.69143, -1.2246, -1.53804, -0.899913, -1.19182, 1.22877, -1.30268, 0.000790775, 0.00017315, 1.05136e-06, 0.00483483, -0.000752123, -0.00290372, 0.000704284, -0.0914839, 56.1938, 27.7146, 6.28357, 2.08667, 2.72983, -0.127186, 0.000987629, -0.00154211, -0.000505211, -9.54805e-05, -0.00155034, 3.18924e-05, 0.00125867, 0.0011678, 0.000364194, -0.000836528, -0.000817928, -0.00470046, 0.471008, -0.543389, 0.335894, -2.08385, -2.16584, -0.129887, 0.469451, -0.542555, 0.336592, -2.08473, -2.16672, -0.128416, -9.5592e-05, 0.000321476, 0.000168224, -0.00120373, -0.00102495, 0.000367688
0.0139836, 1.69143, -1.2246, -1.53804, -0.899913, -1.19182, 1.22877, -1.30268, 0.000790775, 0.00017315, 1.05136e-06, 0.00483483, -0.000752123, -0.00290372, 0.000704284, -0.0914839, 56.1938, 27.7146, 6.28357, 2.08667, 2.72983, -0.127186, 0.000987567, -0.00154209, -0.000505192, -9.551e-05, -0.00155032, 3.19254e-05, 0.00137964, 0.00113938, 0.000325304, -0.000888056, -0.000738881, -0.00479813, 0.471008, -0.543389, 0.335894, -2.08385, -2.16584, -0.129887, 0.469451, -0.542555, 0.336592, -2.08473, -2.16672, -0.128416, -0.000126895, 0.000433757, 0.000226255, -0.00120373, -0.00102495, 0.000367688
0.0149836, 1.69143, -1.2246, -1.53804, -0.899913, -1.19182, 1.22877, -1.30268, 0.000790775, 0.00017315, 1.05136e-06, 0.00483483, -0.000752123, -0.00290372, 0.000704284, -0.0914839, 56.1938, 27.7146, 6.28357, 2.08667, 2.72983, -0.127186, 0.000987447, -0.00154206, -0.000505153, -9.55674e-05, -0.0015503, 3.19895e-05, 0.00151108, 0.00110855, 0.000283062, -0.000943955, -0.000653026, -0.00490417, 0.471008, -0.543389, 0.335894, -2.08385, -2.16584, -0.129887, 0.469451, -0.542555, 0.336592, -2.08473, -2.16672, -0.128416, -0.000160861, 0.000555757, 0.000289294, -0.00120373, -0.00102495, 0.000367688
0.0159836, 1.69143, -1.2246, -1.53804, -0.899913, -1.19182, 1.22877, -1.30268, 0.000790775, 0.00017315, 1.05136e-06, 0.00483483, -0.000752123, -0.00290372, 0.000704284, -0.0914839, 56.1938, 27.7146, 6.28357, 2.08667, 2.72983, -0.127186, 0.00098725, -0.00154202, -0.000505089, -9.56618e-05, -0.00155025, 3.20948e-05, 0.00165335, 0.00107523, 0.000237353, -0.00100437, -0.000560135, -0.00501886, 0.471008, -0.543389, 0.335894, -2.08385, -2.16584, -0.129886, 0.469451, -0.542555, 0.336592, -2.08473, -2.16672, -0.128416, -0.000197581, 0.000687809, 0.000357511, -0.00120373, -0.00102495, 0.000367688
0.0169836, 1.69143, -1.2246, -1.53804, -0.899913, -1.19182, 1.22877, -1.30268, 0.000790775, 0.00017315, 1.05136e-06, 0.00483483, -0.000752123, -0.00290372, 0.000704284, -0.0914839, 56.1938, 27.7146, 6.28357, 2.08667, 2.72983, -0.127186, 0.000986956, -0.00154195, -0.000504995, -9.58022e-05, -0.00155018, 3.22516e-05, 0.00180679, 0.00103933, 0.000188065, -0.00106944, -0.000459978, -0.00514249, 0.471008, -0.543389, 0.335894, -2.08385, -2.16584, -0.129886, 0.469451, -0.542555, 0.336592, -2.08473, -2.16672, -0.128416, -0.000237139, 0.000830243, 0.000431075, -0.00120373, -0.00102495, 0.000367688
0.0179836, 1.69143, -1.2246, -1.53804, -0.899913, -1.19182, 1.22877, -1.30268, 0.000790775, 0.00017315, 1.05136e-06, 0.00483483, -0.000752123, -0.00290372, 0.000704284, -0.0914839, 56.1938, 27.7146, 6.28357, 2.08667, 2.72983, -0.127186, 0.000986547, -0.00154185, -0.000504863, -9.59977e-05, -0.00155009, 3.24697e-05, 0.00197177, 0.00100079, 0.000135087, -0.0011393, -0.000352334, -0.00527531, 0.471008, -0.543388, 0.335894, -2.08385, -2.16584, -0.129886, 0.469451, -0.542555, 0.336592, -2.08473, -2.16672, -0.128416, -0.000279621, 0.000983381, 0.00051015, -0.00120373, -0.00102495, 0.000367688
0.0189836, 1.69143, -1.2246, -1.53804, -0.899913, -1.19182, 1.22877, -1.30268, 0.000790775, 0.00017315, 1.05136e-06, 0.00483483, -0.000752123, -0.00290372, 0.000704284, -0.0914839, 56.1938, 27.7146, 6.28357, 2.08667, 2.72983, -0.127186, 0.000986004, -0.00154172, -0.000504688, -9.62572e-05, -0.00154996, 3.27592e-05, 0.00214861, 0.000959518, 7.83127e-05, -0.00121409, -0.000236982, -0.00541761, 0.471008, -0.543388, 0.335895, -2.08385, -2.16584, -0.129886, 0.469451, -0.542555, 0.336592, -2.08473, -2.16672, -0.128416, -0.00032511, 0.00114754, 0.000594898, -0.00120373, -0.00102495, 0.000367688
0.0199836, 1.69143, -1.2246, -1.53804, -0.899913, -1.19182, 1.22877, -1.30268, 0.000790775, 0.00017315, 1.05136e-06, 0.00483483, -0.000752123, -0.00290372, 0.000704284, -0.0914839, 56.1938, 27.7146, 6.28357, 2.08667, 2.72983, -0.127186, 0.000985309, -0.00154156, -0.000504464, -9.65897e-05, -0.0015498, 3.31299e-05, 0.00233765, 0.000915454, 1.76349e-05, -0.00129394, -0.00011371, -0.00556964, 0.471007, -0.543387, 0.335895, -2.08384, -2.16584, -0.129885, 0.469451, -0.542555, 0.336592, -2.08473, -2.16672, -0.128416, -0.000373687, 0.00132303, 0.000685479, -0.00120373, -0.00102495, 0.000367688
0.0209836, 1.69141, -1.22461, -1.53803, -0.899911, -1.19182, 1.22877, -1.30268, -0.00686443, 0.000274081, 0.000519673, -0.000881105, 0.000312884, -0.000159758, 0.00107805, -0.694511, 56.2653, 27.6035, 6.39465, 2.03174, 2.71518, -0.133595, 0.000974282, -0.0015548, -0.000505965, -0.000114435, -0.00153588, 5.43986e-05, 0.00420113, 0.00317558, 4.53527e-05, 0.000423203, 0.000841902, -0.00805689, 0.471007, -0.543386, 0.335895, -2.08384, -2.16584, -0.129884, 0.469438, -0.542566, 0.336593, -2.08476, -2.16669, -0.128447, -0.000425431, 0.00151016, 0.000782046, -0.00344505, -0.00277425, 0.00027053
0.0219836, 1.6914, -1.22461, -1.53804, -0.899911, -1.19182, 1.22877, -1.30268, -0.00549997, 0.00018265, -0.00132459, -0.000543593, 0.00020406, 0.000144628, -0.000468096, -0.694511, 56.2653, 27.6749, 6.39465, 2.03174, 2.70785, -0.101552, 0.000971173, -0.00155656, -0.000503983, -0.000111298, -0.00153618, 5.51576e-05, 0.00435686, 0.00271446, -0.000728569, -0.00112331, 0.00126086, -0.00655485, 0.471007, -0.543385, 0.335896, -2.08384, -2.16584, -0.129884, 0.469436, -0.542568, 0.336591, -2.08476, -2.16669, -0.128443, -0.000480419, 0.00170921, 0.00088475, -0.00306188, -0.00259095, -0.000429015
0.0229836, 1.6914, -1.22461, -1.53803, -0.899916, -1.19182, 1.22877, -1.30268, -0.00656116, 0.00262737, 0.00029769, -0.00125756, 0.00128553, -0.000461216, 0.001146, -0.734184, 56.1581, 27.4885, 6.43433, 2.00061, 2.7225, -0.140919, 0.000971344, -0.00155534, -0.000505436, -0.0001154, -0.00153761, 5.8757e-05, 0.00399377, 0.00284603, 0.0011112, 0.000203923, 0.00258575, -0.00767233, 0.471007, -0.543384, 0.335896, -2.08384, -2.16585, -0.129883, 0.469437, -0.542567, 0.336593, -2.08476, -2.16669, -0.128445, -0.000538724, 0.00192048, 0.000993739, -0.00319815, -0.00230978, 0.00155692
0.0239836, 1.6914, -1.22461, -1.53803, -0.899916, -1.19182, 1.22877, -1.30268, -0.00608251, 0.00126467, 0.000310103, -0.00226699, -0.00157064, 0.0066668, -0.00191477, -0.694511, 55.936, 27.3417, 6.35895, 1.93927, 2.76553, -0.0685925, 0.000967667, -0.00155892, -0.000505428, -0.000110841, -0.00153876, 5.8931e-05, 0.00515729, 0.00128728, 0.000702015, 0.00430818, 0.0073512, -0.00437413, 0.471006, -0.543383, 0.335897, -2.08384, -2.16585, -0.129882, 0.469433, -0.542569, 0.336593, -2.08476, -2.16669, -0.128437, -0.000600418, 0.00214425, 0.00110915, -0.00167627, -0.00310793, 0.00104076
0.0249836, 1.69139, -1.22461, -1.53804, -0.899922, -1.19182, 1.22877, -1.30268, 0.000877921, 0.00296789, -0.00151651, -0.00566911, -0.0029279, 0.006503, -0.000564435, -0.658806, 55.8249, 27.2663, 6.39465, 1.85321, 2.84427, -0.0878186, 0.000964133, -0.00156022, -0.00049911, -0.000101635, -0.00153661, 6.7561e-05, 0.00178317, -0.00290254, 0.000118966, -0.000721585, 0.0108709, 0.00255515, 0.471006, -0.543381, 0.335898, -2.08384, -2.16585, -0.129881, 0.469431, -0.54257, 0.336588, -2.08476, -2.16668, -0.128427, -0.00066557, 0.00238079, 0.00123113, 0.00230128, 0.000720819, 0.000984398
0.0259836, 1.6914, -1.22462, -1.53806, -0.899925, -1.19182, 1.22877, -1.30268, 0.00151098, -0.000139904, -0.00387085, -0.00338744, -0.0049889, 0.008308, -0.00108837, -0.694511, 55.9003, 27.2306, 6.35895, 1.78638, 2.87997, -0.0685925, 0.00096108, -0.00155752, -0.000488461, -9.38053e-05, -0.00153039, 6.95522e-05, 0.00383223, -0.00255116, -0.00218189, -0.00155231, 0.0105002, -0.000279564, 0.471005, -0.543379, 0.335899, -2.08384, -2.16585, -0.129879, 0.469433, -0.54257, 0.336577, -2.08476, -2.16667, -0.128423, -0.000734245, 0.00263035, 0.0013598, 0.0018719, -0.000712762, -0.00146626
0.0269836, 1.6914, -1.22463, -1.53806, -0.899929, -1.19182, 1.22878, -1.30267, 0.00341418, -0.000903076, -0.00374325, -0.00175551, -0.00751898, 0.00602773, -0.00025086, -0.658806, 56.0471, 27.1195, 6.32324, 1.74884, 2.89462, -0.0814099, 0.00095762, -0.00155539, -0.000481162, -8.92013e-05, -0.00152929, 7.23825e-05, 0.00406407, -0.00265426, -0.0027489, -0.00429897, 0.0107735, -0.0016683, 0.471005, -0.543377, 0.3359, -2.08384, -2.16585, -0.129878, 0.469434, -0.54257, 0.336571, -2.08475, -2.16667, -0.128417, -0.000806507, 0.00289319, 0.0014953, 0.00189043, -0.000587319, -0.00192973
0.0279836, 1.6914, -1.22463, -1.53807, -0.899935, -1.19183, 1.22878, -1.30267, 0.0040303, -0.00315948, -0.004113, -0.00225489, -0.00588496, 0.00479219, 7.01185e-05, -0.583427, 56.1581, 27.1552, 6.35895, 1.74335, 2.89462, -0.0878186, 0.000952704, -0.0015541, -0.000474196, -7.57976e-05, -0.00153986, 7.58621e-05, 0.00378188, -0.00311458, -0.00451129, -0.00558034, 0.00685638, -0.000773431, 0.471004, -0.543375, 0.335901, -2.08384, -2.16585, -0.129876, 0.469435, -0.542571, 0.336564, -2.08475, -2.16666, -0.12839, -0.000882416, 0.00316954, 0.00163773, 0.00220052, 0.000257713, -0.0034976
0.0289836, 1.6914, -1.22463, -1.53808, -0.899939, -1.19184, 1.22879, -1.30268, 0.000499004, -0.00355416, -0.00416393, -0.00169026, -0.00425541, 0.00458887, -0.00188603, -0.468376, 56.3406, 27.1909, 6.35895, 1.73053, 2.87265, -0.0356336, 0.000945027, -0.00155391, -0.000467582, -7.18335e-05, -0.00154811, 7.73199e-05, 0.00553445, -0.00122381, -0.00461501, -0.00439356, 0.00507895, -0.00251921, 0.471003, -0.543372, 0.335903, -2.08383, -2.16585, -0.129874, 0.469434, -0.542575, 0.336558, -2.08476, -2.16667, -0.128375, -0.000962028, 0.00345964, 0.00178723, 0.000291524, -0.00124379, -0.00366552
0.0299836, 1.6914, -1.22463, -1.53808, -0.899942, -1.19185, 1.2288, -1.30267, -0.00188824, -0.00387708, 0.000217684, -0.000431869, -0.0081151, 0.00427435, 0.00118405, -0.357292, 56.416, 27.0441, 6.32324, 1.73053, 2.85159, -0.101552, 0.000939496, -0.00155158, -0.000469018, -8.09413e-05, -0.00156325, 8.67195e-05, 0.00714178, 3.78839e-05, -0.00308276, -0.00182926, 0.00750913, -0.00848755, 0.471002, -0.543369, 0.335904, -2.08383, -2.16585, -0.129871, 0.469436, -0.542577, 0.33656, -2.08478, -2.16667, -0.128366, -0.0010454, 0.0037637, 0.0019439, -0.000939089, -0.00281401, -0.00220728
0.0309836, 1.69141, -1.22463, -1.53809, -0.899951, -1.19187, 1.22882, -1.30267, -0.0027389, -0.000629781, -0.00361858, -0.00206353, -0.0160359, 0.00695236, -0.000906054, -0.281914, 56.3406, 27.1909, 6.39465, 1.73694, 2.86532, -0.0557752, 0.000935297, -0.00154756, -0.000466443, -7.02509e-05, -0.00158606, 8.10974e-05, 0.00971482, 0.00120716, -0.002589, -0.00706174, 0.0191433, -0.0106475, 0.471002, -0.543366, 0.335906, -2.08383, -2.16586, -0.129869, 0.469439, -0.542578, 0.336558, -2.08477, -2.16669, -0.128329, -0.00113257, 0.00408193, 0.00210783, -0.00208416, -0.00515983, -0.00191985
0.0319836, 1.69141, -1.22462, -1.5381, -0.899951, -1.19188, 1.22882, -1.30268, -0.000207594, 0.000559139, -0.00358792, -0.00293845, -0.0159036, 0.00803999, -0.00111266, -0.206535, 56.3049, 27.2306, 6.32324, 1.71222, 2.90835, -0.0420422, 0.000929457, -0.00154594, -0.000465854, -6.84401e-05, -0.00160004, 8.4107e-05, 0.00865621, -0.000688551, -0.00215397, -0.00688611, 0.0211415, -0.00742253, 0.471001, -0.543362, 0.335908, -2.08383, -2.16586, -0.129866, 0.46944, -0.54258, 0.336559, -2.08478, -2.16669, -0.12831, -0.0012236, 0.00441451, 0.00227914, -0.000304063, -0.00377153, -0.00121184
0.0329836, 1.69141, -1.22462, -1.5381, -0.899951, -1.19188, 1.22882, -1.30268, -0.000207594, 0.000559139, -0.00358792, -0.00293845, -0.0159036, 0.00803999, -0.00111266, -0.206535, 56.3049, 27.2306, 6.32324, 1.71222, 2.90835, -0.0420422, 0.000925145, -0.00154493, -0.000464467, -7.04995e-05, -0.00159905, 8.63925e-05, 0.00903004, -0.000774515, -0.00227364, -0.0070418, 0.0213844, -0.00772117, 0.470999, -0.543358, 0.33591, -2.08382, -2.16586, -0.129863, 0.46944, -0.54258, 0.336559, -2.08478, -2.16669, -0.12831, -0.00131852, 0.00476163, 0.0024579, -0.000304063, -0.00377153, -0.00121184
0.0339836, 1.69142, -1.22462, -1.53811, -0.899961, -1.1919, 1.22883, -1.30268, 0.00102631, 0.000401267, -0.00536143, -0.00625927, -0.0167051, 0.0161323, -0.00169261, -0.0161054, 56.3049, 27.2663, 6.28357, 1.69391, 3.03744, -0.0164075, 0.000921342, -0.00153571, -0.000458515, -5.58693e-05, -0.00162783, 7.96976e-05, 0.00927292, -0.0033792, -0.00293258, -0.00387891, 0.0265822, -0.00444385, 0.470998, -0.543354, 0.335912, -2.08382, -2.16586, -0.12986, 0.469448, -0.542578, 0.336554, -2.08478, -2.16671, -0.128262, -0.00141737, 0.00512346, 0.00264421, 0.00218331, -0.00344146, -0.0017924
0.0349836, 1.69143, -1.22463, -1.53811, -0.899965, -1.19192, 1.22884, -1.30267, 0.00411798, -0.000507051, -0.0030401, -0.00711162, -0.0122056, 0.014898, 0.00151645, 0.134651, 56.3406, 27.2306, 6.24786, 1.68201, 3.0878, -0.0878186, 0.000916415, -0.00153106, -0.000455367, -5.4858e-05, -0.00163802, 8.69023e-05, 0.00663646, -0.00610293, -0.00316481, -0.00195313, 0.0216638, -0.00153278, 0.470997, -0.543349, 0.335915, -2.08382, -2.16586, -0.129856, 0.469451, -0.542577, 0.336553, -2.08479, -2.16671, -0.128246, -0.00152019, 0.00550014, 0.00283813, 0.004698, -0.000314724, -0.00150076
0.0359836, 1.69143, -1.22463, -1.53812, -0.899971, -1.19193, 1.22885, -1.30267, 0.00557024, -0.00112776, -0.00568618, -0.00454971, -0.0126859, 0.0145589, -0.000684456, 0.325081, 56.3763, 27.3774, 6.20819, 1.64447, 3.1235, -0.0420422, 0.000908364, -0.00152696, -0.000447596, -4.87119e-05, -0.00165024, 8.51101e-05, 0.00784452, -0.00587239, -0.00435134, -0.0040161, 0.0215345, -0.00190165, 0.470995, -0.543344, 0.335917, -2.08381, -2.16587, -0.129852, 0.469454, -0.542579, 0.336546, -2.08478, -2.16672, -0.128223, -0.00162701, 0.00589181, 0.00303974, 0.00436132, -0.000942502, -0.00265128
0.0369836, 1.69144, -1.22463, -1.53811, -0.899975, -1.19194, 1.22887, -1.30267, 0.0108751, -0.000717722, -0.00454088, -0.0019152, -0.013285, 0.0104861, 0.000764399, 0.475838, 56.3763, 27.2663, 6.13678, 1.61426, 3.14548, -0.0750012, 0.000904947, -0.00151629, -0.000447084, -6.10022e-05, -0.00166636, 7.96049e-05, 0.00612432, -0.00774216, -0.0041165, -0.0065446, 0.0205581, -0.000424558, 0.470994, -0.543338, 0.33592, -2.08381, -2.16587, -0.129848, 0.469463, -0.542576, 0.336548, -2.08479, -2.16675, -0.128217, -0.00173785, 0.0062986, 0.00324909, 0.00606476, 0.00120295, -0.00199948
0.0379836, 1.69145, -1.22463, -1.53812, -0.899984, -1.19196, 1.22888, -1.30267, 0.0100274, -0.00221613, -0.00518243, -0.000763145, -0.013965, 0.00713505, -0.000948463, 0.701973, 56.4517, 27.3417, 6.09711, 1.58954, 3.17386, -0.0356336, 0.000897198, -0.00151121, -0.000438527, -5.0634e-05, -0.00168031, 7.51106e-05, 0.00736052, -0.00633834, -0.00545912, -0.00996938, 0.0181744, -0.00143256, 0.470992, -0.543332, 0.335923, -2.0838, -2.16587, -0.129843, 0.469467, -0.542576, 0.336541, -2.08478, -2.16676, -0.128187, -0.00185274, 0.00672061, 0.00346625, 0.00454362, 0.000553717, -0.00325757
0.0389836, 1.69146, -1.22464, -1.53812, -0.899986, -1.19198, 1.22889, -1.30267, 0.0094378, -0.00229345, -0.00608664, -0.00133161, -0.0157571, 0.0126575, -0.00110703, 0.928108, 56.4874, 27.306, 5.98602, 1.59595, 3.21689, -0.0228162, 0.000889784, -0.00150264, -0.000435172, -5.41477e-05, -0.00170106, 7.50639e-05, 0.00904958, -0.00689276, -0.00553587, -0.00717525, 0.0226922, -0.00276588, 0.470991, -0.543326, 0.335927, -2.0838, -2.16588, -0.129838, 0.469474, -0.542576, 0.33654, -2.08479, -2.16678, -0.128165, -0.0019717, 0.00715794, 0.00369125, 0.00503606, -0.000641927, -0.00338719
0.0399844, 1.69147, -1.22465, -1.53814, -0.899992, -1.19199, 1.22891, -1.30266, 0.0100521, -0.00494824, -0.00714109, -0.00187383, -0.015705, 0.013404, 0.000720044, 1.11457, 56.6342, 27.417, 5.87494, 1.57123, 3.23886, -0.0621838, 0.000881426, -0.0014938, -0.000421801, -4.47286e-05, -0.00171134, 7.80936e-05, 0.00964539, -0.00747549, -0.00766593, -0.00819761, 0.0208241, -0.00434361, 0.470989, -0.543319, 0.33593, -2.08379, -2.16588, -0.129833, 0.46948, -0.542575, 0.336528, -2.08479, -2.16678, -0.128138, -0.00209472, 0.00761066, 0.00392413, 0.00543939, -0.000425717, -0.00536763
0.0409846, 1.69148, -1.22465, -1.53814, -0.899993, -1.192, 1.22892, -1.30267, 0.00860575, -0.00421605, -0.00336115, -0.00145528, -0.016785, 0.014235, -0.00145275, 1.38038, 56.6739, 27.3417, 5.72418, 1.57764, 3.25259, -0.00999879, 0.00087263, -0.00148523, -0.000416993, -5.4067e-05, -0.00172423, 7.21978e-05, 0.0103561, -0.00736652, -0.00584978, -0.00440213, 0.0228511, -0.0029187, 0.470987, -0.543312, 0.335934, -2.08379, -2.16589, -0.129827, 0.469487, -0.542575, 0.336526, -2.08479, -2.1668, -0.12813, -0.00222183, 0.00807884, 0.00416491, 0.00529453, -0.000943151, -0.00344054
0.0419849, 1.6915, -1.22465, -1.53816, -0.899998, -1.19203, 1.22894, -1.30266, 0.00951419, -0.00280261, -0.00993064, -0.00304645, -0.0187382, 0.0143882, 0.00120164, 1.57081, 56.6739, 27.5281, 5.6488, 1.61426, 3.27456, -0.0685925, 0.000864247, -0.00147359, -0.000409614, -4.35014e-05, -0.00175517, 7.64578e-05, 0.0116412, -0.00697855, -0.007769, -0.0119111, 0.0268643, -0.00754422, 0.470984, -0.543304, 0.335938, -2.08378, -2.16589, -0.129821, 0.469497, -0.542574, 0.336521, -2.08479, -2.16681, -0.128081, -0.00235303, 0.00856251, 0.00441363, 0.00475253, -0.00144867, -0.00527463
0.0429849, 1.69152, -1.22465, -1.53816, -0.9, -1.19205, 1.22896, -1.30267, 0.0143974, -0.000934312, -0.01011, -0.000238459, -0.0242613, 0.0147668, -0.000894329, 1.72157, 56.6342, 27.5281, 5.53772, 1.63898, 3.2883, -0.0228162, 0.000857657, -0.00145944, -0.000405021, -4.25566e-05, -0.00178292, 6.43551e-05, 0.0118331, -0.00859506, -0.00673815, -0.0137944, 0.0336964, -0.00548176, 0.470982, -0.543295, 0.335942, -2.08378, -2.16589, -0.129815, 0.469508, -0.542571, 0.336519, -2.08479, -2.16685, -0.128047, -0.00248832, 0.00906169, 0.00467028, 0.00627582, -0.0012313, -0.00407864
0.0439849, 1.69155, -1.22465, -1.53817, -0.900004, -1.19207, 1.22898, -1.30266, 0.0137427, -0.00238156, -0.0104008, 0.00183502, -0.0189993, 0.0142566, 0.00133656, 1.90803, 56.7096, 27.5281, 5.42664, 1.66369, 3.324, -0.0750012, 0.000850661, -0.00144371, -0.000396396, -4.57346e-05, -0.00180254, 6.04101e-05, 0.0123972, -0.00836509, -0.00759165, -0.0113002, 0.0278693, -0.00896229, 0.47098, -0.543286, 0.335947, -2.08377, -2.1659, -0.129808, 0.469522, -0.542567, 0.336514, -2.08479, -2.16687, -0.128024, -0.00262768, 0.00957641, 0.00493487, 0.00589617, -0.00115159, -0.00473743
0.0449849, 1.69157, -1.22466, -1.53818, -0.900001, -1.19209, 1.229, -1.30266, 0.0175278, -0.00325473, -0.0106863, 0.00429648, -0.0145392, 0.018052, -0.00080438, 2.05878, 56.781, 27.5281, 5.27588, 1.6756, 3.36703, -0.0292249, 0.000841887, -0.00142866, -0.000387089, -4.62849e-05, -0.001822, 5.36799e-05, 0.0116713, -0.0112307, -0.00791122, -0.00589562, 0.0255103, -0.00431229, 0.470977, -0.543277, 0.335952, -2.08376, -2.1659, -0.129801, 0.469534, -0.542564, 0.336508, -2.08479, -2.16689, -0.127998, -0.00277111, 0.0101066, 0.00520739, 0.00857714, 0.000261975, -0.00475431
0.0459849, 1.69159, -1.22466, -1.5382, -0.900003, -1.19211, 1.22903, -1.30266, 0.0182189, -0.00309528, -0.00874079, 0.00428755, -0.0152284, 0.0162494, 0.000447091, 2.28492, 56.8207, 27.5638, 5.2005, 1.66919, 3.41739, -0.0557752, 0.000829686, -0.00141629, -0.00037541, -4.16353e-05, -0.00184457, 5.48564e-05, 0.0114766, -0.0116855, -0.00751212, -0.00642125, 0.0256185, -0.0046369, 0.470974, -0.543267, 0.335957, -2.08375, -2.16591, -0.129793, 0.469544, -0.542564, 0.336499, -2.08479, -2.16691, -0.127962, -0.00291859, 0.0106523, 0.00548782, 0.00889133, 0.000957198, -0.00406333
0.0469849, 1.69159, -1.22466, -1.5382, -0.900003, -1.19211, 1.22903, -1.30266, 0.0182189, -0.00309528, -0.00874079, 0.00428755, -0.0152284, 0.0162494, 0.000447091, 2.28492, 56.8207, 27.5638, 5.2005, 1.66919, 3.41739, -0.0557752, 0.000818316, -0.00141366, -0.000371761, -4.70597e-05, -0.00184199, 6.08459e-05, 0.0120808, -0.0118225, -0.00770494, -0.00666924, 0.0260096, -0.0051162, 0.470971, -0.543256, 0.335962, -2.08375, -2.16592, -0.129785, 0.469544, -0.542564, 0.336499, -2.08479, -2.16691, -0.127962, -0.0030701, 0.0112135, 0.00577613, 0.00889133, 0.000957198, -0.00406333
0.0479849, 1.69159, -1.22466, -1.5382, -0.900003, -1.19211, 1.22903, -1.30266, 0.0182189, -0.00309528, -0.00874079, 0.00428755, -0.0152284, 0.0162494, 0.000447091, 2.28492, 56.8207, 27.5638, 5.2005, 1.66919, 3.41739, -0.0557752, 0.000806326, -0.0014109, -0.000367914, -5.27797e-05, -0.00183927, 6.71595e-05, 0.0127015, -0.0119631, -0.007903, -0.00692374, 0.0264112, -0.00560836, 0.470968, -0.543245, 0.335968, -2.08374, -2.16592, -0.129777, 0.469544, -0.542564, 0.336499, -2.08479, -2.16691, -0.127962, -0.0032256, 0.01179, 0.00607228, 0.00889133, 0.000957198, -0.00406333
0.0489849, 1.69166, -1.22466, -1.53824, -0.900002, -1.19217, 1.2291, -1.30266, 0.0266617, 1.37967e-05, -0.00932689, 0.00146053, -0.0200918, 0.0233852, 0.000577048, 2.92762, 56.781, 27.4885, 5.01404, 1.65088, 3.45309, -0.0557752, 0.000796689, -0.0013702, -0.000355778, -4.95678e-05, -0.00193143, 4.94636e-05, 0.0102789, -0.0180737, -0.00669452, -0.00614719, 0.0379745, 0.00260767, 0.470965, -0.543234, 0.335974, -2.08373, -2.16593, -0.129768, 0.469581, -0.542558, 0.336491, -2.08481, -2.16698, -0.127858, -0.00338507, 0.0123818, 0.00637623, 0.0147915, 0.00400539, -0.00237475
0.0499849, 1.69168, -1.22466, -1.53825, -0.900008, -1.19218, 1.22913, -1.30267, 0.0252883, 1.00084e-05, -0.0102367, -0.000257219, -0.0188802, 0.0262834, -0.00205671, 3.15376, 56.781, 27.4885, 5.05371, 1.62616, 3.45309, 0.0101428, 0.00078412, -0.00135411, -0.000345399, -5.30497e-05, -0.00195642, 3.79237e-05, 0.0112846, -0.0183413, -0.00713899, -0.00473529, 0.039003, 0.00484205, 0.470962, -0.543221, 0.335981, -2.08372, -2.16594, -0.129759, 0.469594, -0.542556, 0.336484, -2.0848, -2.16702, -0.127829, -0.00354847, 0.0129888, 0.00668792, 0.0149153, 0.00369894, -0.00266615
0.0509849, 1.6917, -1.22467, -1.53827, -0.900009, -1.19221, 1.22916, -1.30266, 0.022996, -0.00259118, -0.0108685, -0.00123386, -0.023607, 0.0279709, 0.000799001, 3.30451, 56.8921, 27.4885, 5.08942, 1.62067, 3.46774, -0.0484509, 0.000770017, -0.00133622, -0.000331517, -5.67453e-05, -0.0019796, 4.09237e-05, 0.0141746, -0.0171372, -0.00896828, -0.00662071, 0.0416073, -0.00179566, 0.470958, -0.543208, 0.335987, -2.08371, -2.16594, -0.129749, 0.469608, -0.542554, 0.336474, -2.08481, -2.16704, -0.127799, -0.00371575, 0.0136108, 0.00700727, 0.0135829, 0.00170009, -0.00456517
0.0519849, 1.69172, -1.22467, -1.53829, -0.900006, -1.19223, 1.22918, -1.30266, 0.0232861, -0.00432545, -0.0122855, -0.000157731, -0.0222598, 0.0289964, -0.000891487, 3.49494, 57.0032, 27.5281, 5.05371, 1.61426, 3.48971, -0.00999879, 0.000751959, -0.00132237, -0.000317715, -5.62351e-05, -0.00200447, 4.29153e-05, 0.0153521, -0.017336, -0.0104827, -0.0062992, 0.0397329, -0.00150139, 0.470955, -0.543195, 0.335994, -2.0837, -2.16595, -0.129738, 0.469618, -0.542555, 0.336465, -2.08481, -2.16705, -0.127763, -0.00388686, 0.0142477, 0.0073342, 0.0135978, 0.00141582, -0.00592237
0.0529849, 1.69175, -1.22466, -1.53831, -0.900004, -1.19225, 1.22921, -1.30266, 0.0303153, 0.000550382, -0.0112862, -0.000232935, -0.0213012, 0.0296803, 0.000355111, 3.53065, 56.8564, 27.4885, 5.05371, 1.60785, 3.51077, -0.0356336, 0.000739551, -0.00130381, -0.000314755, -6.11434e-05, -0.00204318, 4.23627e-05, 0.0121144, -0.0217746, -0.00780908, -0.00538174, 0.0447517, 0.0044251, 0.470951, -0.54318, 0.336002, -2.08369, -2.16596, -0.129728, 0.469633, -0.542552, 0.336466, -2.08482, -2.16709, -0.127718, -0.00406174, 0.0148993, 0.00766863, 0.0178365, 0.00503475, -0.0025798
0.0539849, 1.69178, -1.22467, -1.53832, -0.9, -1.19227, 1.22924, -1.30266, 0.0280852, -0.00139606, -0.00989694, 0.000676895, -0.0203014, 0.0259108, -0.000712695, 3.60603, 56.9318, 27.417, 5.01404, 1.59595, 3.53274, -0.00999879, 0.00072418, -0.00128426, -0.000301967, -6.88737e-05, -0.00206603, 3.67002e-05, 0.0133981, -0.0201841, -0.00877717, -0.00665738, 0.0403558, 0.00296409, 0.470947, -0.543166, 0.336009, -2.08368, -2.16597, -0.129716, 0.469649, -0.54255, 0.336459, -2.08482, -2.16712, -0.127693, -0.00424034, 0.0155655, 0.00801045, 0.0160805, 0.00451739, -0.00334509
0.0549849, 1.69181, -1.22466, -1.53834, -0.899995, -1.1923, 1.22927, -1.30266, 0.0294006, -2.49435e-06, -0.0140563, 0.0012146, -0.0204487, 0.0326087, 0.00511641, 3.6814, 56.8921, 27.417, 4.97833, 1.60785, 3.53274, -0.0356336, 0.000705966, -0.00126782, -0.000295099, -7.51321e-05, -0.00210323, 4.4411e-05, 0.0151657, -0.0214185, -0.00906895, -0.00466091, 0.0459125, -0.00468578, 0.470942, -0.54315, 0.336017, -2.08367, -2.16597, -0.129705, 0.469662, -0.54255, 0.336456, -2.08484, -2.16714, -0.127649, -0.00442257, 0.0162459, 0.00835954, 0.0171839, 0.0035485, -0.00359574
0.0559849, 1.69184, -1.22466, -1.53836, -0.899992, -1.19231, 1.2293, -1.30266, 0.0288988, 0.00166892, -0.0186116, 0.000755829, -0.0193684, 0.0333662, 0.00454377, 3.6814, 56.8207, 27.4885, 4.97833, 1.58954, 3.52542, -0.0557752, 0.000689137, -0.00124829, -0.000286242, -8.0456e-05, -0.00213858, 4.70555e-05, 0.0166564, -0.0208362, -0.00991029, -0.00778553, 0.0478713, -0.00665702, 0.470938, -0.543134, 0.336026, -2.08366, -2.16598, -0.129692, 0.469677, -0.542549, 0.336453, -2.08485, -2.16717, -0.127607, -0.00460838, 0.0169405, 0.00871578, 0.0164398, 0.00287711, -0.00428402
0.0569849, 1.69185, -1.22466, -1.53838, -0.899986, -1.19234, 1.22934, -1.30266, 0.0289845, 0.00204074, -0.0161549, 0.00222669, -0.0155107, 0.0388889, 0.00209861, 3.79646, 56.781, 27.4528, 4.90295, 1.61426, 3.50345, -0.0228162, 0.000666513, -0.0012336, -0.000280118, -9.75331e-05, -0.00217436, 5.75742e-05, 0.0170778, -0.0225957, -0.00837788, 0.00136376, 0.0480204, -0.00353822, 0.470933, -0.543117, 0.336034, -2.08364, -2.16599, -0.129679, 0.469688, -0.542553, 0.336452, -2.08488, -2.16719, -0.127576, -0.00479766, 0.0176488, 0.00907903, 0.0180784, 0.00300611, -0.0025263
0.0579849, 1.69189, -1.22466, -1.53839, -0.899986, -1.19236, 1.22937, -1.30266, 0.0302184, -0.00628611, -0.0157694, 0.00145414, -0.0160311, 0.0427894, 0.00209139, 3.72108, 56.8564, 27.3417, 4.90295, 1.60785, 3.48239, -0.0356336, 0.000650579, -0.00120945, -0.000268767, -0.000113119, -0.00220204, 4.85095e-05, 0.018302, -0.0245093, -0.0132067, 0.00327996, 0.0426605, -0.00208771, 0.470929, -0.543099, 0.336043, -2.08363, -2.166, -0.129666, 0.469707, -0.542548, 0.336446, -2.08488, -2.16723, -0.127552, -0.00499035, 0.0183707, 0.00944913, 0.0196658, 0.00334111, -0.00717217
0.0589849, 1.69191, -1.22466, -1.5384, -0.899979, -1.19238, 1.22941, -1.30266, 0.0290737, -0.00468097, -0.0182842, 0.0017819, -0.0175482, 0.0408695, 0.00155746, 3.72108, 56.8564, 27.3417, 4.86725, 1.63257, 3.47507, -0.0356336, 0.000627297, -0.00119189, -0.000259569, -0.000129493, -0.00223626, 5.98103e-05, 0.0201711, -0.0229773, -0.0134695, -0.00114706, 0.0451634, -0.00534319, 0.470924, -0.543081, 0.336053, -2.08362, -2.16601, -0.129652, 0.46972, -0.54255, 0.336443, -2.0849, -2.16726, -0.127521, -0.00518633, 0.0191057, 0.00982594, 0.0179976, 0.00220858, -0.00729862
0.0599849, 1.69193, -1.22466, -1.53842, -0.899977, -1.1924, 1.22945, -1.30266, 0.0289555, -0.00432353, -0.0219856, 0.00117088, -0.0224674, 0.0447732, -0.000297357, 3.6814, 56.8921, 27.417, 4.86725, 1.63257, 3.43936, 0.00373412, 0.000604378, -0.00117247, -0.000246141, -0.000139892, -0.0022689, 6.10609e-05, 0.0229653, -0.0227299, -0.0145591, -0.00384959, 0.0522888, -0.00713811, 0.470918, -0.543062, 0.336063, -2.0836, -2.16602, -0.129638, 0.469735, -0.542551, 0.336435, -2.08491, -2.16729, -0.127485, -0.00538552, 0.0198537, 0.0102093, 0.0176123, 0.000355635, -0.00841731
0.0609849, 1.69196, -1.22467, -1.53844, -0.899972, -1.19243, 1.22949, -1.30265, 0.0256072, -0.00408613, -0.017831, 0.00477001, -0.0219207, 0.0427576, 0.00233497, 3.6457, 56.9318, 27.3417, 4.82758, 1.64447, 3.41739, -0.0621838, 0.000581951, -0.00115238, -0.000236493, -0.000160677, -0.00229803, 7.22053e-05, 0.0251296, -0.0206477, -0.0127087, 0.000204728, 0.0509219, -0.0146907, 0.470913, -0.543042, 0.336073, -2.08359, -2.16603, -0.129623, 0.46975, -0.542551, 0.336432, -2.08494, -2.16731, -0.127462, -0.0055878, 0.0206142, 0.0105989, 0.0154756, -0.00139063, -0.00647327
0.0619849, 1.69198, -1.22466, -1.53845, -0.899972, -1.19245, 1.22953, -1.30266, 0.0272144, -0.000332443, -0.0173906, 0.00249858, -0.0254704, 0.0412662, -0.000815912, 3.57032, 56.8207, 27.3774, 4.86725, 1.63257, 3.39633, 0.00373412, 0.000558355, -0.00113225, -0.000229984, -0.000179121, -0.00234132, 6.97756e-05, 0.02467, -0.0215787, -0.0111428, -0.00371301, 0.0575872, -0.00966181, 0.470907, -0.543021, 0.336083, -2.08357, -2.16604, -0.129607, 0.469765, -0.542552, 0.336431, -2.08495, -2.16736, -0.127423, -0.00579309, 0.0213869, 0.0109948, 0.0162405, -0.000366528, -0.00448817
0.0629849, 1.69201, -1.22466, -1.53847, -0.899971, -1.19247, 1.22957, -1.30266, 0.0301065, -0.00121196, -0.0162289, 0.00101544, -0.0236561, 0.0354477, 1.63224e-05, 3.41956, 56.8564, 27.3774, 4.90295, 1.62616, 3.38901, -0.00999879, 0.000536179, -0.00110875, -0.000218782, -0.000195726, -0.0023761, 7.02096e-05, 0.0226681, -0.0230816, -0.012389, -0.0084738, 0.053034, -0.00582444, 0.470902, -0.543, 0.336094, -2.08356, -2.16606, -0.129591, 0.469783, -0.54255, 0.336427, -2.08496, -2.1674, -0.12739, -0.00600136, 0.0221719, 0.0113968, 0.017416, 0.00264857, -0.00505175
0.0639849, 1.69201, -1.22466, -1.53847, -0.899971, -1.19247, 1.22957, -1.30266, 0.0301065, -0.00121196, -0.0162289, 0.00101544, -0.0236561, 0.0354477, 1.63224e-05, 3.34419, 56.7096, 27.306, 4.94263, 1.63257, 3.38168, -0.0484509, 0.000512313, -0.00110332, -0.000211145, -0.000207093, -0.00237079, 8.26845e-05, 0.0235255, -0.023272, -0.0126612, -0.0088181, 0.0535864, -0.00649693, 0.470896, -0.542978, 0.336106, -2.08354, -2.16607, -0.129574, 0.469783, -0.54255, 0.336427, -2.08496, -2.1674, -0.12739, -0.00621258, 0.0229689, 0.0118049, 0.0174161, 0.00264902, -0.00505129
0.0649849, 1.69206, -1.22465, -1.53849, -0.89997, -1.19251, 1.22966, -1.30266, 0.0247146, -8.47727e-05, -0.012675, -0.00080609, -0.0268395, 0.0384618, -0.00017524, 3.26881, 56.781, 27.306, 4.97833, 1.64447, 3.37436, -0.0164075, 0.00048522, -0.00106647, -0.00020391, -0.000248374, -0.00245068, 7.91138e-05, 0.0263439, -0.0216428, -0.0107187, -0.00486759, 0.0591339, -0.0100894, 0.470889, -0.542955, 0.336118, -2.08352, -2.16608, -0.129557, 0.469814, -0.542551, 0.336427, -2.085, -2.16747, -0.127338, -0.0064267, 0.0237778, 0.012219, 0.0157471, 0.00030989, -0.00310698
0.0659849, 1.69208, -1.22464, -1.5385, -0.899969, -1.19254, 1.2297, -1.30265, 0.0230373, 0.0023837, -0.00960175, -0.00129459, -0.024994, 0.0381243, 0.00109175, 3.19343, 56.6739, 27.306, 5.01404, 1.65088, 3.3533, -0.0484509, 0.00045683, -0.00104673, -0.000201114, -0.000276783, -0.00250037, 9.48277e-05, 0.0265487, -0.0216472, -0.00847039, -0.00173597, 0.0602757, -0.0112206, 0.470883, -0.542931, 0.33613, -2.0835, -2.16609, -0.129539, 0.469828, -0.542554, 0.336431, -2.08504, -2.16751, -0.127299, -0.00664368, 0.0245986, 0.0126391, 0.0156238, 0.000583196, -0.000498772
0.0669849, 1.6921, -1.22464, -1.53852, -0.899966, -1.19256, 1.22975, -1.30266, 0.0252745, 0.000704838, -0.0112832, -0.000804543, -0.0286861, 0.037765, -0.00067998, 2.96729, 56.7096, 27.3417, 5.01404, 1.66369, 3.33865, -0.00999879, 0.000430649, -0.00102167, -0.000191463, -0.000303963, -0.00253719, 9.30474e-05, 0.0278009, -0.0222449, -0.0104158, -0.0058495, 0.0621599, -0.0103871, 0.470876, -0.542906, 0.336143, -2.08349, -2.16611, -0.12952, 0.469847, -0.542553, 0.336429, -2.08506, -2.16755, -0.127274, -0.00686349, 0.0254311, 0.0130651, 0.0159755, 0.000503534, -0.00220619
0.0679849, 1.69213, -1.22464, -1.53852, -0.899963, -1.19259, 1.2298, -1.30265, 0.0272697, 0.000433084, -0.00843527, -0.000492474, -0.0270263, 0.0419788, 0.00149171, 2.85224, 56.7096, 27.3417, 5.01404, 1.6875, 3.31759, -0.0621838, 0.000399634, -0.000999652, -0.000186298, -0.000340376, -0.00258402, 0.000105736, 0.0274551, -0.0249581, -0.0095441, 0.000533205, 0.0630452, -0.00963377, 0.470869, -0.542881, 0.336156, -2.08347, -2.16612, -0.129501, 0.469863, -0.542556, 0.336432, -2.08509, -2.16759, -0.127246, -0.00708609, 0.0262753, 0.013497, 0.0184821, 0.00166721, -0.000942341
0.0689849, 1.69215, -1.22463, -1.53853, -0.899967, -1.19261, 1.22985, -1.30266, 0.0296281, 0.0041045, -0.00945157, -0.00205864, -0.0262519, 0.0453122, -0.000454396, 2.70148, 56.6739, 27.3417, 5.08942, 1.72504, 3.2883, -0.0228162, 0.000372329, -0.000973053, -0.000180245, -0.000373548, -0.00263164, 0.000102318, 0.0269169, -0.0272855, -0.00808707, 0.00173239, 0.0685842, -0.00499646, 0.470862, -0.542854, 0.336169, -2.08345, -2.16613, -0.129481, 0.469884, -0.542555, 0.336434, -2.08511, -2.16765, -0.127215, -0.00731145, 0.027131, 0.0139346, 0.0206148, 0.00292649, 0.000946717
0.0699849, 1.69217, -1.22463, -1.53855, -0.899967, -1.19263, 1.2299, -1.30265, 0.0262655, 0.00335408, -0.0120191, -0.00134774, -0.0239664, 0.047837, 0.000924665, 2.62611, 56.781, 27.417, 5.08942, 1.71863, 3.25992, -0.0557752, 0.000339478, -0.000950959, -0.000170865, -0.000409735, -0.00267005, 0.000119346, 0.0299727, -0.0257261, -0.00923567, 0.00316947, 0.0678158, -0.0115013, 0.470855, -0.542827, 0.336183, -2.08343, -2.16615, -0.129461, 0.469899, -0.542558, 0.336433, -2.08515, -2.16768, -0.127194, -0.00753952, 0.0279981, 0.014378, 0.0188981, 0.000889511, -0.000170711
0.0709849, 1.6922, -1.22463, -1.53855, -0.89997, -1.19266, 1.22995, -1.30265, 0.0298405, 0.00365576, -0.0127488, -0.00264322, -0.0233313, 0.0539845, 0.00157105, 2.43568, 56.8564, 27.4528, 5.16479, 1.73694, 3.23153, -0.0814099, 0.000310362, -0.000923368, -0.000162558, -0.000445575, -0.00271269, 0.00011901, 0.0295809, -0.0292914, -0.0094415, 0.00665467, 0.0715121, -0.00835689, 0.470847, -0.542799, 0.336197, -2.08341, -2.16616, -0.12944, 0.46992, -0.542556, 0.336434, -2.08517, -2.16774, -0.12717, -0.00777026, 0.0288765, 0.0148271, 0.0222067, 0.00233386, 2.74144e-05
0.0719849, 1.69222, -1.22463, -1.53855, -0.89997, -1.19269, 1.23001, -1.30265, 0.0281207, 0.00214293, -0.00855345, -0.00258348, -0.0223075, 0.0533967, -0.0011189, 2.28492, 56.8921, 27.417, 5.2005, 1.74335, 3.22421, -0.0228162, 0.000280033, -0.000894526, -0.000157415, -0.00048895, -0.00276085, 0.000111766, 0.030324, -0.0292956, -0.00910012, 0.0100689, 0.0691606, -0.0057741, 0.47084, -0.54277, 0.336212, -2.08339, -2.16618, -0.129418, 0.469942, -0.542555, 0.336438, -2.08519, -2.16781, -0.127148, -0.00800365, 0.0297661, 0.0152818, 0.0220171, 0.00243801, 0.000703667
0.0729849, 1.69224, -1.22462, -1.53856, -0.899969, -1.19271, 1.23006, -1.30265, 0.0235454, 7.11169e-05, -0.00896787, -0.0017119, -0.0221256, 0.0565999, 0.000952398, 2.28492, 56.9675, 27.5281, 5.2005, 1.76166, 3.23886, -0.0685925, 0.000241665, -0.000874849, -0.000149678, -0.000526584, -0.00280573, 0.000136912, 0.0341659, -0.0273163, -0.0101261, 0.0131377, 0.068966, -0.0139804, 0.470832, -0.542741, 0.336228, -2.08336, -2.16619, -0.129396, 0.469955, -0.542561, 0.336439, -2.08523, -2.16783, -0.127119, -0.00823965, 0.0306668, 0.015742, 0.0199061, -0.000377756, -0.000384871
0.0739849, 1.69227, -1.22462, -1.53857, -0.899974, -1.19274, 1.23012, -1.30265, 0.0255971, 0.00155302, -0.00731413, -0.00289669, -0.0214025, 0.0552605, -0.00105831, 2.05878, 57.0389, 27.5638, 5.27588, 1.76807, 3.23886, -0.0228162, 0.000211352, -0.000842062, -0.000141421, -0.00056918, -0.00285472, 0.00012677, 0.0331136, -0.0290472, -0.00937107, 0.0126091, 0.0698755, -0.00865754, 0.470823, -0.54271, 0.336243, -2.08334, -2.16621, -0.129373, 0.46998, -0.542558, 0.336441, -2.08525, -2.16791, -0.127095, -0.00847821, 0.0315785, 0.0162078, 0.0213861, 0.00152874, 0.000936823
0.0749849, 1.69229, -1.22461, -1.53858, -0.899976, -1.19277, 1.23018, -1.30265, 0.0254352, 0.00400854, -0.00701457, -0.00285329, -0.026159, 0.0589463, 0.0005168, 2.02308, 56.9318, 27.6392, 5.31555, 1.78638, 3.23153, -0.0557752, 0.000174694, -0.000816733, -0.000139664, -0.000611859, -0.00291673, 0.000140327, 0.035217, -0.0293087, -0.00779308, 0.0137202, 0.0786489, -0.0126892, 0.470815, -0.542678, 0.33626, -2.08332, -2.16623, -0.129349, 0.469998, -0.542561, 0.336449, -2.08529, -2.16796, -0.127054, -0.0087193, 0.0325011, 0.016679, 0.0215402, 0.000143525, 0.00263198
0.0759849, 1.69232, -1.22461, -1.53858, -0.899986, -1.19281, 1.23023, -1.30265, 0.0282255, 0.000814414, -0.00495782, -0.00449626, -0.0245938, 0.0565289, -0.00162093, 1.87232, 57.15, 27.6392, 5.42664, 1.79828, 3.24527, -0.00267457, 0.00014405, -0.000782163, -0.000128182, -0.000652939, -0.00296116, 0.000123393, 0.0338085, -0.0316158, -0.00984781, 0.0122679, 0.073727, -0.00556975, 0.470806, -0.542646, 0.336276, -2.08329, -2.16625, -0.129324, 0.470025, -0.542556, 0.336449, -2.0853, -2.16804, -0.127032, -0.00896288, 0.0334345, 0.0171556, 0.0234752, 0.00287929, 0.00122762
0.0769849, 1.69235, -1.2246, -1.53858, -0.899989, -1.19284, 1.23029, -1.30264, 0.0271329, 0.00478004, 0.00104147, -0.00382943, -0.0234657, 0.059918, 0.00159907, 1.72157, 57.1143, 27.7146, 5.46234, 1.81018, 3.23886, -0.0750012, 0.000109924, -0.000749621, -0.000124481, -0.000699516, -0.00302103, 0.000133457, 0.0340019, -0.0328021, -0.00526304, 0.0214042, 0.0785975, -0.00803912, 0.470797, -0.542612, 0.336293, -2.08327, -2.16626, -0.129299, 0.470049, -0.542554, 0.336456, -2.08534, -2.16809, -0.126997, -0.00920893, 0.0343785, 0.0176375, 0.0245887, 0.00297726, 0.00617042
0.0779849, 1.69237, -1.2246, -1.53858, -0.899994, -1.19287, 1.23035, -1.30264, 0.0250698, 0.00120792, 0.00106275, -0.00664273, -0.0228927, 0.0619634, 8.33902e-05, 1.75727, 57.2253, 27.7146, 5.50201, 1.82941, 3.24527, -0.0484509, 6.96832e-05, -0.000722157, -0.000115856, -0.000748784, -0.00307142, 0.000138883, 0.0355475, -0.0330043, -0.00778123, 0.0217397, 0.076422, -0.00662838, 0.470788, -0.542578, 0.336311, -2.08324, -2.16628, -0.129273, 0.470069, -0.542557, 0.336458, -2.08537, -2.16815, -0.126974, -0.00945739, 0.0353331, 0.0181247, 0.0245067, 0.00280211, 0.0039251
0.0789849, 1.69241, -1.22459, -1.53859, -0.900001, -1.19291, 1.23042, -1.30265, 0.0268246, 0.00498213, -0.00161362, -0.00645355, -0.0268298, 0.0636364, -0.00163931, 1.53114, 57.1896, 27.8257, 5.57739, 1.84131, 3.24527, -0.00267457, 3.65299e-05, -0.000685025, -0.000110244, -0.000790287, -0.0031354, 0.000126435, 0.0370117, -0.0334946, -0.0067555, 0.0187467, 0.0851106, -0.00681207, 0.470779, -0.542543, 0.336329, -2.08322, -2.1663, -0.129247, 0.470097, -0.542552, 0.336465, -2.08539, -2.16824, -0.12693, -0.00970824, 0.0362982, 0.0186171, 0.0248366, 0.0021849, 0.00518823
0.0799849, 1.69243, -1.22459, -1.53859, -0.900003, -1.19294, 1.23048, -1.30264, 0.0247417, 0.00514526, -0.00170372, -0.00449874, -0.0297388, 0.0609703, 0.00134892, 1.57081, 57.261, 27.8614, 5.57739, 1.84772, 3.23886, -0.0685925, -6.6014e-06, -0.000657666, -0.000103637, -0.000841782, -0.00319118, 0.000145497, 0.0398683, -0.0312813, -0.00687544, 0.0158513, 0.0867802, -0.0154042, 0.470769, -0.542506, 0.336348, -2.08319, -2.16632, -0.12922, 0.470116, -0.542556, 0.336469, -2.08544, -2.16829, -0.126901, -0.00996144, 0.0372736, 0.0191147, 0.0224728, 0.000267503, 0.00519191
0.0809849, 1.69246, -1.22459, -1.53859, -0.900011, -1.19298, 1.23054, -1.30265, 0.0288751, 0.00275139, -0.000980375, -0.00481688, -0.0322634, 0.0589829, -0.00154183, 1.38038, 57.4475, 27.8614, 5.6488, 1.86603, 3.23153, -0.00267457, -4.30639e-05, -0.000619664, -9.13764e-05, -0.000888086, -0.00324352, 0.000129677, 0.0393678, -0.0334255, -0.00879555, 0.0121736, 0.0862647, -0.00943029, 0.470759, -0.542469, 0.336367, -2.08316, -2.16634, -0.129192, 0.470145, -0.542551, 0.336469, -2.08544, -2.16837, -0.126873, -0.010217, 0.0382593, 0.0196175, 0.0242709, 0.00213209, 0.0038106
0.0819849, 1.69249, -1.22458, -1.53859, -0.900014, -1.19302, 1.2306, -1.30264, 0.0282451, 0.00548708, -0.00146503, -0.00648221, -0.0292159, 0.0573865, 0.00165109, 1.34071, 57.4475, 27.9011, 5.6488, 1.87793, 3.22421, -0.0750012, -8.4817e-05, -0.000588545, -8.63204e-05, -0.000934244, -0.00330701, 0.000143908, 0.0392951, -0.0335913, -0.00803933, 0.0109015, 0.0865465, -0.0118772, 0.470749, -0.542431, 0.336386, -2.08313, -2.16636, -0.129163, 0.470167, -0.542552, 0.336477, -2.08549, -2.16843, -0.12683, -0.0104747, 0.0392552, 0.0201252, 0.0242044, 0.00309108, 0.00507107
0.0829849, 1.69253, -1.22458, -1.5386, -0.900017, -1.19306, 1.23067, -1.30264, 0.0307909, 0.00363557, -0.00255969, -0.00777454, -0.0315582, 0.0565092, -0.000357169, 1.18995, 57.4832, 27.9725, 5.6488, 1.88434, 3.20956, -0.0356336, -0.00012501, -0.000552135, -7.7216e-05, -0.000979905, -0.00336733, 0.000138717, 0.03964, -0.0349603, -0.010246, 0.00650465, 0.0871404, -0.00833815, 0.470738, -0.542392, 0.336407, -2.0831, -2.16638, -0.129134, 0.470194, -0.54255, 0.33648, -2.08551, -2.16851, -0.126791, -0.0107348, 0.0402611, 0.020638, 0.0252439, 0.00415316, 0.00330936
0.0839849, 1.69256, -1.22457, -1.5386, -0.900021, -1.1931, 1.23073, -1.30264, 0.0296421, 0.00331272, -0.000805665, -0.00662962, -0.0335558, 0.0600072, 0.000507995, 1.15424, 57.5943, 27.9368, 5.68848, 1.90265, 3.19583, -0.0557752, -0.000169695, -0.000518215, -6.88717e-05, -0.00103437, -0.00342866, 0.000148931, 0.0420048, -0.0350227, -0.0096277, 0.0104161, 0.0906336, -0.0119977, 0.470727, -0.542351, 0.336427, -2.08308, -2.1664, -0.129103, 0.470219, -0.542551, 0.336485, -2.08555, -2.16858, -0.126758, -0.010997, 0.0412769, 0.0211557, 0.0251532, 0.00274265, 0.00406897
0.0849849, 1.69259, -1.22456, -1.5386, -0.900026, -1.19314, 1.2308, -1.30264, 0.0306749, 0.00586706, -0.00308639, -0.00564389, -0.0348107, 0.0578892, -0.00111931, 1.03919, 57.5943, 28.0478, 5.72418, 1.90906, 3.19583, -0.0164075, -0.000212004, -0.000481654, -6.04814e-05, -0.00107784, -0.00349445, 0.000146234, 0.0432013, -0.0346422, -0.00938632, 0.00608826, 0.0939583, -0.0126275, 0.470716, -0.54231, 0.336448, -2.08304, -2.16642, -0.129072, 0.470245, -0.542549, 0.33649, -2.08557, -2.16866, -0.126708, -0.0112614, 0.0423026, 0.0216783, 0.024562, 0.00253501, 0.00465591
0.0859849, 1.69262, -1.22457, -1.53861, -0.900032, -1.19318, 1.23086, -1.30264, 0.0313939, 0.0049811, -0.00378394, -0.00498231, -0.0406943, 0.0613524, 0.00044066, 0.928108, 57.7054, 28.1232, 5.76385, 1.92096, 3.17386, -0.0484509, -0.000257104, -0.000444969, -4.70658e-05, -0.00112331, -0.00355358, 0.00015188, 0.0459452, -0.0350006, -0.0101403, 0.00544782, 0.100328, -0.017199, 0.470705, -0.542268, 0.33647, -2.08301, -2.16645, -0.129041, 0.470272, -0.542547, 0.33649, -2.0856, -2.16872, -0.126667, -0.011528, 0.0433381, 0.0222057, 0.0247263, 0.000993071, 0.00400245
0.0869849, 1.69266, -1.22456, -1.53861, -0.900037, -1.19323, 1.23092, -1.30264, 0.0331661, 0.00628979, -0.00165975, -0.00745572, -0.0448953, 0.0585592, 5.64659e-05, 0.888436, 57.7411, 28.0875, 5.79956, 1.92737, 3.18118, -0.0420422, -0.00030159, -0.000408211, -3.85807e-05, -0.00117363, -0.00361513, 0.000151477, 0.0455192, -0.0361548, -0.00965397, 0.00114583, 0.10454, -0.0141738, 0.470694, -0.542224, 0.336492, -2.08298, -2.16647, -0.129008, 0.470298, -0.542545, 0.336496, -2.08563, -2.1688, -0.126628, -0.0117966, 0.0443832, 0.0227379, 0.0256135, 0.00243288, 0.00504531
0.0879849, 1.6927, -1.22456, -1.53861, -0.900038, -1.19327, 1.23099, -1.30264, 0.033157, 0.00616985, -0.00108575, -0.00539124, -0.0475696, 0.0614314, -0.000437035, 0.777352, 57.8125, 28.0875, 5.79956, 1.92096, 3.17386, -0.0292249, -0.000345785, -0.000368246, -2.76463e-05, -0.00122667, -0.00367075, 0.000148199, 0.0479879, -0.0362565, -0.00933385, 0.00342979, 0.108538, -0.0169817, 0.470682, -0.54218, 0.336515, -2.08295, -2.16649, -0.128975, 0.470328, -0.542541, 0.3365, -2.08565, -2.16888, -0.126597, -0.0120673, 0.0454378, 0.0232748, 0.0255469, 0.00100628, 0.0055125
0.0889849, 1.69274, -1.22456, -1.53861, -0.900043, -1.19331, 1.23105, -1.30264, 0.0343452, 0.00322914, -0.00154349, -0.00794762, -0.0451479, 0.0632258, 0.00018339, 0.626595, 57.8879, 28.1232, 5.83527, 1.92737, 3.17386, -0.0420422, -0.000392435, -0.000329082, -1.3463e-05, -0.00127217, -0.00372934, 0.000149371, 0.0479289, -0.0383145, -0.0118447, 0.00363085, 0.10553, -0.0144257, 0.47067, -0.542135, 0.336538, -2.08291, -2.16652, -0.128941, 0.470356, -0.542538, 0.336501, -2.08567, -2.16895, -0.126554, -0.0123401, 0.0465019, 0.0238164, 0.0272359, 0.00260091, 0.00352054
0.0899849, 1.69276, -1.22455, -1.53862, -0.900044, -1.19335, 1.23111, -1.30264, 0.0305693, 0.0057118, -0.00361578, -0.00496677, -0.0426833, 0.0653352, -0.000115077, 0.6623, 57.8879, 28.2343, 5.79956, 1.91546, 3.15921, -0.0356336, -0.000445873, -0.000296805, -3.51393e-06, -0.00132112, -0.00379418, 0.000164537, 0.0515724, -0.0360258, -0.0106852, 0.00655505, 0.107525, -0.0215646, 0.470657, -0.542088, 0.336562, -2.08288, -2.16654, -0.128906, 0.470377, -0.542541, 0.336506, -2.08571, -2.16902, -0.126506, -0.0126148, 0.0475753, 0.0243626, 0.0248521, -0.000195356, 0.00471725
0.09099, 1.6928, -1.22454, -1.53861, -0.90006, -1.1934, 1.23118, -1.30263, 0.031143, 0.00930786, -0.000638528, -0.00721533, -0.0422975, 0.0664781, 0.000669284, 0.551216, 57.8125, 28.1589, 5.95032, 1.93927, 3.1528, -0.0557752, -0.000488931, -0.000253215, 2.34847e-06, -0.0013694, -0.00386902, 0.000157812, 0.050889, -0.037807, -0.0081238, 0.00902848, 0.112117, -0.0192052, 0.470645, -0.542041, 0.336586, -2.08285, -2.16657, -0.128871, 0.47041, -0.542533, 0.336516, -2.08573, -2.16911, -0.126449, -0.0128915, 0.048658, 0.0249134, 0.0264245, 0.00124392, 0.00784822
0.09199, 1.69284, -1.22454, -1.53862, -0.900063, -1.19345, 1.23123, -1.30264, 0.0318223, 0.00348093, -0.00311038, -0.00509348, -0.0410364, 0.0627858, -0.0019952, 0.436165, 57.9633, 28.274, 5.95032, 1.93927, 3.14548, 0.0101428, -0.000540622, -0.000214957, 2.06658e-05, -0.00141105, -0.00392406, 0.000156516, 0.0528321, -0.0371035, -0.0128622, 0.00420153, 0.104198, -0.0192984, 0.470632, -0.541992, 0.336611, -2.08281, -2.16659, -0.128834, 0.470436, -0.542531, 0.336514, -2.08574, -2.16919, -0.126403, -0.0131701, 0.0497497, 0.0254687, 0.0253411, 0.00111669, 0.00344498
0.09299, 1.69287, -1.22454, -1.53862, -0.900074, -1.1935, 1.23129, -1.30263, 0.0295563, 0.00487831, -0.00114064, -0.00527853, -0.0404796, 0.0648744, 0.000840012, 0.436165, 57.999, 28.2343, 6.02173, 1.94568, 3.13083, -0.0484509, -0.000592274, -0.000177589, 3.2725e-05, -0.00145745, -0.00398749, 0.000166415, 0.0545287, -0.0368874, -0.0114368, 0.00792364, 0.106738, -0.024004, 0.470619, -0.541942, 0.336637, -2.08277, -2.16662, -0.128797, 0.470462, -0.542529, 0.336518, -2.08578, -2.16925, -0.126353, -0.0134506, 0.0508506, 0.0260284, 0.0249604, 0.000315518, 0.00515583
0.0939902, 1.69291, -1.22453, -1.53862, -0.900075, -1.19355, 1.23136, -1.30264, 0.033818, 0.00683572, -0.00251997, -0.00510745, -0.0450955, 0.0667377, -0.000864139, 0.325081, 57.999, 28.3097, 5.95032, 1.96399, 3.10977, -0.00999879, -0.000646333, -0.000138252, 4.4215e-05, -0.00150448, -0.00405844, 0.000170029, 0.0550849, -0.0390358, -0.0111806, 0.00531861, 0.114355, -0.0213911, 0.470605, -0.541891, 0.336663, -2.08274, -2.16665, -0.128759, 0.470489, -0.542528, 0.336523, -2.0858, -2.16934, -0.126294, -0.013733, 0.0519604, 0.0265925, 0.0268545, 0.000927858, 0.00582047
0.0949902, 1.69295, -1.22453, -1.53862, -0.900086, -1.1936, 1.23142, -1.30263, 0.036114, 0.00531166, -0.000841994, -0.0085503, -0.0473647, 0.0673644, 0.000373348, 0.245735, 57.999, 28.274, 6.02173, 1.95209, 3.10245, -0.0356336, -0.000697043, -9.68846e-05, 5.41005e-05, -0.0015513, -0.00412792, 0.000170486, 0.0545536, -0.0415314, -0.0124009, 0.00370005, 0.116031, -0.01819, 0.470592, -0.541839, 0.33669, -2.0827, -2.16667, -0.128721, 0.470518, -0.542523, 0.336531, -2.08583, -2.16942, -0.126237, -0.0140172, 0.053079, 0.027161, 0.0289994, 0.00286391, 0.00518911
0.0959902, 1.69299, -1.22452, -1.53862, -0.900095, -1.19365, 1.23148, -1.30263, 0.0351383, 0.00327177, -0.000559252, -0.00624164, -0.0498056, 0.0633843, 0.000248903, 0.170357, 58.0347, 28.274, 6.02173, 1.95758, 3.10245, -0.0356336, -0.000750819, -5.59754e-05, 6.71954e-05, -0.00159905, -0.0041932, 0.000172251, 0.0570903, -0.0398071, -0.0138592, -3.96106e-05, 0.11455, -0.0226272, 0.470578, -0.541786, 0.336717, -2.08266, -2.1667, -0.128681, 0.470547, -0.542519, 0.336536, -2.08585, -2.1695, -0.126184, -0.0143032, 0.0542063, 0.0277337, 0.0270318, 0.00163961, 0.00398185
0.0969902, 1.69302, -1.22452, -1.53862, -0.900114, -1.19371, 1.23154, -1.30264, 0.0331575, 0.00288401, -0.0012065, -0.00633041, -0.046686, 0.0658959, -0.000546139, 0.134651, 58.1458, 28.3097, 6.09711, 1.95758, 3.06674, -0.0164075, -0.000807897, -1.70909e-05, 8.46626e-05, -0.00164013, -0.0042602, 0.00017322, 0.0589811, -0.039675, -0.0143879, 0.00278799, 0.113617, -0.0239002, 0.470563, -0.541732, 0.336744, -2.08262, -2.16673, -0.128641, 0.470573, -0.542517, 0.336536, -2.08586, -2.16958, -0.126121, -0.0145909, 0.0553423, 0.0283107, 0.0266633, 0.000985635, 0.00374779
0.0979902, 1.69305, -1.22451, -1.53862, -0.900124, -1.19376, 1.2316, -1.30264, 0.0334905, 0.00818297, -0.000803162, -0.00672366, -0.04993, 0.0670153, -0.00134743, 0.0196001, 58.1458, 28.3097, 6.0614, 1.97681, 3.05209, 0.0101428, -0.000864156, 2.37016e-05, 9.6644e-05, -0.00168615, -0.00433148, 0.000173264, 0.0601127, -0.040019, -0.0114864, 0.00233774, 0.122909, -0.0243446, 0.470549, -0.541677, 0.336773, -2.08258, -2.16676, -0.128599, 0.470601, -0.542514, 0.336543, -2.08588, -2.16967, -0.126059, -0.0148804, 0.0564869, 0.0288918, 0.0268675, 0.000583335, 0.00700804
0.0989902, 1.69309, -1.22451, -1.53861, -0.90014, -1.19381, 1.23166, -1.30264, 0.0327155, 0.00551382, 0.000300653, -0.00579891, -0.0506889, 0.0638968, -0.000898288, -0.0557783, 58.1815, 28.274, 6.09711, 1.95209, 3.03012, 0.0101428, -0.000920398, 6.53655e-05, 0.000110901, -0.00173454, -0.00439568, 0.000172757, 0.0618222, -0.0392244, -0.0131597, 9.97022e-05, 0.119939, -0.0269949, 0.470534, -0.54162, 0.336802, -2.08254, -2.16679, -0.128557, 0.470629, -0.542509, 0.336548, -2.0859, -2.16976, -0.126005, -0.0151716, 0.0576399, 0.0294771, 0.0257852, 0.000273128, 0.00570062
0.0999902, 1.69312, -1.2245, -1.53861, -0.900155, -1.19387, 1.23172, -1.30263, 0.032883, 0.00640647, -0.000634125, -0.00737255, -0.0530892, 0.0606797, 0.00109656, -0.166862, 58.2172, 28.3097, 6.09711, 1.97681, 3.03012, -0.0356336, -0.000979248, 0.000104733, 0.000124853, -0.001772, -0.00446802, 0.000182509, 0.0627802, -0.0388925, -0.0138695, -0.00580078, 0.122198, -0.0296687, 0.470519, -0.541563, 0.336831, -2.08249, -2.16682, -0.128514, 0.470655, -0.542506, 0.336553, -2.08593, -2.16983, -0.12593, -0.0154644, 0.0588012, 0.0300665, 0.0251714, 0.000584879, 0.00545092
0.10099, 1.69315, -1.22449, -1.53862, -0.900178, -1.19393, 1.23178, -1.30264, 0.0291062, 0.00863647, -0.00125748, -0.0103192, -0.0489487, 0.064036, -0.000964378, -0.242241, 58.1815, 28.3454, 6.17248, 1.9704, 2.99441, 0.0101428, -0.00103776, 0.00014583, 0.000137688, -0.00181364, -0.00454341, 0.00017761, 0.0642874, -0.0386219, -0.0130915, -0.0026202, 0.123671, -0.0286627, 0.470503, -0.541504, 0.336861, -2.08245, -2.16685, -0.128471, 0.470682, -0.542501, 0.33656, -2.08594, -2.16993, -0.125856, -0.0157588, 0.0599708, 0.0306599, 0.0246926, 0.000136851, 0.00658738
0.10199, 1.69318, -1.22449, -1.53861, -0.900196, -1.19398, 1.23183, -1.30263, 0.0293202, 0.00672071, -0.000837947, -0.0107221, -0.0466839, 0.0649908, 0.000815144, -0.317619, 58.2925, 28.3454, 6.17248, 1.98871, 2.99441, -0.0292249, -0.00110039, 0.000184006, 0.000155513, -0.00185292, -0.00460837, 0.000188542, 0.0650849, -0.0396345, -0.0144496, -0.00123092, 0.121194, -0.0298466, 0.470487, -0.541444, 0.336892, -2.08241, -2.16688, -0.128426, 0.470706, -0.542498, 0.336562, -2.08596, -2.17, -0.125788, -0.0160548, 0.0611486, 0.0312573, 0.0253886, 0.000779506, 0.00568875
0.10299, 1.6932, -1.22447, -1.53861, -0.900222, -1.19404, 1.23189, -1.30264, 0.0255251, 0.00826238, 0.000276864, -0.01501, -0.0445898, 0.0622318, -0.000168647, -0.357292, 58.2925, 28.3097, 6.20819, 1.99512, 2.97336, -0.00999879, -0.00116288, 0.000221659, 0.00016814, -0.00189494, -0.00468106, 0.000191251, 0.0656934, -0.038627, -0.0141926, -0.00349289, 0.120647, -0.0286196, 0.470471, -0.541383, 0.336923, -2.08236, -2.16691, -0.128381, 0.470729, -0.542495, 0.33657, -2.08598, -2.17008, -0.125715, -0.0163524, 0.0623344, 0.0318586, 0.0241185, 0.00128395, 0.00648064
0.10399, 1.69323, -1.22447, -1.53861, -0.90025, -1.19409, 1.23194, -1.30264, 0.0275847, 0.00500014, 0.000184784, -0.0183549, -0.0427927, 0.0603027, -0.000858416, -0.468376, 58.475, 28.3097, 6.24786, 1.99512, 2.95138, 0.0101428, -0.00122376, 0.000264046, 0.00018923, -0.00193606, -0.00473786, 0.000188679, 0.0648434, -0.0406938, -0.0172905, -0.00707679, 0.116144, -0.0233295, 0.470455, -0.54132, 0.336955, -2.08231, -2.16694, -0.128334, 0.470757, -0.542488, 0.336571, -2.08598, -2.17017, -0.125657, -0.0166515, 0.0635282, 0.0324637, 0.0257387, 0.00388055, 0.00409402
0.10499, 1.69326, -1.22446, -1.53861, -0.900279, -1.19414, 1.23199, -1.30263, 0.0251263, 0.00792993, -0.00163989, -0.0197552, -0.0413433, 0.0584302, -9.75592e-05, -0.543754, 58.4393, 28.3851, 6.24786, 1.98871, 2.93765, -0.00267457, -0.00128844, 0.000301724, 0.000203301, -0.00197191, -0.00481333, 0.000196853, 0.0664324, -0.0393396, -0.0168541, -0.0101562, 0.117933, -0.0267177, 0.470438, -0.541257, 0.336987, -2.08227, -2.16698, -0.128287, 0.47078, -0.542485, 0.336578, -2.086, -2.17025, -0.125573, -0.0169521, 0.0647298, 0.0330727, 0.0241624, 0.0033905, 0.00492983
0.10599, 1.69328, -1.22445, -1.53861, -0.900313, -1.1942, 1.23205, -1.30264, 0.0201408, 0.0103558, -0.000165125, -0.0249783, -0.0449802, 0.0528163, -0.000539757, -0.619133, 58.5147, 28.3454, 6.28357, 1.9823, 2.923, 0.0101428, -0.00135197, 0.000341007, 0.000218914, -0.00201144, -0.00487989, 0.000191988, 0.0679963, -0.0367562, -0.0162754, -0.0174478, 0.121587, -0.0281693, 0.470421, -0.541192, 0.337021, -2.08222, -2.16701, -0.128239, 0.470804, -0.542479, 0.336585, -2.086, -2.17034, -0.125501, -0.0172541, 0.0659392, 0.0336855, 0.0213616, 0.00285926, 0.00595207
0.10699, 1.6933, -1.22443, -1.5386, -0.900352, -1.19425, 1.2321, -1.30263, 0.0196137, 0.0137593, -0.00103802, -0.028941, -0.0474932, 0.057317, 0.000860865, -0.694511, 58.5147, 28.3851, 6.32324, 1.97681, 2.90835, -0.0228162, -0.00141617, 0.000380936, 0.000231474, -0.00205365, -0.00495453, 0.000193344, 0.0691825, -0.0379392, -0.0151158, -0.0174746, 0.130477, -0.0289211, 0.470404, -0.541126, 0.337054, -2.08217, -2.16705, -0.12819, 0.470828, -0.542473, 0.336595, -2.08601, -2.17043, -0.125424, -0.0175576, 0.0671563, 0.0343019, 0.0223285, 0.00277862, 0.00749326
0.10799, 1.69331, -1.22442, -1.5386, -0.900386, -1.19429, 1.23216, -1.30264, 0.0151857, 0.0127952, -0.00236238, -0.0300227, -0.0494698, 0.0563385, -0.00135887, -0.734184, 58.6615, 28.4565, 6.28357, 1.97681, 2.89462, 0.0293689, -0.00148668, 0.000416454, 0.000250504, -0.00209412, -0.00501811, 0.000196812, 0.0728058, -0.035349, -0.0165702, -0.020826, 0.131534, -0.0324054, 0.470387, -0.541059, 0.337088, -2.08212, -2.16708, -0.12814, 0.470848, -0.542471, 0.336598, -2.08602, -2.17052, -0.125354, -0.0178624, 0.068381, 0.034922, 0.0195191, 0.000540718, 0.00619708
0.10899, 1.69333, -1.22441, -1.5386, -0.900426, -1.19434, 1.23221, -1.30264, 0.0184716, 0.0150015, -0.00250289, -0.0310671, -0.0467505, 0.0556114, 0.000552149, -0.920646, 58.6972, 28.4961, 6.24786, 1.9823, 2.87997, -0.00999879, -0.00155117, 0.000458062, 0.000264782, -0.00213064, -0.00509066, 0.000197089, 0.0715629, -0.037807, -0.0161202, -0.0216186, 0.132177, -0.0303545, 0.470369, -0.54099, 0.337123, -2.08207, -2.16712, -0.128089, 0.470874, -0.542462, 0.336608, -2.08603, -2.17061, -0.12527, -0.0181686, 0.0696132, 0.0355458, 0.0216404, 0.00303634, 0.00738089
0.10999, 1.69335, -1.22439, -1.5386, -0.900473, -1.19439, 1.23226, -1.30264, 0.0141656, 0.0175323, -0.00250377, -0.0366194, -0.04478, 0.0549275, -0.00108996, -0.960319, 58.8083, 28.5319, 6.28357, 1.98871, 2.86532, 0.0293689, -0.00161943, 0.000494182, 0.000280749, -0.00216595, -0.00515587, 0.000197382, 0.072459, -0.0369542, -0.0156609, -0.0235685, 0.133944, -0.0284964, 0.470351, -0.540921, 0.337159, -2.08202, -2.16715, -0.128038, 0.470894, -0.542456, 0.336616, -2.08603, -2.17069, -0.125192, -0.0184762, 0.0708527, 0.036173, 0.0205337, 0.00328591, 0.00834967
0.11099, 1.69335, -1.22437, -1.53859, -0.900519, -1.19443, 1.23231, -1.30263, 0.0141305, 0.019597, -0.00166916, -0.0391225, -0.0434298, 0.0504336, 0.000222794, -0.996025, 58.9194, 28.5319, 6.24786, 2.00061, 2.84427, 0.00373412, -0.00168912, 0.000531124, 0.00029392, -0.00221396, -0.00522108, 0.00020289, 0.0719662, -0.0372075, -0.0153174, -0.0276242, 0.13368, -0.027854, 0.470332, -0.54085, 0.337195, -2.08197, -2.16719, -0.127985, 0.470914, -0.54245, 0.336627, -2.08604, -2.17078, -0.125126, -0.018785, 0.0720996, 0.0368038, 0.0204746, 0.00497866, 0.00938789
0.11199, 1.69336, -1.22435, -1.53859, -0.900573, -1.19447, 1.23236, -1.30263, 0.0120589, 0.0175684, -0.00371121, -0.0419235, -0.0424576, 0.051338, 0.000385888, -1.07537, 59.0662, 28.6429, 6.24786, 2.01343, 2.82229, -0.00267457, -0.00175852, 0.000568783, 0.00031006, -0.00225199, -0.00528743, 0.000201866, 0.0739259, -0.0369004, -0.017859, -0.0298604, 0.132474, -0.0292452, 0.470313, -0.540778, 0.337232, -2.08192, -2.16723, -0.127932, 0.470935, -0.542442, 0.336636, -2.08604, -2.17087, -0.125047, -0.0190951, 0.0733536, 0.0374381, 0.0198378, 0.00467573, 0.00721882
0.11299, 1.69336, -1.22434, -1.53859, -0.90063, -1.19451, 1.23241, -1.30263, 0.00862619, 0.0144246, 0.00279207, -0.0471868, -0.042644, 0.052083, 0.000528526, -1.07537, 59.2883, 28.6826, 6.24786, 2.05005, 2.80124, -0.00999879, -0.0018317, 0.000603737, 0.000327696, -0.00229169, -0.00535106, 0.0002053, 0.0743007, -0.0377433, -0.0183115, -0.0263566, 0.13065, -0.0260724, 0.470294, -0.540705, 0.337269, -2.08186, -2.16726, -0.127878, 0.470953, -0.542437, 0.336644, -2.08605, -2.17096, -0.124972, -0.0194064, 0.0746148, 0.0380757, 0.0203675, 0.00567348, 0.00732537
0.11399, 1.69336, -1.22431, -1.53858, -0.900692, -1.19455, 1.23245, -1.30263, 0.00878943, 0.0185997, 0.00387635, -0.0479583, -0.0408797, 0.047462, 0.000352351, -1.18645, 59.3597, 28.754, 6.24786, 2.03815, 2.80124, -0.00999879, -0.00189966, 0.000641817, 0.000340063, -0.00233056, -0.00541582, 0.000197648, 0.0739072, -0.0377498, -0.0164271, -0.029154, 0.131938, -0.0250564, 0.470275, -0.54063, 0.337307, -2.08181, -2.1673, -0.127822, 0.470974, -0.542426, 0.336658, -2.08604, -2.17105, -0.124895, -0.0197189, 0.075883, 0.0387168, 0.0201197, 0.00704303, 0.00988779
0.11499, 1.69336, -1.22428, -1.53858, -0.900759, -1.19458, 1.2325, -1.30264, 0.00711777, 0.0206904, 0.00287448, -0.0515963, -0.0411367, 0.0492017, -0.00122316, -1.22613, 59.4708, 28.9048, 6.24786, 2.06836, 2.77926, 0.0293689, -0.00197124, 0.00067773, 0.000354656, -0.0023619, -0.00548647, 0.000189778, 0.0751809, -0.0379763, -0.0162469, -0.0304512, 0.136289, -0.0235771, 0.470255, -0.540554, 0.337346, -2.08175, -2.16734, -0.127766, 0.470992, -0.542417, 0.33667, -2.08603, -2.17115, -0.124803, -0.0200326, 0.0771581, 0.0393611, 0.020089, 0.00704412, 0.0105059
0.11599, 1.69336, -1.22426, -1.53857, -0.90083, -1.19462, 1.23254, -1.30263, 0.005828, 0.0225218, 0.00822461, -0.0602798, -0.0367648, 0.0485329, 0.00182942, -1.26183, 59.693, 28.9405, 6.24786, 2.10498, 2.80856, -0.0420422, -0.00204212, 0.000714385, 0.000369749, -0.00240143, -0.00554606, 0.000188726, 0.0723253, -0.0407507, -0.0149068, -0.0285914, 0.135437, -0.0173368, 0.470235, -0.540477, 0.337386, -2.0817, -2.16738, -0.127709, 0.471011, -0.542406, 0.336682, -2.08602, -2.17124, -0.12473, -0.0203474, 0.07844, 0.0400087, 0.0224906, 0.01106, 0.0128312
0.11699, 1.69335, -1.22423, -1.53857, -0.900905, -1.19464, 1.23259, -1.30263, 0.00407103, 0.025932, 0.00611123, -0.0631406, -0.0366782, 0.0453526, 0.000270175, -1.26183, 59.8398, 29.0912, 6.20819, 2.09949, 2.80124, -0.0164075, -0.00211405, 0.000750646, 0.000385182, -0.00243901, -0.00560553, 0.000181412, 0.0734105, -0.0396764, -0.014676, -0.0344892, 0.138397, -0.0170996, 0.470215, -0.540398, 0.337426, -2.08164, -2.16742, -0.127651, 0.471029, -0.542394, 0.336695, -2.086, -2.17134, -0.124654, -0.0206634, 0.0797287, 0.0406595, 0.0211537, 0.0111976, 0.0135757
0.11799, 1.69334, -1.2242, -1.53856, -0.900983, -1.19467, 1.23264, -1.30262, 0.0028533, 0.0255548, 0.00885429, -0.0653372, -0.0380518, 0.0435801, 0.00112955, -1.26183, 59.9866, 29.2023, 6.17248, 2.1297, 2.77286, -0.0420422, -0.00218646, 0.000788444, 0.000396811, -0.00248292, -0.00567355, 0.000175006, 0.0742418, -0.0397739, -0.0147589, -0.0356736, 0.13912, -0.0174208, 0.470194, -0.540319, 0.337466, -2.08158, -2.16746, -0.127592, 0.471048, -0.542383, 0.336712, -2.086, -2.17144, -0.124576, -0.0209804, 0.081024, 0.0413134, 0.0209646, 0.0116907, 0.0140161
0.11899, 1.69333, -1.22416, -1.53856, -0.901065, -1.1947, 1.23268, -1.30262, -0.00199778, 0.0290483, 0.00604853, -0.073478, -0.0385694, 0.0454756, 0.000753035, -1.22613, 60.0977, 29.3888, 6.13678, 2.14801, 2.77286, -0.0420422, -0.00226032, 0.00082238, 0.00040923, -0.00251762, -0.00573729, 0.000168627, 0.0759315, -0.0388825, -0.0148522, -0.0400765, 0.145589, -0.0173336, 0.470173, -0.540238, 0.337508, -2.08152, -2.1675, -0.127533, 0.471064, -0.542371, 0.336728, -2.08598, -2.17154, -0.12449, -0.0212984, 0.0823259, 0.0419705, 0.0198189, 0.011302, 0.0143478
0.11999, 1.69332, -1.22413, -1.53855, -0.901148, -1.19472, 1.23273, -1.30263, -0.00788409, 0.0288956, 0.00903421, -0.0792648, -0.0393555, 0.0476725, 0.00269542, -1.22613, 60.3198, 29.4999, 6.09711, 2.17914, 2.75088, 0.0229602, -0.00233306, 0.000860171, 0.000421033, -0.0025634, -0.00579681, 0.00014832, 0.0780094, -0.0379928, -0.0146268, -0.038303, 0.148182, -0.0198981, 0.470152, -0.540155, 0.33755, -2.08146, -2.16755, -0.127472, 0.471082, -0.542357, 0.336746, -2.08595, -2.17166, -0.124422, -0.0216174, 0.0836343, 0.0426306, 0.0187007, 0.0104878, 0.0149373
0.12099, 1.6933, -1.22409, -1.53854, -0.901246, -1.19473, 1.23277, -1.30262, -0.00823883, 0.0327786, 0.0093781, -0.085723, -0.0299837, 0.0403012, 0.00509648, -1.26183, 60.5023, 29.6863, 6.13678, 2.19745, 2.74356, -0.0557752, -0.00240244, 0.000900101, 0.00043474, -0.00259696, -0.00585738, 0.000133263, 0.0745998, -0.0392175, -0.0142102, -0.0432481, 0.142139, -0.0148375, 0.47013, -0.540072, 0.337592, -2.0814, -2.16759, -0.12741, 0.471103, -0.542338, 0.336763, -2.08593, -2.17176, -0.124338, -0.0219375, 0.084949, 0.0432937, 0.019494, 0.0151593, 0.0165
0.12199, 1.69328, -1.22405, -1.53853, -0.901336, -1.19475, 1.2328, -1.30263, -0.0152725, 0.0355879, 0.0132676, -0.0875912, -0.0238843, 0.034424, 0.000769087, -1.15075, 60.6848, 29.722, 6.0614, 2.24048, 2.74356, 0.0229602, -0.00247943, 0.000932182, 0.000442725, -0.00264189, -0.00591966, 0.000120528, 0.0756935, -0.0362084, -0.0120484, -0.0422398, 0.137627, -0.0130413, 0.470108, -0.539987, 0.337635, -2.08134, -2.16763, -0.127348, 0.471116, -0.542327, 0.336786, -2.08591, -2.17187, -0.124263, -0.0222584, 0.08627, 0.0439598, 0.0162939, 0.0149417, 0.0192268
0.12299, 1.69326, -1.224, -1.53853, -0.901444, -1.19477, 1.23284, -1.30262, -0.0209498, 0.037363, 0.0107334, -0.0934377, -0.0234988, 0.034367, 0.00337325, -1.15075, 60.7602, 29.9839, 6.17248, 2.27161, 2.74356, -0.0484509, -0.00255048, 0.000969527, 0.000454371, -0.0026654, -0.00598723, 0.00010633, 0.0781849, -0.0341655, -0.0128792, -0.0466133, 0.140443, -0.0183202, 0.470086, -0.5399, 0.337679, -2.08127, -2.16768, -0.127284, 0.471133, -0.542307, 0.336806, -2.08587, -2.17198, -0.124159, -0.0225803, 0.0875972, 0.0446288, 0.0139975, 0.01385, 0.0187551
0.12399, 1.69324, -1.22396, -1.53851, -0.90154, -1.19478, 1.23287, -1.30262, -0.0201274, 0.0370031, 0.0143712, -0.0933927, -0.0184708, 0.0298663, 0.00146115, -1.22613, 60.907, 30.0236, 6.09711, 2.30182, 2.75088, -0.0228162, -0.00262282, 0.00100678, 0.000460752, -0.0027095, -0.0060453, 8.68315e-05, 0.0770766, -0.0352888, -0.0126899, -0.0456718, 0.134423, -0.0132823, 0.470063, -0.539813, 0.337724, -2.08121, -2.16772, -0.127219, 0.47115, -0.542288, 0.336832, -2.08584, -2.1721, -0.124087, -0.0229031, 0.0889305, 0.0453006, 0.0147648, 0.0162985, 0.0197496
0.12499, 1.69321, -1.22392, -1.5385, -0.901645, -1.19479, 1.2329, -1.30261, -0.0245671, 0.0347165, 0.0112168, -0.0966972, -0.0186056, 0.0304297, 0.00157013, -1.22613, 61.1292, 30.1703, 6.02173, 2.30823, 2.76553, -0.0356336, -0.00269862, 0.00104018, 0.000474172, -0.00274075, -0.00609674, 7.26511e-05, 0.0804713, -0.033396, -0.0157867, -0.0496213, 0.133789, -0.0174762, 0.47004, -0.539724, 0.337769, -2.08114, -2.16777, -0.127154, 0.471163, -0.542271, 0.336851, -2.08581, -2.1722, -0.124005, -0.0232267, 0.0902698, 0.0459753, 0.0125651, 0.0146799, 0.0169021
0.12599, 1.69318, -1.22387, -1.53849, -0.901761, -1.19479, 1.23293, -1.30262, -0.0259004, 0.0379248, 0.0127728, -0.105035, -0.0146667, 0.0315463, 0.00042566, -1.30151, 61.2759, 30.2814, 6.0614, 2.33295, 2.76553, -0.0164075, -0.00277066, 0.00107734, 0.000485336, -0.00277224, -0.00615141, 4.24662e-05, 0.0787358, -0.035658, -0.0147985, -0.049481, 0.135803, -0.00941758, 0.470017, -0.539634, 0.337815, -2.08108, -2.16781, -0.127088, 0.471179, -0.542248, 0.336874, -2.08575, -2.17232, -0.123921, -0.0235512, 0.0916151, 0.0466527, 0.0144744, 0.0176867, 0.0187517
0.12699, 1.69316, -1.22382, -1.53848, -0.901878, -1.19479, 1.23295, -1.30261, -0.0297089, 0.0420136, 0.0117161, -0.110302, -0.0107885, 0.031998, -0.000156614, -1.41259, 61.3513, 30.3568, 6.0614, 2.33295, 2.77286, -0.00267457, -0.00284187, 0.00111366, 0.000493756, -0.00280268, -0.00620307, 1.48247e-05, 0.0794238, -0.0352376, -0.013728, -0.0503298, 0.138242, -0.00835191, 0.469994, -0.539542, 0.337862, -2.08101, -2.16786, -0.12702, 0.471195, -0.542224, 0.3369, -2.0857, -2.17244, -0.123838, -0.0238765, 0.0929661, 0.0473329, 0.0137992, 0.0181782, 0.0203962
0.12799, 1.69312, -1.22377, -1.53845, -0.901997, -1.1948, 1.23298, -1.30261, -0.0316609, 0.0450681, 0.0157114, -0.109874, -0.0133052, 0.0293954, 0.00191346, -1.56335, 61.5338, 30.3568, 6.02173, 2.35126, 2.74356, -0.0557752, -0.00291469, 0.00115082, 0.000504461, -0.00283981, -0.00624866, -9.52083e-06, 0.0809752, -0.0342116, -0.0110413, -0.0500482, 0.142614, -0.0127955, 0.46997, -0.539449, 0.337909, -2.08094, -2.16791, -0.126952, 0.47121, -0.5422, 0.336925, -2.08565, -2.17255, -0.123768, -0.0242025, 0.094323, 0.0480157, 0.0126131, 0.0175495, 0.0235254
0.12899, 1.69307, -1.22372, -1.53845, -0.902124, -1.1948, 1.233, -1.30261, -0.0409389, 0.0464529, 0.0119512, -0.114153, -0.0102691, 0.0267924, -0.000652666, -1.52764, 61.6449, 30.5036, 6.0614, 2.36316, 2.72983, -0.00267457, -0.002997, 0.00117671, 0.000518233, -0.00286537, -0.00629583, -2.47549e-05, 0.0850758, -0.0294223, -0.0123781, -0.0552484, 0.141467, -0.0175605, 0.469946, -0.539355, 0.337957, -2.08087, -2.16796, -0.126882, 0.471215, -0.542183, 0.336946, -2.0856, -2.17265, -0.123681, -0.0245292, 0.0956855, 0.0487012, 0.00761255, 0.0148617, 0.0224105
0.12999, 1.69303, -1.22368, -1.53842, -0.90225, -1.19479, 1.23302, -1.3026, -0.0398907, 0.0473958, 0.0168263, -0.119223, -0.00732738, 0.0205522, 0.00156037, -1.6784, 61.756, 30.4679, 6.02173, 2.35675, 2.71518, -0.0557752, -0.00307245, 0.00121024, 0.000527251, -0.00290284, -0.00633724, -4.35539e-05, 0.0822341, -0.0314602, -0.0118729, -0.0580585, 0.137987, -0.0120982, 0.469921, -0.539259, 0.338006, -2.0808, -2.168, -0.126812, 0.471226, -0.542159, 0.336973, -2.08555, -2.17276, -0.123612, -0.0248567, 0.0970535, 0.0493892, 0.00923492, 0.019048, 0.0239714
0.13099, 1.69299, -1.22363, -1.5384, -0.902389, -1.19479, 1.23303, -1.3026, -0.0428857, 0.0490119, 0.0167942, -0.125796, -0.00589863, 0.0201355, -0.000633586, -1.82915, 61.8274, 30.4322, 6.09711, 2.36957, 2.70053, -0.00999879, -0.00314653, 0.00124474, 0.000538874, -0.00292746, -0.0063822, -8.39895e-05, 0.0826131, -0.0315832, -0.0121994, -0.0608682, 0.139629, -0.00777216, 0.469896, -0.539162, 0.338055, -2.08073, -2.16805, -0.126741, 0.471238, -0.542132, 0.336998, -2.08547, -2.17289, -0.123527, -0.0251848, 0.0984271, 0.0500798, 0.00903525, 0.0201041, 0.0242774
0.13199, 1.69294, -1.22358, -1.53838, -0.90253, -1.19479, 1.23304, -1.3026, -0.0490106, 0.0469778, 0.0196508, -0.128874, -0.00342113, 0.0157686, 0.000780597, -1.94024, 61.9028, 30.5433, 6.09711, 2.34485, 2.67947, -0.0420422, -0.00322636, 0.00127297, 0.000553707, -0.00294639, -0.00642153, -0.000102322, 0.0845568, -0.0291378, -0.0133517, -0.0622548, 0.134232, -0.0114174, 0.469871, -0.539064, 0.338106, -2.08066, -2.1681, -0.126669, 0.471244, -0.542109, 0.33702, -2.08541, -2.17299, -0.123438, -0.0255136, 0.099806, 0.0507728, 0.00629848, 0.0196351, 0.0236111
0.13299, 1.69288, -1.22353, -1.53836, -0.902682, -1.19479, 1.23305, -1.3026, -0.0502365, 0.0485151, 0.0213929, -0.135606, -0.00190577, 0.0124999, 0.00477674, -2.05529, 61.9742, 30.5433, 6.17248, 2.32654, 2.6575, -0.0356336, -0.00330268, 0.00130445, 0.000567424, -0.00296834, -0.00645852, -0.000139859, 0.0834378, -0.0300917, -0.0134653, -0.0662834, 0.134266, -0.0105265, 0.469845, -0.538964, 0.338156, -2.08059, -2.16815, -0.126595, 0.471252, -0.542081, 0.337045, -2.08533, -2.17311, -0.123355, -0.025843, 0.10119, 0.0514683, 0.00687829, 0.0221845, 0.024337
0.13399, 1.69283, -1.22347, -1.53833, -0.902836, -1.19478, 1.23305, -1.30259, -0.0530243, 0.0521182, 0.0244935, -0.145316, -0.000819732, 0.00948489, 0.00356706, -2.24175, 61.9385, 30.4679, 6.20819, 2.30823, 2.65018, -0.0356336, -0.00337793, 0.00133712, 0.000574883, -0.00299486, -0.00650294, -0.000174549, 0.0817626, -0.031032, -0.0121965, -0.07013, 0.136976, -0.00289518, 0.46982, -0.538862, 0.338208, -2.08052, -2.16821, -0.126521, 0.471262, -0.542051, 0.337076, -2.08525, -2.17323, -0.123269, -0.026173, 0.10258, 0.0521662, 0.00747553, 0.0250767, 0.0265164
0.13499, 1.69277, -1.22342, -1.5383, -0.903, -1.19478, 1.23305, -1.30259, -0.0550023, 0.0518817, 0.0238801, -0.14738, -0.00024231, 0.00644096, 0.00266497, -2.43218, 62.0139, 30.5036, 6.24786, 2.29541, 2.66482, -0.0356336, -0.00345453, 0.00136897, 0.000592499, -0.00300321, -0.00653895, -0.000216034, 0.0832466, -0.0300735, -0.013484, -0.0742981, 0.135853, -0.0033563, 0.469793, -0.53876, 0.33826, -2.08044, -2.16826, -0.126446, 0.47127, -0.54202, 0.337098, -2.08516, -2.17335, -0.123171, -0.0265036, 0.103974, 0.0528664, 0.0061992, 0.0251624, 0.0257474
0.13599, 1.6927, -1.22337, -1.53827, -0.903167, -1.19478, 1.23305, -1.30258, -0.0586899, 0.0469293, 0.0281501, -0.154212, -8.59945e-05, 0.00478915, 0.00104241, -2.54723, 62.0496, 30.4679, 6.24786, 2.28992, 2.66482, -0.00999879, -0.00353337, 0.00139715, 0.000604586, -0.00301926, -0.00657605, -0.000251754, 0.0837371, -0.0303781, -0.0162578, -0.0755733, 0.131127, 0.00168061, 0.469767, -0.538656, 0.338313, -2.08036, -2.16831, -0.12637, 0.471274, -0.541991, 0.337126, -2.08507, -2.17347, -0.123079, -0.0268347, 0.105374, 0.0535689, 0.00608824, 0.0265163, 0.0236257
0.13699, 1.69263, -1.22331, -1.53824, -0.903337, -1.19477, 1.23305, -1.30257, -0.0610153, 0.048825, 0.0274355, -0.158661, 0.00479593, 0.00461532, 0.00278912, -2.65832, 61.9742, 30.4679, 6.20819, 2.28351, 2.63644, -0.0621838, -0.00361669, 0.00142248, 0.000613972, -0.00304021, -0.00662109, -0.000274212, 0.083939, -0.0307088, -0.0163953, -0.0762313, 0.130227, 0.00166742, 0.46974, -0.538551, 0.338366, -2.08029, -2.16836, -0.126293, 0.471276, -0.541965, 0.337157, -2.085, -2.17358, -0.122982, -0.0271662, 0.106779, 0.0542736, 0.00609326, 0.0277585, 0.0241533
0.13799, 1.69256, -1.22325, -1.5382, -0.903515, -1.19477, 1.23305, -1.30257, -0.0673647, 0.0489388, 0.0314139, -0.168068, 0.00351799, 0.00416922, 0.0036546, -2.7337, 61.9385, 30.5433, 6.17248, 2.28351, 2.61447, 0.0165515, -0.00369961, 0.00144936, 0.000626811, -0.00305653, -0.00666347, -0.00031414, 0.0848415, -0.0300042, -0.0164154, -0.0777823, 0.132487, 0.00312638, 0.469713, -0.538444, 0.338421, -2.08021, -2.16842, -0.126215, 0.471278, -0.541937, 0.337185, -2.08491, -2.17371, -0.122883, -0.0274983, 0.108188, 0.0549806, 0.00509551, 0.0282506, 0.0247244
0.13899, 1.69248, -1.22321, -1.53817, -0.903713, -1.19477, 1.23305, -1.30256, -0.0672763, 0.0493353, 0.0332288, -0.175004, 0.00258586, 0.00349701, 0.00460513, -2.84875, 62.0139, 30.5433, 6.24786, 2.28351, 2.60074, -0.0292249, -0.00377678, 0.00148223, 0.000646567, -0.00306617, -0.00669464, -0.000360208, 0.0839551, -0.0319748, -0.0170453, -0.0810375, 0.134753, 0.00776478, 0.469685, -0.538336, 0.338476, -2.08013, -2.16847, -0.126136, 0.471286, -0.5419, 0.337207, -2.08481, -2.17384, -0.122788, -0.0278308, 0.109602, 0.0556897, 0.00667615, 0.0307244, 0.0248849
0.13999, 1.6924, -1.22315, -1.53812, -0.903906, -1.19476, 1.23305, -1.30254, -0.0746624, 0.052442, 0.0354732, -0.179639, 0.0019043, 0.00330182, 0.00440841, -2.92413, 61.9742, 30.5036, 6.17248, 2.28351, 2.57876, -0.0557752, -0.0038581, 0.0015117, 0.000657255, -0.00308992, -0.00673529, -0.000399122, 0.086728, -0.0293681, -0.0151893, -0.0809531, 0.139298, 0.00438844, 0.469658, -0.538226, 0.338531, -2.08005, -2.16853, -0.126055, 0.471291, -0.541868, 0.337239, -2.08472, -2.17396, -0.122697, -0.0281637, 0.111021, 0.0564009, 0.00392325, 0.029009, 0.0270861
0.140991, 1.69231, -1.22308, -1.53807, -0.904119, -1.19476, 1.23305, -1.30254, -0.0827596, 0.057062, 0.0413202, -0.187424, 0.0058663, 0.00231872, 0.00499345, -2.88445, 61.8274, 30.5433, 6.17248, 2.28992, 2.57876, 0.0229602, -0.0039389, 0.00153917, 0.000665127, -0.00310756, -0.00678476, -0.000455482, 0.0869855, -0.028047, -0.0116438, -0.0775098, 0.141188, 0.00553489, 0.469629, -0.538115, 0.338588, -2.07997, -2.16858, -0.125974, 0.471293, -0.541834, 0.337274, -2.08461, -2.17412, -0.122591, -0.028497, 0.112445, 0.0571142, 0.00242247, 0.0295805, 0.0313043
0.141991, 1.69221, -1.22303, -1.53803, -0.904337, -1.19475, 1.23305, -1.30252, -0.0875433, 0.0531835, 0.0448146, -0.200493, 0.0091176, 0.00217648, 0.0118453, -2.88445, 61.8671, 30.6186, 6.17248, 2.28992, 2.56412, -0.0621838, -0.00402269, 0.00156684, 0.000682216, -0.00312321, -0.00682175, -0.000494001, 0.0857407, -0.0295991, -0.0147535, -0.0793968, 0.136313, 0.00710715, 0.469601, -0.538002, 0.338645, -2.07989, -2.16864, -0.125892, 0.471295, -0.541801, 0.337301, -2.08452, -2.17424, -0.122493, -0.0288307, 0.113873, 0.0578295, 0.0034742, 0.0327823, 0.0290908
0.142991, 1.69211, -1.22297, -1.53797, -0.904565, -1.19475, 1.23305, -1.30252, -0.0924818, 0.0567757, 0.0494068, -0.20615, 0.00640018, 0.00151709, 0.0072802, -2.95983, 61.756, 30.6186, 6.13678, 2.30182, 2.56412, -0.0228162, -0.00410106, 0.00159921, 0.000690866, -0.00314395, -0.00686961, -0.000560723, 0.0869515, -0.0286823, -0.0120898, -0.0794486, 0.142819, 0.0118405, 0.469572, -0.537889, 0.338703, -2.07981, -2.1687, -0.125809, 0.471301, -0.541761, 0.337337, -2.0844, -2.1744, -0.122391, -0.0291647, 0.115306, 0.0585467, 0.0023797, 0.0325741, 0.0322822
0.143991, 1.69201, -1.22292, -1.53791, -0.904791, -1.19475, 1.23305, -1.30251, -0.0969038, 0.0528353, 0.0520509, -0.210725, 0.00416056, 0.00106096, 0.00993488, -2.9995, 61.7917, 30.6544, 5.98602, 2.32013, 2.56412, -0.0164075, -0.00418544, 0.00162806, 0.000705622, -0.00316564, -0.00690725, -0.000615088, 0.0893157, -0.0277106, -0.0143974, -0.0809505, 0.141561, 0.00827984, 0.469543, -0.537773, 0.338761, -2.07972, -2.16875, -0.125725, 0.471304, -0.541726, 0.337367, -2.08429, -2.17455, -0.122299, -0.029499, 0.116743, 0.0592659, 0.00108191, 0.0319873, 0.0303906
0.144991, 1.6919, -1.22287, -1.53785, -0.905034, -1.19474, 1.23306, -1.30249, -0.103657, 0.0510966, 0.0541482, -0.220586, 0.0025245, 0.00125312, 0.00867397, -2.9995, 61.7917, 30.6901, 5.95032, 2.33844, 2.55038, -0.0484509, -0.00426908, 0.00165754, 0.000720571, -0.00318731, -0.00694663, -0.000670269, 0.0909997, -0.0266604, -0.0161706, -0.0840819, 0.142758, 0.0108586, 0.469513, -0.537657, 0.338821, -2.07964, -2.16881, -0.12564, 0.471307, -0.541688, 0.337398, -2.08418, -2.1747, -0.122204, -0.0298335, 0.118184, 0.059987, -0.000300138, 0.0319912, 0.029136
0.145991, 1.69178, -1.22281, -1.53778, -0.905286, -1.19474, 1.23306, -1.30248, -0.108957, 0.052502, 0.0582318, -0.228374, 0.00153, 0.00194837, 0.00548115, -2.88445, 61.7917, 30.6186, 5.83527, 2.35126, 2.52109, -0.0228162, -0.00435305, 0.00168479, 0.000730894, -0.00321726, -0.00698516, -0.000733471, 0.0918646, -0.0264115, -0.015134, -0.0837317, 0.146561, 0.0160973, 0.469484, -0.537538, 0.338881, -2.07955, -2.16887, -0.125554, 0.471307, -0.54165, 0.337434, -2.08406, -2.17486, -0.122119, -0.0301683, 0.119629, 0.0607099, -0.000804498, 0.0324149, 0.0307584
0.146991, 1.69167, -1.22275, -1.53771, -0.905542, -1.19473, 1.23306, -1.30247, -0.111042, 0.0554703, 0.0616826, -0.237411, 0.00505387, 0.00155718, 0.00461478, -2.95983, 61.7163, 30.6544, 5.68848, 2.37598, 2.51468, -0.0356336, -0.00443516, 0.00171566, 0.000740543, -0.00324387, -0.00702843, -0.000801653, 0.0899101, -0.0284153, -0.0138471, -0.0837257, 0.147929, 0.0244519, 0.469453, -0.537419, 0.338941, -2.07946, -2.16893, -0.125467, 0.471311, -0.541608, 0.337471, -2.08393, -2.17503, -0.122024, -0.0305034, 0.121079, 0.0614347, 0.000840162, 0.0356888, 0.0329902
0.147991, 1.69153, -1.2227, -1.53763, -0.905819, -1.19473, 1.23305, -1.30246, -0.114257, 0.0532063, 0.0634649, -0.248055, 0.00728134, 0.00186761, 0.00680492, -2.84875, 61.8274, 30.7297, 5.57739, 2.4126, 2.4927, 0.00373412, -0.00452157, 0.00174177, 0.000760246, -0.00326265, -0.00705975, -0.000874078, 0.0891638, -0.0299374, -0.0163263, -0.0861714, 0.145697, 0.0289055, 0.469423, -0.537298, 0.339003, -2.07938, -2.16899, -0.125378, 0.471309, -0.541568, 0.337499, -2.08379, -2.17519, -0.121933, -0.0308386, 0.122533, 0.0621611, 0.00190338, 0.0383267, 0.0313342
0.148991, 1.69139, -1.22265, -1.53755, -0.9061, -1.19472, 1.23306, -1.30244, -0.12275, 0.0563303, 0.0625518, -0.257303, 0.00387832, 0.00203673, 0.0118471, -2.7337, 61.8671, 30.7654, 5.38696, 2.46112, 2.47165, -0.0484509, -0.00460903, 0.00176707, 0.000773055, -0.00328827, -0.00710191, -0.000935732, 0.0923278, -0.0269436, -0.0161546, -0.0918229, 0.153258, 0.0207851, 0.469392, -0.537175, 0.339065, -2.07929, -2.16905, -0.125289, 0.471307, -0.541529, 0.337534, -2.08368, -2.17535, -0.121836, -0.031174, 0.12399, 0.0628893, -0.00128567, 0.0365019, 0.0318436
0.149991, 1.69126, -1.2226, -1.53748, -0.90639, -1.19471, 1.23306, -1.30243, -0.126464, 0.0550267, 0.0665171, -0.270751, 0.00649529, 0.00190918, 0.0129873, -2.7337, 61.9385, 30.8765, 5.31555, 2.49866, 2.457, -0.0356336, -0.00469501, 0.00179563, 0.00079127, -0.00331061, -0.00713591, -0.00101264, 0.0903053, -0.0291377, -0.0177009, -0.0937447, 0.151555, 0.0294057, 0.469361, -0.537051, 0.339128, -2.0792, -2.16911, -0.125199, 0.471307, -0.541485, 0.337565, -2.08353, -2.17552, -0.121744, -0.0315095, 0.125452, 0.0636192, 0.000434485, 0.0402957, 0.0312865
0.150991, 1.6911, -1.22254, -1.53739, -0.906695, -1.19471, 1.23306, -1.30242, -0.132882, 0.059468, 0.072199, -0.278337, 0.00838053, 0.0020593, 0.00826268, -2.58294, 61.9028, 30.8765, 5.31555, 2.54169, 2.43594, 0.00373412, -0.00478199, 0.00181981, 0.000800343, -0.00333817, -0.0071817, -0.00109364, 0.0904901, -0.028654, -0.0142905, -0.0906465, 0.155628, 0.0365537, 0.469329, -0.536926, 0.339191, -2.07911, -2.16918, -0.125108, 0.471303, -0.541443, 0.337605, -2.08339, -2.17571, -0.121646, -0.0318451, 0.126917, 0.0643506, -0.000237796, 0.0410389, 0.035374
0.151991, 1.69094, -1.22248, -1.5373, -0.907002, -1.1947, 1.23306, -1.3024, -0.139216, 0.0592643, 0.0778219, -0.294484, 0.00503185, 0.0024629, 0.00800076, -2.47185, 61.9028, 30.9519, 5.27588, 2.58472, 2.40664, -0.0420422, -0.00487067, 0.00184423, 0.000809669, -0.00337192, -0.00722532, -0.00116551, 0.0896174, -0.0296734, -0.0147939, -0.0942399, 0.160248, 0.0451288, 0.469298, -0.536799, 0.339256, -2.07902, -2.16924, -0.125016, 0.471299, -0.541401, 0.337646, -2.08326, -2.17589, -0.121554, -0.0321808, 0.128386, 0.0650837, 0.000395266, 0.0434936, 0.0357113
0.152991, 1.69078, -1.22241, -1.5372, -0.907329, -1.19469, 1.23306, -1.30239, -0.147455, 0.058891, 0.0852694, -0.305285, 0.00301449, 0.00164565, 0.00893306, -2.3568, 61.9028, 31.0273, 5.24017, 2.61493, 2.40664, 0.00373412, -0.00495476, 0.00187208, 0.0008198, -0.00339899, -0.00726967, -0.00126333, 0.090426, -0.0286722, -0.0140158, -0.0938679, 0.162368, 0.0472644, 0.469265, -0.53667, 0.339321, -2.07892, -2.1693, -0.124922, 0.471298, -0.541353, 0.337687, -2.0831, -2.17609, -0.121457, -0.0325166, 0.129859, 0.0658182, -0.000872418, 0.044006, 0.0371234
0.153991, 1.69061, -1.22236, -1.53709, -0.907669, -1.19468, 1.23306, -1.30237, -0.165806, 0.0550555, 0.0906137, -0.314571, 0.00569896, 0.00160852, 0.0138552, -2.16637, 62.0496, 31.1027, 5.27588, 2.65796, 2.39291, -0.0621838, -0.00504239, 0.00189715, 0.00083486, -0.00343106, -0.00730405, -0.0013466, 0.0960975, -0.0220224, -0.0152299, -0.0904882, 0.157244, 0.0347225, 0.469233, -0.53654, 0.339387, -2.07883, -2.16937, -0.124828, 0.471293, -0.541306, 0.337724, -2.08296, -2.17628, -0.121372, -0.0328524, 0.131335, 0.0665543, -0.00766607, 0.0397691, 0.0360085
0.154991, 1.69043, -1.2223, -1.53699, -0.908012, -1.19467, 1.23306, -1.30236, -0.16939, 0.0559837, 0.0941287, -0.323384, 0.0025945, -0.00345102, 0.0190706, -1.97991, 62.0496, 31.2137, 5.24017, 2.71289, 2.39932, -0.0484509, -0.0051329, 0.00191828, 0.000843339, -0.00346281, -0.00735004, -0.00143772, 0.0959115, -0.0215786, -0.0154298, -0.0973922, 0.159666, 0.0331436, 0.4692, -0.536409, 0.339453, -2.07873, -2.16943, -0.124733, 0.471285, -0.541262, 0.337768, -2.0828, -2.17648, -0.121275, -0.0331882, 0.132814, 0.0672918, -0.0084545, 0.041444, 0.0365931
0.155991, 1.69025, -1.22224, -1.53688, -0.908365, -1.19466, 1.23306, -1.30234, -0.174332, 0.0586136, 0.0999613, -0.333178, 0.00688575, -0.00265645, 0.0217442, -1.94024, 62.0853, 31.3248, 5.24017, 2.7193, 2.39932, -0.00267457, -0.00521953, 0.00194388, 0.000854646, -0.0034929, -0.00738954, -0.00154174, 0.0945285, -0.0228607, -0.0133596, -0.0938824, 0.160528, 0.0371894, 0.469167, -0.536276, 0.33952, -2.07864, -2.1695, -0.124636, 0.471281, -0.541212, 0.33781, -2.08263, -2.17669, -0.121183, -0.033524, 0.134297, 0.0680307, -0.00747721, 0.0440367, 0.0395478
0.156991, 1.69006, -1.22218, -1.53675, -0.908734, -1.19464, 1.23305, -1.30232, -0.180731, 0.057493, 0.109477, -0.343347, 0.00924181, -0.00258033, 0.0186195, -1.94024, 62.1249, 31.3605, 5.2005, 2.74402, 2.41397, -0.0621838, -0.00530106, 0.00197376, 0.000862732, -0.00353274, -0.00742525, -0.00164918, 0.0935802, -0.0237751, -0.0122101, -0.0889456, 0.158677, 0.0471135, 0.469133, -0.536142, 0.339588, -2.07854, -2.16956, -0.124539, 0.47128, -0.541155, 0.337856, -2.08246, -2.17691, -0.121105, -0.0338597, 0.135784, 0.0687709, -0.00688621, 0.0463271, 0.0415399
0.157991, 1.68986, -1.22212, -1.53663, -0.909106, -1.19463, 1.23305, -1.30231, -0.188107, 0.0568761, 0.117384, -0.35107, 0.0161804, -0.00137781, 0.0158468, -1.82915, 62.1606, 31.3605, 5.16479, 2.75592, 2.39932, 0.0101428, -0.0053888, 0.00199798, 0.000869573, -0.003574, -0.00746631, -0.0017643, 0.093291, -0.0240214, -0.0108542, -0.080964, 0.153979, 0.0543314, 0.469099, -0.536006, 0.339657, -2.07844, -2.16963, -0.124441, 0.471274, -0.541104, 0.337904, -2.08228, -2.17714, -0.121023, -0.0341954, 0.137273, 0.0695125, -0.00692761, 0.0479086, 0.0436578
0.158991, 1.68966, -1.22206, -1.5365, -0.9095, -1.19461, 1.23304, -1.30229, -0.195259, 0.0561966, 0.118417, -0.363571, 0.0166898, -0.00640965, 0.0177139, -1.78948, 62.1964, 31.547, 5.2005, 2.76874, 2.42862, -0.0164075, -0.0054732, 0.00202334, 0.000882802, -0.00360121, -0.00749842, -0.00187927, 0.0935622, -0.0223992, -0.0132217, -0.0896972, 0.152237, 0.0558447, 0.469065, -0.535869, 0.339727, -2.07834, -2.1697, -0.124341, 0.471269, -0.541046, 0.337947, -2.08209, -2.17736, -0.120933, -0.0345309, 0.138766, 0.0702554, -0.0089603, 0.0494213, 0.042076
0.159991, 1.68946, -1.22201, -1.53636, -0.909888, -1.1946, 1.23304, -1.30227, -0.197749, 0.0524805, 0.128371, -0.368613, 0.0161576, -0.0050116, 0.0191733, -1.86486, 62.3828, 31.5867, 5.12909, 2.80536, 2.43594, -0.0484509, -0.00556032, 0.00204997, 0.000896992, -0.00364697, -0.00751912, -0.00199238, 0.0932745, -0.024404, -0.0127884, -0.082898, 0.150479, 0.0598567, 0.469031, -0.53573, 0.339797, -2.07824, -2.16977, -0.124241, 0.471264, -0.54099, 0.337989, -2.0819, -2.17758, -0.120875, -0.0348663, 0.140262, 0.0709994, -0.00728238, 0.0512281, 0.0432265
0.160991, 1.68924, -1.22195, -1.53622, -0.910302, -1.19458, 1.23303, -1.30225, -0.203881, 0.0550563, 0.132863, -0.380344, 0.0211349, -0.00887938, 0.0175377, -1.82915, 62.3431, 31.6581, 5.12909, 2.82367, 2.457, -0.00999879, -0.00564423, 0.0020744, 0.000905929, -0.00368032, -0.00755223, -0.00212302, 0.0915224, -0.0244303, -0.0118597, -0.0850744, 0.148679, 0.0682983, 0.468996, -0.53559, 0.339868, -2.07814, -2.16984, -0.12414, 0.471257, -0.54093, 0.338037, -2.0817, -2.17782, -0.12079, -0.0352016, 0.141761, 0.0717447, -0.00761835, 0.0543184, 0.0451582
0.161991, 1.68901, -1.2219, -1.53608, -0.910732, -1.19456, 1.23302, -1.30223, -0.212243, 0.0534253, 0.134937, -0.392776, 0.0245433, -0.00736354, 0.0239343, -1.82915, 62.4542, 31.7731, 5.16479, 2.84839, 2.47897, -0.0420422, -0.00573015, 0.002098, 0.000922434, -0.00371048, -0.0075768, -0.0022503, 0.0923275, -0.0238303, -0.0137588, -0.0856979, 0.146746, 0.065528, 0.468961, -0.535448, 0.33994, -2.07804, -2.16991, -0.124037, 0.471248, -0.540869, 0.338079, -2.08149, -2.17805, -0.12071, -0.0355366, 0.143262, 0.0724911, -0.00859031, 0.0552879, 0.0439266
0.162991, 1.68879, -1.22184, -1.53593, -0.911163, -1.19453, 1.23301, -1.30221, -0.219608, 0.0547163, 0.13865, -0.405452, 0.0225194, -0.00912875, 0.022545, -1.86486, 62.4542, 31.8088, 5.2005, 2.87311, 2.46432, -0.0420422, -0.00581556, 0.00212314, 0.000933768, -0.0037529, -0.00760224, -0.00238118, 0.092734, -0.0228609, -0.0137355, -0.090339, 0.150545, 0.0706437, 0.468925, -0.535305, 0.340012, -2.07793, -2.16998, -0.123934, 0.471241, -0.540807, 0.338126, -2.08128, -2.17829, -0.120642, -0.0358715, 0.144767, 0.0732387, -0.0098697, 0.0563447, 0.0446682
0.163991, 1.68854, -1.22179, -1.53579, -0.911607, -1.19451, 1.233, -1.30219, -0.22777, 0.0547088, 0.14267, -0.413681, 0.0197429, -0.0073403, 0.0202127, -1.86486, 62.4899, 31.9199, 5.24017, 2.92804, 2.47897, -0.00267457, -0.00590671, 0.00213981, 0.000947762, -0.00378156, -0.00762947, -0.00251007, 0.0953927, -0.0210942, -0.0133834, -0.0898401, 0.154989, 0.0719495, 0.468889, -0.53516, 0.340086, -2.07783, -2.17005, -0.123829, 0.471225, -0.54075, 0.338171, -2.08107, -2.17852, -0.120555, -0.0362061, 0.146274, 0.0739872, -0.0118408, 0.0550937, 0.0454169
0.164991, 1.68829, -1.22173, -1.53562, -0.912061, -1.19449, 1.23299, -1.30216, -0.233416, 0.053871, 0.146611, -0.436509, 0.0236292, -0.0100649, 0.0226233, -1.86486, 62.5653, 31.9953, 5.24017, 2.95276, 2.48538, -0.0750012, -0.00599445, 0.00216001, 0.000958782, -0.00382983, -0.00764597, -0.00264064, 0.0909058, -0.023923, -0.0161168, -0.0976015, 0.152296, 0.0859786, 0.468853, -0.535014, 0.34016, -2.07772, -2.17012, -0.123723, 0.471213, -0.540687, 0.33822, -2.08085, -2.17876, -0.1205, -0.0365405, 0.147784, 0.0747369, -0.0096358, 0.0615806, 0.0440619
0.165991, 1.68803, -1.22167, -1.53545, -0.912545, -1.19446, 1.23297, -1.30215, -0.239079, 0.0540489, 0.156877, -0.448617, 0.0259052, -0.0129685, 0.0185869, -1.82915, 62.4899, 32.031, 5.46234, 2.99579, 2.51468, 0.00373412, -0.00607395, 0.00218437, 0.000965417, -0.00386655, -0.00767453, -0.00280869, 0.0884914, -0.0252114, -0.0145096, -0.0955935, 0.150569, 0.0995289, 0.468816, -0.534866, 0.340234, -2.07762, -2.17019, -0.123617, 0.471204, -0.540616, 0.338275, -2.0806, -2.17905, -0.120423, -0.0368746, 0.149297, 0.0754875, -0.00871055, 0.0652939, 0.0467279
0.166991, 1.68777, -1.22161, -1.53527, -0.913025, -1.19443, 1.23295, -1.30213, -0.241563, 0.0549349, 0.164086, -0.455103, 0.0243422, -0.0146532, 0.0237801, -1.97991, 62.4899, 32.0707, 5.46234, 3.0022, 2.53573, -0.00999879, -0.0061541, 0.00220956, 0.000972174, -0.00391362, -0.00769222, -0.00297001, 0.0878009, -0.0262717, -0.0128412, -0.0946956, 0.153063, 0.0993029, 0.46878, -0.534717, 0.34031, -2.07751, -2.17026, -0.123509, 0.471196, -0.540543, 0.338331, -2.08036, -2.17932, -0.120367, -0.0372084, 0.150812, 0.076239, -0.00794045, 0.0672882, 0.0491982
0.167991, 1.6875, -1.22155, -1.53508, -0.913508, -1.1944, 1.23293, -1.3021, -0.249947, 0.0584176, 0.175296, -0.465799, 0.027035, -0.0159502, 0.0234753, -2.01562, 62.4899, 32.1421, 5.42664, 3.026, 2.55771, -0.0356336, -0.00623982, 0.00222822, 0.000978247, -0.00396567, -0.00770519, -0.00311494, 0.0865819, -0.0261491, -0.00848608, -0.0889352, 0.154839, 0.105724, 0.468742, -0.534566, 0.340386, -2.0774, -2.17034, -0.123401, 0.471181, -0.540475, 0.338387, -2.08013, -2.17958, -0.120318, -0.0375418, 0.15233, 0.0769914, -0.00826335, 0.0693444, 0.0544437
0.168991, 1.68723, -1.2215, -1.53488, -0.91402, -1.19436, 1.23291, -1.30208, -0.25754, 0.0571433, 0.184642, -0.476794, 0.0288136, -0.0161665, 0.0205839, -2.13067, 62.5296, 32.1818, 5.42664, 3.05713, 2.55771, 0.0101428, -0.00631643, 0.00225653, 0.000985695, -0.00401665, -0.00771969, -0.00330285, 0.0860623, -0.0263995, -0.0075556, -0.0849102, 0.153325, 0.114674, 0.468705, -0.534414, 0.340463, -2.07729, -2.17041, -0.123291, 0.471175, -0.540396, 0.338444, -2.07985, -2.17988, -0.12027, -0.0378749, 0.15385, 0.0777447, -0.00832366, 0.0712499, 0.0561879
0.169991, 1.68695, -1.22143, -1.53468, -0.914541, -1.19432, 1.23289, -1.30205, -0.265909, 0.0606799, 0.18979, -0.491689, 0.0273453, -0.0165092, 0.0268233, -2.24175, 62.3828, 32.2928, 5.50201, 3.03882, 2.56412, -0.0420422, -0.00639252, 0.00228184, 0.00098387, -0.00407565, -0.0077395, -0.00347924, 0.0857741, -0.0258661, -0.00584233, -0.0875374, 0.15975, 0.113935, 0.468667, -0.53426, 0.340541, -2.07718, -2.17049, -0.12318, 0.471166, -0.540316, 0.338511, -2.07959, -2.18018, -0.120223, -0.0382076, 0.155372, 0.0784988, -0.00912457, 0.0727741, 0.0586971
0.170991, 1.68667, -1.22138, -1.53447, -0.915071, -1.19428, 1.23287, -1.30203, -0.271158, 0.0571052, 0.197651, -0.500359, 0.0338391, -0.0152419, 0.0242577, -2.43218, 62.4899, 32.3682, 5.50201, 3.06354, 2.52841, -0.0292249, -0.00646869, 0.0023112, 0.000993643, -0.00413254, -0.00774375, -0.00367201, 0.0846568, -0.0274933, -0.00644618, -0.0807471, 0.152771, 0.123757, 0.468629, -0.534104, 0.340619, -2.07707, -2.17056, -0.123068, 0.47116, -0.540233, 0.338568, -2.07931, -2.18048, -0.120191, -0.0385399, 0.156897, 0.0792537, -0.00789618, 0.0755713, 0.0589724
0.171991, 1.68636, -1.22133, -1.53425, -0.915617, -1.19424, 1.23285, -1.30201, -0.278838, 0.0537728, 0.200211, -0.510462, 0.039534, -0.0147885, 0.0279269, -2.47185, 62.6407, 32.4396, 5.42664, 3.06903, 2.50003, -0.0356336, -0.00654852, 0.00233415, 0.00100603, -0.0041847, -0.00774268, -0.00386037, 0.0853534, -0.0269075, -0.00896264, -0.0799499, 0.146614, 0.123375, 0.46859, -0.533947, 0.340699, -2.07696, -2.17064, -0.122956, 0.471147, -0.540151, 0.338622, -2.07902, -2.18078, -0.120157, -0.0388718, 0.158424, 0.0800094, -0.00888059, 0.0767668, 0.0571567
0.172991, 1.68606, -1.22128, -1.53403, -0.916166, -1.19421, 1.23282, -1.30199, -0.285806, 0.0511796, 0.206324, -0.52253, 0.0419466, -0.0236432, 0.0290309, -2.54723, 62.6764, 32.4793, 5.35126, 3.12488, 2.48538, -0.00267457, -0.00662732, 0.00235694, 0.00101275, -0.0042388, -0.00774658, -0.00405642, 0.0840308, -0.0256893, -0.0109095, -0.0866646, 0.139333, 0.128552, 0.468551, -0.533789, 0.340779, -2.07684, -2.17071, -0.122842, 0.471135, -0.540069, 0.338682, -2.07873, -2.18109, -0.12012, -0.0392032, 0.159952, 0.0807657, -0.0105557, 0.0798418, 0.0562354
0.173991, 1.68576, -1.22122, -1.53379, -0.916734, -1.19416, 1.23279, -1.30196, -0.292511, 0.0548468, 0.217359, -0.532527, 0.0444291, -0.0251195, 0.0306079, -2.58294, 62.601, 32.515, 5.31555, 3.1615, 2.44967, 0.0165515, -0.00669722, 0.00238809, 0.00101325, -0.00430495, -0.00775268, -0.00427276, 0.0823142, -0.0262357, -0.00650157, -0.0812332, 0.141454, 0.133976, 0.468512, -0.533629, 0.340859, -2.07673, -2.17079, -0.122727, 0.47113, -0.539976, 0.338751, -2.07842, -2.18142, -0.120095, -0.0395341, 0.161483, 0.0815227, -0.010225, 0.0824269, 0.0615907
0.174991, 1.68544, -1.22117, -1.53354, -0.917324, -1.19412, 1.23277, -1.30193, -0.302788, 0.0560456, 0.225417, -0.548533, 0.0458267, -0.0257685, 0.0304041, -2.50756, 62.7121, 32.5547, 5.24017, 3.20453, 2.39932, -0.0557752, -0.00676872, 0.00241644, 0.00101845, -0.00437282, -0.00774911, -0.0044877, 0.0815514, -0.0256754, -0.00518505, -0.0806913, 0.143009, 0.14117, 0.468473, -0.533468, 0.340941, -2.07661, -2.17087, -0.122611, 0.471122, -0.539883, 0.338815, -2.07811, -2.18176, -0.120081, -0.0398646, 0.163016, 0.0822803, -0.0110858, 0.0844892, 0.0637853
0.175991, 1.68513, -1.22112, -1.5333, -0.917913, -1.19407, 1.23274, -1.30191, -0.306726, 0.0549814, 0.23455, -0.561036, 0.0467292, -0.0259202, 0.0261, -2.50756, 62.7875, 32.7372, 5.16479, 3.25946, 2.33523, -0.0228162, -0.00683945, 0.00244861, 0.00102675, -0.0044405, -0.0077413, -0.00471691, 0.0791648, -0.0281565, -0.00457375, -0.0784593, 0.14281, 0.156063, 0.468433, -0.533304, 0.341023, -2.07649, -2.17095, -0.122494, 0.471117, -0.539787, 0.338877, -2.07778, -2.1821, -0.120071, -0.0401944, 0.164551, 0.0830385, -0.00900566, 0.0884066, 0.0654283
0.176991, 1.6848, -1.22107, -1.53303, -0.918531, -1.19402, 1.23271, -1.30188, -0.313885, 0.0566428, 0.241189, -0.578481, 0.0486886, -0.0307805, 0.0231308, -2.43218, 62.7478, 32.7768, 5.12909, 3.28418, 2.28488, 0.00373412, -0.00690454, 0.0024809, 0.00102825, -0.00451094, -0.00773684, -0.00496583, 0.0762995, -0.028691, -0.0042283, -0.0837058, 0.14263, 0.169848, 0.468392, -0.53314, 0.341106, -2.07637, -2.17103, -0.122376, 0.471112, -0.539684, 0.338948, -2.07743, -2.18247, -0.120063, -0.0405238, 0.166087, 0.0837972, -0.00889931, 0.0927475, 0.0669491
0.177991, 1.68446, -1.22102, -1.53276, -0.919142, -1.19398, 1.23268, -1.30185, -0.322284, 0.0551284, 0.246816, -0.587196, 0.0489148, -0.0316679, 0.0273162, -2.3568, 62.8232, 32.8126, 4.94263, 3.34003, 2.27023, -0.00999879, -0.00697762, 0.0025072, 0.00103353, -0.00458312, -0.00772513, -0.00519331, 0.0778528, -0.0270079, -0.00445331, -0.0830292, 0.141881, 0.166624, 0.468352, -0.532974, 0.34119, -2.07626, -2.17111, -0.122257, 0.471101, -0.539588, 0.339014, -2.0771, -2.18281, -0.12006, -0.0408525, 0.167625, 0.0845564, -0.010847, 0.092709, 0.0673066
0.178991, 1.68412, -1.22097, -1.53249, -0.919788, -1.19392, 1.23264, -1.30183, -0.329211, 0.0538121, 0.257696, -0.603715, 0.0459809, -0.0357303, 0.0289262, -2.24175, 62.7875, 32.8126, 4.90295, 3.35193, 2.23453, 0.0165515, -0.00703774, 0.00254214, 0.00103507, -0.00465264, -0.00771519, -0.0054602, 0.0756077, -0.0278527, -0.00411088, -0.0859158, 0.142875, 0.175711, 0.468311, -0.532806, 0.341275, -2.07613, -2.17119, -0.122137, 0.471098, -0.539478, 0.339087, -2.07672, -2.1832, -0.120055, -0.0411807, 0.169165, 0.0853161, -0.0104045, 0.0964561, 0.0687195
0.179991, 1.68378, -1.22092, -1.53219, -0.920452, -1.19387, 1.23261, -1.3018, -0.340154, 0.049953, 0.270574, -0.615817, 0.0433992, -0.0400654, 0.0277033, -2.20605, 62.7478, 32.7372, 4.75616, 3.37665, 2.23453, -0.0164075, -0.0070927, 0.00258321, 0.0010331, -0.00473351, -0.00770868, -0.00574014, 0.0761815, -0.0258437, -0.0037284, -0.0846069, 0.140321, 0.180933, 0.46827, -0.532637, 0.34136, -2.07601, -2.17127, -0.122016, 0.471101, -0.539361, 0.339165, -2.07634, -2.18361, -0.12006, -0.0415082, 0.170706, 0.0860762, -0.0126916, 0.0972803, 0.0698396
0.180991, 1.68342, -1.22087, -1.5319, -0.921111, -1.19382, 1.23258, -1.30177, -0.344753, 0.0460275, 0.272733, -0.631009, 0.0454564, -0.041381, 0.0288144, -2.13067, 62.7478, 32.8522, 4.56573, 3.41968, 2.18417, 0.0165515, -0.00715966, 0.00261337, 0.00103742, -0.00480886, -0.00769508, -0.00600306, 0.0746696, -0.0272929, -0.00772544, -0.0903131, 0.136374, 0.189206, 0.468228, -0.532466, 0.341446, -2.07589, -2.17135, -0.121894, 0.471093, -0.539254, 0.339235, -2.07597, -2.18399, -0.120063, -0.0418351, 0.172249, 0.0868367, -0.0117946, 0.100992, 0.0668341
0.181991, 1.68306, -1.22082, -1.53159, -0.921795, -1.19377, 1.23254, -1.30174, -0.352042, 0.0455009, 0.281448, -0.648874, 0.0491006, -0.0430519, 0.0330957, -2.01562, 62.6407, 32.9236, 4.34357, 3.40137, 2.15579, -0.0356336, -0.00721697, 0.00265046, 0.00103547, -0.00489326, -0.00768253, -0.00628444, 0.0714929, -0.0289946, -0.00765225, -0.0904912, 0.134197, 0.197598, 0.468187, -0.532294, 0.341533, -2.07577, -2.17143, -0.121771, 0.471091, -0.539137, 0.339314, -2.07558, -2.1844, -0.120076, -0.0421613, 0.173793, 0.0875976, -0.0105459, 0.105745, 0.0680944
0.182991, 1.68269, -1.22077, -1.53127, -0.922486, -1.19371, 1.23251, -1.30171, -0.356497, 0.047266, 0.295123, -0.677316, 0.0503404, -0.0428188, 0.0337507, -2.05529, 62.5653, 32.8522, 4.19281, 3.42517, 2.08438, -0.0228162, -0.00727298, 0.00268974, 0.00102949, -0.00498984, -0.00767143, -0.00657815, 0.0633155, -0.0355184, -0.00589156, -0.0910965, 0.138061, 0.223202, 0.468144, -0.53212, 0.34162, -2.07564, -2.17152, -0.121646, 0.471091, -0.539017, 0.339397, -2.07519, -2.18483, -0.120102, -0.0424869, 0.175339, 0.0883587, -0.00462261, 0.115413, 0.071618
0.183991, 1.68231, -1.22073, -1.53095, -0.923202, -1.19366, 1.23248, -1.30168, -0.364281, 0.0438597, 0.307444, -0.688473, 0.0542981, -0.0422261, 0.0285043, -1.94024, 62.5653, 32.8126, 4.08173, 3.49292, 1.99832, 0.0165515, -0.00733321, 0.00272449, 0.00103077, -0.00507664, -0.00765996, -0.00687771, 0.0620396, -0.0365713, -0.00501005, -0.0829602, 0.133139, 0.236672, 0.468102, -0.531945, 0.341709, -2.07552, -2.1716, -0.121521, 0.471087, -0.538899, 0.339474, -2.07478, -2.18526, -0.120116, -0.0428117, 0.176886, 0.0891202, -0.00390798, 0.11814, 0.0734078
0.184991, 1.68191, -1.22068, -1.53061, -0.923943, -1.1936, 1.23245, -1.30164, -0.374498, 0.0495259, 0.314912, -0.697789, 0.0540778, -0.0416854, 0.0289971, -1.90453, 62.4542, 32.8126, 4.00635, 3.52405, 1.90494, -0.0621838, -0.00738936, 0.00276111, 0.00102826, -0.00516858, -0.00765232, -0.00717818, 0.0633563, -0.0343418, -0.000246471, -0.0792041, 0.140661, 0.236446, 0.468059, -0.531768, 0.341798, -2.07539, -2.17169, -0.121395, 0.471083, -0.538776, 0.339556, -2.07438, -2.18569, -0.120132, -0.0431357, 0.178434, 0.0898818, -0.00619754, 0.117565, 0.0787501
