alisrour97/Franka_experiments/Real_Robot_scripts/servo-franka/Data_video/log_dyn_INIT3_ki_0.csv
Time,q1,q2,q3,q4,q5,q6,q7,dq1,dq2,dq3,dq4,dq5,dq6,dq7,t1,t2,t3,t4,t5,t6,t7,ex1,ex2,ex3,ex4,ex5,ex6,ev1,ev2,ev3,ev4,ev5,ev6,xd,yd,zd,uxd,uyd,uzd,x,y,z,ux,uy,uz,vxd,vyd,vzd,vx,vy,vz
4.88281e-07, 0.107668, -0.773704, -0.916209, -1.45687, -0.625218, 1.06987, -0.256714, -0.00432198, -0.00152806, -0.00392517, 0.000613242, 0.00116221, 0.00138002, -0.000207142, -0.281914, 15.791, 22.3548, 18.8281, 1.2453, 4.43545, -0.186696, 0.00112861, -0.00177236, 0.000219907, 0.000542585, -0.000989501, -0.00012544, 0.0033871, -0.000838707, -0.000733464, -0.00133377, -0.00334903, -0.00684816, -0.011112, -0.444721, 0.635038, -3.13187, -0.0555627, -0.107532, -0.0100213, -0.442904, 0.63491, -3.13139, -0.0562426, -0.105931, 0, 0, 0, -0.00329687, -0.000950993, -0.000969571
0.0130498, 0.107666, -0.773769, -0.916287, -1.45687, -0.625224, 1.06988, -0.25672, -0.00139427, -0.011056, -0.0102384, 0.000977456, 0.000207723, 3.08826e-05, 0.000171997, -0.317619, 15.6442, 22.3548, 18.7885, 1.22699, 4.43545, -0.180287, 0.00108355, -0.00175524, 0.00024568, 0.000595557, -0.000935154, -7.14517e-05, 0.00743191, -0.00223762, -0.00296986, -0.00683322, -0.011378, -0.00972894, -0.011112, -0.444721, 0.635038, -3.13187, -0.0555627, -0.107532, -0.0100775, -0.442926, 0.634878, -3.13133, -0.0561238, -0.106032, 1.73063e-06, 3.0097e-06, -3.96181e-06, -0.00712492, -0.00246903, -0.0034911
0.01405, 0.107666, -0.773769, -0.916287, -1.45687, -0.625224, 1.06988, -0.25672, -0.00139427, -0.011056, -0.0102384, 0.000977456, 0.000207723, 3.08826e-05, 0.000171997, -0.317619, 15.6442, 22.3548, 18.7885, 1.22699, 4.43545, -0.180287, 0.00108354, -0.00175524, 0.000245671, 0.000595537, -0.000935178, -7.1451e-05, 0.00743658, -0.00224635, -0.00295761, -0.00680857, -0.0113747, -0.00968227, -0.011112, -0.444721, 0.635038, -3.13187, -0.0555627, -0.107532, -0.0100775, -0.442926, 0.634878, -3.13133, -0.0561238, -0.106032, 6.91577e-06, 1.20019e-05, -1.58141e-05, -0.00712492, -0.00246903, -0.0034911
0.01505, 0.107666, -0.773769, -0.916287, -1.45687, -0.625224, 1.06988, -0.25672, -0.00139427, -0.011056, -0.0102384, 0.000977456, 0.000207723, 3.08826e-05, 0.000171997, -0.317619, 15.6442, 22.3548, 18.7885, 1.22699, 4.43545, -0.180287, 0.00108353, -0.00175522, 0.000245645, 0.000595483, -0.00093524, -7.14492e-05, 0.00744436, -0.00226083, -0.00293724, -0.00676763, -0.0113691, -0.00960473, -0.011112, -0.444721, 0.635038, -3.13187, -0.0555627, -0.107532, -0.0100775, -0.442926, 0.634878, -3.13133, -0.0561238, -0.106032, 1.55453e-05, 2.69215e-05, -3.55071e-05, -0.00712492, -0.00246903, -0.0034911
0.01605, 0.107666, -0.773769, -0.916287, -1.45687, -0.625224, 1.06988, -0.25672, -0.00139427, -0.011056, -0.0102384, 0.000977456, 0.000207723, 3.08826e-05, 0.000171997, -0.317619, 15.6442, 22.3548, 18.7885, 1.22699, 4.43545, -0.180287, 0.00108352, -0.00175518, 0.000245595, 0.000595377, -0.000935362, -7.14457e-05, 0.00745523, -0.00228101, -0.00290882, -0.00671053, -0.0113613, -0.00949654, -0.011112, -0.444721, 0.635038, -3.13187, -0.0555628, -0.107532, -0.0100775, -0.442926, 0.634878, -3.13133, -0.0561238, -0.106032, 2.7609e-05, 4.77135e-05, -6.29913e-05, -0.00712492, -0.00246903, -0.0034911
0.01705, 0.107666, -0.773769, -0.916287, -1.45687, -0.625224, 1.06988, -0.25672, -0.00139427, -0.011056, -0.0102384, 0.000977456, 0.000207723, 3.08826e-05, 0.000171997, -0.317619, 15.6442, 22.3548, 18.7885, 1.22699, 4.43545, -0.180287, 0.00108348, -0.00175512, 0.000245513, 0.000595203, -0.000935562, -7.14399e-05, 0.00746919, -0.00230683, -0.00287239, -0.00663738, -0.0113513, -0.00935789, -0.0111119, -0.444721, 0.635038, -3.13187, -0.0555628, -0.107532, -0.0100775, -0.442926, 0.634878, -3.13133, -0.0561238, -0.106032, 4.30968e-05, 7.4323e-05, -9.82172e-05, -0.00712492, -0.00246903, -0.0034911
0.01805, 0.107666, -0.773769, -0.916287, -1.45687, -0.625224, 1.06988, -0.25672, -0.00139427, -0.011056, -0.0102384, 0.000977456, 0.000207723, 3.08826e-05, 0.000171997, -0.317619, 15.6442, 22.3548, 18.7885, 1.22699, 4.43545, -0.180287, 0.00108344, -0.00175504, 0.000245391, 0.000594945, -0.00093586, -7.14311e-05, 0.00748622, -0.00233824, -0.00282799, -0.00654831, -0.011339, -0.00918899, -0.0111119, -0.444721, 0.635038, -3.13187, -0.0555628, -0.107533, -0.0100775, -0.442926, 0.634878, -3.13133, -0.0561238, -0.106032, 6.19987e-05, 0.000106695, -0.000141136, -0.00712492, -0.00246903, -0.0034911
0.01905, 0.107666, -0.773769, -0.916287, -1.45687, -0.625224, 1.06988, -0.25672, -0.00139427, -0.011056, -0.0102384, 0.000977456, 0.000207723, 3.08826e-05, 0.000171997, -0.317619, 15.6442, 22.3548, 18.7885, 1.22699, 4.43545, -0.180287, 0.00108337, -0.00175491, 0.00024522, 0.000594584, -0.000936276, -7.14189e-05, 0.00750633, -0.00237519, -0.0027757, -0.00644343, -0.0113244, -0.00899004, -0.0111118, -0.44472, 0.635037, -3.13187, -0.0555628, -0.107533, -0.0100775, -0.442926, 0.634878, -3.13133, -0.0561238, -0.106032, 8.43044e-05, 0.000144776, -0.000191697, -0.00712492, -0.00246903, -0.0034911
0.02005, 0.107666, -0.773769, -0.916287, -1.45687, -0.625224, 1.06988, -0.25672, -0.00139427, -0.011056, -0.0102384, 0.000977456, 0.000207723, 3.08826e-05, 0.000171997, -0.317619, 15.6442, 22.3548, 18.7885, 1.22699, 4.43545, -0.180287, 0.00108328, -0.00175475, 0.000244994, 0.000594106, -0.000936827, -7.14024e-05, 0.0075295, -0.00241763, -0.00271554, -0.00632286, -0.0113077, -0.00876123, -0.0111117, -0.44472, 0.635037, -3.13187, -0.0555629, -0.107534, -0.0100775, -0.442926, 0.634878, -3.13133, -0.0561238, -0.106032, 0.000110004, 0.000188511, -0.000249853, -0.00712492, -0.00246903, -0.0034911
0.02105, 0.107666, -0.773769, -0.916287, -1.45687, -0.625224, 1.06988, -0.25672, -0.00139427, -0.011056, -0.0102384, 0.000977456, 0.000207723, 3.08826e-05, 0.000171997, -0.317619, 15.6442, 22.3548, 18.7885, 1.22699, 4.43545, -0.180287, 0.00108317, -0.00175455, 0.000244704, 0.000593494, -0.000937534, -7.13812e-05, 0.00755572, -0.00246549, -0.00264757, -0.00618673, -0.0112886, -0.00850278, -0.0111116, -0.44472, 0.635037, -3.13187, -0.0555629, -0.107535, -0.0100775, -0.442926, 0.634878, -3.13133, -0.0561238, -0.106032, 0.000139087, 0.000237846, -0.000315553, -0.00712492, -0.00246903, -0.0034911
0.02205, 0.107662, -0.773794, -0.916339, -1.45689, -0.625216, 1.06988, -0.256727, -5.43794e-05, -0.00418538, -0.0016235, -0.00227406, 0.000929229, -0.00014918, -0.00149554, -0.281914, 15.5688, 22.1683, 18.8995, 1.18396, 4.43545, -0.127186, 0.0010615, -0.00174508, 0.000264262, 0.000637546, -0.000917389, -4.49089e-05, 0.001336, -0.000414591, -0.000918272, -0.00235278, -0.00313656, 0.00335428, -0.0111114, -0.44472, 0.635037, -3.13186, -0.055563, -0.107537, -0.0100973, -0.442936, 0.634857, -3.13129, -0.0560841, -0.106061, 0.000171544, 0.000292726, -0.00038875, -0.00108283, -0.00016069, -0.00139918
0.02305, 0.10766, -0.773792, -0.916344, -1.45689, -0.625218, 1.06988, -0.256727, -0.00104043, -0.00220603, -0.00206905, -0.00170516, 0.000619187, 0.000171784, -1.36813e-05, -0.242241, 15.5331, 22.204, 18.8995, 1.18396, 4.42813, -0.153737, 0.00106008, -0.00174351, 0.000265289, 0.000637556, -0.000923298, -3.96269e-05, 0.00148903, -0.000619481, -0.000657434, -0.00153104, -0.00142209, 0.000422793, -0.0111112, -0.444719, 0.635036, -3.13186, -0.055563, -0.107538, -0.0100984, -0.442938, 0.634855, -3.13129, -0.056076, -0.106054, 0.000207364, 0.000353099, -0.000469394, -0.00121012, -0.000312698, -0.00123138
0.02405, 0.107663, -0.773796, -0.916337, -1.45689, -0.625217, 1.06988, -0.256724, 0.000177282, -0.00249416, -0.000326476, -0.00489386, 0.000853376, -0.00353502, -9.1209e-06, -0.281914, 15.5688, 22.0176, 18.7885, 1.17206, 4.39975, -0.153737, 0.00106145, -0.00174465, 0.00026329, 0.000635321, -0.000920258, -4.49582e-05, 0.000200376, 0.000515323, -0.00141612, -0.00541164, 0.0020147, 0.00505495, -0.011111, -0.444719, 0.635036, -3.13186, -0.0555631, -0.10754, -0.010097, -0.442936, 0.634857, -3.13129, -0.0560843, -0.106061, 0.000246538, 0.00041891, -0.000557437, 0.000125291, 0.00093903, -0.00198077
0.02505, 0.107666, -0.773789, -0.916347, -1.4569, -0.625214, 1.06988, -0.256726, 7.53501e-05, 0.000794499, -0.00509554, -0.00761427, 0.00172164, -0.00556568, -0.000752066, -0.281914, 15.4578, 21.9422, 18.6774, 1.14093, 4.34939, -0.133595, 0.00106297, -0.00174303, 0.000266829, 0.000643992, -0.000930114, -4.54078e-05, 0.000297041, 0.00023504, -0.00355807, -0.0117116, 0.00767832, 0.00424711, -0.0111107, -0.444719, 0.635035, -3.13186, -0.0555632, -0.107542, -0.0100949, -0.442937, 0.634853, -3.13128, -0.0560855, -0.106047, 0.000289055, 0.000490107, -0.00065283, 0.000228034, 0.000745159, -0.00422138
0.02605, 0.107667, -0.773787, -0.916355, -1.4569, -0.62521, 1.06988, -0.256728, 1.81047e-05, 0.00125899, -0.00480029, -0.00568332, 0.00274133, -0.00202085, -0.0021968, -0.281914, 15.4221, 21.8311, 18.5266, 1.0979, 4.28531, -0.0878186, 0.00106411, -0.00174168, 0.000270737, 0.000652468, -0.000935462, -4.83869e-05, -4.79417e-05, -0.000417901, -0.0024491, -0.00758371, 0.00433914, 0.00576137, -0.0111104, -0.444718, 0.635034, -3.13186, -0.0555634, -0.107545, -0.0100931, -0.442938, 0.634848, -3.13127, -0.0560906, -0.106041, 0.000334905, 0.000566635, -0.000755525, 0.000565241, 0.00017177, -0.00319807
0.02705, 0.107664, -0.773792, -0.916358, -1.45691, -0.625211, 1.06988, -0.256728, -0.00177526, 0.00530073, -0.00277374, -0.00490281, 0.00135274, -0.000266531, 0.00152595, -0.206535, 15.4935, 21.6446, 18.2648, 1.11072, 4.24228, -0.0420422, 0.00106006, -0.00174112, 0.000271977, 0.00065646, -0.000937178, -4.49143e-05, -0.000846049, -0.000495177, -0.00116434, -0.00306519, 0.00795874, 0.00115205, -0.0111101, -0.444717, 0.635033, -3.13186, -0.0555635, -0.107548, -0.0100967, -0.442938, 0.634846, -3.13126, -0.0560855, -0.106041, 0.000384079, 0.000648441, -0.000865474, 0.00132497, 0.000193372, -0.00197197
0.02805, 0.107662, -0.77379, -0.916369, -1.45692, -0.625209, 1.06988, -0.256718, -0.00120158, 0.00629429, -0.00107909, -0.0051108, 0.00157992, 0.000759997, 0.00432391, -0.206535, 15.5331, 21.5732, 18.1537, 1.09241, 4.20657, -0.120778, 0.00105919, -0.00173986, 0.000278553, 0.0006718, -0.000950163, -3.32854e-05, -0.00209563, -0.000391717, -0.000515452, -0.00102417, 0.00835776, 0.00089161, -0.0111097, -0.444717, 0.635033, -3.13186, -0.0555637, -0.107552, -0.0100966, -0.442938, 0.634838, -3.13124, -0.0560682, -0.106023, 0.000436566, 0.000735474, -0.000982628, 0.00257521, 0.000422167, -0.00135528
0.02905, 0.107666, -0.773792, -0.916375, -1.45694, -0.62521, 1.06987, -0.256721, 2.06089e-05, 0.00313849, -0.00272732, -0.0133111, 0.000612419, 0.00130318, 0.00195477, -0.242241, 15.6046, 21.4979, 18.118, 1.10431, 4.17727, -0.0878186, 0.00106175, -0.00173915, 0.000285692, 0.000686235, -0.000966495, -4.52035e-05, -0.0026648, -0.000600653, -0.00346158, -0.00582913, 0.0111313, 0.00746365, -0.0111092, -0.444716, 0.635032, -3.13185, -0.0555639, -0.107556, -0.0100931, -0.442938, 0.63483, -3.13123, -0.0560876, -0.106001, 0.000492356, 0.000827679, -0.00110694, 0.00340758, 0.000350967, -0.00438088
0.03005, 0.107665, -0.773792, -0.916386, -1.45695, -0.625215, 1.06987, -0.256718, -0.000831644, 0.000788642, -0.00569195, -0.0102264, -0.00461431, 0.00224606, 0.00348952, -0.206535, 15.6799, 21.4979, 17.9672, 1.11713, 4.13424, -0.140919, 0.00105824, -0.00173645, 0.000290304, 0.000693659, -0.000979933, -3.51699e-05, 0.000996513, -0.0022605, -0.00320496, -0.00273479, 0.0104314, -0.0007495, -0.0111087, -0.444715, 0.63503, -3.13185, -0.0555641, -0.10756, -0.0100957, -0.44294, 0.634824, -3.13122, -0.0560725, -0.105984, 0.000551439, 0.000925004, -0.00123836, -0.000142047, -0.00134146, -0.00451813
0.03105, 0.107665, -0.773793, -0.916386, -1.45696, -0.625212, 1.06988, -0.256725, -0.00682188, -0.000800011, -0.00513425, -0.00576468, -0.00321786, 0.00265749, 0.000524399, -0.206535, 15.7513, 21.3868, 17.8561, 1.11072, 4.09854, -0.0878186, 0.00106029, -0.00173599, 0.000291673, 0.000695424, -0.000984978, -4.84998e-05, 0.00460912, -0.00232437, -0.0013834, 0.000433185, 0.00465094, -0.0044096, -0.0111081, -0.444714, 0.635029, -3.13185, -0.0555643, -0.107565, -0.0100929, -0.442939, 0.634822, -3.13122, -0.0560936, -0.105981, 0.000613805, 0.0010274, -0.00137684, -0.00380392, -0.00144566, -0.00308805
0.03205, 0.107665, -0.773794, -0.916395, -1.45697, -0.625212, 1.06988, -0.256718, -0.00507529, -0.00120286, -0.00514119, -0.00416704, -0.00266686, 0.00192119, 0.00193122, -0.206535, 15.791, 21.4225, 17.8204, 1.11713, 4.09122, -0.127186, 0.00105876, -0.00173379, 0.000296491, 0.000704836, -0.000995143, -4.01857e-05, 0.00432439, -0.00238649, -0.000879775, 0.000593523, 0.00321863, -0.00406304, -0.0111074, -0.444713, 0.635028, -3.13184, -0.0555646, -0.10757, -0.0100934, -0.442941, 0.634815, -3.1312, -0.0560813, -0.10597, 0.000679445, 0.00113481, -0.00152234, -0.00348665, -0.00139465, -0.00271196
0.03305, 0.10766, -0.773791, -0.916389, -1.45698, -0.625216, 1.06988, -0.256723, -0.00470708, 0.000319985, -0.00383035, -0.00588732, -0.00243191, 0.000646957, -0.000552638, -0.166862, 15.7513, 21.2757, 17.7808, 1.12903, 4.10586, -0.0750012, 0.00105987, -0.00173375, 0.00029533, 0.000698577, -0.00101006, -4.67397e-05, 0.00307156, -0.00185181, -0.000941033, -0.000326893, 0.00631137, 0.00137802, -0.0111067, -0.444712, 0.635026, -3.13184, -0.0555649, -0.107577, -0.0100917, -0.442939, 0.634815, -3.13121, -0.0560917, -0.105953, 0.000748347, 0.00124718, -0.0016748, -0.00218354, -0.000703349, -0.00283615
0.03405, 0.107659, -0.773789, -0.916395, -1.45699, -0.625216, 1.06987, -0.256723, -0.0034347, 0.000358728, -0.00331485, -0.00576891, -0.00134036, -0.000179706, -0.000536285, -0.166862, 15.7513, 21.2757, 17.8204, 1.11713, 4.12051, -0.0685925, 0.00106003, -0.00173297, 0.000299339, 0.000708955, -0.00102705, -4.86986e-05, 0.00229635, -0.0016299, -0.000703085, -0.000880663, 0.00589663, 0.00411194, -0.0111059, -0.444711, 0.635024, -3.13184, -0.0555653, -0.107583, -0.0100904, -0.442939, 0.634809, -3.13119, -0.0560955, -0.105932, 0.000820503, 0.00136446, -0.00183418, -0.00136269, -0.000339075, -0.00270351
0.03505, 0.107654, -0.77379, -0.916396, -1.457, -0.625217, 1.06987, -0.256719, -0.00427552, 0.000348206, -0.00185284, -0.00677663, -0.000301422, -0.00040852, 0.00115266, -0.0914839, 15.7513, 21.236, 17.7808, 1.0979, 4.12692, -0.10796, 0.00105703, -0.001732, 0.000299851, 0.000709855, -0.00103682, -4.05176e-05, 0.00188026, -0.00122023, -0.000417769, -0.00075658, 0.00585071, 0.00436572, -0.0111051, -0.444709, 0.635022, -3.13183, -0.0555656, -0.10759, -0.0100925, -0.442939, 0.634807, -3.13119, -0.0560833, -0.105924, 0.000895902, 0.00148661, -0.00200043, -0.000906595, 0.00020464, -0.00255401
0.03605, 0.107654, -0.77379, -0.916399, -1.45701, -0.625213, 1.06987, -0.256722, -0.00301721, 0.000313927, -0.00166345, -0.00936243, 0.000387278, -0.000582132, -0.00112524, -0.0914839, 15.7513, 21.236, 17.8204, 1.07959, 4.13424, -0.0557752, 0.00105771, -0.00173111, 0.000301918, 0.000716029, -0.00104588, -4.74022e-05, 0.000692414, -0.00106852, -0.0010281, -0.0022674, 0.00711935, 0.0103802, -0.0111041, -0.444708, 0.63502, -3.13183, -0.055566, -0.107598, -0.0100907, -0.442938, 0.634802, -3.13118, -0.0560947, -0.105917, 0.000974534, 0.00161356, -0.00217351, 0.00039272, 0.000530265, -0.00325337
0.03705, 0.107651, -0.773788, -0.9164, -1.45701, -0.625215, 1.06987, -0.256714, -0.00213662, 0.00110585, -0.000594911, -0.00615969, -0.00407285, -0.000145709, 0.0014493, -0.0914839, 15.7156, 21.2003, 17.7808, 1.06769, 4.12692, -0.114369, 0.00105652, -0.00172928, 0.000300174, 0.000711231, -0.00105565, -3.72154e-05, 0.0012851, -0.00178339, 0.000480075, 0.00293157, 0.00899511, 0.00641885, -0.0111031, -0.444706, 0.635018, -3.13182, -0.0555664, -0.107607, -0.0100909, -0.442938, 0.634802, -3.13118, -0.0560791, -0.105911, 0.00105639, 0.00174526, -0.00235336, -0.000194106, -8.631e-05, -0.00197385
0.03805, 0.107651, -0.773793, -0.916401, -1.45702, -0.625217, 1.06987, -0.256721, -0.00151827, -0.00098, -0.000637481, -0.00733949, -0.00271705, 0.000118553, -0.00145322, -0.0914839, 15.791, 21.2003, 17.8918, 1.05578, 4.12051, -0.0484509, 0.00105518, -0.00172749, 0.000301616, 0.000711686, -0.00106571, -4.70621e-05, 0.0011989, -0.00180522, 0.000229127, 0.00206157, 0.00658612, 0.0118975, -0.011102, -0.444704, 0.635016, -3.13182, -0.0555669, -0.107616, -0.010091, -0.442938, 0.634798, -3.13117, -0.056095, -0.105904, 0.00114146, 0.00188168, -0.00253994, -5.12897e-06, 3.34898e-05, -0.002405
0.03905, 0.107648, -0.773788, -0.916406, -1.45703, -0.625216, 1.06987, -0.256716, -0.0019178, 0.00114441, -0.000605643, -0.00629694, -0.00143126, -0.000445841, 0.000777009, -0.0557783, 15.7156, 21.2003, 17.9315, 1.03656, 4.13424, -0.0951428, 0.00105507, -0.0017252, 0.000302304, 0.000711934, -0.0010817, -3.99112e-05, 0.000822815, -0.00169369, 0.000796511, 0.00218596, 0.00739364, 0.0101292, -0.0111008, -0.444702, 0.635013, -3.13181, -0.0555674, -0.107626, -0.0100898, -0.442938, 0.634795, -3.13117, -0.0560845, -0.105889, 0.00122973, 0.00202275, -0.00273321, 0.000415258, 0.000294331, -0.0020057
0.04005, 0.107646, -0.773796, -0.91641, -1.45703, -0.625215, 1.06987, -0.256717, -0.00133133, -0.000974419, -0.000539254, -0.00455491, -0.000524981, -0.00112322, 0.00124245, -0.0557783, 15.791, 21.2003, 17.9315, 1.01825, 4.15622, -0.114369, 0.00105005, -0.0017229, 0.000301318, 0.0007115, -0.00108223, -3.73967e-05, 0.00152592, -0.00176545, 0.00139876, 0.00243292, 0.00386438, 0.0106275, -0.0110996, -0.4447, 0.63501, -3.1318, -0.055568, -0.107637, -0.0100935, -0.442939, 0.634792, -3.13116, -0.0560811, -0.105899, 0.00132119, 0.00216842, -0.00293311, -0.000232976, 0.000338334, -0.0016536
0.04105, 0.107647, -0.773794, -0.916407, -1.45705, -0.625218, 1.06987, -0.256717, -0.000927149, -0.000630204, 0.00213733, -0.00673799, -0.000333269, -0.00126658, 0.000125502, -0.0557783, 15.791, 21.0892, 18.0783, 1.01276, 4.16995, -0.0951428, 0.0010522, -0.00172174, 0.000300968, 0.000709378, -0.00110088, -4.45436e-05, -7.66042e-06, -0.00121128, 0.00169557, 0.00315497, 0.00550282, 0.0162075, -0.0110982, -0.444698, 0.635007, -3.1318, -0.0555686, -0.107648, -0.01009, -0.442938, 0.63479, -3.13116, -0.0560929, -0.105882, 0.00141584, 0.00231864, -0.0031396, 0.00135055, 0.00109373, -0.0014551
0.04205, 0.107648, -0.773799, -0.916416, -1.45705, -0.625222, 1.06987, -0.256716, -0.000647798, -0.00207601, -0.00340075, -0.00738403, -0.000362229, -0.00139378, 9.06256e-05, -0.0557783, 15.8624, 21.1606, 18.1934, 1.01276, 4.1846, -0.0951428, 0.00104753, -0.00171786, 0.000303013, 0.000712543, -0.00111431, -3.9368e-05, 0.00206295, -0.00241315, 7.17025e-05, -0.000571247, 0.00488915, 0.0134596, -0.0110967, -0.444695, 0.635004, -3.13179, -0.0555692, -0.107661, -0.0100929, -0.442939, 0.634784, -3.13115, -0.0560857, -0.105873, 0.00151366, 0.00247337, -0.00335263, -0.000461912, -1.13916e-05, -0.00343805
0.04305, 0.107648, -0.773801, -0.916415, -1.45705, -0.625223, 1.06987, -0.256717, -0.000454139, -0.00230111, -0.000910476, -0.00414526, -0.000109164, -0.000934325, 0.00331906, -0.0557783, 15.9021, 21.0892, 18.1537, 1.00635, 4.1846, -0.0557752, 0.00104485, -0.00171595, 0.000298548, 0.000705126, -0.00112064, -3.96251e-05, 0.00191028, -0.00235091, 0.00202126, 0.00355428, 0.00209015, 0.0116409, -0.0110952, -0.444693, 0.635, -3.13178, -0.0555699, -0.107674, -0.0100942, -0.442939, 0.634785, -3.13115, -0.0560865, -0.105876, 0.00161465, 0.00263255, -0.00357216, -0.000344521, 0.000198432, -0.00170182
0.04405, 0.107646, -0.773806, -0.91642, -1.45706, -0.625221, 1.06987, -0.256713, -0.000319464, -0.0023611, -0.000842291, -0.00463968, 0.000526615, -0.00116927, 0.00454202, -0.0557783, 15.9378, 21.0892, 18.2291, 0.988036, 4.19925, -0.10796, 0.00104076, -0.00171264, 0.000297982, 0.000704106, -0.00112756, -3.28233e-05, 0.00173902, -0.00235461, 0.00209688, 0.00328688, 0.00205984, 0.012049, -0.0110935, -0.44469, 0.634997, -3.13177, -0.0555706, -0.107688, -0.0100966, -0.442939, 0.634782, -3.13114, -0.0560767, -0.105879, 0.00171879, 0.00279613, -0.00379814, -7.47075e-05, 0.000363667, -0.00184064
0.04505, 0.10765, -0.773809, -0.916431, -1.45706, -0.625221, 1.06987, -0.256718, 0.000609713, -0.00240315, -0.00784985, -0.00577628, 0.00144488, -0.000511141, 0.00186736, -0.0914839, 15.9735, 21.1249, 18.3401, 0.956908, 4.19192, -0.0685925, 0.00103784, -0.00170768, 0.000298831, 0.000705005, -0.0011375, -3.62762e-05, 0.00320612, -0.0038436, 2.62204e-05, -0.00131072, 0.00212942, 0.0122497, -0.0110917, -0.444687, 0.634993, -3.13176, -0.0555714, -0.107702, -0.0100975, -0.442942, 0.634777, -3.13113, -0.0560829, -0.105879, 0.00182607, 0.00296406, -0.00403052, -0.00123507, -0.000990028, -0.00424905
0.04605, 0.107648, -0.773804, -0.916433, -1.45706, -0.625225, 1.06987, -0.256709, -0.000438139, 7.29442e-05, -0.00824021, -0.00307917, 0.00112239, -0.000885464, 0.00363809, -0.0557783, 15.9021, 21.0892, 18.3044, 0.951415, 4.20657, -0.127186, 0.00103485, -0.00170419, 0.000294784, 0.00069605, -0.00115555, -2.02784e-05, 0.00380306, -0.00414091, 0.0010749, 0.000501745, 0.00336339, 0.00852858, -0.0110899, -0.444684, 0.634989, -3.13175, -0.0555722, -0.107718, -0.0100987, -0.442942, 0.634776, -3.13113, -0.0560587, -0.105866, 0.00193648, 0.00313629, -0.00426926, -0.00178109, -0.00114504, -0.00348462
0.04705, 0.10765, -0.773804, -0.916443, -1.45706, -0.625228, 1.06986, -0.256713, 0.000536078, 5.20839e-05, -0.00942982, -0.00293564, 0.00118974, -0.0016431, 0.000897264, -0.0914839, 15.9021, 21.0892, 18.3401, 0.938597, 4.23495, -0.0814099, 0.0010306, -0.00169941, 0.000294417, 0.000696264, -0.00117284, -1.8899e-05, 0.00396164, -0.00443135, 0.000937543, -0.000440884, 0.00371922, 0.0122541, -0.0110879, -0.444681, 0.634984, -3.13174, -0.0555731, -0.107735, -0.0101008, -0.442944, 0.634772, -3.13112, -0.0560576, -0.105856, 0.00205002, 0.00331277, -0.00451432, -0.00180587, -0.00126321, -0.00387953
0.04805, 0.10765, -0.773812, -0.91645, -1.45706, -0.62523, 1.06987, -0.256713, 0.000352099, -0.00246834, -0.00936177, -0.000229592, 0.00168376, -0.000825351, 0.000486284, -0.0914839, 16.0092, 21.0496, 18.2648, 0.913878, 4.22763, -0.0750012, 0.00102236, -0.00169375, 0.000289617, 0.000685678, -0.00117359, -8.8959e-06, 0.00527102, -0.0049043, 0.00202759, 0.00194502, -0.00126711, 0.0123707, -0.0110858, -0.444678, 0.63498, -3.13173, -0.055574, -0.107752, -0.0101071, -0.442946, 0.634772, -3.13112, -0.0560426, -0.105873, 0.00216668, 0.00349346, -0.00476563, -0.00305255, -0.00161075, -0.00313661
0.04905, 0.107648, -0.773807, -0.916462, -1.45706, -0.625233, 1.06986, -0.256711, 0.000230769, 2.68187e-05, -0.0102332, -0.00110788, 0.00154462, -0.00136495, 0.00116427, -0.0914839, 15.9378, 21.0496, 18.3044, 0.901976, 4.2496, -0.0951428, 0.00101711, -0.00168847, 0.000289194, 0.000685216, -0.00119794, 4.43642e-06, 0.00485612, -0.00505688, 0.00182656, 0.00120015, 0.00229453, 0.0122966, -0.0110835, -0.444674, 0.634975, -3.13172, -0.055575, -0.107771, -0.0101099, -0.442948, 0.634767, -3.13111, -0.056023, -0.105853, 0.00228643, 0.0036783, -0.00502317, -0.00249991, -0.00156205, -0.00356721
0.05005, 0.10766, -0.773804, -0.916469, -1.45706, -0.625235, 1.06987, -0.256708, 0.00367735, 0.000854554, -0.0091187, -0.000758689, 0.00193126, -0.000639386, 0.000575491, -0.242241, 15.9021, 20.9742, 18.3044, 0.877257, 4.24228, -0.0878186, 0.00101843, -0.00168209, 0.00028534, 0.000674061, -0.00121215, 2.65698e-06, 0.00275569, -0.00520412, 0.00251273, 0.00293225, 0.00229237, 0.0182105, -0.0110812, -0.44467, 0.634969, -3.13171, -0.0555761, -0.10779, -0.0101063, -0.442951, 0.634766, -3.13111, -0.0560265, -0.105851, 0.00240928, 0.00386724, -0.00528689, -0.000324752, -0.00145239, -0.0030028
0.05105, 0.107655, -0.773807, -0.916483, -1.45706, -0.625239, 1.06987, -0.256704, -0.00561824, -0.000264422, -0.0111315, 0.000407151, -0.00299031, -0.00069804, 0.00141994, -0.166862, 15.9378, 21.0138, 18.2648, 0.865355, 4.2496, -0.114369, 0.00100768, -0.00167508, 0.000282457, 0.000667256, -0.00122408, 2.5512e-05, 0.00917098, -0.00618934, 0.00281205, 0.00551381, 0.00429343, 0.00465898, -0.0110787, -0.444666, 0.634964, -3.1317, -0.0555772, -0.107811, -0.0101145, -0.442954, 0.634762, -3.13111, -0.0559919, -0.105853, 0.00253522, 0.00406024, -0.00555673, -0.00658027, -0.0024723, -0.00342225
0.05205, 0.107658, -0.773802, -0.916494, -1.45706, -0.625244, 1.06987, -0.256716, -0.00334451, 0.00158778, -0.0136969, 0.00472038, -0.00239377, -0.000465746, -0.0019298, -0.206535, 15.8624, 20.9742, 18.3401, 0.865355, 4.2496, -0.0356336, 0.00100475, -0.0016686, 0.000281242, 0.000662614, -0.00125086, 1.98344e-05, 0.00929915, -0.00713726, 0.00370372, 0.00673885, 0.00298362, 0.00747318, -0.0110761, -0.444662, 0.634958, -3.13168, -0.0555784, -0.107832, -0.0101146, -0.442957, 0.634758, -3.1311, -0.0560019, -0.105833, 0.00266423, 0.00425725, -0.00583265, -0.00660643, -0.00323497, -0.00282369
0.05305, 0.107658, -0.773799, -0.916497, -1.45706, -0.625248, 1.06987, -0.256706, -0.00355297, 0.00189435, -0.00695154, 0.00272905, -0.00636677, -0.000819413, 0.001422, -0.166862, 15.8267, 20.8274, 18.3798, 0.858946, 4.26333, -0.10796, 0.00100145, -0.00166383, 0.000276776, 0.000652391, -0.001274, 3.41022e-05, 0.00765055, -0.00627879, 0.00529357, 0.0120529, 0.00756155, 0.00926935, -0.0110734, -0.444658, 0.634952, -3.13167, -0.0555796, -0.107855, -0.0101153, -0.442957, 0.634756, -3.1311, -0.0559807, -0.10582, 0.0027963, 0.00445821, -0.00611461, -0.00497051, -0.00213213, -0.0014008
0.05405, 0.107654, -0.773797, -0.916515, -1.45705, -0.625251, 1.06987, -0.256712, -0.00350032, 0.00126336, -0.00963921, 0.00489323, -0.0090242, -0.000275225, -0.00147107, -0.131157, 15.8267, 20.8631, 18.2648, 0.846129, 4.25601, -0.0420422, 0.000989437, -0.00165497, 0.00027197, 0.000642033, -0.00128799, 5.22592e-05, 0.00971736, -0.00755019, 0.00551172, 0.0137044, 0.00747851, 0.00891123, -0.0110705, -0.444653, 0.634946, -3.13165, -0.0555809, -0.107878, -0.0101245, -0.442962, 0.634754, -3.1311, -0.0559535, -0.105822, 0.00293143, 0.00466308, -0.00640257, -0.00686563, -0.00327253, -0.00162187
0.05505, 0.107661, -0.773798, -0.916533, -1.45705, -0.625255, 1.06987, -0.256708, 4.25675e-05, 0.000842587, -0.0114004, 0.00354911, -0.0066622, -0.000454914, 0.000494095, -0.242241, 15.8267, 20.9028, 18.2648, 0.840636, 4.26333, -0.0814099, 0.000982553, -0.00164618, 0.000270599, 0.00063894, -0.00130696, 6.65996e-05, 0.00825072, -0.00780771, 0.00476668, 0.0109395, 0.0064388, 0.0121133, -0.0110675, -0.444648, 0.63494, -3.13164, -0.0555822, -0.107903, -0.0101281, -0.442966, 0.634748, -3.13109, -0.0559326, -0.105817, 0.00306961, 0.00487181, -0.00669647, -0.00520493, -0.00326307, -0.00255984
0.05605, 0.107658, -0.773792, -0.916541, -1.45705, -0.625263, 1.06987, -0.256709, -0.000973596, 0.00232522, -0.0131284, 0.00258129, -0.00960632, -3.21306e-05, -0.000132761, -0.206535, 15.7513, 20.8274, 18.2648, 0.834227, 4.25601, -0.0685925, 0.000976537, -0.00163894, 0.00026548, 0.00062499, -0.00133629, 7.86449e-05, 0.00926228, -0.0086421, 0.00441394, 0.0117343, 0.0107376, 0.0106656, -0.0110644, -0.444643, 0.634933, -3.13162, -0.0555837, -0.107929, -0.0101311, -0.442969, 0.634746, -3.13109, -0.055915, -0.105798, 0.00321082, 0.00508435, -0.00699628, -0.00601827, -0.00391692, -0.00328688
0.05705, 0.107658, -0.773788, -0.916559, -1.45705, -0.625266, 1.06987, -0.256713, -0.000774132, 0.00238556, -0.0163388, 0.00271749, -0.00660099, -0.000292779, -0.00129979, -0.206535, 15.7156, 20.8274, 18.2291, 0.815917, 4.26333, -0.0356336, 0.000967518, -0.00163017, 0.000262229, 0.000618253, -0.00135958, 9.21458e-05, 0.00978603, -0.00909406, 0.00383261, 0.00878877, 0.008814, 0.0121543, -0.0110611, -0.444638, 0.634926, -3.13161, -0.0555852, -0.107956, -0.0101367, -0.442973, 0.634741, -3.13108, -0.0558954, -0.105789, 0.00335505, 0.00530066, -0.00730195, -0.00634019, -0.00416563, -0.0042118
0.05805, 0.107663, -0.773783, -0.916578, -1.45704, -0.625275, 1.06987, -0.256708, 0.000225329, 0.00326096, -0.0163579, 0.00369596, -0.00505686, 0.000313371, 0.000598601, -0.242241, 15.6442, 20.8631, 18.1537, 0.815917, 4.2496, -0.0750012, 0.000958907, -0.00161955, 0.000257451, 0.000605236, -0.0013849, 0.000114955, 0.00905412, -0.0093112, 0.00450342, 0.00979024, 0.00768806, 0.0126942, -0.0110577, -0.444633, 0.634918, -3.13159, -0.0555867, -0.107984, -0.0101418, -0.442978, 0.634738, -3.13107, -0.0558613, -0.105778, 0.0035023, 0.00552068, -0.00761342, -0.00550161, -0.00414287, -0.00380531
0.05905, 0.107666, -0.773786, -0.916586, -1.45705, -0.625278, 1.06987, -0.256711, 7.9869e-05, 0.00133886, -0.0127749, 0.000791529, -0.0134873, -0.000299764, -0.000578978, -0.242241, 15.6799, 20.752, 18.2291, 0.822325, 4.26333, -0.0484509, 0.000953612, -0.00161252, 0.0002535, 0.000596631, -0.00140863, 0.000115591, 0.00980009, -0.00954391, 0.0048469, 0.0141994, 0.014303, 0.0151457, -0.0110541, -0.444627, 0.63491, -3.13157, -0.0555884, -0.108013, -0.0101435, -0.44298, 0.634734, -3.13107, -0.0558618, -0.105771, 0.00365255, 0.00574437, -0.00793067, -0.00611044, -0.00418111, -0.00383321
0.06005, 0.107665, -0.77378, -0.916604, -1.45704, -0.625282, 1.06987, -0.256707, 4.83123e-07, 0.00265589, -0.0160328, 0.001431, -0.00990551, -0.000199881, 0.000838692, -0.242241, 15.6046, 20.752, 18.1934, 0.815917, 4.26333, -0.0814099, 0.000944257, -0.00160291, 0.000249256, 0.000587535, -0.00143571, 0.000138113, 0.0100413, -0.0100115, 0.00450973, 0.011706, 0.0126947, 0.0138185, -0.0110504, -0.444621, 0.634902, -3.13155, -0.0555901, -0.108044, -0.010149, -0.442984, 0.634729, -3.13106, -0.0558283, -0.105759, 0.0038058, 0.00597168, -0.00825364, -0.00615788, -0.00442668, -0.00451259
0.06105, 0.107666, -0.773781, -0.916618, -1.45704, -0.625286, 1.06987, -0.256708, -3.92501e-05, 0.000842638, -0.0167257, 0.00594377, -0.00746717, 0.00454343, 0.00032475, -0.242241, 15.6442, 20.6766, 18.118, 0.815917, 4.26333, -0.0750012, 0.000934945, -0.00159348, 0.000242877, 0.000573437, -0.00145661, 0.000151759, 0.0109293, -0.0112713, 0.00638102, 0.0173315, 0.0038508, 0.0139095, -0.0110465, -0.444615, 0.634894, -3.13153, -0.0555919, -0.108076, -0.0101545, -0.442988, 0.634726, -3.13106, -0.0558086, -0.105759, 0.00396204, 0.00620257, -0.00858229, -0.00697069, -0.00550279, -0.00304432
0.06205, 0.107669, -0.773781, -0.916642, -1.45704, -0.62529, 1.06987, -0.256708, -5.58459e-05, -0.000273413, -0.0177119, 0.00426544, -0.00995929, 0.00419855, 0.000218736, -0.242241, 15.6799, 20.752, 18.118, 0.809508, 4.24228, -0.0750012, 0.000924212, -0.00158169, 0.000240646, 0.000566815, -0.00148176, 0.000170423, 0.0119137, -0.0118306, 0.00586549, 0.0171575, 0.0060532, 0.0142226, -0.0110424, -0.444609, 0.634885, -3.13151, -0.0555937, -0.108109, -0.0101609, -0.442994, 0.634719, -3.13104, -0.0557813, -0.105753, 0.00412125, 0.00643698, -0.00891658, -0.00773763, -0.00585749, -0.003965
0.0630554, 0.107675, -0.77378, -0.916659, -1.45704, -0.625296, 1.06987, -0.256704, 0.00484724, -0.000182241, -0.015531, 0.00307082, -0.00774351, 0.00309131, 0.0013682, -0.317619, 15.6799, 20.7163, 18.118, 0.815917, 4.24228, -0.10796, 0.000917347, -0.00157077, 0.000235888, 0.000553326, -0.00150871, 0.000184121, 0.00860308, -0.0112341, 0.0062303, 0.0163214, 0.00585477, 0.0226294, -0.0110382, -0.444602, 0.634876, -3.13149, -0.0555957, -0.108143, -0.0101635, -0.442998, 0.634714, -3.13104, -0.0557617, -0.105746, 0.00428343, 0.00667487, -0.00925645, -0.00432126, -0.00491038, -0.00370879
0.0640554, 0.107665, -0.773777, -0.916673, -1.45704, -0.625297, 1.06987, -0.256712, -4.97221e-05, 0.00299642, -0.0139889, 0.00221761, -0.00581231, 0.00282262, -0.00152801, -0.166862, 15.6799, 20.6766, 18.118, 0.815917, 4.22763, -0.0420422, 0.000904562, -0.00156095, 0.000228929, 0.000537282, -0.00153371, 0.000200716, 0.00892369, -0.010648, 0.00700814, 0.0170136, 0.00826966, 0.0245229, -0.0110339, -0.444596, 0.634867, -3.13147, -0.0555977, -0.108178, -0.010172, -0.443002, 0.634711, -3.13103, -0.0557375, -0.105743, 0.00444857, 0.0069162, -0.00960188, -0.00455036, -0.00410173, -0.00329703
0.0650554, 0.107673, -0.77377, -0.916691, -1.45704, -0.6253, 1.06987, -0.256701, 0.00191404, 0.00624698, -0.0129406, 0.0016062, -0.00412499, 0.00204615, 0.00142367, -0.242241, 15.6442, 20.6409, 18.118, 0.809508, 4.22763, -0.10796, 0.000900018, -0.00155028, 0.000224347, 0.000527181, -0.00156958, 0.000219224, 0.00650806, -0.0102882, 0.00747463, 0.0167428, 0.0111128, 0.0268166, -0.0110293, -0.444589, 0.634857, -3.13145, -0.0555998, -0.108215, -0.010172, -0.443006, 0.634705, -3.13102, -0.0557108, -0.105725, 0.00461665, 0.00716091, -0.0099528, -0.00201903, -0.00341678, -0.00301365
0.0660554, 0.107671, -0.773766, -0.916714, -1.45704, -0.625306, 1.06988, -0.256711, 0.000578767, 0.00789127, -0.0147874, 0.00116665, -0.00359032, 0.00148741, -0.00172894, -0.206535, 15.6442, 20.7163, 18.118, 0.822325, 4.22763, -0.0356336, 0.000888116, -0.00153771, 0.000220049, 0.00051472, -0.00160273, 0.000231774, 0.00720925, -0.0106241, 0.00723731, 0.0155097, 0.0131152, 0.0291016, -0.0110246, -0.444581, 0.634847, -3.13142, -0.055602, -0.108254, -0.010179, -0.443011, 0.634699, -3.13101, -0.0556933, -0.105712, 0.00478767, 0.00740896, -0.0103092, -0.00251889, -0.00352708, -0.00365789
0.0670554, 0.107671, -0.773763, -0.91673, -1.45704, -0.62531, 1.06988, -0.256702, 0.000489315, 0.00587656, -0.0141514, 0.000849653, -0.00243039, 0.00135535, 0.00128931, -0.206535, 15.6442, 20.7163, 18.118, 0.815917, 4.2203, -0.101552, 0.000879038, -0.00152651, 0.000213673, 0.000499385, -0.00163524, 0.000256771, 0.0075352, -0.0106089, 0.00761399, 0.0157075, 0.0105991, 0.0286144, -0.0110198, -0.444574, 0.634836, -3.1314, -0.0556043, -0.108293, -0.0101832, -0.443015, 0.634694, -3.13101, -0.0556564, -0.105701, 0.00496161, 0.0076603, -0.010671, -0.00269656, -0.00327569, -0.00366682
0.0680554, 0.107667, -0.773758, -0.916751, -1.45703, -0.625314, 1.06988, -0.256708, -0.00228745, 0.00354427, -0.0145565, 0.00238359, -0.00250409, 0.00124419, -0.000598125, -0.0914839, 15.6799, 20.752, 18.0426, 0.834227, 4.21298, -0.0621838, 0.000865985, -0.00151419, 0.000206403, 0.000483526, -0.00166693, 0.000275151, 0.0101046, -0.0109955, 0.00833763, 0.0169979, 0.00751445, 0.0280392, -0.0110147, -0.444566, 0.634825, -3.13137, -0.0556067, -0.108334, -0.0101912, -0.44302, 0.634689, -3.131, -0.0556298, -0.105693, 0.00513848, 0.00791489, -0.0110382, -0.00511754, -0.00350457, -0.00349301
0.0690554, 0.107674, -0.77375, -0.916768, -1.45704, -0.625315, 1.06988, -0.256703, 0.00344492, 0.00354441, -0.0131374, -0.000133744, -0.00681668, 0.000881481, 0.000550984, -0.166862, 15.6442, 20.7163, 18.118, 0.840636, 4.21298, -0.0878186, 0.000862347, -0.00150281, 0.000200764, 0.000469683, -0.00170557, 0.000285217, 0.00764168, -0.011389, 0.00815437, 0.0184625, 0.0127126, 0.0343671, -0.0110095, -0.444558, 0.634814, -3.13135, -0.0556092, -0.108376, -0.0101896, -0.443024, 0.634684, -3.13099, -0.0556164, -0.105676, 0.00531825, 0.00817268, -0.0114107, -0.00245579, -0.00355191, -0.00388094
0.0700554, 0.107671, -0.773743, -0.916787, -1.45704, -0.62532, 1.06988, -0.256704, 0.000839397, 0.00493069, -0.0129669, 0.000869184, -0.00573461, 0.000626668, -0.00034453, -0.0914839, 15.6799, 20.7163, 18.0783, 0.858946, 4.21298, -0.0685925, 0.000850585, -0.0014909, 0.000193196, 0.000454373, -0.00174621, 0.00030632, 0.00850317, -0.0114013, 0.00900875, 0.0194708, 0.0128599, 0.0342696, -0.0110041, -0.44455, 0.634803, -3.13132, -0.0556118, -0.10842, -0.010196, -0.443028, 0.634679, -3.13098, -0.0555859, -0.105657, 0.00550092, 0.00843363, -0.0117885, -0.0031907, -0.00334152, -0.0034667
0.0710554, 0.107672, -0.773736, -0.916809, -1.45704, -0.625324, 1.06988, -0.256705, 0.00392028, 0.00601786, -0.0146486, 0.000602201, -0.0039697, 0.000175772, -0.00145022, -0.0914839, 15.7156, 20.7917, 18.0783, 0.852538, 4.2203, -0.0356336, 0.000840422, -0.00147772, 0.000186792, 0.000439742, -0.0017862, 0.000325206, 0.00716831, -0.0117372, 0.00875314, 0.0176996, 0.0132435, 0.0396444, -0.0109985, -0.444541, 0.634791, -3.13129, -0.0556144, -0.108465, -0.0102005, -0.443033, 0.634672, -3.13097, -0.055559, -0.10564, 0.00568647, 0.00869769, -0.0121715, -0.00164488, -0.00336408, -0.00401501
0.0720554, 0.10768, -0.773723, -0.916825, -1.45703, -0.62533, 1.06988, -0.256699, 0.00711193, 0.00855931, -0.0130817, 0.00125374, -0.0042908, -0.00013214, 0.00147472, -0.131157, 15.6799, 20.752, 18.0426, 0.889159, 4.22763, -0.101552, 0.000835482, -0.00146543, 0.000177509, 0.000419294, -0.0018324, 0.000340377, 0.00488341, -0.0117391, 0.00976924, 0.0197, 0.0158442, 0.0421185, -0.0109927, -0.444532, 0.634778, -3.13127, -0.0556172, -0.108512, -0.0101999, -0.443037, 0.634669, -3.13097, -0.0555378, -0.105616, 0.00587491, 0.00896481, -0.0125597, 0.000751221, -0.00302809, -0.00323173
0.0730554, 0.107678, -0.773717, -0.916851, -1.45704, -0.625331, 1.06988, -0.256708, 0.0066869, 0.00789559, -0.0155937, -0.00174983, -0.00331389, -0.000342902, -0.00169553, -0.0557783, 15.7513, 20.8631, 18.1537, 0.895568, 4.23495, -0.0292249, 0.000824135, -0.00145209, 0.000174082, 0.000413109, -0.00187836, 0.00035161, 0.0054622, -0.0121528, 0.00851749, 0.0165499, 0.0167586, 0.0464972, -0.0109867, -0.444523, 0.634765, -3.13124, -0.05562, -0.10856, -0.010205, -0.443041, 0.634659, -3.13095, -0.0555233, -0.105592, 0.00606621, 0.00923495, -0.0129531, 0.000466514, -0.00318048, -0.00491726
0.0740554, 0.107674, -0.773707, -0.91687, -1.45704, -0.625332, 1.06988, -0.256701, 0.00339459, 0.0113447, -0.0145608, 0.000606279, -0.00284597, -0.000216257, 0.00131113, 0.0196001, 15.791, 20.8631, 18.0783, 0.908385, 4.23495, -0.0951428, 0.000812629, -0.00143926, 0.000164514, 0.000393953, -0.00192074, 0.000381054, 0.00609259, -0.0121697, 0.0101817, 0.0197125, 0.0183212, 0.0415562, -0.0109806, -0.444514, 0.634752, -3.13121, -0.055623, -0.10861, -0.0102105, -0.443045, 0.634654, -3.13094, -0.0554801, -0.105576, 0.00626038, 0.00950806, -0.0133516, -8.24527e-05, -0.00296199, -0.00369999
0.0750554, 0.107676, -0.773694, -0.916892, -1.45704, -0.625336, 1.06988, -0.256705, 0.00278799, 0.00867741, -0.014918, -0.00135186, -0.00201881, -0.00040618, 0.00429735, 0.0196001, 15.791, 20.9028, 18.1537, 0.908385, 4.24228, -0.0621838, 0.000805352, -0.00142605, 0.000158286, 0.000381156, -0.00197498, 0.000391433, 0.00691664, -0.0122969, 0.009806, 0.0185166, 0.0165661, 0.0406733, -0.0109742, -0.444504, 0.634739, -3.13117, -0.055626, -0.108661, -0.0102113, -0.443049, 0.634646, -3.13092, -0.0554669, -0.105543, 0.00645739, 0.00978411, -0.0137552, -0.000676733, -0.00283892, -0.00453703
0.0760559, 0.107679, -0.773684, -0.916914, -1.45704, -0.62534, 1.06988, -0.2567, 0.00225235, 0.0122202, -0.0180805, -6.06215e-05, -0.00595421, -0.000263843, 0.00470999, 0.0196001, 15.8267, 20.9385, 18.118, 0.908385, 4.24228, -0.101552, 0.000795592, -0.00141178, 0.000149058, 0.000361747, -0.00202273, 0.000414029, 0.00829733, -0.0136416, 0.00988634, 0.0201706, 0.0224576, 0.0363536, -0.0109676, -0.444494, 0.634725, -3.13114, -0.0556292, -0.108713, -0.0102146, -0.443054, 0.634641, -3.13092, -0.0554346, -0.105522, 0.00665724, 0.010063, -0.0141638, -0.00181112, -0.00395348, -0.00497122
0.0770559, 0.107683, -0.773669, -0.916938, -1.45704, -0.62534, 1.06988, -0.256703, 0.00179684, 0.0133142, -0.0173186, 0.000891654, -0.00509242, -0.000170688, 0.0118443, 0.0196001, 15.791, 20.9742, 18.0783, 0.926695, 4.24228, -0.0750012, 0.000787228, -0.00139736, 0.000139712, 0.000344061, -0.00207329, 0.000429214, 0.00812221, -0.0137065, 0.0108852, 0.021839, 0.0223447, 0.0308804, -0.0109609, -0.444484, 0.63471, -3.13111, -0.0556325, -0.108767, -0.0102164, -0.443059, 0.634635, -3.1309, -0.055414, -0.105498, 0.00685993, 0.0103448, -0.0145774, -0.00150095, -0.00374006, -0.00437736
0.0780559, 0.107678, -0.773654, -0.916958, -1.45704, -0.62534, 1.06988, -0.256703, -0.000343892, 0.0130891, -0.0190848, 0.000597472, -0.002813, -0.000381153, 0.00889703, 0.0949785, 15.791, 20.9742, 18.0783, 0.901976, 4.2496, -0.0750012, 0.000777143, -0.00138398, 0.000129511, 0.000324904, -0.00212617, 0.00045017, 0.00940448, -0.0139544, 0.010767, 0.0203057, 0.0209106, 0.0332226, -0.0109539, -0.444473, 0.634696, -3.13108, -0.0556359, -0.108823, -0.0102197, -0.443062, 0.63463, -3.13089, -0.0553845, -0.105472, 0.00706543, 0.0106294, -0.0149959, -0.00255707, -0.00374755, -0.0050055
0.0790559, 0.107683, -0.773643, -0.916979, -1.45704, -0.625346, 1.06988, -0.256697, 0.00380804, 0.0121725, -0.0205243, 0.00123581, -0.00280369, -0.000759799, 0.00766532, 0.059273, 15.8267, 20.9742, 18.0426, 0.920287, 4.26333, -0.101552, 0.000767836, -0.00136906, 0.000119684, 0.000304411, -0.00218116, 0.000472583, 0.00867295, -0.0146075, 0.0107997, 0.0198948, 0.0200163, 0.0388289, -0.0109468, -0.444463, 0.63468, -3.13104, -0.0556394, -0.10888, -0.0102219, -0.443066, 0.634624, -3.13088, -0.0553528, -0.105444, 0.00727374, 0.0109167, -0.0154193, -0.00159867, -0.00408789, -0.00535076
0.0800559, 0.107682, -0.773633, -0.917001, -1.45704, -0.625347, 1.06988, -0.256704, 0.00522835, 0.0136736, -0.0184071, 0.000825581, -0.00205677, -0.000233068, 0.00299441, 0.0949785, 15.9021, 20.9742, 18.0426, 0.920287, 4.25601, -0.0292249, 0.000755837, -0.00135396, 0.000108927, 0.000282605, -0.00223061, 0.000487239, 0.00681137, -0.014465, 0.0117784, 0.0220183, 0.0210231, 0.0487645, -0.0109394, -0.444452, 0.634665, -3.131, -0.055643, -0.108939, -0.0102267, -0.443071, 0.634618, -3.13087, -0.0553332, -0.105427, 0.00748486, 0.0112067, -0.0158476, 0.000395062, -0.0035995, -0.00467294
0.0810559, 0.107689, -0.773612, -0.917026, -1.45704, -0.625348, 1.06988, -0.256701, 0.00579425, 0.0153927, -0.0208891, 0.000551668, -0.00151191, -0.000153731, 0.00458863, 0.0196001, 15.8267, 21.0138, 18.0426, 0.920287, 4.25601, -0.0878186, 0.000750962, -0.00133846, 9.94078e-05, 0.000264363, -0.00229416, 0.000503535, 0.00685906, -0.0151389, 0.0114928, 0.0210398, 0.0227429, 0.0479295, -0.0109318, -0.44444, 0.634649, -3.13097, -0.0556467, -0.109, -0.0102241, -0.443075, 0.634611, -3.13086, -0.0553114, -0.105389, 0.00769877, 0.0114994, -0.0162807, 0.000604973, -0.00397967, -0.0053998
0.0820559, 0.107687, -0.773606, -0.917054, -1.45704, -0.625349, 1.06988, -0.256704, 0.00250869, 0.0121063, -0.0204112, 0.00120396, -0.00135085, -0.000101252, 0.00144297, 0.0949785, 15.9378, 21.0892, 18.0069, 0.926695, 4.25601, -0.0356336, 0.000735235, -0.00132184, 8.93185e-05, 0.000245106, -0.00234183, 0.000526638, 0.0094485, -0.0153484, 0.0122684, 0.0225427, 0.0190115, 0.0496172, -0.010924, -0.444429, 0.634632, -3.13093, -0.0556505, -0.109062, -0.0102321, -0.443081, 0.634604, -3.13084, -0.055279, -0.105378, 0.00791545, 0.0117947, -0.0167186, -0.00180659, -0.00399271, -0.00524683
0.0830559, 0.10769, -0.773591, -0.917083, -1.45703, -0.625354, 1.06988, -0.256703, 0.00197927, 0.0123691, -0.0253387, 0.00173138, -0.00165789, -6.65742e-05, 0.00119948, 0.0949785, 15.9378, 21.1249, 17.9672, 0.945006, 4.25601, -0.0356336, 0.000723025, -0.00130415, 7.88532e-05, 0.000223344, -0.00240281, 0.000552312, 0.0115527, -0.0166433, 0.0115202, 0.0207555, 0.019532, 0.0468841, -0.010916, -0.444417, 0.634615, -3.13089, -0.0556545, -0.109126, -0.0102363, -0.443087, 0.634596, -3.13083, -0.0552427, -0.105347, 0.00813491, 0.0120926, -0.0171612, -0.00358695, -0.00505624, -0.00659269
0.0840559, 0.107694, -0.773575, -0.917107, -1.45704, -0.625356, 1.06988, -0.2567, 0.00554436, 0.0126194, -0.0242294, 0.000226773, -0.00160544, -0.000314955, 0.00196112, 0.059273, 15.9378, 21.0892, 18.0069, 0.956908, 4.26333, -0.0621838, 0.00071443, -0.0012881, 6.80143e-05, 0.000201922, -0.00246693, 0.000571495, 0.00945089, -0.0166599, 0.0117193, 0.0210579, 0.0209934, 0.0530619, -0.0109077, -0.444404, 0.634598, -3.13085, -0.0556585, -0.109191, -0.0102368, -0.443091, 0.634589, -3.13081, -0.0552167, -0.105314, 0.00835714, 0.012393, -0.0176085, -0.00128301, -0.00470079, -0.00669589
0.0850559, 0.107698, -0.773564, -0.917134, -1.45704, -0.625357, 1.06988, -0.2567, 0.00413212, 0.0118373, -0.0243605, 0.000151587, -0.00111482, 0.000299178, 0.00239045, 0.059273, 15.9735, 21.0892, 18.0069, 0.956908, 4.2496, -0.0878186, 0.000703378, -0.00127041, 5.70969e-05, 0.000180133, -0.00252335, 0.000590063, 0.0103805, -0.0170073, 0.0121981, 0.022183, 0.0197498, 0.0531597, -0.0108992, -0.444392, 0.63458, -3.13081, -0.0556627, -0.109258, -0.0102395, -0.443097, 0.634581, -3.1308, -0.0551916, -0.105294, 0.00858211, 0.0126959, -0.0180604, -0.00200606, -0.00478287, -0.00673871
0.0860559, 0.107702, -0.773549, -0.917167, -1.45703, -0.625361, 1.06988, -0.256703, 0.00400967, 0.0122053, -0.0253411, 0.00102938, -0.00125133, -3.75161e-05, 0.000235764, 0.0196001, 15.9735, 21.1249, 17.9672, 0.969725, 4.25601, -0.0484509, 0.000689849, -0.00125124, 4.63825e-05, 0.000158901, -0.00258779, 0.000614567, 0.0110884, -0.0174876, 0.0126511, 0.022749, 0.020037, 0.0557055, -0.0108905, -0.444379, 0.634562, -3.13077, -0.055667, -0.109327, -0.0102444, -0.443104, 0.634573, -3.13078, -0.0551576, -0.105263, 0.00880983, 0.0130012, -0.018517, -0.00249881, -0.00498731, -0.00679754
0.0870559, 0.107708, -0.773533, -0.917192, -1.45703, -0.625361, 1.06988, -0.256703, 0.00690568, 0.0132522, -0.0272978, 0.0015217, -0.00508153, -0.000295985, -5.03685e-06, -0.0161054, 15.9378, 21.0892, 17.9315, 0.956908, 4.26333, -0.0420422, 0.000680469, -0.00123401, 3.29103e-05, 0.000133799, -0.00265025, 0.000631616, 0.0112098, -0.0186355, 0.0126548, 0.0240248, 0.0240799, 0.0570472, -0.0108816, -0.444366, 0.634543, -3.13072, -0.0556715, -0.109398, -0.0102451, -0.443108, 0.634567, -3.13077, -0.0551351, -0.105237, 0.00904028, 0.013309, -0.0189781, -0.00234904, -0.00583157, -0.00727296
0.0880559, 0.107716, -0.77352, -0.917228, -1.45704, -0.625362, 1.06988, -0.256697, 0.00597837, 0.0130141, -0.0284117, 0.00017942, -0.00379788, 7.41641e-05, 0.00174842, -0.0557783, 15.9378, 21.1606, 17.9672, 0.956908, 4.25601, -0.0878186, 0.000669257, -0.00121434, 2.42208e-05, 0.000117317, -0.00271563, 0.000656048, 0.011692, -0.018967, 0.0124656, 0.0232779, 0.0237826, 0.0566366, -0.0108725, -0.444352, 0.634524, -3.13068, -0.0556761, -0.10947, -0.0102471, -0.443115, 0.634555, -3.13075, -0.0551016, -0.105208, 0.00927346, 0.0136191, -0.0194438, -0.00257197, -0.00586841, -0.00796481
0.0890562, 0.107725, -0.773509, -0.917259, -1.45704, -0.625361, 1.06988, -0.256699, 0.009226, 0.0120357, -0.0265874, 0.000119742, -0.00263612, -0.000492927, 0.000495808, -0.131157, 15.9735, 21.1249, 17.9672, 0.951415, 4.27066, -0.0685925, 0.000657694, -0.001196, 1.32442e-05, 0.00010039, -0.00277892, 0.000670273, 0.0100016, -0.01878, 0.013269, 0.0240545, 0.0223767, 0.0649376, -0.0108631, -0.444339, 0.634504, -3.13064, -0.0556808, -0.109544, -0.0102493, -0.44312, 0.634546, -3.13072, -0.0550841, -0.105184, 0.00950935, 0.0139315, -0.0199139, -0.000714033, -0.00531799, -0.00751525
0.0900562, 0.107732, -0.773494, -0.917294, -1.45703, -0.625365, 1.06988, -0.2567, 0.00666371, 0.0130921, -0.0301758, 0.00184316, -0.0021916, -5.72269e-05, 0.00107432, -0.131157, 15.9378, 21.1606, 17.8918, 0.956908, 4.26333, -0.0878186, 0.000644306, -0.00117449, 2.21852e-07, 7.27355e-05, -0.00284413, 0.00069509, 0.0124062, -0.0198214, 0.0134271, 0.0240721, 0.0220801, 0.0602423, -0.0108534, -0.444325, 0.634484, -3.13059, -0.0556856, -0.10962, -0.0102532, -0.443128, 0.634538, -3.13071, -0.0550499, -0.105159, 0.00974794, 0.0142462, -0.0203885, -0.00284682, -0.00613085, -0.00800954
0.0910562, 0.107739, -0.773481, -0.91733, -1.45704, -0.625365, 1.06988, -0.256697, 0.00482726, 0.0137163, -0.0318964, 0.000300827, -0.00143067, -3.80585e-05, 0.00124862, -0.131157, 15.9021, 21.1606, 17.9315, 0.951415, 4.26333, -0.101552, 0.000631729, -0.00115379, -9.58236e-06, 5.41167e-05, -0.00291355, 0.00071978, 0.0133286, -0.0202175, 0.0130479, 0.0228967, 0.0233742, 0.0599417, -0.0108436, -0.44431, 0.634463, -3.13054, -0.0556906, -0.109698, -0.0102558, -0.443135, 0.634526, -3.13068, -0.0550163, -0.105129, 0.00998923, 0.0145631, -0.0208674, -0.00348499, -0.00623907, -0.00893593
0.0920562, 0.107748, -0.773465, -0.917364, -1.45704, -0.625367, 1.06988, -0.256703, 0.00664292, 0.0151387, -0.033161, -0.00156263, -0.00152438, 0.000245965, -0.0013538, -0.131157, 15.8267, 21.1606, 18.0069, 0.963317, 4.25601, -0.0420422, 0.00062088, -0.00113309, -2.11073e-05, 3.11431e-05, -0.00298612, 0.000732093, 0.0123248, -0.0207309, 0.0126449, 0.0222544, 0.0261965, 0.0661782, -0.0108335, -0.444295, 0.634442, -3.13049, -0.0556957, -0.109777, -0.0102566, -0.443141, 0.634515, -3.13066, -0.0550021, -0.105097, 0.0102332, 0.0148823, -0.0213508, -0.00219419, -0.00639433, -0.00975633
0.0930562, 0.107758, -0.773456, -0.917403, -1.45704, -0.625367, 1.06988, -0.256697, 0.00574162, 0.0134791, -0.0351951, 0.000721523, -0.0011136, -0.000378506, 0.000806259, -0.166862, 15.8624, 21.2003, 17.9315, 0.963317, 4.27066, -0.0878186, 0.000604981, -0.00111093, -3.32439e-05, 1.02781e-05, -0.00304951, 0.000762388, 0.014564, -0.0214265, 0.0131865, 0.0224042, 0.0233358, 0.0624942, -0.0108231, -0.44428, 0.634421, -3.13044, -0.0557009, -0.109858, -0.0102621, -0.443149, 0.634505, -3.13064, -0.05496, -0.10508, 0.0104799, 0.0152035, -0.0218384, -0.00419327, -0.00685301, -0.00986778
0.0940562, 0.107766, -0.773441, -0.917441, -1.45704, -0.625367, 1.06988, -0.256702, 0.00335087, 0.0140948, -0.0355745, 0.00140907, -0.000815404, -0.000794833, -0.00114788, -0.131157, 15.8267, 21.2003, 17.8918, 0.963317, 4.28531, -0.0420422, 0.000590967, -0.00108977, -4.52821e-05, -8.42759e-06, -0.0031235, 0.000780591, 0.0159076, -0.021666, 0.0138619, 0.0232288, 0.0236816, 0.0634745, -0.0108125, -0.444265, 0.634399, -3.13039, -0.0557063, -0.109941, -0.0102656, -0.443156, 0.634493, -3.13061, -0.054937, -0.105048, 0.0107292, 0.0155269, -0.0223304, -0.00532259, -0.00682377, -0.00978408
0.0950562, 0.107776, -0.773435, -0.917479, -1.45705, -0.625366, 1.06987, -0.256699, 0.00333789, 0.00962149, -0.0329221, -0.00175186, -0.000360999, -0.000529859, 0.00144631, -0.166862, 15.8624, 21.2003, 18.0069, 0.956908, 4.28531, -0.101552, 0.00057758, -0.00106807, -5.42174e-05, -2.37111e-05, -0.00319455, 0.000799493, 0.0158745, -0.0213627, 0.0140269, 0.0238597, 0.0208815, 0.066667, -0.0108016, -0.444249, 0.634376, -3.13034, -0.0557118, -0.110026, -0.0102679, -0.443162, 0.634479, -3.13058, -0.0549132, -0.105023, 0.0109812, 0.0158524, -0.0228265, -0.00506061, -0.00619643, -0.0101131
0.0960562, 0.10778, -0.773424, -0.917519, -1.45705, -0.625371, 1.06987, -0.256702, 0.0037947, 0.0111213, -0.0340431, -0.00116789, -0.00075645, -8.19501e-05, -0.000725569, -0.0914839, 15.8267, 21.2003, 18.0069, 0.969725, 4.27798, -0.0557752, 0.000559541, -0.00104455, -6.60183e-05, -4.75682e-05, -0.0032708, 0.000827061, 0.0159587, -0.0220344, 0.0144897, 0.0250838, 0.0223262, 0.0698922, -0.0107905, -0.444233, 0.634353, -3.13029, -0.0557175, -0.110113, -0.0102748, -0.44317, 0.634466, -3.13056, -0.0548758, -0.104992, 0.0112358, 0.0161798, -0.0233269, -0.00489889, -0.00654857, -0.0101649
0.0970562, 0.107789, -0.773414, -0.917558, -1.45706, -0.62537, 1.06988, -0.256697, 0.0060081, 0.00826693, -0.0340117, -0.000778579, -0.000975909, 0.00021665, 0.000978581, -0.0914839, 15.8267, 21.1606, 18.0069, 0.981627, 4.27066, -0.0951428, 0.000545311, -0.00102164, -7.80148e-05, -6.97991e-05, -0.00334322, 0.000851793, 0.0161632, -0.0225677, 0.0149981, 0.0263128, 0.0194615, 0.0720834, -0.0107792, -0.444217, 0.634329, -3.13024, -0.0557233, -0.110202, -0.0102777, -0.443178, 0.634453, -3.13053, -0.0548429, -0.104968, 0.011493, 0.0165093, -0.0238314, -0.00486258, -0.00676516, -0.0101829
0.0980562, 0.107796, -0.773412, -0.917599, -1.45706, -0.62537, 1.06987, -0.2567, 0.00280675, 0.00678283, -0.0341499, -0.00273301, -0.000673706, -0.000126821, -0.000565142, -0.0161054, 15.9378, 21.1249, 17.9672, 0.981627, 4.27798, -0.0621838, 0.000526126, -0.000998075, -8.94671e-05, -8.97109e-05, -0.00341015, 0.000873162, 0.0178792, -0.0226422, 0.0149078, 0.0258088, 0.0193878, 0.0734543, -0.0107676, -0.4442, 0.634305, -3.13018, -0.0557293, -0.110292, -0.0102851, -0.443185, 0.634439, -3.1305, -0.0548155, -0.104955, 0.0117529, 0.0168407, -0.0243401, -0.00630506, -0.00656864, -0.0109053
0.0990562, 0.107809, -0.773403, -0.917648, -1.45707, -0.62537, 1.06988, -0.256702, 0.00635633, 0.00843623, -0.0368329, -0.00618231, -0.000703821, -8.45383e-05, 0.00333725, -0.0557783, 15.9378, 21.2003, 18.0069, 0.988036, 4.27798, -0.0420422, 0.000510343, -0.000971926, -9.81076e-05, -0.000106777, -0.00348825, 0.000894119, 0.016199, -0.0233343, 0.0135826, 0.0230859, 0.0236435, 0.0747882, -0.0107557, -0.444183, 0.634281, -3.13012, -0.0557354, -0.110385, -0.0102887, -0.443195, 0.634422, -3.13047, -0.0547891, -0.104926, 0.0120154, 0.017174, -0.0248528, -0.00425027, -0.00685491, -0.012629
0.100056, 0.107816, -0.773388, -0.91769, -1.45708, -0.62537, 1.06988, -0.256696, 0.00620396, 0.00821283, -0.0391513, -0.00587071, -0.000482208, -5.63519e-05, 0.00480213, 0.0196001, 15.8624, 21.1606, 17.9315, 0.988036, 4.27798, -0.101552, 0.000494326, -0.000948024, -0.000110681, -0.000128268, -0.00357211, 0.000926261, 0.0173388, -0.0241033, 0.0135595, 0.0227005, 0.023351, 0.0733577, -0.0107435, -0.444166, 0.634256, -3.13007, -0.0557417, -0.110479, -0.0102925, -0.443202, 0.634408, -3.13044, -0.0547454, -0.104891, 0.0122806, 0.0175091, -0.0253696, -0.00509282, -0.00732896, -0.0132577
0.101056, 0.107821, -0.773381, -0.917732, -1.45709, -0.625371, 1.06987, -0.256698, 0.00935131, 0.00516628, -0.0402847, -0.00851674, -0.000534668, -0.00030883, 0.00151467, 0.0949785, 15.9021, 21.0892, 17.9672, 0.993529, 4.28531, -0.0484509, 0.000476292, -0.000923912, -0.000121508, -0.000147311, -0.00365389, 0.000947466, 0.0169721, -0.0245907, 0.0127432, 0.0208701, 0.0224944, 0.0822815, -0.0107311, -0.444148, 0.63423, -3.13001, -0.0557481, -0.110576, -0.010298, -0.443209, 0.634392, -3.1304, -0.0547188, -0.10486, 0.0125483, 0.0178461, -0.0258904, -0.00438512, -0.00745848, -0.0145731
0.102056, 0.107833, -0.773374, -0.917783, -1.4571, -0.625371, 1.06988, -0.256694, 0.00811538, 0.0039085, -0.0445564, -0.0108494, -0.000363754, 0.000607919, 0.00342378, 0.059273, 15.9021, 21.1606, 17.8918, 0.993529, 4.26333, -0.10796, 0.000457942, -0.000896662, -0.00013236, -0.000167672, -0.00373189, 0.000977966, 0.0189077, -0.0257395, 0.011441, 0.0185473, 0.0225682, 0.0792023, -0.0107184, -0.44413, 0.634204, -3.12995, -0.0557547, -0.110674, -0.010298, -0.443209, 0.634392, -3.1304, -0.0547188, -0.10486, 0.0128186, 0.0181849, -0.0264151, -0.00591194, -0.00832313, -0.0165453
0.103056, 0.107843, -0.773362, -0.917825, -1.45711, -0.625369, 1.06988, -0.2567, 0.00934069, 0.00698755, -0.0419708, -0.0136239, 0.000192825, 0.000134015, 0.000507208, 0.059273, 15.8624, 21.1249, 17.8561, 0.981627, 4.27066, -0.0557752, 0.000443045, -0.000871839, -0.000144324, -0.000188428, -0.00381907, 0.000990788, 0.0162111, -0.0252065, 0.0119103, 0.0191771, 0.0273785, 0.0890421, -0.0107055, -0.444112, 0.634177, -3.12989, -0.0557614, -0.110774, -0.0103053, -0.443227, 0.634359, -3.13033, -0.0546648, -0.104803, 0.0130915, 0.0185254, -0.0269437, -0.00300358, -0.00736049, -0.0164132
0.104056, 0.107847, -0.773363, -0.917867, -1.45713, -0.625367, 1.06987, -0.256692, 0.00531441, 0.00573893, -0.0421599, -0.0172906, -0.00011292, 0.000869239, 0.00215166, 0.134651, 15.9735, 21.0496, 17.8918, 0.988036, 4.2496, -0.101552, 0.000423565, -0.000847215, -0.000154979, -0.000206494, -0.00389834, 0.00101932, 0.017901, -0.0254334, 0.0114376, 0.019004, 0.0285828, 0.0870399, -0.0106922, -0.444093, 0.63415, -3.12983, -0.0557683, -0.110876, -0.0103114, -0.443233, 0.634341, -3.1303, -0.0546274, -0.104782, 0.0133669, 0.0188676, -0.0274763, -0.00437179, -0.00730044, -0.0175415
0.105056, 0.107856, -0.773349, -0.917915, -1.45713, -0.625366, 1.06987, -0.256697, 0.00648795, 0.00932635, -0.0481212, -0.013582, -7.83635e-05, 0.000579495, -0.000443674, 0.170357, 15.9021, 21.0892, 17.7808, 0.988036, 4.2496, -0.0484509, 0.000405885, -0.000820437, -0.000167698, -0.000228055, -0.00398833, 0.00104094, 0.0192571, -0.0270395, 0.0115114, 0.0181875, 0.0303675, 0.0864472, -0.0106787, -0.444074, 0.634122, -3.12976, -0.0557754, -0.110981, -0.0103154, -0.443242, 0.634325, -3.13026, -0.0546009, -0.104746, 0.0136449, 0.0192114, -0.0280126, -0.00539361, -0.00861084, -0.0181163
0.106056, 0.107864, -0.773337, -0.91796, -1.45715, -0.62537, 1.06987, -0.256691, 0.00728352, 0.00790024, -0.0487257, -0.0159277, -0.000495364, 0.000928866, 0.00173734, 0.21003, 15.8624, 21.0892, 17.7451, 0.999938, 4.23495, -0.101552, 0.000388517, -0.000793413, -0.000179819, -0.000252983, -0.00408544, 0.00107165, 0.0193473, -0.0275043, 0.0111428, 0.0178714, 0.0308748, 0.0876999, -0.0106649, -0.444055, 0.634094, -3.1297, -0.0557826, -0.111087, -0.0103189, -0.44325, 0.634307, -3.13023, -0.0545603, -0.104702, 0.0139255, 0.0195569, -0.0285528, -0.00516061, -0.00872984, -0.0190373
0.107056, 0.107871, -0.773329, -0.918008, -1.45716, -0.625372, 1.06987, -0.256691, 0.00483783, 0.00583282, -0.0476284, -0.0166564, -0.000569336, 0.000347977, 0.00120805, 0.245735, 15.8624, 21.1606, 17.6697, 1.00635, 4.24228, -0.101552, 0.000368302, -0.000765991, -0.000192032, -0.000275116, -0.00417709, 0.00109849, 0.0208825, -0.0274617, 0.0117507, 0.0187806, 0.0297989, 0.0890778, -0.0106509, -0.444035, 0.634065, -3.12963, -0.05579, -0.111195, -0.0103249, -0.443259, 0.634289, -3.13019, -0.054526, -0.104668, 0.0142086, 0.019904, -0.0290967, -0.00645291, -0.00840159, -0.0190868
0.108059, 0.107871, -0.773329, -0.918008, -1.45716, -0.625372, 1.06987, -0.256691, 0.00483783, 0.00583282, -0.0476284, -0.0166564, -0.000569336, 0.000347977, 0.00120805, 0.245735, 15.8624, 21.1606, 17.6697, 1.00635, 4.24228, -0.101552, 0.000355395, -0.000746696, -0.000222487, -0.00033674, -0.00425007, 0.0011023, 0.0211398, -0.0277944, 0.0123242, 0.0198461, 0.0300316, 0.0912014, -0.0106365, -0.444015, 0.634036, -3.12957, -0.0557975, -0.111306, -0.0103249, -0.443259, 0.634289, -3.13019, -0.054526, -0.104668, 0.0144943, 0.0202526, -0.0296444, -0.00645291, -0.00840159, -0.0190868
0.109059, 0.107885, -0.773311, -0.918086, -1.4572, -0.625369, 1.06987, -0.25669, 0.0121403, 0.00380072, -0.0464163, -0.0178071, -0.000616571, 0.000425925, 0.00115499, 0.325081, 15.9378, 21.0496, 17.5189, 1.01825, 4.23495, -0.10796, 0.000335881, -0.000714174, -0.000221793, -0.000330894, -0.00436474, 0.00113488, 0.0181658, -0.0280774, 0.0125975, 0.0204942, 0.0289948, 0.102173, -0.0106219, -0.443995, 0.634006, -3.1295, -0.0558053, -0.111418, -0.0103285, -0.443271, 0.634257, -3.13013, -0.0544844, -0.104601, 0.0147825, 0.0206027, -0.0301957, -0.00320985, -0.00823316, -0.0191593
0.110059, 0.107894, -0.773301, -0.918133, -1.45721, -0.625373, 1.06988, -0.256693, 0.0125042, 0.00620183, -0.0498013, -0.0173523, -0.000886497, 0.00109775, -0.000192333, 0.325081, 15.9378, 21.1606, 17.4078, 1.03107, 4.21298, -0.0814099, 0.000316813, -0.00068487, -0.000235704, -0.000359824, -0.00446454, 0.00115761, 0.0187054, -0.0292047, 0.0124939, 0.0204891, 0.0313535, 0.103084, -0.010607, -0.443974, 0.633975, -3.12943, -0.0558132, -0.111532, -0.0103325, -0.443281, 0.634239, -3.13009, -0.0544569, -0.104561, 0.0150731, 0.0209542, -0.0307507, -0.00340979, -0.00902692, -0.0198689
0.111059, 0.107904, -0.773294, -0.918165, -1.45724, -0.625372, 1.06988, -0.256687, 0.0118715, 0.00701499, -0.0449795, -0.0166244, -0.00103236, 0.000731835, 0.000870886, 0.360787, 15.9735, 21.0892, 17.4078, 1.04297, 4.21298, -0.10796, 0.000304418, -0.000659952, -0.000251375, -0.000390096, -0.00456576, 0.00116997, 0.0176641, -0.0285671, 0.0146841, 0.0249478, 0.0320071, 0.106784, -0.0105917, -0.443953, 0.633944, -3.12936, -0.0558213, -0.111649, -0.0103299, -0.443285, 0.634222, -3.13006, -0.0544456, -0.104521, 0.0153663, 0.0213072, -0.0313093, -0.00225773, -0.00802508, -0.0181665
0.112059, 0.107906, -0.773287, -0.918206, -1.45726, -0.625371, 1.06987, -0.256692, 0.00953938, 0.00362075, -0.0416265, -0.018172, -0.00045129, 0.00048789, -0.00161163, 0.475838, 16.0489, 21.1606, 17.3721, 1.03656, 4.21298, -0.0484509, 0.00028492, -0.000633665, -0.000265581, -0.000414185, -0.00466782, 0.00118519, 0.0185018, -0.0280623, 0.0156774, 0.0267761, 0.0293898, 0.112755, -0.0105762, -0.443931, 0.633913, -3.12929, -0.0558295, -0.111768, -0.0103339, -0.443291, 0.634203, -3.13002, -0.0544303, -0.104481, 0.015662, 0.0216616, -0.0318714, -0.00288665, -0.00720782, -0.017797
0.113059, 0.107908, -0.773271, -0.918245, -1.45728, -0.625372, 1.06988, -0.256688, 0.00573544, 0.00787927, -0.0392109, -0.0202307, -0.000775887, 0.00032526, 0.00137585, 0.551216, 15.9735, 21.236, 17.3721, 1.04938, 4.21298, -0.114369, 0.000269325, -0.000606569, -0.000280958, -0.000445731, -0.00478138, 0.00120856, 0.0180325, -0.0276187, 0.016584, 0.0288634, 0.0354136, 0.110889, -0.0105604, -0.443909, 0.63388, -3.12921, -0.055838, -0.111888, -0.0103338, -0.443297, 0.634185, -3.12999, -0.0544023, -0.104426, 0.0159602, 0.0220173, -0.0324371, -0.00220209, -0.00640351, -0.0174244
0.114059, 0.107919, -0.773262, -0.918279, -1.4573, -0.625373, 1.06987, -0.25669, 0.00779933, 0.00830517, -0.0353712, -0.0199487, -0.000958299, -5.4427e-05, -0.000534177, 0.551216, 16.0092, 21.236, 17.2968, 1.06128, 4.2203, -0.0750012, 0.000255077, -0.000580207, -0.000298668, -0.000478189, -0.00488953, 0.00121636, 0.0161576, -0.0272283, 0.0182707, 0.032238, 0.0360821, 0.119756, -0.0105443, -0.443887, 0.633848, -3.12914, -0.0558466, -0.112011, -0.0103322, -0.443302, 0.634169, -3.12995, -0.0543986, -0.104382, 0.0162609, 0.0223744, -0.0330063, -0.000167833, -0.00561027, -0.0161771
0.115059, 0.10792, -0.77326, -0.918318, -1.45732, -0.625372, 1.06987, -0.256694, 0.00748561, 0.00589115, -0.0352631, -0.0179267, -0.00111376, 0.000234983, -0.00204655, 0.626595, 16.16, 21.3471, 17.146, 1.0741, 4.21298, -0.0292249, 0.000232185, -0.000552282, -0.000317834, -0.000513894, -0.0049842, 0.0012368, 0.0176844, -0.0277877, 0.0194679, 0.0347072, 0.0325756, 0.122154, -0.0105279, -0.443865, 0.633814, -3.12906, -0.0558554, -0.112136, -0.010339, -0.443308, 0.634153, -3.12992, -0.0543752, -0.104361, 0.016564, 0.0227327, -0.033579, -0.00145296, -0.00587973, -0.0156733
0.116059, 0.107928, -0.773247, -0.91835, -1.45735, -0.625376, 1.06987, -0.256685, 0.00592841, 0.00798234, -0.0341517, -0.0201983, -0.0014208, -0.000385879, 0.0015555, 0.626595, 16.16, 21.4225, 17.146, 1.09241, 4.22763, -0.10796, 0.000219249, -0.000525066, -0.000335625, -0.000551457, -0.00510308, 0.00125477, 0.0173101, -0.0276085, 0.0197619, 0.0351353, 0.0368794, 0.121083, -0.0105112, -0.443842, 0.633781, -3.12899, -0.0558644, -0.112263, -0.0103355, -0.443313, 0.634136, -3.12989, -0.0543561, -0.104304, 0.0168696, 0.0230922, -0.034155, -0.000802991, -0.00533274, -0.0159312
0.117059, 0.107928, -0.77324, -0.918381, -1.45737, -0.625377, 1.06987, -0.256693, 0.00289255, 0.0068189, -0.0331669, -0.0210881, -0.00206628, -0.00052852, -0.00163896, 0.701973, 16.2671, 21.4979, 17.1103, 1.12262, 4.23495, -0.0356336, 0.000199974, -0.000499358, -0.000354966, -0.000585305, -0.00521665, 0.00126409, 0.0189209, -0.0276987, 0.020418, 0.036671, 0.0370499, 0.124392, -0.0104942, -0.443818, 0.633746, -3.12891, -0.0558736, -0.112393, -0.0103382, -0.443316, 0.634119, -3.12985, -0.0543506, -0.104258, 0.0171776, 0.0234529, -0.0347344, -0.00214557, -0.00512802, -0.0159765
0.118059, 0.107928, -0.77323, -0.91841, -1.4574, -0.625376, 1.06987, -0.256682, 0.000692756, 0.00682505, -0.0325214, -0.0224324, -0.00161495, -0.000352347, 0.00158823, 0.777352, 16.3425, 21.5732, 17.1103, 1.12903, 4.23495, -0.10796, 0.000184499, -0.000473505, -0.000374192, -0.00062208, -0.00533555, 0.00128625, 0.0195764, -0.0277564, 0.0208853, 0.0375724, 0.0377143, 0.122622, -0.0104768, -0.443795, 0.633711, -3.12883, -0.0558829, -0.112524, -0.0103368, -0.443319, 0.634102, -3.12982, -0.0543253, -0.104206, 0.017488, 0.0238148, -0.0353172, -0.00252123, -0.00485389, -0.0161447
0.119059, 0.10793, -0.773216, -0.918441, -1.45743, -0.62538, 1.06987, -0.256686, 2.23422e-05, 0.00787644, -0.0305271, -0.0233471, -0.00222958, 3.63695e-05, -0.000635024, 0.813057, 16.3782, 21.72, 17.1103, 1.16015, 4.22763, -0.0621838, 0.000168419, -0.000446032, -0.000394607, -0.000663681, -0.00545864, 0.00129691, 0.0190808, -0.0277576, 0.0218782, 0.0402016, 0.0397995, 0.128135, -0.0104592, -0.443771, 0.633676, -3.12875, -0.0558925, -0.112658, -0.0103357, -0.443324, 0.634085, -3.12979, -0.054318, -0.104149, 0.0178009, 0.0241778, -0.0359033, -0.00178687, -0.00448777, -0.0157088
0.12006, 0.107929, -0.773207, -0.918463, -1.45747, -0.625382, 1.06986, -0.256686, 0.00252601, 0.00856776, -0.0286053, -0.0287737, -0.00236804, -0.000789556, 0.00052727, 0.85273, 16.4178, 21.72, 17.1857, 1.18396, 4.2496, -0.0878186, 0.000154022, -0.0004218, -0.000414376, -0.000700823, -0.00558781, 0.00130193, 0.0164237, -0.0273123, 0.0212528, 0.0387648, 0.04475, 0.13592, -0.0104412, -0.443746, 0.633639, -3.12867, -0.0559023, -0.112794, -0.0103327, -0.443324, 0.634068, -3.12975, -0.0543198, -0.104086, 0.0181163, 0.0245419, -0.0364926, 0.00120436, -0.0035793, -0.0167299
0.12106, 0.107929, -0.773193, -0.918495, -1.45749, -0.625388, 1.06986, -0.256688, 0.00216846, 0.0130065, -0.0326169, -0.026042, -0.00249425, -0.000255103, -0.00110566, 0.85273, 16.4178, 21.9422, 17.1103, 1.20868, 4.24228, -0.0484509, 0.000136447, -0.00039338, -0.000436026, -0.000745616, -0.00571717, 0.00131762, 0.0173462, -0.0286069, 0.0217944, 0.0397074, 0.0476688, 0.134954, -0.0104229, -0.443722, 0.633603, -3.12858, -0.0559122, -0.112932, -0.0103325, -0.443329, 0.634051, -3.12972, -0.054305, -0.104024, 0.018434, 0.0249071, -0.0370852, 0.000608824, -0.00454855, -0.0168646
0.12206, 0.107927, -0.773182, -0.918518, -1.45752, -0.625389, 1.06986, -0.256678, 0.000973765, 0.0114896, -0.0317478, -0.0287812, -0.00281575, -0.000170069, 0.00608123, 0.888436, 16.4893, 22.0176, 17.1103, 1.23981, 4.24228, -0.10796, 0.000120344, -0.000367601, -0.000458656, -0.000789005, -0.00584502, 0.00133786, 0.0178304, -0.0286707, 0.0218183, 0.0400876, 0.0483624, 0.130794, -0.0104044, -0.443697, 0.633565, -3.1285, -0.0559224, -0.113072, -0.0103307, -0.44333, 0.634035, -3.12969, -0.0542833, -0.103967, 0.0187541, 0.0252732, -0.0376809, 0.000445422, -0.00426536, -0.0174761
0.12306, 0.107922, -0.773171, -0.918535, -1.45756, -0.625391, 1.06985, -0.256678, -0.00607356, 0.0112183, -0.0302255, -0.0351726, -0.00279271, -0.000384646, 0.00396441, 0.928108, 16.525, 22.0572, 17.146, 1.26453, 4.2496, -0.0951428, 0.000106434, -0.000342776, -0.000481793, -0.000835559, -0.00597897, 0.00134236, 0.019523, -0.0281088, 0.0211167, 0.0389068, 0.0524931, 0.132637, -0.0103854, -0.443671, 0.633527, -3.12841, -0.0559327, -0.113214, -0.0103264, -0.443331, 0.634019, -3.12966, -0.0542863, -0.103903, 0.0190766, 0.0256403, -0.0382798, -0.000890436, -0.00338994, -0.0188962
0.12406, 0.107921, -0.773158, -0.918559, -1.4576, -0.625394, 1.06985, -0.256684, -0.00435026, 0.011804, -0.0247902, -0.0357317, -0.00274344, -0.000765057, 0.000727617, 0.928108, 16.525, 22.1683, 17.146, 1.28833, 4.26333, -0.0356336, 9.20471e-05, -0.000316834, -0.000503873, -0.000877336, -0.00611771, 0.00134214, 0.0170359, -0.027327, 0.0230463, 0.042817, 0.053652, 0.14437, -0.0103662, -0.443645, 0.633489, -3.12833, -0.0559433, -0.113359, -0.0103222, -0.443332, 0.634001, -3.12962, -0.054297, -0.103833, 0.0194015, 0.0260084, -0.0388819, 0.00174451, -0.00217774, -0.0173903
0.12506, 0.107918, -0.773148, -0.91858, -1.45764, -0.625394, 1.06984, -0.256677, -0.00396131, 0.0104358, -0.0238057, -0.0385026, -0.00206633, -0.000510038, 0.00290567, 0.963814, 16.6003, 22.2794, 17.1103, 1.29474, 4.26333, -0.0951428, 7.65239e-05, -0.000290955, -0.000527073, -0.000921254, -0.0062529, 0.00135464, 0.0165244, -0.027324, 0.0230715, 0.0428582, 0.0536925, 0.147416, -0.0103466, -0.443619, 0.633449, -3.12824, -0.0559541, -0.113506, -0.0103189, -0.443332, 0.633983, -3.12959, -0.0542881, -0.103772, 0.0197288, 0.0263773, -0.039487, 0.00257787, -0.00179003, -0.0179372
0.12606, 0.107911, -0.773145, -0.918596, -1.45768, -0.625399, 1.06984, -0.256682, -0.00457355, 0.00867704, -0.0181164, -0.0415782, -0.00297125, -0.000340025, 0.00064146, 1.03919, 16.7114, 22.3151, 17.1103, 1.33777, 4.26333, -0.0557752, 5.89279e-05, -0.000265766, -0.000550814, -0.000968578, -0.00638997, 0.00135563, 0.0153116, -0.0265388, 0.024348, 0.046423, 0.0545722, 0.156905, -0.0103267, -0.443593, 0.63341, -3.12815, -0.055965, -0.113655, -0.0103175, -0.443332, 0.633966, -3.12956, -0.0542972, -0.10371, 0.0200585, 0.0267472, -0.0400951, 0.00399386, -0.000610354, -0.0171805
0.12706, 0.107908, -0.773132, -0.918616, -1.45773, -0.625401, 1.06984, -0.256677, -0.00317611, 0.0109738, -0.0188155, -0.0407684, -0.00242165, -0.00453246, 0.00200751, 1.03919, 16.6718, 22.4262, 17.1103, 1.34967, 4.2496, -0.0951428, 4.5329e-05, -0.000239531, -0.000573752, -0.00101337, -0.00653548, 0.00136253, 0.0150268, -0.0262351, 0.0247101, 0.0438029, 0.0583625, 0.158585, -0.0103065, -0.443566, 0.633369, -3.12806, -0.0559762, -0.113807, -0.0103116, -0.443332, 0.633947, -3.12952, -0.0542974, -0.103636, 0.0203905, 0.0271178, -0.0407063, 0.00457062, 6.72988e-05, -0.0174108
0.12806, 0.107907, -0.77313, -0.918634, -1.45777, -0.625403, 1.06983, -0.256682, -0.0013775, 0.0058136, -0.0185177, -0.0423365, -0.00252997, -0.00757358, -0.000299636, 1.00349, 16.7828, 22.5016, 17.0706, 1.37439, 4.23495, -0.0484509, 2.92455e-05, -0.000213531, -0.000597423, -0.00105813, -0.00667394, 0.00135659, 0.0160249, -0.0260526, 0.0244511, 0.0411997, 0.0561487, 0.166046, -0.010286, -0.443538, 0.633328, -3.12796, -0.0559876, -0.113961, -0.0103079, -0.443331, 0.633928, -3.12948, -0.0543178, -0.103577, 0.0207248, 0.0274892, -0.0413204, 0.00392038, 0.000586829, -0.0183583
0.12906, 0.107901, -0.773125, -0.918647, -1.45782, -0.625406, 1.06982, -0.256674, -0.00275305, 0.00376988, -0.018748, -0.0425314, -0.00260217, -0.0095748, 0.00159809, 1.07887, 16.8225, 22.4659, 16.9992, 1.39911, 4.21298, -0.0951428, 1.4026e-05, -0.000188849, -0.000622119, -0.00110553, -0.0068197, 0.00136318, 0.0178161, -0.0260896, 0.0247709, 0.0403748, 0.0555911, 0.165048, -0.0102651, -0.443511, 0.633287, -3.12787, -0.0559992, -0.114117, -0.0103031, -0.443329, 0.63391, -3.12945, -0.0543189, -0.103508, 0.0210615, 0.0278614, -0.0419374, 0.00244782, 0.000852468, -0.0187916
0.13006, 0.107901, -0.773115, -0.918673, -1.45787, -0.625408, 1.06982, -0.25668, -0.00188898, 0.00405789, -0.0181643, -0.0453636, -0.00241295, -0.0106346, -0.00108727, 1.07887, 16.7828, 22.6523, 17.0349, 1.41742, 4.17727, -0.0356336, 1.9723e-07, -0.000160793, -0.000641433, -0.00114393, -0.0069748, 0.00135655, 0.0169553, -0.0259557, 0.0246093, 0.0392967, 0.0583968, 0.172965, -0.0102438, -0.443483, 0.633244, -3.12777, -0.056011, -0.114275, -0.0102961, -0.44333, 0.633886, -3.1294, -0.0543413, -0.103426, 0.0214005, 0.0282343, -0.0425574, 0.00364961, 0.0013893, -0.0195128
0.13106, 0.107901, -0.773114, -0.918688, -1.45793, -0.625412, 1.06981, -0.256674, -0.00352866, 0.00457745, -0.0153734, -0.0472245, -0.00296497, -0.00764981, 0.00100912, 1.03919, 16.8582, 22.6127, 16.9238, 1.45404, 4.16354, -0.0814099, -1.41597e-05, -0.000135478, -0.000664943, -0.00118696, -0.00712566, 0.00135379, 0.0163325, -0.0262029, 0.0258147, 0.0442208, 0.0592043, 0.174459, -0.0102223, -0.443454, 0.633201, -3.12768, -0.0560231, -0.114436, -0.0102897, -0.443328, 0.633865, -3.12936, -0.0543576, -0.103354, 0.0217418, 0.0286079, -0.0431802, 0.00453075, 0.00152036, -0.0188946
0.13206, 0.10789, -0.77311, -0.918707, -1.45799, -0.625417, 1.0698, -0.256675, -0.00533695, 0.00449811, -0.0184309, -0.0504359, -0.00245137, -0.0103142, 0.00046429, 1.15424, 16.8225, 22.6523, 16.8842, 1.46686, 4.15622, -0.0750012, -3.32728e-05, -0.000110112, -0.000685881, -0.00122335, -0.00728794, 0.00135682, 0.017974, -0.0263616, 0.0244478, 0.039227, 0.0625924, 0.175157, -0.0102004, -0.443425, 0.633158, -3.12758, -0.0560353, -0.114599, -0.0102875, -0.443325, 0.633841, -3.12931, -0.0543655, -0.103266, 0.0220854, 0.0289822, -0.0438058, 0.00334158, 0.00169292, -0.0210098
0.13306, 0.10789, -0.773109, -0.91872, -1.45804, -0.625416, 1.06979, -0.256672, -0.00284988, 0.00345719, -0.0157992, -0.0502308, -0.00207506, -0.0120054, 0.00107719, 1.11457, 16.8225, 22.6127, 16.7374, 1.47876, 4.14157, -0.0951428, -4.68149e-05, -8.49038e-05, -0.000710339, -0.00126676, -0.00743888, 0.00134746, 0.0167997, -0.0259548, 0.0256483, 0.0403563, 0.0622037, 0.181529, -0.0101781, -0.443396, 0.633114, -3.12748, -0.0560478, -0.114764, -0.0102797, -0.443322, 0.63382, -3.12926, -0.0543926, -0.103198, 0.0224314, 0.029357, -0.0444342, 0.00475336, 0.0024981, -0.0203551
0.13406, 0.107887, -0.773111, -0.918736, -1.45811, -0.625423, 1.06978, -0.256672, -0.00206488, 0.00181341, -0.0171855, -0.0544691, -0.00277362, -0.00835737, -0.000248958, 1.11457, 16.8582, 22.577, 16.7731, 1.5163, 4.12051, -0.0685925, -6.24246e-05, -5.91819e-05, -0.000730487, -0.00130417, -0.00760384, 0.00133747, 0.0165889, -0.0271154, 0.0248591, 0.0415649, 0.0623974, 0.186864, -0.0101555, -0.443367, 0.633069, -3.12738, -0.0560605, -0.114932, -0.0102733, -0.443319, 0.633794, -3.12921, -0.0544212, -0.10311, 0.0227796, 0.0297325, -0.0450654, 0.00540923, 0.00172878, -0.0217743
0.13506, 0.107884, -0.773115, -0.918762, -1.45817, -0.625424, 1.06976, -0.256676, -0.0015003, 0.00146682, -0.0208602, -0.0533176, -0.00205253, -0.0148499, -0.000628495, 1.11457, 16.8582, 22.6523, 16.6223, 1.52179, 4.09854, -0.0557752, -8.43622e-05, -3.15337e-05, -0.00075181, -0.00133735, -0.00775862, 0.0013359, 0.0187348, -0.0270118, 0.0242436, 0.0350457, 0.0645062, 0.187179, -0.0101325, -0.443337, 0.633024, -3.12728, -0.0560735, -0.115102, -0.0102728, -0.443318, 0.633768, -3.12915, -0.0544371, -0.103041, 0.0231301, 0.0301084, -0.0456993, 0.00366011, 0.002138, -0.0231836
0.13606, 0.10788, -0.773118, -0.918776, -1.45824, -0.625425, 1.06975, -0.256667, -0.00109299, -0.00111139, -0.0192208, -0.0592905, -0.00160571, -0.0105279, 0.00152293, 1.11457, 16.8225, 22.5413, 16.6223, 1.5282, 4.07748, -0.10796, -9.9446e-05, -6.42109e-06, -0.000773495, -0.00137393, -0.00792256, 0.00133028, 0.0173471, -0.0274827, 0.0238181, 0.0372855, 0.0635602, 0.19243, -0.0101092, -0.443306, 0.632978, -3.12717, -0.0560866, -0.115274, -0.0102653, -0.443314, 0.633742, -3.1291, -0.0544595, -0.10296, 0.0234829, 0.0304849, -0.0463358, 0.00544212, 0.00209608, -0.0241519
0.13706, 0.107882, -0.773127, -0.918793, -1.45831, -0.625426, 1.06974, -0.256673, -0.00304822, -0.00169091, -0.0191036, -0.0596973, -0.00151128, -0.0116753, -0.0011819, 1.07887, 16.8582, 22.4659, 16.5866, 1.5401, 4.04819, -0.0484509, -0.000115262, 2.01382e-05, -0.000794738, -0.00141045, -0.00808251, 0.00130828, 0.0186865, -0.0275304, 0.0243421, 0.0373901, 0.0640525, 0.195987, -0.0100856, -0.443276, 0.632931, -3.12707, -0.0561, -0.115449, -0.0102581, -0.44331, 0.633715, -3.12904, -0.0545075, -0.102887, 0.0238379, 0.0308619, -0.046975, 0.0044233, 0.00236867, -0.024373
0.13806, 0.107882, -0.773133, -0.91881, -1.45838, -0.625428, 1.06973, -0.256665, -0.00141342, -0.00359936, -0.0190296, -0.0621396, -0.00148224, -0.0178217, 0.000946539, 1.03919, 16.8225, 22.3905, 16.5112, 1.55292, 4.03445, -0.0951428, -0.000131619, 4.68196e-05, -0.000817185, -0.00144826, -0.00824636, 0.00130301, 0.0189878, -0.0266849, 0.0236328, 0.0317126, 0.0671512, 0.199263, -0.0100616, -0.443245, 0.632884, -3.12696, -0.0561137, -0.115626, -0.0102512, -0.443307, 0.633688, -3.12899, -0.0545298, -0.102811, 0.0241952, 0.0312393, -0.0476168, 0.00449972, 0.00358714, -0.0257405
0.13906, 0.107882, -0.773145, -0.918835, -1.45845, -0.625429, 1.06971, -0.256665, -0.000339028, -0.00667464, -0.0176713, -0.064868, -0.00122552, -0.0176353, 0.000126258, 1.00349, 16.8582, 22.3905, 16.4755, 1.55932, 4.0198, -0.0814099, -0.000152339, 7.45771e-05, -0.000836832, -0.00147745, -0.00840938, 0.00129337, 0.0186982, -0.0267086, 0.0237306, 0.0320167, 0.0658543, 0.206203, -0.0100372, -0.443213, 0.632836, -3.12686, -0.0561275, -0.115806, -0.010248, -0.443304, 0.633658, -3.12892, -0.0545594, -0.102738, 0.0245547, 0.0316171, -0.0482612, 0.00513931, 0.0039477, -0.0262712
0.14006, 0.107876, -0.773157, -0.918854, -1.45852, -0.625427, 1.0697, -0.256664, -0.00123521, -0.00893633, -0.0139365, -0.0664364, -0.000342295, -0.0213911, 0.000324425, 1.03919, 16.8939, 22.2794, 16.4359, 1.54651, 3.9841, -0.0878186, -0.000173265, 0.000102165, -0.000859143, -0.00151443, -0.00856951, 0.00128572, 0.0188005, -0.0254853, 0.0246034, 0.0310241, 0.0660042, 0.211671, -0.0100124, -0.443182, 0.632787, -3.12675, -0.0561417, -0.115988, -0.0102449, -0.443301, 0.63363, -3.12886, -0.0545859, -0.102672, 0.0249165, 0.0319953, -0.0489081, 0.00528804, 0.00553041, -0.0260472
0.14106, 0.107873, -0.773168, -0.918881, -1.45859, -0.625427, 1.06968, -0.256666, -0.000953958, -0.0129644, -0.0169292, -0.067396, -0.000228197, -0.0204006, 0.00422527, 1.03919, 16.8939, 22.2794, 16.3644, 1.54651, 3.96945, -0.0685925, -0.000197061, 0.000130291, -0.000880177, -0.00154319, -0.00873553, 0.00127956, 0.0208673, -0.0266238, 0.0240865, 0.0302854, 0.0624896, 0.208834, -0.00998734, -0.443149, 0.632738, -3.12664, -0.056156, -0.116172, -0.0102441, -0.443298, 0.6336, -3.12879, -0.0546108, -0.102599, 0.0252805, 0.0323738, -0.0495576, 0.00366953, 0.00470242, -0.0273834
0.14206, 0.107877, -0.773178, -0.918898, -1.45867, -0.625427, 1.06967, -0.256659, 0.0010294, -0.0111508, -0.0156681, -0.0743311, -0.000152131, -0.0188364, 0.00443242, 0.963814, 16.8225, 22.1287, 16.4359, 1.54651, 3.93374, -0.101552, -0.000210769, 0.00015757, -0.000900443, -0.00157649, -0.0089108, 0.00126104, 0.0177561, -0.0265954, 0.023138, 0.0297443, 0.0682772, 0.217648, -0.00996188, -0.443117, 0.632688, -3.12652, -0.0561706, -0.116359, -0.0102329, -0.443294, 0.633569, -3.12873, -0.054655, -0.102514, 0.0256467, 0.0327526, -0.0502094, 0.00720326, 0.00523017, -0.0287545
0.14306, 0.107875, -0.773191, -0.918924, -1.45874, -0.625426, 1.06965, -0.256654, 0.00144809, -0.010761, -0.0175422, -0.0752159, 0.000339388, -0.018755, 0.00348846, 0.928108, 16.7828, 22.0929, 16.3248, 1.53461, 3.92642, -0.10796, -0.000234276, 0.000185879, -0.000921873, -0.00160467, -0.00908041, 0.00125885, 0.018103, -0.0272194, 0.0230355, 0.0291127, 0.0692558, 0.220781, -0.00993605, -0.443084, 0.632638, -3.12641, -0.0561854, -0.116548, -0.0102312, -0.443291, 0.633537, -3.12865, -0.0546743, -0.102441, 0.0260151, 0.0331317, -0.0508638, 0.00725408, 0.00497232, -0.029549
0.14406, 0.107879, -0.773201, -0.91894, -1.45882, -0.625427, 1.06963, -0.256661, 0.00267358, -0.00972341, -0.0161861, -0.0764437, -0.000214551, -0.0186224, 0.000614973, 0.85273, 16.7114, 21.9422, 16.3644, 1.54651, 3.9191, -0.0557752, -0.000249357, 0.000212477, -0.000942779, -0.00163532, -0.00926304, 0.00122534, 0.016983, -0.0273313, 0.0237425, 0.0308647, 0.0717459, 0.228791, -0.00990985, -0.44305, 0.632586, -3.1263, -0.0562005, -0.11674, -0.0102207, -0.443285, 0.633505, -3.12858, -0.0547425, -0.102349, 0.0263857, 0.0335111, -0.0515205, 0.00869009, 0.00526708, -0.0294237
0.14506, 0.107874, -0.773219, -0.918963, -1.4589, -0.625426, 1.06961, -0.256652, -0.0013839, -0.0128498, -0.021212, -0.0763005, 0.000297776, -0.0138732, 0.00737101, 0.85273, 16.6718, 21.9065, 16.3644, 1.53461, 3.91269, -0.114369, -0.000273192, 0.000240802, -0.000963593, -0.00166407, -0.00943614, 0.00122356, 0.0211047, -0.0294347, 0.0235053, 0.0329008, 0.0662671, 0.216895, -0.00988328, -0.443017, 0.632535, -3.12618, -0.0562158, -0.116934, -0.0102185, -0.443281, 0.633472, -3.12851, -0.0547617, -0.102275, 0.0267585, 0.0338906, -0.0521796, 0.00504719, 0.0033993, -0.0306573
0.14606, 0.107878, -0.773233, -0.918985, -1.45899, -0.625426, 1.06959, -0.256657, 0.00147728, -0.01484, -0.0200099, -0.0769876, 0.000198517, -0.0153368, 0.00349152, 0.737679, 16.6003, 21.7954, 16.4001, 1.53461, 3.91269, -0.0621838, -0.000291971, 0.000269332, -0.00098458, -0.00169331, -0.00961644, 0.00119749, 0.0204263, -0.0293776, 0.0240402, 0.0329413, 0.0658761, 0.227395, -0.00985633, -0.442983, 0.632482, -3.12606, -0.0562314, -0.11713, -0.0102109, -0.443276, 0.633439, -3.12843, -0.054819, -0.102192, 0.0271335, 0.0342704, -0.052841, 0.00605403, 0.00384989, -0.0307399
0.14706, 0.107878, -0.773249, -0.91901, -1.45908, -0.625424, 1.06957, -0.25665, -0.00154081, -0.0151616, -0.0218362, -0.0811657, 0.000607063, -0.0162309, 0.00393111, 0.701973, 16.4893, 21.7954, 16.4755, 1.52179, 3.91269, -0.0951428, -0.000312927, 0.000298076, -0.00100353, -0.00171807, -0.00980052, 0.00118671, 0.0219435, -0.0295476, 0.0229554, 0.0298954, 0.0688197, 0.227425, -0.00982901, -0.442948, 0.632429, -3.12594, -0.0562473, -0.117329, -0.010205, -0.443272, 0.633402, -3.12835, -0.054853, -0.102106, 0.0275107, 0.0346502, -0.0535047, 0.00500402, 0.0040188, -0.0326075
0.14806, 0.107872, -0.773271, -0.919033, -1.45916, -0.625427, 1.06955, -0.25665, -0.00459029, -0.0174274, -0.0221294, -0.0817235, -0.00027346, -0.0169197, 0.00144972, 0.701973, 16.4536, 21.7597, 16.4359, 1.5401, 3.91269, -0.0557752, -0.000340405, 0.00032716, -0.00102615, -0.00174904, -0.00997791, 0.00117806, 0.024542, -0.0298685, 0.0233696, 0.0304672, 0.068275, 0.229072, -0.00980131, -0.442913, 0.632375, -3.12582, -0.0562634, -0.117531, -0.0102054, -0.443267, 0.633369, -3.12828, -0.0548837, -0.102032, 0.02789, 0.0350302, -0.0541706, 0.00277231, 0.00397726, -0.0330663
0.14906, 0.107864, -0.773297, -0.919049, -1.45924, -0.625425, 1.06952, -0.256639, -0.00447617, -0.0165344, -0.0245685, -0.0833539, 0.000258503, -0.0174228, 0.0033519, 0.737679, 16.4536, 21.6843, 16.4359, 1.5282, 3.91269, -0.114369, -0.000366335, 0.000354242, -0.00104921, -0.00177954, -0.0101561, 0.00117354, 0.0249673, -0.0304258, 0.0228731, 0.0286185, 0.0705421, 0.229066, -0.00977323, -0.442878, 0.63232, -3.1257, -0.0562797, -0.117734, -0.010204, -0.44326, 0.633335, -3.1282, -0.0549083, -0.10196, 0.0282715, 0.0354102, -0.0548388, 0.00278524, 0.00378978, -0.0342751
0.15006, 0.10786, -0.773317, -0.919069, -1.45934, -0.625423, 1.0695, -0.256645, -0.0057083, -0.0193962, -0.021867, -0.0885016, 0.000850504, -0.0217875, -0.000282704, 0.701973, 16.3425, 21.6843, 16.4755, 1.50989, 3.89071, -0.0420422, -0.000388777, 0.00038175, -0.00106989, -0.00180396, -0.0103459, 0.00114621, 0.0251422, -0.0291094, 0.0223215, 0.0245442, 0.0730347, 0.239011, -0.00974476, -0.442843, 0.632265, -3.12558, -0.0562963, -0.117941, -0.0101986, -0.443253, 0.633298, -3.12811, -0.0549689, -0.101872, 0.0286551, 0.0357903, -0.0555092, 0.00298572, 0.00548431, -0.0355
0.15106, 0.107859, -0.77334, -0.919088, -1.45943, -0.625422, 1.06948, -0.256638, -0.00262929, -0.0204351, -0.0197939, -0.0874064, 0.00104172, -0.0255538, 0.00115333, 0.626595, 16.3068, 21.6843, 16.4359, 1.49707, 3.88339, -0.0750012, -0.000412391, 0.000410117, -0.00109261, -0.00183278, -0.0105307, 0.00113243, 0.0243606, -0.0285245, 0.0234856, 0.0241196, 0.0733501, 0.24433, -0.00971592, -0.442807, 0.632209, -3.12545, -0.0563132, -0.11815, -0.0101941, -0.443247, 0.633263, -3.12803, -0.0550086, -0.101795, 0.0290408, 0.0361704, -0.0561817, 0.00403919, 0.00645663, -0.0349527
0.15206, 0.107847, -0.773363, -0.919102, -1.45953, -0.625419, 1.06945, -0.256637, -0.00395635, -0.0225769, -0.0155011, -0.0906396, 0.00069448, -0.0247968, -0.000123636, 0.701973, 16.1957, 21.5732, 16.4359, 1.49707, 3.90536, -0.0484509, -0.000436659, 0.000436111, -0.0011149, -0.00185896, -0.0107246, 0.00111334, 0.0238764, -0.028035, 0.0244505, 0.0270618, 0.0733797, 0.251647, -0.00968668, -0.44277, 0.632153, -3.12533, -0.0563304, -0.118361, -0.0101899, -0.443238, 0.633226, -3.12795, -0.055057, -0.101706, 0.0294287, 0.0365505, -0.0568564, 0.00481662, 0.0073258, -0.0346296
0.15306, 0.107847, -0.773391, -0.91912, -1.45964, -0.625421, 1.06942, -0.256628, -0.0033797, -0.0228681, -0.0181647, -0.0967154, 0.000462987, -0.0271619, 0.00592971, 0.586922, 16.16, 21.5732, 16.5866, 1.49707, 3.88339, -0.0878186, -0.00045787, 0.000463881, -0.00113239, -0.00187943, -0.0109253, 0.00108992, 0.0239763, -0.0281497, 0.0223189, 0.0212201, 0.0789075, 0.249706, -0.00965706, -0.442734, 0.632096, -3.1252, -0.0563478, -0.118575, -0.0101819, -0.44323, 0.633184, -3.12785, -0.0551128, -0.101608, 0.0298187, 0.0369305, -0.0575331, 0.00526952, 0.00761655, -0.0374475
0.15406, 0.107835, -0.773423, -0.919131, -1.45973, -0.625417, 1.0694, -0.256626, -0.00590295, -0.0269919, -0.0159988, -0.0956353, 0.000749467, -0.0240542, 0.00319126, 0.586922, 16.16, 21.5336, 16.5112, 1.48517, 3.85501, -0.0557752, -0.000485127, 0.000490796, -0.0011572, -0.00191128, -0.0111101, 0.00106995, 0.0258198, -0.0287027, 0.0241903, 0.0268965, 0.0725672, 0.253814, -0.00962704, -0.442696, 0.632038, -3.12507, -0.0563654, -0.118791, -0.0101801, -0.443222, 0.633149, -3.12777, -0.0551629, -0.101538, 0.0302108, 0.0373105, -0.0582119, 0.00370095, 0.00734732, -0.0364148
0.15506, 0.107828, -0.773447, -0.919147, -1.45984, -0.625414, 1.06937, -0.256624, -0.00590371, -0.0241173, -0.0153832, -0.0927451, 0.00117781, -0.0226907, 0.00170021, 0.511544, 16.0489, 21.5336, 16.4755, 1.46686, 3.84768, -0.0356336, -0.000509034, 0.000517321, -0.00117902, -0.00193344, -0.0113129, 0.00104685, 0.0254635, -0.0292454, 0.0261902, 0.0313597, 0.0728954, 0.257104, -0.00959664, -0.442659, 0.631979, -3.12494, -0.0563834, -0.11901, -0.0101743, -0.443212, 0.63311, -3.12768, -0.0552187, -0.101443, 0.0306049, 0.0376903, -0.0588927, 0.00431593, 0.0071639, -0.0350886
0.15606, 0.107813, -0.773481, -0.919158, -1.45995, -0.625412, 1.06934, -0.256615, -0.00560256, -0.028307, -0.0147803, -0.0987782, 0.00125993, -0.0254304, 0.00283055, 0.551216, 16.0489, 21.5336, 16.5112, 1.45404, 3.8193, -0.0750012, -0.000537946, 0.000543518, -0.00120136, -0.00195845, -0.0115104, 0.00103417, 0.0258006, -0.0287029, 0.0248375, 0.0268997, 0.0743319, 0.262478, -0.00956583, -0.442621, 0.63192, -3.12481, -0.0564016, -0.119232, -0.0101732, -0.443202, 0.63307, -3.12758, -0.0552585, -0.101358, 0.0310012, 0.03807, -0.0595756, 0.00445626, 0.00809106, -0.0371466
0.15706, 0.1078, -0.773509, -0.919171, -1.46005, -0.625414, 1.06931, -0.256611, -0.00512431, -0.0260598, -0.0142783, -0.0995314, 0.000127874, -0.0282299, 0.000608233, 0.586922, 15.9735, 21.5336, 16.4001, 1.47327, 3.81198, -0.0356336, -0.000566388, 0.000571026, -0.00122635, -0.00199015, -0.0117148, 0.00101948, 0.0254691, -0.0284928, 0.0252943, 0.0262628, 0.0797065, 0.267995, -0.00953463, -0.442583, 0.63186, -3.12467, -0.0564201, -0.119456, -0.0101714, -0.443192, 0.633032, -3.1275, -0.0553016, -0.101265, 0.0313996, 0.0384495, -0.0602603, 0.00513979, 0.00868188, -0.0373555
0.15806, 0.107786, -0.773541, -0.919181, -1.46017, -0.625415, 1.06927, -0.256598, -0.0100697, -0.025437, -0.0138465, -0.104927, 0.000797326, -0.0303755, 0.00648325, 0.586922, 15.9378, 21.5336, 16.4755, 1.45404, 3.80466, -0.0685925, -0.000592984, 0.000596334, -0.00124625, -0.00200848, -0.0119305, 0.00100374, 0.0266759, -0.0278175, 0.0244861, 0.0230553, 0.0847322, 0.263199, -0.00950303, -0.442544, 0.6318, -3.12454, -0.0564389, -0.119682, -0.010167, -0.443181, 0.632989, -3.1274, -0.0553472, -0.101157, 0.0318, 0.0388288, -0.060947, 0.00437174, 0.0097024, -0.0389395
0.15906, 0.107783, -0.773571, -0.919186, -1.46029, -0.625415, 1.06924, -0.256598, -0.00401812, -0.027926, -0.00959285, -0.108436, 5.6833e-05, -0.0313127, 0.00288377, 0.436165, 15.9021, 21.4979, 16.4001, 1.46686, 3.77627, -0.0164075, -0.00061281, 0.000621968, -0.0012697, -0.00203561, -0.0121434, 0.000961743, 0.0232686, -0.0272544, 0.024964, 0.0239822, 0.0858678, 0.280161, -0.00947103, -0.442505, 0.631738, -3.1244, -0.0564579, -0.119911, -0.0101558, -0.443168, 0.632949, -3.1273, -0.0554336, -0.101056, 0.0322025, 0.0392079, -0.0616356, 0.00810949, 0.0107543, -0.0388903
0.16006, 0.107765, -0.773595, -0.919196, -1.46041, -0.625415, 1.06921, -0.256584, -0.0112817, -0.0249173, -0.00812825, -0.110036, 0.00415924, -0.027487, 0.00881676, 0.511544, 15.791, 21.5336, 16.2891, 1.47876, 3.7543, -0.0685925, -0.000638974, 0.000648095, -0.00129232, -0.0020614, -0.0123673, 0.000951244, 0.0239091, -0.0271878, 0.0262865, 0.0275427, 0.085124, 0.273523, -0.00943863, -0.442466, 0.631676, -3.12426, -0.0564773, -0.120143, -0.0101504, -0.443157, 0.632907, -3.12721, -0.0554716, -0.10094, 0.032607, 0.0395867, -0.062326, 0.00776936, 0.0111524, -0.038318
0.16106, 0.107744, -0.773627, -0.919202, -1.46054, -0.625416, 1.06918, -0.256585, -0.0165842, -0.0285236, -0.00609219, -0.116028, 0.00267829, -0.0297998, 0.00409708, 0.586922, 15.791, 21.5336, 16.3644, 1.49158, 3.74057, -0.00267457, -0.000665643, 0.000672677, -0.00131188, -0.00207922, -0.0125962, 0.000918813, 0.0263574, -0.0264619, 0.0256099, 0.0255079, 0.0879826, 0.279509, -0.00940582, -0.442426, 0.631614, -3.12412, -0.0564969, -0.120377, -0.010145, -0.443143, 0.632861, -3.12711, -0.0555443, -0.100819, 0.0330136, 0.0399652, -0.0630183, 0.0057586, 0.0121766, -0.0398716
0.16206, 0.107721, -0.773657, -0.919207, -1.46067, -0.625415, 1.06914, -0.256569, -0.017237, -0.0280129, -0.00772821, -0.120653, 0.00139249, -0.031301, 0.00566828, 0.6623, 15.791, 21.5336, 16.3248, 1.50989, 3.72592, -0.0685925, -0.00069337, 0.000696981, -0.00133474, -0.00210183, -0.0128235, 0.000906596, 0.026855, -0.0266889, 0.0243799, 0.0224966, 0.0937033, 0.280416, -0.0093726, -0.442386, 0.63155, -3.12398, -0.0565168, -0.120614, -0.0101404, -0.443128, 0.632818, -3.127, -0.0555858, -0.100703, 0.0334222, 0.0403434, -0.0637123, 0.00577121, 0.0123265, -0.0418412
0.16306, 0.107707, -0.773681, -0.919208, -1.4608, -0.625414, 1.0691, -0.25656, -0.0149869, -0.0279582, -0.00579438, -0.123509, 0.00114218, -0.0321884, 0.00885641, 0.626595, 15.6799, 21.5336, 16.2494, 1.50989, 3.70395, -0.0685925, -0.000714089, 0.000721101, -0.00135835, -0.00212644, -0.0130604, 0.000875729, 0.0251474, -0.02641, 0.024633, 0.0226229, 0.096614, 0.284934, -0.00933897, -0.442345, 0.631486, -3.12384, -0.056537, -0.120853, -0.0101285, -0.443113, 0.632775, -3.1269, -0.0556566, -0.100575, 0.0338328, 0.0407212, -0.0644081, 0.00785062, 0.0130361, -0.0421567
0.16406, 0.10769, -0.77371, -0.919206, -1.46094, -0.625413, 1.06907, -0.256559, -0.0133161, -0.0278592, -0.00350938, -0.129114, 0.0011592, -0.0336705, 0.00389638, 0.586922, 15.6799, 21.4979, 16.3248, 1.50348, 3.70395, 0.00373412, -0.000735273, 0.000743718, -0.00137962, -0.00214532, -0.0133021, 0.000832002, 0.0230211, -0.0257392, 0.0241093, 0.020791, 0.101453, 0.298819, -0.00930493, -0.442304, 0.631421, -3.1237, -0.0565575, -0.121095, -0.0101166, -0.443096, 0.63273, -3.1268, -0.0557479, -0.100442, 0.0342455, 0.0410986, -0.0651057, 0.0103947, 0.0141645, -0.0432098
0.16506, 0.107667, -0.773737, -0.919212, -1.46108, -0.625414, 1.06903, -0.256542, -0.0140801, -0.0265572, -0.0052993, -0.132634, 0.000655733, -0.0338731, 0.0102114, 0.626595, 15.6442, 21.6089, 16.2494, 1.50989, 3.68289, -0.0621838, -0.000761672, 0.00076825, -0.00140074, -0.00216312, -0.0135481, 0.000817224, 0.0233189, -0.0261875, 0.0233235, 0.0191776, 0.106006, 0.294581, -0.00927048, -0.442263, 0.631356, -3.12355, -0.0565783, -0.121339, -0.0101094, -0.443081, 0.632683, -3.12669, -0.0557948, -0.100304, 0.0346601, 0.0414756, -0.0658049, 0.0105868, 0.0140925, -0.0447291
0.16606, 0.107646, -0.77377, -0.919206, -1.46123, -0.625416, 1.06899, -0.25654, -0.0167782, -0.0305893, -0.00204057, -0.138407, -0.000388153, -0.0389336, 0.0096529, 0.626595, 15.6799, 21.5336, 16.2891, 1.53461, 3.66092, 0.0101428, -0.000783946, 0.000790894, -0.00142199, -0.00218498, -0.0137971, 0.000772035, 0.0246152, -0.0247629, 0.0227248, 0.0153058, 0.10935, 0.300046, -0.00923561, -0.442221, 0.63129, -3.1234, -0.0565994, -0.121587, -0.0100977, -0.443063, 0.632635, -3.12658, -0.0558892, -0.100165, 0.0350768, 0.0418522, -0.0665058, 0.00970311, 0.015853, -0.0461159
0.16706, 0.107623, -0.7738, -0.919211, -1.46137, -0.625416, 1.06895, -0.256529, -0.0165276, -0.0301442, -0.00332683, -0.141697, -0.000191105, -0.0435139, 0.00910201, 0.6623, 15.7156, 21.6089, 16.2891, 1.53461, 3.66092, -0.0356336, -0.000810202, 0.000814931, -0.0014417, -0.00219803, -0.0140501, 0.000746878, 0.0249449, -0.0242965, 0.0217087, 0.00987601, 0.114585, 0.304276, -0.00920033, -0.442179, 0.631223, -3.12326, -0.0566208, -0.121836, -0.0100894, -0.443047, 0.632585, -3.12647, -0.0559532, -0.100022, 0.0354954, 0.0422282, -0.0672083, 0.00985214, 0.0166972, -0.0478583
0.16806, 0.107602, -0.773831, -0.919206, -1.46153, -0.625415, 1.06891, -0.256523, -0.0185637, -0.0328098, -0.00153507, -0.147317, 0.000398062, -0.0417045, 0.00584706, 0.6623, 15.7513, 21.5732, 16.2891, 1.52179, 3.64718, -0.00999879, -0.000832047, 0.000837735, -0.00146395, -0.00221899, -0.014303, 0.000705043, 0.024991, -0.0242126, 0.0213664, 0.0103844, 0.114571, 0.312724, -0.00916462, -0.442137, 0.631155, -3.12311, -0.0566425, -0.122088, -0.0100766, -0.443028, 0.632538, -3.12636, -0.0560431, -0.099882, 0.0359161, 0.0426038, -0.0679124, 0.0102477, 0.0171576, -0.0489137
0.16906, 0.107575, -0.773857, -0.919208, -1.46168, -0.625413, 1.06886, -0.256513, -0.0230747, -0.0298266, -0.0019729, -0.149011, -0.000171282, -0.0455783, 0.0101527, 0.6623, 15.7156, 21.6089, 16.3248, 1.53461, 3.64718, -0.0420422, -0.000857811, 0.000860589, -0.00148495, -0.00223167, -0.0145657, 0.000677156, 0.0267821, -0.0237116, 0.0213954, 0.00790789, 0.121424, 0.30681, -0.00912849, -0.442094, 0.631087, -3.12296, -0.0566645, -0.122343, -0.0100671, -0.44301, 0.632488, -3.12624, -0.0561121, -0.0997287, 0.0363387, 0.0429789, -0.068618, 0.00886254, 0.0179657, -0.0497318
0.17006, 0.107562, -0.773886, -0.919208, -1.46183, -0.625411, 1.06882, -0.256511, -0.0177545, -0.0287443, -0.001401, -0.152356, 0.000151717, -0.0432582, 0.0102698, 0.551216, 15.7156, 21.6089, 16.3248, 1.5282, 3.63986, 0.0101428, -0.000877721, 0.000883985, -0.00150603, -0.00224604, -0.0148285, 0.000626868, 0.0233116, -0.0242361, 0.0213338, 0.00923937, 0.123759, 0.316989, -0.00909194, -0.442051, 0.631018, -3.1228, -0.0566868, -0.122601, -0.0100514, -0.442992, 0.632438, -3.12612, -0.0562163, -0.0995784, 0.0367632, 0.0433533, -0.0693252, 0.0127662, 0.0179374, -0.0502431
0.17106, 0.107533, -0.773917, -0.919202, -1.46199, -0.62541, 1.06877, -0.256506, -0.0174615, -0.0278451, 0.000764943, -0.155042, 0.000563363, -0.0464078, 0.0120723, 0.586922, 15.7156, 21.5336, 16.3644, 1.5163, 3.63986, 0.0165515, -0.000903574, 0.000905591, -0.00152873, -0.00226164, -0.0150938, 0.000589489, 0.0223018, -0.0233588, 0.0216133, 0.00756358, 0.128044, 0.321361, -0.00905497, -0.442007, 0.630949, -3.12265, -0.0567094, -0.122861, -0.0100414, -0.442971, 0.632388, -3.126, -0.0563008, -0.0994265, 0.0371897, 0.0437272, -0.0700339, 0.0141418, 0.0192158, -0.0505885
0.17206, 0.107509, -0.773946, -0.919198, -1.46215, -0.625404, 1.06873, -0.256492, -0.0185741, -0.0303429, 0.00129696, -0.157093, 0.00110371, -0.0487416, 0.0108504, 0.551216, 15.7156, 21.4979, 16.3644, 1.49707, 3.63254, -0.0292249, -0.000925716, 0.000927097, -0.00155071, -0.00227405, -0.0153621, 0.000551913, 0.0234874, -0.0230074, 0.0216385, 0.00567411, 0.128073, 0.325884, -0.00901756, -0.441964, 0.630878, -3.12249, -0.0567323, -0.123123, -0.0100272, -0.44295, 0.632337, -3.12588, -0.0563861, -0.0992728, 0.0376182, 0.0441005, -0.0707441, 0.0133714, 0.0198941, -0.0513696
0.17306, 0.107485, -0.773985, -0.919192, -1.46231, -0.625406, 1.06868, -0.256493, -0.0217157, -0.0347571, 0.00259171, -0.159405, 0.00448712, -0.0495464, 0.0058935, 0.475838, 15.8267, 21.4225, 16.4001, 1.52179, 3.60415, 0.0293689, -0.00095136, 0.00094905, -0.00157144, -0.00228642, -0.0156329, 0.000500754, 0.0251262, -0.0224316, 0.0219284, 0.00416079, 0.123389, 0.334228, -0.00897973, -0.441919, 0.630807, -3.12233, -0.0567555, -0.123389, -0.0100159, -0.442929, 0.632284, -3.12575, -0.0564929, -0.0991178, 0.0380486, 0.0444731, -0.0714557, 0.0121223, 0.0207751, -0.0519213
0.17406, 0.107461, -0.774017, -0.919189, -1.46248, -0.625405, 1.06863, -0.256483, -0.0218836, -0.0322479, 0.00170068, -0.159498, 0.00359179, -0.050517, 0.00600961, 0.436165, 15.8267, 21.4225, 16.3644, 1.5163, 3.58218, -0.00999879, -0.000976312, 0.000972059, -0.00159336, -0.00230033, -0.0159078, 0.000462926, 0.0253801, -0.0228006, 0.0224202, 0.00457397, 0.127607, 0.335562, -0.00894147, -0.441875, 0.630735, -3.12218, -0.056779, -0.123657, -0.0100036, -0.442909, 0.632231, -3.12563, -0.0565794, -0.0989591, 0.0384809, 0.044845, -0.0721687, 0.0122737, 0.020757, -0.0521778
0.17506, 0.10743, -0.77405, -0.919181, -1.46264, -0.625403, 1.06859, -0.256484, -0.0229373, -0.0326647, 0.00287668, -0.162579, 0.00316695, -0.0469375, 0.00250662, 0.436165, 15.791, 21.3471, 16.3248, 1.50348, 3.56845, 0.0431018, -0.00100202, 0.00099376, -0.00161646, -0.00231665, -0.0161848, 0.000413851, 0.0250509, -0.0233975, 0.0228971, 0.00818316, 0.128119, 0.343018, -0.00890277, -0.44183, 0.630663, -3.12202, -0.0568029, -0.123927, -0.00999181, -0.442887, 0.632179, -3.12551, -0.0566836, -0.0988001, 0.0389151, 0.0452163, -0.0728831, 0.0130173, 0.0205315, -0.0524079
0.17606, 0.107401, -0.774083, -0.919173, -1.46283, -0.625399, 1.06854, -0.256478, -0.0257046, -0.033088, 0.00357297, -0.167704, 0.00277538, -0.0485954, 0.00470003, 0.400459, 15.7513, 21.2757, 16.4001, 1.49158, 3.54648, -0.0292249, -0.00102359, 0.00101412, -0.00163513, -0.00232209, -0.0164738, 0.000361514, 0.0257795, -0.0229618, 0.0222178, 0.00596809, 0.132571, 0.343718, -0.00886363, -0.441784, 0.630589, -3.12185, -0.0568271, -0.1242, -0.00997514, -0.442864, 0.632122, -3.12538, -0.0563116, -0.0986241, 0.0393512, 0.0455868, -0.0735988, 0.0127622, 0.0213199, -0.0538605
0.17706, 0.107372, -0.774123, -0.919167, -1.463, -0.625395, 1.06849, -0.256486, -0.0279942, -0.035272, 0.00329855, -0.172846, 0.00201771, -0.0502536, 0.000717221, 0.360787, 15.791, 21.236, 16.4001, 1.49158, 3.53274, 0.0431018, -0.00105025, 0.0010355, -0.00165569, -0.00232914, -0.0167539, 0.000299766, 0.027214, -0.0228059, 0.0211905, 0.00306766, 0.135609, 0.350184, -0.00882406, -0.441738, 0.630515, -3.12169, -0.0568516, -0.124476, -0.00996321, -0.442841, 0.632066, -3.12525, -0.0564384, -0.0984653, 0.0397893, 0.0459565, -0.0743159, 0.011844, 0.0218095, -0.0557221
0.17806, 0.107341, -0.77416, -0.919157, -1.46318, -0.625396, 1.06843, -0.256477, -0.0298141, -0.0341064, 0.00395369, -0.173173, 0.00147073, -0.0565842, 0.00287917, 0.325081, 15.7156, 21.1606, 16.4001, 1.49158, 3.53274, -0.0164075, -0.00107732, 0.00105584, -0.00167764, -0.00233861, -0.0170468, 0.00025752, 0.0285685, -0.0218288, 0.021597, -0.000394887, 0.141009, 0.349274, -0.00878406, -0.441692, 0.630441, -3.12153, -0.0568764, -0.124755, -0.00995142, -0.442817, 0.63201, -3.12512, -0.0565352, -0.0982891, 0.0402292, 0.0463255, -0.0750342, 0.0108633, 0.0230953, -0.0561373
0.17906, 0.107341, -0.77416, -0.919157, -1.46318, -0.625396, 1.06843, -0.256477, -0.0298141, -0.0341064, 0.00395369, -0.173173, 0.00147073, -0.0565842, 0.00287917, 0.325081, 15.7156, 21.1606, 16.4001, 1.49158, 3.53274, -0.0164075, -0.00111292, 0.00109936, -0.00175723, -0.00249034, -0.0172334, 0.000272012, 0.0289602, -0.0221653, 0.0223649, 0.000875825, 0.141456, 0.352009, -0.00874361, -0.441646, 0.630365, -3.12136, -0.0569015, -0.125036, -0.00995142, -0.442817, 0.63201, -3.12512, -0.0565352, -0.0982891, 0.040671, 0.0466936, -0.0757538, 0.0108633, 0.0230953, -0.0561373
0.18006, 0.107341, -0.77416, -0.919157, -1.46318, -0.625396, 1.06843, -0.256477, -0.0298141, -0.0341064, 0.00395369, -0.173173, 0.00147073, -0.0565842, 0.00287917, 0.325081, 15.7156, 21.1606, 16.4001, 1.49158, 3.53274, -0.0164075, -0.00114889, 0.00114319, -0.00183761, -0.00264341, -0.0174219, 0.000286702, 0.0293534, -0.0225006, 0.0231344, 0.00214639, 0.141906, 0.354748, -0.00870271, -0.441599, 0.630289, -3.12119, -0.056927, -0.12532, -0.00995142, -0.442817, 0.63201, -3.12512, -0.0565352, -0.0982891, 0.0411146, 0.0470609, -0.0764746, 0.0108633, 0.0230953, -0.0561373
0.18106, 0.107279, -0.774244, -0.919137, -1.46354, -0.625393, 1.06832, -0.256477, -0.0334199, -0.0402211, 0.00778668, -0.17603, 0.00544687, -0.0563492, 0.00471329, 0.245735, 15.6442, 21.0138, 16.4359, 1.49158, 3.52542, -0.00267457, -0.00116969, 0.0011407, -0.00180248, -0.00250633, -0.017818, 0.000163411, 0.0305643, -0.0215258, 0.0240314, 0.00258393, 0.134854, 0.358386, -0.00866138, -0.441552, 0.630212, -3.12102, -0.0569528, -0.125606, -0.00992837, -0.442767, 0.631896, -3.12484, -0.0567686, -0.0979523, 0.0415602, 0.0474273, -0.0771966, 0.00999153, 0.0243715, -0.0560567
