alisrour97/Franka_experiments/Real_Robot_scripts/servo-franka/Data_video/log_dyn_PI3_0.csv
Time,q1,q2,q3,q4,q5,q6,q7,dq1,dq2,dq3,dq4,dq5,dq6,dq7,t1,t2,t3,t4,t5,t6,t7,ex1,ex2,ex3,ex4,ex5,ex6,ev1,ev2,ev3,ev4,ev5,ev6,xd,yd,zd,uxd,uyd,uzd,x,y,z,ux,uy,uz,vxd,vyd,vzd,vx,vy,vz
2.44141e-07, 0.107493, -0.7738, -0.914134, -1.454, -0.625238, 1.07116, -0.257081, -0.00230465, -0.000806079, 0.00537954, 0.007353, 0.000583032, -0.000837051, 4.91979e-05, 0.134651, 15.3467, 16.2491, 12.7423, 0.993529, 2.35629, 0.199657, 0.0012241, -0.00176497, -0.00136218, -0.0035281, 0.00170936, -0.000414754, 0.0010413, 0.000858242, 0.00373833, 0.00670031, -0.00587971, -0.00174072, -0.011112, -0.444721, 0.635038, -3.13187, -0.0555627, -0.107532, -0.0100479, -0.442925, 0.636488, -3.13526, -0.056503, -0.110416, 0, 0, 0, -0.00132465, 0.00078891, 0.00366318
0.0123904, 0.107507, -0.773792, -0.914125, -1.45395, -0.625236, 1.07115, -0.257078, 0.00135724, 0.000949755, 0.00107855, 0.00397495, 0.00539227, -0.000246314, 0.00711053, 0.059273, 15.311, 16.2095, 12.6669, 0.993529, 2.35629, 0.219799, 0.00122519, -0.00176514, -0.00137867, -0.00355336, 0.00173062, -0.000408926, -0.0014364, 0.000615741, 0.00149442, 0.000294209, -0.00565441, -0.00436593, -0.011112, -0.444721, 0.635038, -3.13187, -0.0555627, -0.107532, -0.0100478, -0.442926, 0.636508, -3.13529, -0.056485, -0.110466, 1.73063e-06, -1.42215e-06, -3.96181e-06, 0.0013096, 0.000651592, 0.00158937
0.0133904, 0.107507, -0.773792, -0.914125, -1.45395, -0.625236, 1.07115, -0.257078, 0.00135724, 0.000949755, 0.00107855, 0.00397495, 0.00539227, -0.000246314, 0.00711053, 0.059273, 15.311, 16.2095, 12.6669, 0.993529, 2.35629, 0.219799, 0.00122519, -0.00176514, -0.00137868, -0.00355338, 0.0017306, -0.000408918, -0.00143219, 0.000620248, 0.00150656, 0.00031833, -0.00563795, -0.00432236, -0.011112, -0.444721, 0.635038, -3.13187, -0.0555628, -0.107532, -0.0100478, -0.442926, 0.636508, -3.13529, -0.056485, -0.110466, 6.91577e-06, -5.6745e-06, -1.58141e-05, 0.0013096, 0.000651592, 0.00158937
0.0143904, 0.107507, -0.773792, -0.914125, -1.45395, -0.625236, 1.07115, -0.257078, 0.00135724, 0.000949755, 0.00107855, 0.00397495, 0.00539227, -0.000246314, 0.00711053, 0.059273, 15.311, 16.2095, 12.6669, 0.993529, 2.35629, 0.219799, 0.00122518, -0.00176515, -0.00137871, -0.00355343, 0.00173054, -0.000408899, -0.00142519, 0.000627734, 0.00152674, 0.000358385, -0.0056106, -0.00424996, -0.011112, -0.444721, 0.635038, -3.13187, -0.0555628, -0.107532, -0.0100478, -0.442926, 0.636508, -3.13529, -0.056485, -0.110466, 1.55453e-05, -1.2736e-05, -3.55071e-05, 0.0013096, 0.000651592, 0.00158937
0.0153904, 0.107507, -0.773792, -0.914125, -1.45395, -0.625236, 1.07115, -0.257078, 0.00135724, 0.000949755, 0.00107855, 0.00397495, 0.00539227, -0.000246314, 0.00711053, 0.059273, 15.311, 16.2095, 12.6669, 0.993529, 2.35629, 0.219799, 0.00122516, -0.00176517, -0.00137876, -0.00355354, 0.00173042, -0.000408861, -0.0014154, 0.000638178, 0.0015549, 0.000414259, -0.00557245, -0.00414892, -0.011112, -0.444721, 0.635038, -3.13187, -0.0555628, -0.107532, -0.0100478, -0.442926, 0.636508, -3.13529, -0.056485, -0.110466, 2.7609e-05, -2.25855e-05, -6.29913e-05, 0.0013096, 0.000651592, 0.00158937
0.0163904, 0.107507, -0.773792, -0.914125, -1.45395, -0.625236, 1.07115, -0.257078, 0.00135724, 0.000949755, 0.00107855, 0.00397495, 0.00539227, -0.000246314, 0.00711053, 0.059273, 15.311, 16.2095, 12.6669, 0.993529, 2.35629, 0.219799, 0.00122514, -0.0017652, -0.00137884, -0.00355371, 0.00173024, -0.000408799, -0.00140282, 0.000651556, 0.00159099, 0.000485834, -0.00552354, -0.00401942, -0.0111119, -0.444721, 0.635038, -3.13187, -0.0555629, -0.107532, -0.0100478, -0.442926, 0.636508, -3.13529, -0.056485, -0.110466, 4.30968e-05, -3.5202e-05, -9.82172e-05, 0.0013096, 0.000651592, 0.00158937
0.0173904, 0.107507, -0.773792, -0.914125, -1.45395, -0.625236, 1.07115, -0.257078, 0.00135724, 0.000949755, 0.00107855, 0.00397495, 0.00539227, -0.000246314, 0.00711053, 0.059273, 15.311, 16.2095, 12.6669, 0.993529, 2.35629, 0.219799, 0.00122509, -0.00176525, -0.00137896, -0.00355397, 0.00172996, -0.000408707, -0.00138746, 0.000667848, 0.00163497, 0.000572992, -0.00546397, -0.00386165, -0.0111119, -0.444721, 0.635038, -3.13187, -0.0555631, -0.107533, -0.0100478, -0.442926, 0.636508, -3.13529, -0.056485, -0.110466, 6.19987e-05, -5.05647e-05, -0.000141136, 0.0013096, 0.000651592, 0.00158937
0.0183906, 0.107507, -0.773792, -0.914125, -1.45395, -0.625236, 1.07115, -0.257078, 0.00135724, 0.000949755, 0.00107855, 0.00397495, 0.00539227, -0.000246314, 0.00711053, 0.059273, 15.311, 16.2095, 12.6669, 0.993529, 2.35629, 0.219799, 0.00122504, -0.00176531, -0.00137913, -0.00355433, 0.00172957, -0.000408578, -0.00136934, 0.000687032, 0.00168678, 0.000675616, -0.00539379, -0.00367577, -0.0111118, -0.444721, 0.635037, -3.13187, -0.0555633, -0.107533, -0.0100478, -0.442926, 0.636508, -3.13529, -0.056485, -0.110466, 8.43044e-05, -6.86525e-05, -0.000191697, 0.0013096, 0.000651592, 0.00158937
0.0193906, 0.107507, -0.773792, -0.914125, -1.45395, -0.625236, 1.07115, -0.257078, 0.00135724, 0.000949755, 0.00107855, 0.00397495, 0.00539227, -0.000246314, 0.00711053, 0.059273, 15.311, 16.2095, 12.6669, 0.993529, 2.35629, 0.219799, 0.00122496, -0.0017654, -0.00137935, -0.00355481, 0.00172905, -0.000408407, -0.00134844, 0.000709087, 0.00174637, 0.000793591, -0.00531307, -0.00346199, -0.0111117, -0.444721, 0.635037, -3.13187, -0.0555636, -0.107534, -0.0100478, -0.442926, 0.636508, -3.13529, -0.056485, -0.110466, 0.000110004, -8.94448e-05, -0.000249853, 0.0013096, 0.000651592, 0.00158937
0.0203906, 0.107507, -0.773792, -0.914125, -1.45395, -0.625236, 1.07115, -0.257078, 0.00135724, 0.000949755, 0.00107855, 0.00397495, 0.00539227, -0.000246314, 0.00711053, 0.059273, 15.311, 16.2095, 12.6669, 0.993529, 2.35629, 0.219799, 0.00122486, -0.0017655, -0.00137964, -0.00355542, 0.00172839, -0.000408188, -0.00132478, 0.000733991, 0.00181371, 0.0009268, -0.0052219, -0.00322047, -0.0111116, -0.444721, 0.635037, -3.13187, -0.055564, -0.107535, -0.0100478, -0.442926, 0.636508, -3.13529, -0.056485, -0.110466, 0.000139087, -0.000112921, -0.000315553, 0.0013096, 0.000651592, 0.00158937
0.0213906, 0.107514, -0.773765, -0.91412, -1.45392, -0.625238, 1.07116, -0.257083, 0.000314513, 0.00490827, -0.000486234, 0.0036234, 0.00044219, 0.000362732, -0.00279923, -0.0557783, 15.0531, 16.1381, 12.5201, 1.00635, 2.32059, 0.239025, 0.00123232, -0.00176451, -0.00139065, -0.00358003, 0.00171958, -0.000410091, -0.000714739, -8.40787e-05, 0.00156672, 0.00294888, 0.00258446, 0.00252826, -0.0111114, -0.444721, 0.635037, -3.13186, -0.0555644, -0.107536, -0.0100409, -0.442926, 0.636519, -3.13531, -0.0564876, -0.110455, 0.000171544, -0.000139059, -0.00038875, 0.000779927, -0.000211416, 0.00122283
0.0223906, 0.107518, -0.773754, -0.914114, -1.45392, -0.625238, 1.07116, -0.257078, 0.00104254, 0.00701318, 0.0014426, 0.00269192, -0.00929133, -2.95399e-05, -0.000376909, -0.0914839, 14.9063, 16.0627, 12.5201, 1.01276, 2.32791, 0.193248, 0.00123866, -0.00176529, -0.00139395, -0.00358816, 0.00171, -0.000411357, -0.00051696, -0.000635215, 0.00193438, 0.00790127, 0.0128786, -0.0016022, -0.0111112, -0.444721, 0.635036, -3.13186, -0.055565, -0.107538, -0.0100347, -0.442926, 0.636523, -3.13532, -0.0564899, -0.110442, 0.000207364, -0.00016784, -0.000469394, 0.000613062, -0.000801093, 0.00149197
0.0233906, 0.107524, -0.773751, -0.914118, -1.45392, -0.62524, 1.07116, -0.257085, 0.0024565, 0.00574116, -0.00163408, 0.00255893, -0.00623876, 0.0081059, -0.00260995, -0.166862, 14.8706, 16.1738, 12.6312, 0.993529, 2.36362, 0.252758, 0.0012407, -0.0017646, -0.00139327, -0.00358707, 0.00170479, -0.000420528, -0.00121864, -0.00238437, 0.0017425, 0.0115068, 0.00555992, 0.00155637, -0.011111, -0.444722, 0.635036, -3.13186, -0.0555656, -0.10754, -0.0100323, -0.442926, 0.636522, -3.13532, -0.0565049, -0.110436, 0.000246538, -0.000199242, -0.000557437, 0.00142737, -0.00255417, 0.00124992
0.0243906, 0.107524, -0.773744, -0.914114, -1.45391, -0.625242, 1.07116, -0.25708, 0.00163634, 0.00659876, 0.00578547, 0.00326586, -0.00428583, 0.0112466, 0.00180617, -0.166862, 14.7595, 16.2848, 12.8534, 0.981627, 2.47897, 0.153881, 0.00124277, -0.0017656, -0.00139638, -0.00359345, 0.00169505, -0.000415532, -0.00403753, -0.00125089, 0.0045007, 0.0188477, 0.00266437, 0.00290586, -0.0111107, -0.444722, 0.635035, -3.13186, -0.0555664, -0.107542, -0.0100302, -0.442926, 0.636524, -3.13532, -0.0564977, -0.110423, 0.000289055, -0.000233245, -0.00065283, 0.00405114, -0.00138001, 0.00410682
0.0253906, 0.107517, -0.773743, -0.914099, -1.4539, -0.625247, 1.07116, -0.257082, -0.000673339, 0.00452883, 0.0136457, 0.00630556, -0.00443571, 0.0138671, -0.00235889, -0.0914839, 14.7595, 16.4356, 13.1152, 1.01276, 2.60074, 0.120922, 0.00124086, -0.00176644, -0.00140627, -0.00362012, 0.00170246, -0.000411171, -0.0044892, -0.000344232, 0.00799555, 0.0281715, -0.00281928, 0.00950354, -0.0111104, -0.444722, 0.635034, -3.13186, -0.0555673, -0.107544, -0.0100326, -0.442925, 0.636533, -3.13535, -0.0564908, -0.110439, 0.000334905, -0.000269828, -0.000755525, 0.00427576, -0.000524721, 0.00752729
0.0263906, 0.107519, -0.773744, -0.914076, -1.45389, -0.625254, 1.07117, -0.257091, 0.000478382, 0.00228124, 0.0181163, 0.0118099, -0.00885124, 0.0156277, -0.00324992, -0.131157, 14.7952, 16.6578, 13.6389, 1.03656, 2.72983, 0.153881, 0.00124618, -0.00176828, -0.00141728, -0.00365187, 0.00170792, -0.000430315, -0.00388128, -0.000672102, 0.0110985, 0.0375852, -0.00624548, 0.0104072, -0.0111101, -0.444722, 0.635033, -3.13186, -0.0555684, -0.107547, -0.0100277, -0.442924, 0.636544, -3.13538, -0.0565205, -0.110452, 0.000384079, -0.000308971, -0.000865474, 0.00351812, -0.000939626, 0.0104691
0.0273906, 0.107509, -0.773741, -0.914041, -1.45386, -0.625266, 1.07118, -0.257094, -0.0023729, 0.00403417, 0.0249286, 0.0157015, -0.00812503, 0.0173215, -0.00203437, -0.0161054, 14.8309, 16.8799, 14.0872, 1.07959, 2.85892, 0.141063, 0.00124673, -0.00177058, -0.00143802, -0.00370886, 0.00171936, -0.000430001, -0.00481721, 0.000351033, 0.0146434, 0.0458568, -0.00861068, 0.0103252, -0.0111097, -0.444723, 0.635033, -3.13186, -0.0555696, -0.10755, -0.0100283, -0.442922, 0.636564, -3.13543, -0.0565191, -0.110477, 0.000436566, -0.000350653, -0.000982628, 0.00422458, 4.35403e-05, 0.013959
0.0283906, 0.1075, -0.773738, -0.91401, -1.45384, -0.625273, 1.0712, -0.257091, -0.00510883, 0.00208909, 0.0288868, 0.0187038, -0.00636428, 0.0141259, -0.000155038, 0.134651, 14.8706, 17.2925, 14.6823, 1.09241, 2.98068, 0.101696, 0.00124767, -0.00177219, -0.00145761, -0.00376231, 0.00173454, -0.000423504, -0.003622, 0.00179513, 0.01654, 0.0468497, -0.0122593, 0.00849557, -0.0111092, -0.444723, 0.635032, -3.13185, -0.0555709, -0.107554, -0.0100283, -0.442921, 0.636582, -3.13548, -0.0565083, -0.110508, 0.000492356, -0.000394854, -0.00110694, 0.00290733, 0.00138408, 0.0156536
0.0293906, 0.107496, -0.773735, -0.913967, -1.45379, -0.625284, 1.07121, -0.257099, -0.00628264, 0.00308224, 0.0365286, 0.0271011, -0.00639466, 0.0160058, -0.000533358, 0.134651, 14.942, 17.6615, 15.1703, 1.14093, 3.11618, 0.108104, 0.00125096, -0.00177427, -0.00148615, -0.00383669, 0.00175961, -0.000431627, -0.00425912, 0.00252984, 0.0216478, 0.0585259, -0.0178507, 0.00969022, -0.0111087, -0.444723, 0.63503, -3.13185, -0.0555724, -0.107558, -0.0100265, -0.442919, 0.63661, -3.13555, -0.0565197, -0.110556, 0.000551439, -0.000441554, -0.00123836, 0.00322573, 0.00204997, 0.0206661
0.0303906, 0.107487, -0.773731, -0.91392, -1.45375, -0.625289, 1.07123, -0.257102, -0.0061916, 0.00392767, 0.0412649, 0.0316245, -0.00476646, 0.0170156, -0.00172075, 0.21003, 15.0174, 18.0741, 15.7297, 1.14734, 3.26724, 0.141063, 0.00125398, -0.00177788, -0.00151695, -0.00391337, 0.00178914, -0.000434216, -0.00551249, 0.00324994, 0.0246339, 0.0645946, -0.0217277, 0.0135521, -0.0111081, -0.444724, 0.635029, -3.13185, -0.0555741, -0.107563, -0.0100251, -0.442916, 0.63664, -3.13562, -0.0565224, -0.110612, 0.000613805, -0.000490732, -0.00137684, 0.00430754, 0.00273873, 0.0235973
0.0313906, 0.107481, -0.773726, -0.913868, -1.45369, -0.625297, 1.07125, -0.257099, -0.00801109, 0.00238212, 0.0479928, 0.0406845, -0.00337714, 0.0185333, 0.00067725, 0.245735, 15.0531, 18.4827, 16.178, 1.14734, 3.39633, 0.0888782, 0.00125772, -0.00178101, -0.0015526, -0.00400254, 0.00182397, -0.00043115, -0.00488971, 0.00396123, 0.0295932, 0.0749975, -0.0311226, 0.0110232, -0.0111074, -0.444724, 0.635028, -3.13184, -0.055576, -0.107568, -0.0100233, -0.442914, 0.636674, -3.1357, -0.0565161, -0.110677, 0.000679445, -0.000542368, -0.00152234, 0.00338728, 0.00333317, 0.0283609
0.0323906, 0.107478, -0.773717, -0.913804, -1.45363, -0.625302, 1.07127, -0.257106, -0.0057147, 0.00203725, 0.0499582, 0.0465575, -0.00553695, 0.0194042, -0.00179991, 0.245735, 15.0531, 18.7803, 16.5509, 1.10431, 3.53274, 0.147472, 0.00126733, -0.00178677, -0.00159289, -0.00409958, 0.00186, -0.000449477, -0.00481739, 0.00357339, 0.0320955, 0.0813753, -0.0339688, 0.0137998, -0.0111067, -0.444725, 0.635026, -3.13184, -0.055578, -0.107574, -0.010016, -0.442909, 0.636713, -3.13579, -0.056543, -0.110745, 0.000748347, -0.000596442, -0.0016748, 0.0032265, 0.00286729, 0.0306974
0.0333906, 0.107475, -0.773713, -0.913749, -1.45356, -0.625306, 1.07129, -0.257111, -0.00697967, 0.0040055, 0.0486918, 0.0515879, -0.00728801, 0.0222197, -0.00149825, 0.245735, 15.0888, 19.1889, 16.8842, 1.06128, 3.61148, 0.153881, 0.00127216, -0.0017899, -0.00163237, -0.00419646, 0.00190371, -0.000455288, -0.00330186, 0.00244667, 0.0337938, 0.0871203, -0.0351071, 0.00843791, -0.0111059, -0.444726, 0.635024, -3.13184, -0.0555803, -0.10758, -0.0100132, -0.442906, 0.636751, -3.13588, -0.0565506, -0.110826, 0.000820503, -0.000652933, -0.00183418, 0.00171145, 0.00161673, 0.0321212
0.0343906, 0.107482, -0.773713, -0.913688, -1.45349, -0.625308, 1.07131, -0.257105, -0.00250581, 0.00142189, 0.0545608, 0.0577259, -0.00879264, 0.0238638, 0.00112559, 0.134651, 15.1642, 19.4507, 17.1103, 1.01825, 3.69754, 0.0952869, 0.00128106, -0.00179429, -0.00167414, -0.00429542, 0.00195665, -0.000465188, -0.0049085, 0.00263956, 0.0374226, 0.0962525, -0.0414136, 0.0114897, -0.0111051, -0.444726, 0.635022, -3.13183, -0.0555828, -0.107587, -0.0100065, -0.442903, 0.636792, -3.13597, -0.0565646, -0.110922, 0.000895902, -0.000711822, -0.00200043, 0.00313319, 0.00177566, 0.0356867
0.0353906, 0.107484, -0.773708, -0.913626, -1.45342, -0.625309, 1.07133, -0.257108, -0.00309285, 0.00133402, 0.054199, 0.0597542, -0.00436049, 0.0264221, 4.03097e-06, 0.059273, 15.1642, 19.6372, 17.2968, 0.951415, 3.74057, 0.114513, 0.00129051, -0.00179835, -0.0017184, -0.0044022, 0.0020077, -0.000478546, -0.00515726, 0.00257022, 0.038358, 0.097782, -0.0472157, 0.0134803, -0.0111041, -0.444727, 0.63502, -3.13183, -0.0555855, -0.107594, -0.00999936, -0.442899, 0.636834, -3.13607, -0.0565839, -0.111017, 0.000974534, -0.000773089, -0.00217351, 0.00339809, 0.0016456, 0.0364635
0.0363906, 0.107496, -0.773701, -0.913569, -1.45335, -0.625317, 1.07135, -0.257113, 0.000973544, 0.00201414, 0.0504969, 0.065011, -0.0031628, 0.023758, -0.00527106, -0.0914839, 15.1285, 19.8237, 17.4435, 0.938597, 3.7836, 0.128246, 0.00130096, -0.00180108, -0.00176044, -0.00450488, 0.0020498, -0.000496321, -0.00475803, 0.00212739, 0.0387579, 0.0956265, -0.0490802, 0.0185323, -0.0111031, -0.444728, 0.635018, -3.13182, -0.0555884, -0.107602, -0.00999092, -0.442897, 0.636875, -3.13617, -0.0566106, -0.111097, 0.00105639, -0.000836713, -0.00235336, 0.00307012, 0.00112176, 0.0366524
0.0373906, 0.107507, -0.7737, -0.913518, -1.45327, -0.625319, 1.07138, -0.257115, 0.00883033, 0.00155994, 0.0516182, 0.0713463, -0.0013001, 0.0236916, -0.00791049, -0.206535, 15.1285, 19.9705, 17.4832, 0.901976, 3.76895, 0.108104, 0.00130822, -0.00180218, -0.00180265, -0.00460839, 0.00210594, -0.00050633, -0.00741171, 0.00204547, 0.0409405, 0.0987998, -0.0548025, 0.0281981, -0.011102, -0.444729, 0.635016, -3.13182, -0.0555915, -0.107611, -0.00998552, -0.442897, 0.636915, -3.13626, -0.0566252, -0.1112, 0.00114146, -0.000902674, -0.00253994, 0.00565418, 0.00104824, 0.0388252
0.0383906, 0.107526, -0.773699, -0.913461, -1.45319, -0.625323, 1.07141, -0.257113, 0.0113886, 0.00120285, 0.0532919, 0.0767977, 0.000316043, 0.024161, -0.00502892, -0.43267, 15.1285, 19.9347, 17.3325, 0.858946, 3.73324, 0.0824695, 0.00131803, -0.00180299, -0.00185033, -0.00472463, 0.00217059, -0.000518439, -0.00812449, 0.00214227, 0.0432289, 0.102791, -0.0599872, 0.0278385, -0.0111008, -0.44473, 0.635013, -3.13181, -0.0555949, -0.10762, -0.00997786, -0.442897, 0.636961, -3.13637, -0.0566429, -0.111318, 0.00122973, -0.000970953, -0.00273321, 0.00629265, 0.00108175, 0.0409645
0.0393906, 0.107557, -0.773701, -0.913417, -1.4531, -0.625334, 1.07144, -0.257123, 0.0156395, 0.000924061, 0.0533906, 0.0764017, -0.00546156, 0.0263298, -0.00581391, -0.76989, 15.1285, 19.9347, 17.2214, 0.877257, 3.63986, 0.134655, 0.00132806, -0.00179979, -0.0018926, -0.00483465, 0.00222893, -0.000542358, -0.00905057, 0.00109454, 0.043397, 0.107142, -0.0564421, 0.0310991, -0.0110996, -0.444731, 0.63501, -3.1318, -0.0555986, -0.10763, -0.00996938, -0.442902, 0.637001, -3.13646, -0.0566795, -0.111427, 0.00132119, -0.00104153, -0.00293311, 0.00733304, -4.98916e-06, 0.0409895
0.0403906, 0.107577, -0.773697, -0.913376, -1.45302, -0.625339, 1.07147, -0.25712, 0.0150001, 0.0024709, 0.0486107, 0.0774842, -0.00868922, 0.0272836, -0.00654275, -0.960319, 15.0531, 19.8594, 17.0349, 0.870848, 3.56112, 0.0687366, 0.00133504, -0.001797, -0.00193566, -0.00494392, 0.00228624, -0.000542307, -0.00687021, -0.000315536, 0.0427415, 0.10748, -0.0531363, 0.0262006, -0.0110982, -0.444732, 0.635007, -3.1318, -0.0556025, -0.107641, -0.00996393, -0.442906, 0.637041, -3.13656, -0.056679, -0.111535, 0.00141584, -0.00111438, -0.0031396, 0.00534881, -0.00155833, 0.0399704
0.0413906, 0.107611, -0.773693, -0.913333, -1.45294, -0.625353, 1.07151, -0.25713, 0.023081, 0.00431444, 0.0490085, 0.0779119, -0.0118028, 0.0331957, -0.0105204, -1.26183, 14.942, 19.5975, 16.8484, 0.883666, 3.46042, 0.0888782, 0.00134782, -0.00179307, -0.00197836, -0.00505804, 0.00233816, -0.00056851, -0.0109745, -0.00177513, 0.0435542, 0.114452, -0.0518904, 0.037614, -0.0110967, -0.444733, 0.635004, -3.13179, -0.0556067, -0.107652, -0.00995252, -0.442911, 0.637081, -3.13667, -0.0567195, -0.111635, 0.00151366, -0.0011895, -0.00335263, 0.00953479, -0.00295494, 0.0408413
0.0423906, 0.107642, -0.773694, -0.913303, -1.45285, -0.625363, 1.07155, -0.257133, 0.026996, 0.00376305, 0.0439054, 0.0795469, -0.0135691, 0.0333461, -0.00717861, -1.48797, 14.9063, 19.4111, 16.5866, 0.883666, 3.34598, 0.0687366, 0.00135448, -0.00178533, -0.00201882, -0.00517102, 0.00240102, -0.00057498, -0.0101373, -0.00312878, 0.0427034, 0.113101, -0.0516986, 0.0334056, -0.0110952, -0.444734, 0.635, -3.13178, -0.0556111, -0.107664, -0.00994684, -0.44292, 0.637119, -3.13677, -0.0567296, -0.111753, 0.00161465, -0.00126685, -0.00357216, 0.00890737, -0.00440744, 0.039707
0.0433906, 0.10768, -0.773688, -0.913277, -1.45277, -0.62538, 1.07159, -0.257144, 0.0280094, 0.00514581, 0.0383439, 0.0823141, -0.0152933, 0.0414097, -0.00716442, -1.75378, 14.7952, 19.1532, 16.2494, 0.895568, 3.26724, 0.114513, 0.00136346, -0.00177621, -0.0020589, -0.00528477, 0.00245053, -0.000587951, -0.00907337, -0.00595007, 0.0429381, 0.11926, -0.0543097, 0.0287489, -0.0110935, -0.444735, 0.634997, -3.13177, -0.0556159, -0.107677, -0.00993867, -0.44293, 0.637156, -3.13687, -0.0567501, -0.111851, 0.00171879, -0.00134642, -0.00379814, 0.00803509, -0.00734627, 0.0396244
0.0443906, 0.107712, -0.773688, -0.913256, -1.45268, -0.625395, 1.07164, -0.257141, 0.0288569, 0.00429475, 0.0348039, 0.0866479, -0.0159066, 0.0437789, -0.00264387, -1.90453, 14.7595, 18.8556, 15.9161, 0.889159, 3.1528, 0.0431018, 0.0013677, -0.00176466, -0.00209908, -0.00540452, 0.00251438, -0.000578891, -0.0071854, -0.00735588, 0.0436483, 0.122046, -0.0582398, 0.0207112, -0.0110917, -0.444737, 0.634993, -3.13176, -0.0556209, -0.107691, -0.00993503, -0.442943, 0.637192, -3.13697, -0.0567363, -0.111972, 0.00182607, -0.00142819, -0.00403052, 0.00626125, -0.00890592, 0.0399618
0.0453906, 0.107757, -0.773679, -0.913234, -1.45259, -0.62541, 1.0717, -0.257145, 0.0345429, 0.00548336, 0.0336369, 0.0870834, -0.0169138, 0.0496584, -0.00660198, -2.13067, 14.6484, 18.4827, 15.5789, 0.895568, 3.05942, 0.0357776, 0.00137994, -0.00175304, -0.00213992, -0.00552607, 0.00256834, -0.00058856, -0.0099267, -0.00881794, 0.0440918, 0.127224, -0.0591299, 0.0296263, -0.0110899, -0.444738, 0.634989, -3.13175, -0.0556263, -0.107706, -0.00992336, -0.442956, 0.637229, -3.13708, -0.056752, -0.112079, 0.00193648, -0.00151214, -0.00426926, 0.00912621, -0.0103587, 0.040345
0.0463906, 0.10781, -0.773673, -0.913225, -1.4525, -0.625426, 1.07175, -0.257161, 0.037727, 0.00627034, 0.02755, 0.0880717, -0.0169606, 0.0584754, -0.00776219, -2.3211, 14.5374, 18.1852, 15.206, 0.883666, 2.97336, 0.108104, 0.00139007, -0.00173711, -0.00217888, -0.00564725, 0.00262952, -0.000605391, -0.0102406, -0.0116403, 0.0436355, 0.131804, -0.0627609, 0.0296975, -0.0110879, -0.44474, 0.634984, -3.13174, -0.0556319, -0.107721, -0.0099134, -0.442974, 0.637264, -3.13719, -0.056779, -0.112199, 0.00205002, -0.00159825, -0.00451432, 0.00968439, -0.0132507, 0.0396485
0.0473906, 0.107852, -0.773671, -0.913215, -1.45241, -0.625445, 1.07182, -0.257159, 0.0414671, 0.00419246, 0.0227913, 0.0901, -0.0210331, 0.0593605, -0.00327888, -2.3211, 14.5374, 17.8876, 14.9084, 0.852538, 2.90835, 0.0431018, 0.00139618, -0.00172061, -0.00221788, -0.00577436, 0.00269352, -0.000597503, -0.00849937, -0.0133661, 0.0430519, 0.132511, -0.0629503, 0.0232372, -0.0110858, -0.444741, 0.63498, -3.13173, -0.0556379, -0.107738, -0.00990732, -0.442992, 0.637299, -3.1373, -0.0567677, -0.112323, 0.00216668, -0.00168649, -0.00476563, 0.00816634, -0.0151202, 0.0386843
0.0483906, 0.107908, -0.773663, -0.913205, -1.45233, -0.625469, 1.07189, -0.257169, 0.0463173, 0.0054026, 0.0170554, 0.0915438, -0.0208342, 0.0649086, -0.00304432, -2.39648, 14.4263, 17.5504, 14.6069, 0.858946, 2.83694, 0.0559192, 0.00140918, -0.00170193, -0.00225752, -0.00590976, 0.0027497, -0.00060973, -0.00939286, -0.0155561, 0.042521, 0.134576, -0.0649921, 0.0237735, -0.0110835, -0.444743, 0.634975, -3.13172, -0.0556442, -0.107755, -0.00989421, -0.443012, 0.637335, -3.13742, -0.0567878, -0.112437, 0.00228643, -0.00177687, -0.00502317, 0.00929117, -0.0173635, 0.0379448
0.0493906, 0.10796, -0.773658, -0.913197, -1.45224, -0.62549, 1.07197, -0.257182, 0.0515679, 0.00527905, 0.0157855, 0.0927412, -0.0239692, 0.068121, -0.0083247, -2.28143, 14.3549, 17.2172, 14.4205, 0.834227, 2.79391, 0.0888782, 0.00142025, -0.0016833, -0.00229608, -0.00604321, 0.00280916, -0.000622594, -0.010638, -0.0168539, 0.0429224, 0.138737, -0.0646894, 0.0321715, -0.0110812, -0.444745, 0.634969, -3.13171, -0.0556509, -0.107773, -0.00988284, -0.443033, 0.637368, -3.13754, -0.0568092, -0.112557, 0.00240928, -0.00186934, -0.00528689, 0.0106739, -0.018713, 0.0381589
0.0503906, 0.108021, -0.77365, -0.913184, -1.45214, -0.625516, 1.07205, -0.257188, 0.0567561, 0.00528776, 0.0164108, 0.0937855, -0.0225303, 0.0747471, -0.0098726, -2.20605, 14.2795, 16.8085, 14.1229, 0.827819, 2.77286, 0.0623279, 0.00143496, -0.00166248, -0.00234096, -0.00619729, 0.00287515, -0.00063309, -0.0137923, -0.0178586, 0.0441341, 0.144979, -0.0694339, 0.0405245, -0.0110787, -0.444747, 0.634964, -3.1317, -0.0556578, -0.107792, -0.00986807, -0.443056, 0.637409, -3.13767, -0.0568265, -0.11269, 0.00253522, -0.00196389, -0.00555673, 0.013897, -0.0197116, 0.0393087
0.0513906, 0.108084, -0.773641, -0.913187, -1.45205, -0.625544, 1.07214, -0.257197, 0.0621279, 0.00696272, 0.00832801, 0.0910289, -0.0214723, 0.0750184, -0.0117134, -2.05529, 14.1327, 16.6221, 13.9722, 0.822325, 2.75821, 0.0495105, 0.00144733, -0.0016378, -0.0023803, -0.00634425, 0.0029364, -0.000637085, -0.0147833, -0.0191949, 0.0412036, 0.138285, -0.0661148, 0.0445011, -0.0110761, -0.444749, 0.634958, -3.13168, -0.0556652, -0.107812, -0.009855, -0.443082, 0.637443, -3.1378, -0.0568343, -0.112816, 0.00266423, -0.00206051, -0.00583265, 0.0152624, -0.0210835, 0.036169
0.0523906, 0.108146, -0.773636, -0.913187, -1.45195, -0.625573, 1.07223, -0.257209, 0.0654657, 0.00640795, 0.00666038, 0.098139, -0.0247259, 0.0783567, -0.0107769, -1.86486, 14.0573, 16.3959, 13.7143, 0.797606, 2.77926, 0.101696, 0.00145687, -0.00161197, -0.00242439, -0.00650435, 0.00300976, -0.000640027, -0.0136714, -0.0209194, 0.0433689, 0.145779, -0.0700536, 0.0414467, -0.0110734, -0.444751, 0.634952, -3.13167, -0.0556729, -0.107834, -0.0098449, -0.44311, 0.637482, -3.13794, -0.0568403, -0.112962, 0.0027963, -0.00215917, -0.00611461, 0.0141985, -0.0229642, 0.0379596
0.0533906, 0.108213, -0.773632, -0.913189, -1.45185, -0.625605, 1.07233, -0.257216, 0.0675343, 0.00594458, 0.00231527, 0.0967165, -0.0278412, 0.0863874, -0.00650296, -1.63873, 13.9859, 16.1738, 13.5992, 0.791197, 2.79391, 0.0623279, 0.00146864, -0.00158434, -0.00246714, -0.00666784, 0.00308027, -0.000641523, -0.01347, -0.0234466, 0.0426385, 0.150877, -0.0706849, 0.0362139, -0.0110705, -0.444753, 0.634946, -3.13166, -0.0556809, -0.107856, -0.0098323, -0.44314, 0.637519, -3.13809, -0.0568442, -0.113105, 0.00293143, -0.00225986, -0.00640257, 0.0142729, -0.0255916, 0.0369129
0.0543906, 0.108287, -0.773629, -0.913195, -1.45175, -0.625643, 1.07244, -0.257217, 0.0701101, 0.00489271, -0.000898644, 0.0968212, -0.0356537, 0.091614, -0.00274746, -1.45226, 13.9462, 15.9516, 13.4525, 0.804015, 2.82229, 0.00373412, 0.00148083, -0.00155462, -0.00250997, -0.00683612, 0.0031508, -0.000637462, -0.0121369, -0.0258991, 0.0424151, 0.157145, -0.0679744, 0.0298437, -0.0110675, -0.444756, 0.63494, -3.13164, -0.0556894, -0.107879, -0.00981907, -0.443172, 0.637556, -3.13823, -0.0568397, -0.11325, 0.00306961, -0.00236255, -0.00669647, 0.0131845, -0.0281907, 0.0362885
0.0553906, 0.10837, -0.773629, -0.913204, -1.45165, -0.62568, 1.07255, -0.257231, 0.0736052, 0.00326303, -0.00396772, 0.0993456, -0.0359315, 0.0960692, -0.00420114, -1.33721, 13.9462, 15.7651, 13.3414, 0.797606, 2.84427, 0.0559192, 0.00149556, -0.00152244, -0.00255308, -0.00701025, 0.00322945, -0.000652745, -0.0119649, -0.0275023, 0.0428583, 0.160772, -0.0727098, 0.032115, -0.0110644, -0.444758, 0.634933, -3.13162, -0.0556982, -0.107903, -0.00980311, -0.443206, 0.637593, -3.13838, -0.0568655, -0.113408, 0.00321082, -0.00246723, -0.00699628, 0.0131807, -0.0299081, 0.0364085
0.0563906, 0.108446, -0.77363, -0.913212, -1.45154, -0.62572, 1.07267, -0.257235, 0.0729463, 0.00124825, -0.00531622, 0.10438, -0.0358825, 0.100507, -0.00589225, -1.07537, 13.9859, 15.543, 13.2263, 0.784789, 2.84427, 0.00373412, 0.00150527, -0.00148951, -0.00259872, -0.00719179, 0.00331083, -0.000645344, -0.00992805, -0.0287803, 0.0446735, 0.167026, -0.0797917, 0.0306822, -0.0110611, -0.444761, 0.634926, -3.13161, -0.0557074, -0.107928, -0.00979215, -0.443242, 0.637631, -3.13854, -0.056856, -0.113573, 0.00335505, -0.00257388, -0.00730195, 0.0112147, -0.0313803, 0.0377647
0.0573906, 0.108528, -0.773623, -0.91323, -1.45143, -0.625764, 1.07279, -0.257245, 0.075142, 0.00343131, -0.00981358, 0.108252, -0.041553, 0.107222, -0.00480258, -0.920646, 13.8748, 15.4676, 13.1152, 0.797606, 2.85892, 0.0101428, 0.00151672, -0.00145297, -0.00264336, -0.00737761, 0.0033858, -0.000641308, -0.0087892, -0.0316478, 0.0455167, 0.175206, -0.0785864, 0.0247904, -0.0110577, -0.444763, 0.634918, -3.13159, -0.055717, -0.107955, -0.00977912, -0.443281, 0.637669, -3.13871, -0.056852, -0.113729, 0.0035023, -0.00268248, -0.00761342, 0.0102706, -0.0344029, 0.0381971
0.0583906, 0.108617, -0.773621, -0.913244, -1.45132, -0.625805, 1.07292, -0.25726, 0.0825053, 0.00312328, -0.010353, 0.107313, -0.0400374, 0.113552, -0.0101069, -0.76989, 13.8391, 15.2811, 13.0399, 0.784789, 2.85892, 0.0559192, 0.00153175, -0.00141647, -0.00268958, -0.00756905, 0.00346897, -0.000651873, -0.0128104, -0.032742, 0.0457408, 0.179219, -0.0821215, 0.0394087, -0.0110541, -0.444766, 0.63491, -3.13157, -0.055727, -0.107982, -0.00976249, -0.44332, 0.637708, -3.13887, -0.0568709, -0.113899, 0.00365255, -0.002793, -0.00793067, 0.0144532, -0.0354677, 0.0383735
0.0593906, 0.108705, -0.773626, -0.913264, -1.45121, -0.625851, 1.07305, -0.257266, 0.0823249, 0.000412135, -0.0115679, 0.108887, -0.042853, 0.118981, -0.0109962, -0.619133, 13.9105, 15.1304, 13.0042, 0.748168, 2.83694, 0.0229602, 0.00154113, -0.00137741, -0.00273589, -0.0077641, 0.0035601, -0.000644605, -0.0110722, -0.0343124, 0.046607, 0.185696, -0.0859547, 0.0382119, -0.0110504, -0.444769, 0.634902, -3.13155, -0.0557374, -0.108011, -0.00975126, -0.443362, 0.637747, 3.13897, 0.0568609, 0.114081, 0.0038058, -0.00290544, -0.00825364, 0.0128696, -0.0372193, 0.0387842
0.0603906, 0.108799, -0.773624, -0.91328, -1.45109, -0.625902, 1.07318, -0.257278, 0.0830889, 0.00111027, -0.014782, 0.112167, -0.0464087, 0.122374, -0.0127763, -0.508049, 13.8748, 14.9439, 12.8931, 0.748168, 2.82229, 0.0165515, 0.00155423, -0.0013371, -0.00278594, -0.00797337, 0.00364493, -0.000644904, -0.00943575, -0.036039, 0.0473452, 0.1906, -0.0858018, 0.0361205, -0.0110465, -0.444772, 0.634894, -3.13154, -0.0557483, -0.10804, -0.00973637, -0.443405, 0.637789, 3.13877, 0.0568571, 0.114243, 0.00396204, -0.00301977, -0.00858229, 0.0114047, -0.0391243, 0.0390674
0.0613906, 0.108885, -0.773619, -0.913303, -1.45098, -0.625953, 1.07333, -0.257292, 0.0815777, 0.00250363, -0.0181273, 0.111568, -0.0482433, 0.125724, -0.0108507, -0.317619, 13.7994, 14.7971, 12.8931, 0.729857, 2.79391, 0.0495105, 0.00156464, -0.00129565, -0.00283336, -0.00817925, 0.00372508, -0.000638604, -0.00810678, -0.0372758, 0.046959, 0.192674, -0.0837106, 0.0307959, -0.0110424, -0.444775, 0.634885, -3.13152, -0.0557596, -0.108071, -0.0097238, -0.44345, 0.637828, 3.13858, 0.0568437, 0.114399, 0.00412125, -0.00313597, -0.00891658, 0.0103092, -0.0405207, 0.0382474
0.0623906, 0.108977, -0.773616, -0.913327, -1.45086, -0.626003, 1.07347, -0.257302, 0.0835145, 0.00250447, -0.0205046, 0.117131, -0.0495613, 0.126662, -0.01292, -0.242241, 13.7637, 14.6464, 12.8931, 0.705138, 2.79391, 0.0495105, 0.00157663, -0.00125392, -0.00288023, -0.00838434, 0.00380703, -0.000633292, -0.00673882, -0.038318, 0.0483615, 0.19617, -0.0862165, 0.0307459, -0.0110382, -0.444778, 0.634876, -3.13149, -0.0557713, -0.108103, -0.00970944, -0.443495, 0.637866, 3.13839, 0.0568323, 0.11456, 0.00428343, -0.00325403, -0.00925645, 0.0090477, -0.041742, 0.0392048
0.0633906, 0.109064, -0.773616, -0.913346, -1.45074, -0.626057, 1.07362, -0.257306, 0.0848407, 0.00166977, -0.0197531, 0.114472, -0.0509691, 0.133264, -0.00771063, -0.0557783, 13.7637, 14.3885, 12.8177, 0.693236, 2.77926, -0.00267457, 0.00158563, -0.0012113, -0.00293157, -0.00860461, 0.00389502, -0.00061526, -0.00814946, -0.0392848, 0.0486492, 0.202004, -0.0871626, 0.0293932, -0.0110339, -0.444781, 0.634867, -3.13147, -0.0557834, -0.108137, -0.00969818, -0.443541, 0.637909, 3.13819, 0.0568005, 0.114731, 0.00444857, -0.00337392, -0.00960188, 0.0106334, -0.0427818, 0.0392369
0.0643906, 0.109162, -0.773609, -0.913373, -1.45063, -0.626113, 1.07376, -0.257318, 0.087485, 0.00278371, -0.0250303, 0.113708, -0.0522854, 0.13731, -0.0113165, -0.0557783, 13.6923, 14.2377, 12.8177, 0.686827, 2.78659, 0.0165515, 0.00159806, -0.00116706, -0.00298064, -0.00881981, 0.0039726, -0.000607774, -0.00815133, -0.0410635, 0.0476069, 0.20284, -0.085833, 0.0326668, -0.0110293, -0.444785, 0.634857, -3.13145, -0.055796, -0.108171, -0.00968313, -0.443589, 0.637948, 3.13799, 0.0567859, 0.114887, 0.00461665, -0.00349563, -0.0099528, 0.0109381, -0.0446726, 0.037834
0.0653906, 0.109255, -0.773608, -0.913399, -1.45051, -0.626165, 1.07391, -0.257332, 0.0883493, 0.00185587, -0.0258718, 0.11666, -0.0527657, 0.139104, -0.014701, -0.0161054, 13.6923, 14.0909, 12.8177, 0.668517, 2.81589, 0.0559192, 0.0016079, -0.00112408, -0.00303007, -0.00903278, 0.00405763, -0.000601841, -0.00731093, -0.0416929, 0.0487431, 0.206279, -0.0886768, 0.0358356, -0.0110246, -0.444788, 0.634847, -3.13143, -0.055809, -0.108207, -0.00967056, -0.443635, 0.637988, 3.1378, 0.0567744, 0.115056, 0.00478767, -0.00361914, -0.0103092, 0.0102149, -0.045466, 0.038548
0.0663906, 0.109346, -0.773606, -0.913426, -1.45038, -0.626223, 1.07405, -0.257334, 0.0907631, 0.0012373, -0.0262252, 0.120105, -0.0539699, 0.145783, -0.013187, 0.059273, 13.6923, 13.9402, 12.7423, 0.674925, 2.81589, -0.00999879, 0.00161353, -0.00107996, -0.00308253, -0.00925353, 0.00414245, -0.000572949, -0.00767559, -0.043253, 0.0505792, 0.214759, -0.093485, 0.0354458, -0.0110198, -0.444792, 0.634836, -3.1314, -0.0558225, -0.108244, -0.00966219, -0.443684, 0.63803, 3.13759, 0.056727, 0.115226, 0.00496161, -0.00374443, -0.010671, 0.0106811, -0.047155, 0.040032
0.0673906, 0.109434, -0.773602, -0.913452, -1.45025, -0.62628, 1.0742, -0.257345, 0.0889699, 0.00175293, -0.0243322, 0.123666, -0.0589077, 0.146659, -0.0152691, 0.170357, 13.6526, 13.8291, 12.7423, 0.674925, 2.81589, 0.00373412, 0.00161917, -0.00103595, -0.00313544, -0.00947698, 0.00422529, -0.000551679, -0.00588005, -0.043621, 0.0527439, 0.221791, -0.0915812, 0.0343364, -0.0110147, -0.444796, 0.634825, -3.13138, -0.0558365, -0.108282, -0.00965368, -0.443732, 0.638072, 3.13739, 0.0566918, 0.115394, 0.00513848, -0.00387148, -0.0110382, 0.00893104, -0.0477341, 0.0416968
0.0683906, 0.109528, -0.773597, -0.913474, -1.45013, -0.626333, 1.07435, -0.257356, 0.0903523, 0.00200386, -0.0219108, 0.122542, -0.0580886, 0.147401, -0.0176799, 0.170357, 13.6169, 13.6783, 12.6669, 0.668517, 2.82229, 0.0431018, 0.00162952, -0.000993174, -0.00318976, -0.00970186, 0.00430891, -0.000540158, -0.00767027, -0.043004, 0.0535145, 0.223652, -0.0911897, 0.0423207, -0.0110095, -0.4448, 0.634814, -3.13135, -0.055851, -0.108322, -0.00964043, -0.443779, 0.638116, 3.13719, 0.0566722, 0.115565, 0.00531825, -0.00400028, -0.0114107, 0.0108194, -0.0471913, 0.04222
0.0693906, 0.109618, -0.773592, -0.913501, -1.45, -0.626391, 1.0745, -0.257367, 0.0893042, 0.004489, -0.0250422, 0.119786, -0.0581793, 0.148698, -0.0128987, 0.245735, 13.6169, 13.6069, 12.6669, 0.680419, 2.81589, 0.0357776, 0.00163636, -0.000949045, -0.00324245, -0.00992626, 0.00438698, -0.000520122, -0.00750577, -0.0434684, 0.0524189, 0.222241, -0.0868501, 0.036878, -0.0110041, -0.444804, 0.634803, -3.13133, -0.0558659, -0.108363, -0.00963036, -0.443827, 0.638157, 3.13698, 0.0566398, 0.115728, 0.00550092, -0.0041308, -0.0117885, 0.0109294, -0.047783, 0.0407339
0.0703906, 0.10971, -0.773586, -0.91352, -1.44988, -0.626445, 1.07465, -0.257369, 0.0912203, 0.00647925, -0.0190846, 0.120973, -0.0569579, 0.143828, -0.0082125, 0.21003, 13.6169, 13.4562, 12.6669, 0.656615, 2.81589, -0.00267457, 0.00164791, -0.000907232, -0.00329663, -0.0101526, 0.00446364, -0.000502807, -0.0102024, -0.0412054, 0.0544537, 0.222736, -0.0839087, 0.0400471, -0.0109985, -0.444808, 0.634791, -3.1313, -0.0558813, -0.108405, -0.00961558, -0.443873, 0.638199, 3.13678, 0.0566121, 0.11589, 0.00568647, -0.00426302, -0.0121715, 0.0135808, -0.0455783, 0.0425817
0.0713906, 0.109793, -0.773582, -0.913545, -1.44975, -0.6265, 1.0748, -0.257384, 0.0887148, 0.00803639, -0.0205171, 0.123653, -0.0558913, 0.141478, -0.0128956, 0.325081, 13.6169, 13.4205, 12.5916, 0.631896, 2.80124, 0.0495105, 0.00165181, -0.000863909, -0.0033527, -0.0103831, 0.00454726, -0.000480323, -0.00835207, -0.0408525, 0.0551927, 0.221867, -0.0831033, 0.041711, -0.0109927, -0.444812, 0.634778, -3.13127, -0.0558972, -0.108449, -0.00960834, -0.443921, 0.638243, 3.13657, 0.0565764, 0.116065, 0.00587491, -0.00439694, -0.0125597, 0.0118598, -0.0454331, 0.0428039
0.0723906, 0.109886, -0.773574, -0.913559, -1.44963, -0.626556, 1.07494, -0.257386, 0.0886273, 0.00924562, -0.0205729, 0.121597, -0.0556783, 0.143803, -0.00811506, 0.285408, 13.6169, 13.3451, 12.5558, 0.619078, 2.78659, 0.0101428, 0.00166435, -0.000823236, -0.0034104, -0.0106162, 0.00462156, -0.000463321, -0.00922531, -0.0409536, 0.0552191, 0.223446, -0.0813783, 0.0394184, -0.0109867, -0.444817, 0.634765, -3.13124, -0.0559137, -0.108494, -0.00959249, -0.443967, 0.638288, 3.13636, 0.0565497, 0.116227, 0.00606621, -0.00453252, -0.0129531, 0.0129223, -0.0456405, 0.0424958
0.0733906, 0.109968, -0.773576, -0.913571, -1.4495, -0.626606, 1.07509, -0.257393, 0.0878475, 0.00346756, -0.0173219, 0.125104, -0.0546407, 0.141646, -0.0103919, 0.360787, 13.7637, 13.2697, 12.4448, 0.582457, 2.75821, -0.00267457, 0.00167003, -0.000782829, -0.00347169, -0.0108564, 0.00471504, -0.000441622, -0.00722435, -0.0399765, 0.0572491, 0.225577, -0.0887374, 0.0435442, -0.0109806, -0.444821, 0.634752, -3.13121, -0.0559306, -0.108541, -0.00958356, -0.444012, 0.638337, 3.13615, 0.0565155, 0.11642, 0.00626038, -0.00466976, -0.0133516, 0.0109451, -0.0448924, 0.0439891
0.0743906, 0.110055, -0.773567, -0.913585, -1.44937, -0.626664, 1.07524, -0.257404, 0.0890639, 0.00821653, -0.0189562, 0.12646, -0.0554711, 0.139146, -0.0142683, 0.360787, 13.7994, 13.234, 12.3694, 0.588866, 2.75821, 0.0431018, 0.00167929, -0.000742217, -0.0035316, -0.0110951, 0.00478792, -0.000425405, -0.00782076, -0.0397888, 0.0575333, 0.224545, -0.0823421, 0.0477983, -0.0109742, -0.444826, 0.634739, -3.13118, -0.055948, -0.108588, -0.00957078, -0.444058, 0.638383, 3.13593, 0.0564907, 0.116582, 0.00645739, -0.00480863, -0.0137552, 0.0117091, -0.0448268, 0.0439107
0.0753906, 0.110136, -0.77356, -0.913599, -1.44925, -0.626716, 1.07539, -0.257406, 0.0853359, 0.0111683, -0.0186357, 0.12531, -0.0551513, 0.142077, -0.00962779, 0.436165, 13.8748, 13.2697, 12.2583, 0.570555, 2.73623, 0.0165515, 0.00168677, -0.000703306, -0.00359024, -0.0113268, 0.00486105, -0.00039894, -0.00762848, -0.0398291, 0.0581901, 0.227766, -0.0798597, 0.0419528, -0.0109676, -0.444831, 0.634725, -3.13115, -0.055966, -0.108638, -0.00955954, -0.444102, 0.638428, 3.13573, 0.0564509, 0.116746, 0.00665724, -0.00494912, -0.0141638, 0.0116719, -0.0450221, 0.0441427
0.0763906, 0.11022, -0.773552, -0.913602, -1.44913, -0.626771, 1.07554, -0.257408, 0.0866555, 0.0135294, -0.0155284, 0.12357, -0.056174, 0.139389, -0.00625937, 0.475838, 13.9462, 13.1943, 12.1829, 0.588866, 2.74356, -0.00999879, 0.0016998, -0.000665916, -0.00365145, -0.011569, 0.00492988, -0.000383895, -0.00965052, -0.0385643, 0.058781, 0.227798, -0.0738595, 0.0442135, -0.0109609, -0.444836, 0.63471, -3.13111, -0.0559845, -0.108688, -0.00954281, -0.444144, 0.638476, 3.13551, 0.0564287, 0.116904, 0.00685993, -0.0050912, -0.0145774, 0.0138027, -0.0438359, 0.0444666
0.0773906, 0.110299, -0.773547, -0.913609, -1.44901, -0.626823, 1.07568, -0.257412, 0.0845484, 0.0110443, -0.0150987, 0.123139, -0.0560283, 0.142024, -0.00553704, 0.511544, 14.0573, 13.1943, 12.0718, 0.582457, 2.74356, 0.0101428, 0.00170907, -0.00062884, -0.00371155, -0.0118053, 0.00500069, -0.000364922, -0.00831572, -0.0387557, 0.0594227, 0.23082, -0.0769574, 0.0435479, -0.0109539, -0.444841, 0.634696, -3.13108, -0.0560035, -0.108741, -0.00952957, -0.444187, 0.638521, 3.1353, 0.0564013, 0.117068, 0.00706543, -0.00523486, -0.0149959, 0.0126385, -0.0442259, 0.0445931
0.0783906, 0.110379, -0.773535, -0.913611, -1.4489, -0.62687, 1.07583, -0.25742, 0.0790862, 0.0102693, -0.0115112, 0.118701, -0.051725, 0.140114, -0.00561303, 0.586922, 14.1327, 13.1943, 11.9965, 0.588866, 2.71518, 0.0495105, 0.00172498, -0.000593133, -0.00377174, -0.0120438, 0.00506522, -0.000359998, -0.00821404, -0.0366611, 0.0594971, 0.228254, -0.0767493, 0.0468267, -0.0109468, -0.444846, 0.63468, -3.13105, -0.0560231, -0.108794, -0.00950956, -0.444228, 0.638567, 3.13509, 0.0563962, 0.117223, 0.00727374, -0.00538009, -0.0154193, 0.0126634, -0.0422841, 0.0442503
0.0793906, 0.110453, -0.773524, -0.913615, -1.44879, -0.626921, 1.07597, -0.257418, 0.0787325, 0.0130401, -0.00968618, 0.120056, -0.0483874, 0.138741, -0.00188568, 0.626595, 14.2041, 13.234, 11.8457, 0.595275, 2.6932, -0.00999879, 0.00173489, -0.000558391, -0.00383304, -0.0122794, 0.00512484, -0.000333482, -0.00954665, -0.0355156, 0.0608669, 0.22857, -0.0762438, 0.0466454, -0.0109394, -0.444852, 0.634665, -3.13101, -0.0560432, -0.10885, -0.00949544, -0.444269, 0.638613, 3.13489, 0.0563583, 0.117372, 0.00748486, -0.00552686, -0.0158476, 0.0140653, -0.0412538, 0.045288
0.0803906, 0.110533, -0.773519, -0.913621, -1.44868, -0.626968, 1.07612, -0.257427, 0.0794801, 0.00897351, -0.00272665, 0.119712, -0.0508601, 0.141999, -0.0039593, 0.626595, 14.3906, 13.3094, 11.7346, 0.607176, 2.66482, 0.0559192, 0.00174672, -0.000522636, -0.00389307, -0.0125156, 0.00519339, -0.000325169, -0.0106189, -0.0349429, 0.063321, 0.237245, -0.0796046, 0.0553566, -0.0109318, -0.444858, 0.634649, -3.13097, -0.0560639, -0.108906, -0.00947908, -0.44431, 0.638657, 3.13468, 0.0563492, 0.117537, 0.00769877, -0.00567515, -0.0162807, 0.0151557, -0.0408169, 0.0473807
0.0813906, 0.110605, -0.773506, -0.913618, -1.44856, -0.627016, 1.07627, -0.257426, 0.0790538, 0.00803569, -0.000973924, 0.114753, -0.0477511, 0.141816, -0.00259776, 0.6623, 14.5016, 13.2697, 11.5839, 0.613585, 2.60074, 0.0495105, 0.00176013, -0.000488832, -0.00395701, -0.0127605, 0.00525385, -0.000306116, -0.0121557, -0.0337532, 0.0627252, 0.234873, -0.0790792, 0.0605683, -0.010924, -0.444863, 0.634632, -3.13094, -0.0560851, -0.108965, -0.00946128, -0.44435, 0.638706, 3.13447, 0.0563233, 0.11769, 0.00791545, -0.00582496, -0.0167186, 0.0169011, -0.0397198, 0.0464628
0.0823906, 0.110676, -0.773488, -0.913621, -1.44846, -0.627061, 1.07641, -0.257421, 0.0749364, 0.0121282, -0.00331087, 0.11135, -0.0453813, 0.136798, -0.000183107, 0.737679, 14.5374, 13.3808, 11.5482, 0.619078, 2.53573, 0.00373412, 0.00177359, -0.000455745, -0.00401691, -0.0129929, 0.00530336, -0.000281018, -0.0113076, -0.0324624, 0.061305, 0.227539, -0.0713476, 0.0568033, -0.010916, -0.444869, 0.634615, -3.1309, -0.0561069, -0.109025, -0.00944296, -0.444389, 0.638749, 3.13427, 0.0562896, 0.117828, 0.00813491, -0.00597625, -0.0171612, 0.0163251, -0.0385999, 0.0445526
0.0833906, 0.110743, -0.773479, -0.913625, -1.44835, -0.627102, 1.07655, -0.257427, 0.0722389, 0.00934136, -0.00318262, 0.107514, -0.0483608, 0.136683, -0.00192751, 0.813057, 14.6841, 13.4205, 11.4371, 0.625487, 2.47897, 0.0495105, 0.00178338, -0.000423722, -0.0040765, -0.0132214, 0.005361, -0.000264241, -0.00931941, -0.0323519, 0.0606087, 0.227552, -0.0687041, 0.0581373, -0.0109077, -0.444875, 0.634598, -3.13086, -0.0561293, -0.109086, -0.00942811, -0.444427, 0.638792, 3.13408, 0.0562696, 0.11798, 0.00835714, -0.00612902, -0.0176085, 0.0146077, -0.0387083, 0.043272
0.0843906, 0.110809, -0.77347, -0.913625, -1.44826, -0.627145, 1.07669, -0.257425, 0.0707729, 0.0115299, -0.00215726, 0.10194, -0.0504114, 0.14007, -0.000858891, 0.85273, 14.7952, 13.4205, 11.4371, 0.631896, 2.457, 0.0357776, 0.00179429, -0.00039487, -0.00413353, -0.0134391, 0.00540425, -0.000246222, -0.0106141, -0.0324012, 0.0601054, 0.230071, -0.0624941, 0.059957, -0.0108992, -0.444881, 0.63458, -3.13082, -0.0561522, -0.109149, -0.00941186, -0.444463, 0.638831, 3.13389, 0.0562492, 0.118112, 0.00858211, -0.00628324, -0.0180604, 0.0161582, -0.0388632, 0.042407
0.0853906, 0.110867, -0.773455, -0.913625, -1.44816, -0.627189, 1.07682, -0.257423, 0.0651357, 0.0106748, -0.00146481, 0.103848, -0.0471087, 0.137832, 7.75988e-05, 0.963814, 14.8706, 13.4205, 11.322, 0.637389, 2.43594, 0.0165515, 0.00180123, -0.000365829, -0.0041945, -0.0136649, 0.00544668, -0.000214044, -0.00789789, -0.0312993, 0.0613003, 0.229407, -0.0653926, 0.0562194, -0.0108905, -0.444888, 0.634562, -3.13078, -0.0561758, -0.109214, -0.00939962, -0.444499, 0.638874, 3.1337, 0.0562067, 0.118244, 0.00880983, -0.00643891, -0.018517, 0.0135532, -0.038028, 0.0429596
0.0863906, 0.110932, -0.773442, -0.913627, -1.44806, -0.627233, 1.07694, -0.257427, 0.0616013, 0.0135814, -0.00734995, 0.105218, -0.0451093, 0.131556, -0.00121538, 0.928108, 14.942, 13.4205, 11.2109, 0.650206, 2.42862, 0.0495105, 0.00180979, -0.000337225, -0.00425339, -0.0138841, 0.00548497, -0.000194379, -0.00458165, -0.0308465, 0.0601695, 0.221446, -0.0608009, 0.0514633, -0.0108816, -0.444894, 0.634543, -3.13073, -0.0561999, -0.10928, -0.00938541, -0.444534, 0.638915, 3.13352, 0.0561848, 0.118371, 0.00904028, -0.00659599, -0.0189781, 0.0105378, -0.0378419, 0.041141
0.0873906, 0.110991, -0.773434, -0.913625, -1.44796, -0.627271, 1.07707, -0.257427, 0.0599967, 0.0143556, -0.00451638, 0.0988378, -0.0424717, 0.122049, -0.00108242, 0.963814, 15.0531, 13.3808, 11.1356, 0.631896, 2.42862, 0.0559192, 0.0018172, -0.000311581, -0.00431241, -0.0140978, 0.00552625, -0.000173617, -0.005683, -0.0276528, 0.0587228, 0.211398, -0.0525974, 0.0581596, -0.0108725, -0.444901, 0.634524, -3.13069, -0.0562246, -0.109348, -0.00937225, -0.444567, 0.638955, 3.13335, 0.0561622, 0.118504, 0.00927346, -0.00675447, -0.0194438, 0.0118521, -0.034758, 0.0393312
0.0883906, 0.111046, -0.773422, -0.913623, -1.44787, -0.627312, 1.07718, -0.257423, 0.0578346, 0.0136236, -0.00485933, 0.092513, -0.0455404, 0.118342, 0.000710339, 1.03919, 15.0888, 13.3094, 11.1356, 0.619078, 2.44235, 0.0165515, 0.00182419, -0.000288227, -0.00436905, -0.014302, 0.00555182, -0.000147451, -0.00452902, -0.0268083, 0.0568858, 0.206806, -0.0443738, 0.0574572, -0.0108631, -0.444908, 0.634504, -3.13064, -0.0562499, -0.109417, -0.00935918, -0.444598, 0.638992, 3.13318, 0.0561325, 0.118615, 0.00950935, -0.00691434, -0.0199139, 0.0110328, -0.0340995, 0.0369529
0.0893906, 0.111098, -0.773414, -0.913623, -1.44778, -0.627351, 1.07729, -0.257426, 0.054183, 0.0121458, -0.00380501, 0.0913272, -0.0433377, 0.112093, 0.000453979, 1.07887, 15.1642, 13.3094, 10.9888, 0.613585, 2.44967, 0.0165515, 0.00182519, -0.000264343, -0.00442789, -0.014508, 0.00558611, -0.000117859, -0.00261821, -0.0249121, 0.0568051, 0.201515, -0.043006, 0.0582871, -0.0108534, -0.444915, 0.634484, -3.1306, -0.0562758, -0.109488, -0.00935201, -0.444629, 0.639031, 3.13302, 0.056098, 0.118741, 0.00974794, -0.00707558, -0.0203885, 0.00930137, -0.0324355, 0.0362769
0.0903906, 0.11114, -0.773406, -0.913626, -1.44769, -0.627389, 1.07739, -0.257425, 0.0497998, 0.0150518, -0.00296076, 0.0917801, -0.0419834, 0.111606, -0.000186751, 1.18995, 15.1999, 13.3094, 10.9134, 0.613585, 2.46432, 0.0293689, 0.00182217, -0.000242499, -0.00448409, -0.0147035, 0.00561013, -7.73144e-05, -0.00176307, -0.0241699, 0.0578801, 0.202748, -0.040575, 0.0574087, -0.0108436, -0.444922, 0.634463, -3.13055, -0.0563023, -0.109561, -0.00934849, -0.444659, 0.639066, 3.13286, 0.0560478, 0.118853, 0.00998923, -0.00723817, -0.0208674, 0.00858615, -0.0319, 0.0368147
0.0913906, 0.111184, -0.773401, -0.913623, -1.44761, -0.627427, 1.07749, -0.257423, 0.0483225, 0.00989053, -0.00364042, 0.0889419, -0.0406965, 0.111021, 0.000339203, 1.22962, 15.2753, 13.234, 10.838, 0.607176, 2.48538, 0.0165515, 0.00182144, -0.000222773, -0.00453947, -0.0148955, 0.00563134, -4.42972e-05, 0.000119259, -0.0237828, 0.0571231, 0.200298, -0.0438659, 0.0587275, -0.0108335, -0.444929, 0.634442, -3.1305, -0.0563295, -0.109636, -0.00934248, -0.444687, 0.6391, 3.13271, 0.0560103, 0.118962, 0.0102332, -0.00740209, -0.0213508, 0.00699013, -0.0317392, 0.035446
0.0923906, 0.11122, -0.773388, -0.913619, -1.44752, -0.627464, 1.07759, -0.257424, 0.0462936, 0.0126721, -0.00116157, 0.0853667, -0.0394604, 0.106269, -1.94839e-05, 1.305, 15.1999, 13.1586, 10.6873, 0.595275, 2.50735, 0.0229602, 0.00181876, -0.000204537, -0.00459763, -0.0150898, 0.00564514, -4.84705e-06, -0.00092664, -0.0217814, 0.0569739, 0.196536, -0.0367715, 0.0632041, -0.0108231, -0.444937, 0.634421, -3.13045, -0.0563573, -0.109712, -0.00933844, -0.444713, 0.639136, 3.13256, 0.0559632, 0.119062, 0.0104799, -0.00756732, -0.0218384, 0.00821499, -0.0298684, 0.0348965
0.0933906, 0.111259, -0.773384, -0.913619, -1.44744, -0.6275, 1.07768, -0.257426, 0.0437364, 0.00961731, -0.000312562, 0.0848609, -0.0392157, 0.0990959, -0.00076517, 1.305, 15.1999, 13.1229, 10.5762, 0.600768, 2.48538, 0.0431018, 0.00181587, -0.000186698, -0.0046509, -0.0152722, 0.00565776, 2.66762e-05, 0.00168514, -0.0200836, 0.0568834, 0.191396, -0.0354324, 0.0642206, -0.0108125, -0.444944, 0.634399, -3.1304, -0.0563857, -0.10979, -0.00933403, -0.44474, 0.639167, 3.13243, 0.05593, 0.119161, 0.0107292, -0.00773386, -0.0223304, 0.00580298, -0.0284332, 0.0341425
0.0943906, 0.1113, -0.773382, -0.913616, -1.44737, -0.627537, 1.07777, -0.257428, 0.0454705, 0.00965066, 0.00211003, 0.0804536, -0.0386716, 0.0942724, -0.00122684, 1.26533, 15.2356, 13.0118, 10.5008, 0.595275, 2.457, 0.0623279, 0.00181351, -0.000170469, -0.00470378, -0.0154511, 0.00566745, 5.31124e-05, -0.000189672, -0.018268, 0.056247, 0.186911, -0.0299617, 0.07262, -0.0108016, -0.444952, 0.634376, -3.13035, -0.0564147, -0.10987, -0.00932888, -0.444764, 0.639197, 3.13229, 0.0559056, 0.119258, 0.0109812, -0.00790168, -0.0228265, 0.00790007, -0.0267162, 0.0331556
0.0953906, 0.111332, -0.773379, -0.913617, -1.44729, -0.627576, 1.07785, -0.257422, 0.0420259, 0.00819314, 0.00295989, 0.0788976, -0.0350743, 0.0910524, 0.00134876, 1.305, 15.1999, 12.9365, 10.354, 0.631896, 2.41397, 0.00373412, 0.00180449, -0.000154862, -0.00475684, -0.0156264, 0.00567008, 0.000103618, 0.00103129, -0.0167746, 0.0562887, 0.183306, -0.0308901, 0.071626, -0.0107905, -0.44496, 0.634353, -3.1303, -0.0564444, -0.109952, -0.00933017, -0.444789, 0.639226, 3.13217, 0.0558447, 0.119345, 0.0112358, -0.00807076, -0.0233269, 0.00687784, -0.0254398, 0.0326213
0.0963906, 0.111368, -0.773376, -0.913625, -1.44722, -0.627606, 1.07793, -0.257427, 0.0450405, 0.00699042, -0.00129847, 0.0753163, -0.0356568, 0.0881954, -0.000798859, 1.22962, 15.1642, 12.9365, 10.1675, 0.631896, 2.37094, 0.0495105, 0.0017963, -0.000139371, -0.0048071, -0.0157902, 0.00567507, 0.000139221, 0.00131727, -0.0168703, 0.0541061, 0.177021, -0.0269487, 0.0769405, -0.0107792, -0.444968, 0.634329, -3.13025, -0.0564747, -0.110035, -0.00933019, -0.444814, 0.639252, 3.13205, 0.0558085, 0.119439, 0.011493, -0.00824109, -0.0238314, 0.00700372, -0.0256966, 0.0299176
0.0973906, 0.111408, -0.773372, -0.913622, -1.44716, -0.62764, 1.078, -0.257429, 0.0429715, 0.00694335, 0.00228317, 0.0730158, -0.0364001, 0.0816652, -0.00124661, 1.07887, 15.0888, 12.7857, 10.0922, 0.643798, 2.32791, 0.0687366, 0.00179426, -0.000127816, -0.00485761, -0.0159523, 0.00566694, 0.000161713, 0.00165937, -0.0146922, 0.0544148, 0.173844, -0.0211406, 0.0807604, -0.0107676, -0.444977, 0.634305, -3.13019, -0.0565057, -0.11012, -0.00932399, -0.444834, 0.639278, 3.13194, 0.0557935, 0.119513, 0.0117529, -0.00841265, -0.0243401, 0.00681919, -0.0237099, 0.0297084
0.0983906, 0.111442, -0.773368, -0.913623, -1.44709, -0.627674, 1.07807, -0.257423, 0.0423369, 0.00668921, 0.000658093, 0.0747383, -0.0415602, 0.0810296, 0.00110024, 1.00349, 15.0174, 12.6746, 9.87, 0.650206, 2.28488, 0.0165515, 0.00178683, -0.000115179, -0.00490997, -0.0161179, 0.00566167, 0.000205519, 0.00420269, -0.0153895, 0.0549667, 0.176492, -0.0175275, 0.0750695, -0.0107557, -0.444985, 0.634281, -3.13014, -0.0565373, -0.110207, -0.00932301, -0.444857, 0.639305, 3.13182, 0.0557458, 0.119594, 0.0120154, -0.00858543, -0.0248528, 0.00453031, -0.024679, 0.0295604
0.0993906, 0.111477, -0.773368, -0.913625, -1.44702, -0.627707, 1.07813, -0.257423, 0.0426967, 0.0056799, 0.0017246, 0.0702792, -0.041215, 0.0717837, 0.000732388, 0.888436, 14.9777, 12.5992, 9.75494, 0.668517, 2.23453, 0.0165515, 0.00177992, -0.00010423, -0.00495871, -0.0162724, 0.00565072, 0.000237833, 0.0042004, -0.0130479, 0.0535467, 0.167431, -0.0105852, 0.0809596, -0.0107435, -0.444994, 0.634256, -3.13008, -0.0565696, -0.110296, -0.00932107, -0.444877, 0.639328, 3.13172, 0.0557174, 0.119668, 0.0122806, -0.0087594, -0.0253696, 0.00480941, -0.0225013, 0.0276444
0.100391, 0.11151, -0.773366, -0.913631, -1.44695, -0.627736, 1.0782, -0.257429, 0.0400311, 0.00484112, -0.000700844, 0.0704062, -0.0354859, 0.0744074, -0.00144535, 0.777352, 14.942, 12.5278, 9.4931, 0.668517, 2.17776, 0.0687366, 0.00177026, -9.21927e-05, -0.00500994, -0.0164311, 0.00564632, 0.000272194, 0.00527245, -0.0131109, 0.0537229, 0.166805, -0.0163105, 0.0832375, -0.0107311, -0.445003, 0.63423, -3.13002, -0.0566025, -0.110386, -0.00932174, -0.444899, 0.639353, 3.13162, 0.0556862, 0.119754, 0.0125483, -0.00893455, -0.0258904, 0.00399559, -0.0227827, 0.027222
0.101391, 0.111547, -0.773366, -0.913645, -1.4469, -0.627771, 1.07826, -0.257428, 0.0387795, 0.00339189, -0.00495737, 0.0681842, -0.0368948, 0.0714265, 0.000256518, 0.626595, 14.942, 12.5635, 9.4574, 0.693236, 2.12008, 0.0357776, 0.00175928, -7.97742e-05, -0.00505426, -0.0165744, 0.00562586, 0.000312928, 0.00799635, -0.0132511, 0.0520892, 0.161855, -0.0128137, 0.0794241, -0.0107184, -0.445012, 0.634204, -3.12996, -0.0566361, -0.110479, -0.00932297, -0.444922, 0.63937, 3.13153, 0.055647, 0.119817, 0.0128186, -0.00911087, -0.0264151, 0.00166771, -0.0231827, 0.0248729
0.102391, 0.111585, -0.773359, -0.91365, -1.44684, -0.6278, 1.07832, -0.257423, 0.0398972, 0.00498307, -0.00761107, 0.0655613, -0.0320224, 0.0684501, 0.00111998, 0.511544, 14.8309, 12.4524, 9.34631, 0.686827, 2.07705, 0.0101428, 0.00175489, -7.08703e-05, -0.00510231, -0.0167208, 0.0056003, 0.000347368, 0.0068989, -0.0123216, 0.0508266, 0.155, -0.0108579, 0.0832939, -0.0107055, -0.445021, 0.634177, -3.1299, -0.0566704, -0.110573, -0.00931777, -0.444941, 0.639391, 3.13144, 0.055618, 0.119874, 0.0130915, -0.00928833, -0.0269437, 0.00308679, -0.022382, 0.0231683
0.103391, 0.111624, -0.773369, -0.913668, -1.44678, -0.627832, 1.07838, -0.257429, 0.0404854, 0.000816112, -0.0141443, 0.0646576, -0.0340228, 0.0662335, -0.00142383, 0.400459, 14.942, 12.5278, 9.19556, 0.711547, 2.04135, 0.0687366, 0.0017396, -5.88399e-05, -0.00514745, -0.0168605, 0.00558993, 0.000383731, 0.0106996, -0.0133041, 0.0488691, 0.14993, -0.0106997, 0.0828707, -0.0106922, -0.44503, 0.63415, -3.12984, -0.0567054, -0.110669, -0.00932285, -0.444963, 0.639408, 3.13135, 0.0555871, 0.119957, 0.0133669, -0.00946692, -0.0274763, -0.000255471, -0.0236611, 0.0204051
0.104391, 0.11166, -0.773365, -0.913685, -1.44673, -0.627864, 1.07843, -0.257424, 0.0364972, 0.00144868, -0.0169973, 0.0589562, -0.0348114, 0.0641322, 0.000745937, 0.360787, 14.9063, 12.5278, 9.12018, 0.711547, 2.01938, 0.0229602, 0.00172888, -4.83221e-05, -0.00519168, -0.0169976, 0.00555891, 0.000429613, 0.012601, -0.0129266, 0.0468247, 0.144804, -0.00383332, 0.0790746, -0.0106787, -0.44504, 0.634122, -3.12978, -0.056741, -0.110767, -0.0093231, -0.444985, 0.639423, 3.13127, 0.0555425, 0.120009, 0.0136449, -0.00964662, -0.0280126, -0.00174521, -0.0235132, 0.0176962
0.105391, 0.111702, -0.773362, -0.913704, -1.44667, -0.627891, 1.07849, -0.257423, 0.0429625, 0.00185305, -0.015976, 0.0546788, -0.0306996, 0.0631362, 0.000734454, 0.285408, 14.8706, 12.5278, 9.04877, 0.711547, 1.98367, 0.0165515, 0.00172069, -3.85524e-05, -0.0052354, -0.0171301, 0.00553013, 0.000463917, 0.00791233, -0.0117789, 0.0460833, 0.140971, -0.00257685, 0.0924854, -0.0106649, -0.44505, 0.634094, -3.12971, -0.0567774, -0.110867, -0.00932054, -0.445005, 0.639438, 3.1312, 0.0555169, 0.120067, 0.0139255, -0.00982742, -0.0285528, 0.003217, -0.022374, 0.0167564
0.106391, 0.111748, -0.773359, -0.913735, -1.44662, -0.627919, 1.07854, -0.257427, 0.0449483, 0.00220242, -0.0209789, 0.0515632, -0.0324326, 0.0659447, -0.000968573, 0.21003, 14.8309, 12.6389, 8.97339, 0.711547, 1.96994, 0.0559192, 0.00170984, -2.71543e-05, -0.0052744, -0.0172506, 0.00549377, 0.000498483, 0.0081631, -0.0131301, 0.0444794, 0.140129, 0.000722182, 0.095128, -0.0106509, -0.44506, 0.634065, -3.12965, -0.0568144, -0.110969, -0.00931998, -0.445028, 0.639448, 3.13114, 0.0554924, 0.120116, 0.0142086, -0.0100093, -0.0290967, 0.00341022, -0.0239011, 0.0145824
0.107391, 0.111788, -0.773361, -0.913764, -1.44658, -0.627946, 1.07859, -0.257426, 0.0466149, 0.000569531, -0.019495, 0.0475076, -0.0287689, 0.0589305, -0.000171108, 0.245735, 14.8706, 12.6746, 8.97339, 0.705138, 1.96261, 0.0431018, 0.00169674, -1.61746e-05, -0.00531314, -0.0173723, 0.00546017, 0.000540158, 0.0068545, -0.0107939, 0.0434677, 0.131924, 0.00315421, 0.102971, -0.0106365, -0.44507, 0.634036, -3.12958, -0.0568522, -0.111073, -0.00932139, -0.44505, 0.639456, 3.13108, 0.0554576, 0.12017, 0.0144943, -0.0101922, -0.0296444, 0.00498377, -0.0216945, 0.0131362
0.108391, 0.111832, -0.773359, -0.9138, -1.44654, -0.627971, 1.07864, -0.257422, 0.0481785, 0.00132966, -0.0256817, 0.0446632, -0.0305702, 0.0527809, 0.00110655, 0.285408, 14.8309, 12.75, 8.97339, 0.693236, 1.97635, 0.0101428, 0.00168503, -5.60255e-06, -0.0053498, -0.0174847, 0.00541872, 0.000583555, 0.00856693, -0.0107661, 0.0408244, 0.12283, 0.0112968, 0.101145, -0.0106219, -0.44508, 0.634006, -3.12951, -0.0568906, -0.111178, -0.00932099, -0.445072, 0.639462, 3.13103, 0.0554215, 0.120215, 0.0147825, -0.0103762, -0.0301957, 0.00374839, -0.0218865, 0.00982546
0.109391, 0.111884, -0.773361, -0.913846, -1.4465, -0.628003, 1.07868, -0.257426, 0.0475797, -2.51119e-05, -0.0327964, 0.0408822, -0.032877, 0.052474, -0.000483066, 0.285408, 14.8706, 12.9365, 9.04877, 0.705138, 2.00564, 0.0431018, 0.00167137, 6.57473e-06, -0.00537978, -0.0175831, 0.00536519, 0.000619052, 0.0114798, -0.0119708, 0.0381606, 0.117904, 0.0154642, 0.0995697, -0.010607, -0.44509, 0.633975, -3.12945, -0.0569298, -0.111286, -0.00932173, -0.445096, 0.63946, 3.131, 0.0553995, 0.120242, 0.0150731, -0.0105613, -0.0307507, 0.00136585, -0.0233539, 0.00639461
0.110391, 0.111932, -0.773364, -0.91389, -1.44646, -0.628024, 1.07873, -0.25743, 0.0482099, -0.000839609, -0.037473, 0.0408726, -0.0286115, 0.0527138, -0.00150889, 0.360787, 14.9063, 12.9722, 9.00909, 0.686827, 2.0267, 0.0751453, 0.00165802, 1.81369e-05, -0.00541451, -0.01769, 0.00532736, 0.000655237, 0.0123423, -0.0122819, 0.0373735, 0.114164, 0.0123289, 0.101759, -0.0105917, -0.445101, 0.633944, -3.12938, -0.0569696, -0.111396, -0.00932225, -0.445119, 0.639463, 3.13095, 0.0553764, 0.120297, 0.0153663, -0.0107473, -0.0313093, 0.00086434, -0.023876, 0.00498512
0.111391, 0.111985, -0.773364, -0.913946, -1.44643, -0.628048, 1.07877, -0.257424, 0.0488761, 0.000284741, -0.0437761, 0.0351418, -0.0264915, 0.0517867, 0.000926821, 0.436165, 14.8706, 13.1229, 9.08447, 0.693236, 2.06973, 0.0229602, 0.0016452, 3.1579e-05, -0.00544238, -0.0177837, 0.00527383, 0.000701424, 0.0124579, -0.0125656, 0.0343418, 0.106272, 0.0171304, 0.101208, -0.0105762, -0.445112, 0.633913, -3.1293, -0.0570102, -0.111507, -0.00932139, -0.445144, 0.639458, 3.13093, 0.0553396, 0.120329, 0.015662, -0.0109343, -0.0318714, 0.00126808, -0.02432, 0.00138647
0.112391, 0.112039, -0.773362, -0.914, -1.44641, -0.628073, 1.07882, -0.257429, 0.0525281, 0.000196774, -0.0464687, 0.0301888, -0.0247853, 0.0515717, -0.00107757, 0.511544, 14.8706, 13.1943, 9.19556, 0.699645, 2.11276, 0.0687366, 0.00163441, 4.30643e-05, -0.00546902, -0.0178715, 0.00521109, 0.00073108, 0.0106298, -0.0124612, 0.0325051, 0.101634, 0.0200222, 0.110245, -0.0105604, -0.445123, 0.63388, -3.12923, -0.0570515, -0.111621, -0.00931822, -0.445168, 0.639452, 3.13091, 0.0553297, 0.120348, 0.0159602, -0.0111224, -0.0324371, 0.00351318, -0.0243201, -0.000881674
0.113391, 0.112092, -0.773364, -0.914069, -1.44639, -0.628094, 1.07885, -0.257428, 0.0514425, -0.00153404, -0.0527341, 0.0276006, -0.0234664, 0.0521542, -0.000481038, 0.626595, 14.942, 13.3094, 9.27094, 0.705138, 2.13473, 0.0623279, 0.00161732, 5.62922e-05, -0.00549076, -0.0179453, 0.00514909, 0.000777659, 0.013056, -0.013307, 0.0305423, 0.0971073, 0.0198019, 0.107826, -0.0105443, -0.445134, 0.633848, -3.12916, -0.0570936, -0.111737, -0.00932061, -0.445194, 0.639439, 3.1309, 0.0552953, 0.120371, 0.0162609, -0.0113113, -0.0330063, 0.00156418, -0.0254224, -0.00359115
0.114391, 0.112143, -0.773369, -0.91414, -1.44638, -0.628117, 1.0789, -0.257422, 0.0538614, 0.00381357, -0.0596097, 0.0247617, -0.0222682, 0.0519568, 0.00161207, 0.85273, 15.0174, 13.3808, 9.38202, 0.705138, 2.17044, 0.0101428, 0.00159949, 6.99726e-05, -0.00551174, -0.0180206, 0.00508538, 0.000830125, 0.0119939, -0.0140541, 0.0284119, 0.0917099, 0.0273095, 0.107062, -0.0105279, -0.445146, 0.633814, -3.12908, -0.0571363, -0.111854, -0.00932338, -0.44522, 0.639426, 3.1309, 0.0552524, 0.120393, 0.016564, -0.0115013, -0.033579, 0.00310337, -0.026299, -0.00622122
0.115391, 0.112206, -0.773368, -0.91421, -1.44636, -0.628137, 1.07893, -0.257428, 0.0585672, 0.00402296, -0.0629707, 0.0210981, -0.0213285, 0.0470787, -0.000858076, 0.963814, 14.9777, 13.3808, 9.42169, 0.705138, 2.20614, 0.0623279, 0.00158876, 8.24794e-05, -0.00553191, -0.0180898, 0.00501305, 0.000857289, 0.010742, -0.0134224, 0.0263402, 0.0836339, 0.0326422, 0.116101, -0.0105112, -0.445157, 0.633781, -3.12901, -0.0571798, -0.111974, -0.00931877, -0.445245, 0.639411, 3.1309, 0.05525, 0.120405, 0.0168696, -0.0116921, -0.034155, 0.00477944, -0.0257922, -0.00877039
0.116391, 0.112272, -0.773371, -0.914292, -1.44636, -0.628158, 1.07897, -0.257426, 0.0600553, 0.00216838, -0.0724886, 0.013594, -0.0256908, 0.0435003, 0.000140018, 1.03919, 15.0174, 13.4205, 9.53278, 0.717955, 2.24185, 0.0431018, 0.00157581, 9.61852e-05, -0.00554564, -0.018145, 0.00493429, 0.000893849, 0.0136432, -0.014586, 0.0214969, 0.073012, 0.0420858, 0.11318, -0.0104942, -0.445169, 0.633746, -3.12893, -0.0572241, -0.112096, -0.00931556, -0.445271, 0.639389, 3.13092, 0.0552349, 0.120408, 0.0171776, -0.0118839, -0.0347344, 0.00258263, -0.0271984, -0.0144008
0.117391, 0.112333, -0.773369, -0.914376, -1.44636, -0.628178, 1.079, -0.257424, 0.0584758, 0.0017564, -0.0730141, 0.011586, -0.0194246, 0.0409785, 0.000839324, 1.22962, 15.0174, 13.4205, 9.4931, 0.723448, 2.27756, 0.0229602, 0.00156077, 0.000109318, -0.00556061, -0.0181994, 0.00485033, 0.000938163, 0.0135137, -0.0131586, 0.0211311, 0.0677797, 0.040331, 0.116684, -0.0104768, -0.445181, 0.633711, -3.12885, -0.0572691, -0.112219, -0.00931425, -0.445298, 0.639368, 3.13094, 0.0552086, 0.120405, 0.017488, -0.0120766, -0.0353172, 0.00299452, -0.0259578, -0.0153288
0.118391, 0.112399, -0.773379, -0.914468, -1.44636, -0.628195, 1.07903, -0.257422, 0.0611866, -0.00202963, -0.0775085, 0.00892052, -0.0194398, 0.0390484, 0.00103426, 1.38038, 15.1642, 13.4562, 9.4931, 0.729857, 2.31326, 0.0101428, 0.00154344, 0.000123125, -0.00557028, -0.0182406, 0.00477189, 0.000978206, 0.0148406, -0.01349, 0.0192399, 0.0623546, 0.040322, 0.119248, -0.0104592, -0.445193, 0.633676, -3.12877, -0.0573148, -0.112345, -0.00931451, -0.445325, 0.639341, 3.13097, 0.0551907, 0.120414, 0.0178009, -0.0122702, -0.0359033, 0.00213111, -0.0265107, -0.0179015
0.119391, 0.112469, -0.773369, -0.914562, -1.44637, -0.62821, 1.07906, -0.25743, 0.0647381, 0.00142021, -0.0855167, 0.00415313, -0.0192836, 0.0327019, -0.00171799, 1.49146, 15.0531, 13.4205, 9.60815, 0.729857, 2.35629, 0.0751453, 0.00153632, 0.000135606, -0.00557757, -0.018276, 0.00466638, 0.000999432, 0.014688, -0.013426, 0.0155453, 0.0501143, 0.0512114, 0.124111, -0.0104412, -0.445205, 0.633639, -3.12869, -0.0573613, -0.112473, -0.00930418, -0.44535, 0.639312, 3.13101, 0.0552033, 0.120382, 0.0181163, -0.0124646, -0.0364926, 0.00285958, -0.0265944, -0.0221667
0.120391, 0.112538, -0.77337, -0.914658, -1.44638, -0.628225, 1.07908, -0.257429, 0.0656346, 0.00107793, -0.0895518, 0.0043698, -0.0193075, 0.028742, -0.000907972, 1.64619, 15.0531, 13.3094, 9.56848, 0.736266, 2.37826, 0.0687366, 0.00152121, 0.000148454, -0.00558626, -0.0183108, 0.00457359, 0.00103799, 0.0164335, -0.0133412, 0.0146727, 0.0452496, 0.0537661, 0.123154, -0.0104229, -0.445218, 0.633603, -3.12861, -0.0574085, -0.112603, -0.00930158, -0.445377, 0.639282, 3.13105, 0.0551898, 0.120372, 0.018434, -0.0126599, -0.0370852, 0.00149618, -0.0267597, -0.0237568
0.121391, 0.112617, -0.773367, -0.91477, -1.44639, -0.628239, 1.0791, -0.257422, 0.0713081, 0.000816965, -0.0925321, -0.00374336, -0.0142004, 0.0249102, 0.00156482, 1.72157, 15.0531, 13.3094, 9.60815, 0.729857, 2.42129, 0.0101428, 0.00150917, 0.000162543, -0.00558752, -0.0183262, 0.00446548, 0.00107788, 0.0129252, -0.012114, 0.0114081, 0.033904, 0.0578151, 0.132857, -0.0104044, -0.445231, 0.633565, -3.12852, -0.0574565, -0.112735, -0.00929504, -0.445404, 0.639245, 3.13112, 0.0551765, 0.120341, 0.0187541, -0.012856, -0.0376809, 0.00550133, -0.0255652, -0.0273467
0.122391, 0.112695, -0.773371, -0.914878, -1.44641, -0.628255, 1.07913, -0.257429, 0.0724741, 0.00118916, -0.0984623, -0.00979762, -0.0110823, 0.0187429, -0.00112693, 1.79694, 15.1642, 13.1943, 9.64386, 0.741759, 2.42862, 0.0687366, 0.00149507, 0.000176713, -0.00559061, -0.0183487, 0.00436469, 0.00110432, 0.0132464, -0.0112655, 0.00789394, 0.0210758, 0.0640446, 0.138968, -0.0103854, -0.445244, 0.633527, -3.12844, -0.0575053, -0.11287, -0.00929035, -0.445433, 0.639209, 3.13117, 0.0551843, 0.120323, 0.0190766, -0.013053, -0.0382798, 0.00572427, -0.0248854, -0.031468
0.123391, 0.112775, -0.773368, -0.914992, -1.44643, -0.628263, 1.07914, -0.257425, 0.0733172, 0.00434377, -0.10608, -0.0134314, -0.0118613, 0.0176624, 0.000469418, 1.87232, 15.1642, 13.0832, 9.64386, 0.711547, 2.46432, 0.0357776, 0.00148315, 0.000189552, -0.0055917, -0.0183588, 0.0042562, 0.00113951, 0.0141375, -0.012179, 0.00523036, 0.0148712, 0.0719186, 0.136103, -0.0103662, -0.445257, 0.633489, -3.12835, -0.0575548, -0.113006, -0.00928309, -0.445459, 0.639171, 3.13125, 0.0551804, 0.120296, 0.0194015, -0.0132507, -0.0388819, 0.00538625, -0.0259974, -0.0348016
0.124391, 0.112853, -0.773356, -0.91511, -1.44645, -0.628274, 1.07916, -0.257422, 0.073888, 0.00744773, -0.109826, -0.0155954, -0.0141592, 0.0179369, 0.00149974, 1.9477, 15.1285, 13.0118, 9.75494, 0.723448, 2.47165, 0.00373412, 0.00147215, 0.000202634, -0.00559024, -0.0183646, 0.00412935, 0.00117826, 0.0143798, -0.0128237, 0.00425346, 0.0138383, 0.0790553, 0.135025, -0.0103466, -0.44527, 0.633449, -3.12826, -0.0576051, -0.113144, -0.00927439, -0.445487, 0.639129, 3.13132, 0.0551721, 0.120242, 0.0197288, -0.0134493, -0.039487, 0.00556648, -0.0268381, -0.0364069
0.125391, 0.112928, -0.773351, -0.91523, -1.44648, -0.628281, 1.07917, -0.257427, 0.074439, 0.0047789, -0.113244, -0.0203205, -0.0155929, 0.0126058, -0.000695595, 2.13416, 15.1642, 12.9722, 9.87, 0.729857, 2.50003, 0.0495105, 0.00145797, 0.000214267, -0.00558736, -0.0183633, 0.00400655, 0.0012092, 0.0161931, -0.0122793, 0.00185999, 0.00592679, 0.0842885, 0.139097, -0.0103267, -0.445284, 0.63341, -3.12817, -0.0576562, -0.113285, -0.0092685, -0.445513, 0.639086, 3.13141, 0.0551773, 0.120196, 0.0200585, -0.0136486, -0.0400951, 0.00424135, -0.0265311, -0.0395308
0.126391, 0.113013, -0.773342, -0.915347, -1.4465, -0.628287, 1.07918, -0.257427, 0.0790678, 0.009157, -0.113412, -0.0200957, -0.0116792, 0.0141781, -0.00070109, 2.13416, 15.1999, 12.8254, 9.83032, 0.729857, 2.50735, 0.0559192, 0.0014474, 0.000225778, -0.00558882, -0.0183684, 0.0038872, 0.00123879, 0.0122338, -0.0119553, 0.00266548, 0.00669935, 0.0856106, 0.147627, -0.0103065, -0.445298, 0.633369, -3.12808, -0.0577081, -0.113428, -0.00925901, -0.445539, 0.639046, 3.13149, 0.0551849, 0.120159, 0.0203905, -0.0138487, -0.0407063, 0.00844969, -0.0262736, -0.0390507
0.127391, 0.113092, -0.773338, -0.915466, -1.44652, -0.62829, 1.07918, -0.257426, 0.0801663, 0.00760116, -0.115434, -0.0180425, -0.00830829, 0.00894044, 0.000990669, 2.24921, 15.311, 12.75, 9.83032, 0.717955, 2.55771, 0.0165515, 0.00143376, 0.000234875, -0.00558782, -0.0183618, 0.00376275, 0.00127168, 0.0134834, -0.0109886, 0.00277774, 0.00146737, 0.0837501, 0.148279, -0.010286, -0.445311, 0.633328, -3.12799, -0.0577607, -0.113573, -0.00925215, -0.445563, 0.639003, 3.13158, 0.0551891, 0.120116, 0.0207248, -0.0140495, -0.0413204, 0.0074948, -0.025556, -0.0396365
0.128391, 0.113174, -0.77333, -0.91559, -1.44655, -0.628293, 1.07919, -0.257425, 0.078934, 0.0106607, -0.119262, -0.0252673, -0.00558292, 0.00697529, 0.000423087, 2.32459, 15.3864, 12.7857, 9.94141, 0.699645, 2.55771, 0.0229602, 0.00142152, 0.0002452, -0.00558397, -0.0183518, 0.00363183, 0.00130439, 0.0127637, -0.0103242, 8.34446e-05, -0.00645271, 0.0914997, 0.151979, -0.0102651, -0.445326, 0.633287, -3.1279, -0.0578142, -0.11372, -0.00924332, -0.445588, 0.638957, 3.13168, 0.0551947, 0.120065, 0.0210615, -0.0142511, -0.0419374, 0.00871926, -0.0250346, -0.042884
0.129391, 0.11325, -0.773321, -0.915703, -1.44658, -0.628293, 1.07919, -0.25743, 0.0800793, 0.0130487, -0.116498, -0.0257822, -0.00355154, 0.00436028, -0.00165072, 2.43568, 15.4578, 12.7143, 9.98108, 0.680419, 2.58609, 0.0751453, 0.00141127, 0.000251136, -0.00558417, -0.0183447, 0.00349722, 0.00132563, 0.0106782, -0.00879148, 0.0011598, -0.00687605, 0.0947271, 0.16083, -0.0102438, -0.44534, 0.633244, -3.1278, -0.0578684, -0.113869, -0.00923263, -0.445609, 0.638914, 3.13177, 0.0552187, 0.12001, 0.0214005, -0.0144534, -0.0425574, 0.0110021, -0.0236429, -0.0422655
0.130391, 0.113337, -0.77331, -0.915817, -1.44661, -0.628293, 1.07919, -0.257423, 0.0826222, 0.014672, -0.116101, -0.0302004, -0.00277394, 0.0026979, 0.00106966, 2.47535, 15.5331, 12.7143, 10.0565, 0.680419, 2.60715, 0.0165515, 0.00140606, 0.000257745, -0.00558341, -0.0183379, 0.0033588, 0.00134812, 0.00830284, -0.0078642, 0.000386714, -0.00978539, 0.100295, 0.165879, -0.0102223, -0.445355, 0.633201, -3.12771, -0.0579234, -0.114021, -0.00921649, -0.445631, 0.63887, 3.13187, 0.0552417, 0.119952, 0.0217418, -0.0146563, -0.0431802, 0.0137326, -0.0228231, -0.0434786
0.131391, 0.113415, -0.7733, -0.915923, -1.44664, -0.628293, 1.07919, -0.257429, 0.0796498, 0.0119508, -0.109303, -0.0317818, 0.00738823, 0.001413, -0.00121968, 2.58643, 15.6442, 12.7143, 10.0565, 0.674925, 2.62912, 0.0687366, 0.00139779, 0.000261368, -0.00558603, -0.018334, 0.00321885, 0.00136323, 0.00635887, -0.00479713, 0.0023402, -0.0107488, 0.0920873, 0.178373, -0.0102004, -0.445369, 0.633158, -3.12761, -0.0579792, -0.114174, -0.00920342, -0.44565, 0.638828, 3.13197, 0.0552768, 0.119894, 0.0220854, -0.01486, -0.0438058, 0.0157573, -0.019916, -0.0419848
0.132391, 0.113491, -0.773289, -0.916027, -1.44668, -0.628288, 1.07918, -0.257428, 0.0805221, 0.0126154, -0.108985, -0.0338458, 0.00594992, 0.000483256, -0.000575758, 2.70148, 15.791, 12.7857, 10.0922, 0.662108, 2.65018, 0.0623279, 0.00139035, 0.000264059, -0.00558963, -0.0183314, 0.00308019, 0.00138314, 0.00590193, -0.00438717, 0.00236067, -0.0107186, 0.0965047, 0.181518, -0.0101781, -0.445384, 0.633114, -3.12751, -0.0580358, -0.11433, -0.0091893, -0.445669, 0.638787, 3.13206, 0.0553051, 0.11984, 0.0224314, -0.0150643, -0.0444342, 0.0165418, -0.0196946, -0.0425563
0.133391, 0.113564, -0.77328, -0.916132, -1.44671, -0.628284, 1.07918, -0.257423, 0.0782299, 0.0131284, -0.110219, -0.0353215, 0.00994015, -0.00993161, 0.00131158, 2.81654, 15.9378, 12.9365, 10.1279, 0.637389, 2.6868, 0.0165515, 0.00138091, 0.000265747, -0.00559202, -0.0183237, 0.00293589, 0.00140978, 0.00745993, -0.00191033, 0.00134342, -0.0217289, 0.101121, 0.181354, -0.0101555, -0.445399, 0.633069, -3.12741, -0.0580933, -0.114488, -0.00917678, -0.445686, 0.638744, 3.13216, 0.0553243, 0.119779, 0.0227796, -0.0152693, -0.0450654, 0.0153185, -0.017469, -0.0442919
0.134391, 0.113634, -0.773266, -0.916227, -1.44675, -0.628279, 1.07917, -0.257426, 0.0715179, 0.0111353, -0.105711, -0.0374418, 0.00800129, -0.00879565, -0.000108956, 2.92762, 16.0489, 13.0118, 10.2032, 0.619078, 2.72983, 0.0431018, 0.00137587, 0.000264121, -0.00559702, -0.0183203, 0.00278424, 0.00142025, 0.0097051, -0.000964116, 0.00287832, -0.0166658, 0.10206, 0.18201, -0.0101325, -0.445415, 0.633024, -3.12731, -0.0581515, -0.114649, -0.00915985, -0.445701, 0.638704, 3.13226, 0.0553691, 0.11971, 0.0231301, -0.0154749, -0.0456993, 0.0132839, -0.0168318, -0.0435512
0.135391, 0.113712, -0.773252, -0.916322, -1.44678, -0.628278, 1.07916, -0.25743, 0.075169, 0.0131435, -0.101207, -0.0331645, 0.0056191, -0.00813048, -0.00125943, 2.89191, 16.16, 13.1586, 10.1675, 0.625487, 2.77926, 0.0751453, 0.00137083, 0.000264149, -0.00560532, -0.0183266, 0.00263384, 0.0014315, 0.00759714, -0.000533416, 0.00614589, -0.00870371, 0.103407, 0.189259, -0.0101092, -0.44543, 0.632978, -3.12721, -0.0582105, -0.114811, -0.00914275, -0.445717, 0.638666, 3.13235, 0.0554129, 0.119644, 0.0234829, -0.0156811, -0.0463358, 0.0154823, -0.0165737, -0.040771
0.136391, 0.113773, -0.773235, -0.916415, -1.44682, -0.628276, 1.07915, -0.257431, 0.0705383, 0.0152284, -0.0953997, -0.0367959, 0.00390041, -0.0071034, -0.00134825, 3.04267, 16.2314, 13.3451, 10.2786, 0.631896, 2.81589, 0.0888782, 0.0013629, 0.000262466, -0.00561291, -0.0183329, 0.00247584, 0.00145312, 0.00689511, 0.000848223, 0.0076637, -0.0036787, 0.109212, 0.192573, -0.0100856, -0.445446, 0.632931, -3.1271, -0.0582704, -0.114976, -0.00912821, -0.445732, 0.638626, 3.13244, 0.0554415, 0.119569, 0.0238379, -0.015888, -0.046975, 0.0163734, -0.015395, -0.0398314
0.137391, 0.113843, -0.773223, -0.916499, -1.44686, -0.628274, 1.07915, -0.257423, 0.0686948, 0.0147879, -0.0900862, -0.0363443, 0.00289405, -0.00576055, 0.00177993, 3.003, 16.3782, 13.4958, 10.3897, 0.631896, 2.83694, 0.0165515, 0.00135882, 0.000259874, -0.00562409, -0.0183489, 0.00232334, 0.00147224, 0.00657822, 0.00178435, 0.0101403, 0.00286386, 0.109146, 0.193319, -0.0100616, -0.445462, 0.632884, -3.127, -0.0583311, -0.115144, -0.00910977, -0.445747, 0.63859, 3.13252, 0.0554741, 0.119505, 0.0241952, -0.0160954, -0.0476168, 0.0168289, -0.0146893, -0.0379709
0.138391, 0.113896, -0.773208, -0.916578, -1.4469, -0.628275, 1.07915, -0.257434, 0.0615427, 0.0164169, -0.0858758, -0.0357468, 0.00194625, -0.00534659, -0.00149214, 3.07838, 16.4536, 13.6426, 10.5008, 0.637389, 2.87265, 0.0888782, 0.00134943, 0.00025547, -0.00563728, -0.018369, 0.00216384, 0.00148531, 0.0084563, 0.00285566, 0.0125158, 0.0085206, 0.111582, 0.194295, -0.0100372, -0.445478, 0.632836, -3.12689, -0.0583926, -0.115313, -0.00909651, -0.445759, 0.638554, 3.1326, 0.0555167, 0.119433, 0.0245547, -0.0163034, -0.0482612, 0.0151009, -0.0139292, -0.0363744
0.139391, 0.113957, -0.773194, -0.916653, -1.44694, -0.628276, 1.07914, -0.257425, 0.062618, 0.0135951, -0.0814077, -0.0353309, 0.00098803, -0.0047534, 0.00120929, 3.003, 16.5646, 13.8648, 10.6158, 0.650206, 2.90103, 0.0293689, 0.00134406, 0.000249814, -0.00565174, -0.0183907, 0.0020019, 0.00150772, 0.00791688, 0.00363656, 0.0144957, 0.0134371, 0.109566, 0.197778, -0.0100124, -0.445495, 0.632787, -3.12678, -0.0584549, -0.115485, -0.00907902, -0.445771, 0.63852, 3.13268, 0.0555456, 0.119359, 0.0249165, -0.016512, -0.0489081, 0.0158237, -0.0133659, -0.0349995
0.140391, 0.114004, -0.773186, -0.916728, -1.44698, -0.628279, 1.07914, -0.257423, 0.057577, 0.013745, -0.0787786, -0.0316999, -0.000336355, -0.00327232, 0.00151827, 3.04267, 16.7114, 14.1266, 10.7269, 0.680419, 2.90103, 0.0101428, 0.00133047, 0.000244922, -0.00566836, -0.0184212, 0.00184721, 0.0015396, 0.0104254, 0.00389322, 0.0173346, 0.0205956, 0.10836, 0.194349, -0.00998734, -0.445511, 0.632738, -3.12667, -0.058518, -0.115659, -0.0090695, -0.445784, 0.638486, 3.13275, 0.0555599, 0.119298, 0.0252805, -0.0167211, -0.0495576, 0.0134674, -0.0134516, -0.0330017
0.141391, 0.114059, -0.77317, -0.916801, -1.44701, -0.628283, 1.07914, -0.257427, 0.0545824, 0.0142111, -0.0797611, -0.0331087, -0.00152153, -0.00253035, -0.000683243, 2.92762, 16.7114, 14.3885, 10.8777, 0.717955, 2.90835, 0.0559192, 0.00132268, 0.000239617, -0.00568605, -0.0184542, 0.0016812, 0.00155684, 0.0120964, 0.00383774, 0.017484, 0.0217995, 0.111241, 0.195362, -0.00996188, -0.445528, 0.632688, -3.12656, -0.058582, -0.115835, -0.00905395, -0.445797, 0.638454, 3.13282, 0.0555977, 0.119222, 0.0256467, -0.0169307, -0.0502094, 0.0121574, -0.0137827, -0.0336302
0.142391, 0.114108, -0.773159, -0.916859, -1.44705, -0.628285, 1.07914, -0.257427, 0.0548768, 0.0126122, -0.0745634, -0.03483, -0.00162281, -0.00174505, -0.000218136, 2.81654, 16.7828, 14.5353, 11.0641, 0.736266, 2.90835, 0.0495105, 0.00131562, 0.000230381, -0.00570795, -0.0184943, 0.0015195, 0.00157289, 0.0106586, 0.00500295, 0.0191087, 0.0259377, 0.111081, 0.202404, -0.00993605, -0.445545, 0.632638, -3.12645, -0.0586468, -0.116014, -0.00903777, -0.445806, 0.638425, 3.13289, 0.0556376, 0.119156, 0.0260151, -0.0171409, -0.0508638, 0.0137924, -0.0128003, -0.032546
0.143391, 0.114156, -0.773152, -0.916921, -1.44709, -0.628288, 1.07914, -0.257425, 0.0530223, 0.00814447, -0.0726619, -0.0329434, -0.00194511, -0.000935717, 0.000363202, 2.66181, 16.8582, 14.7614, 11.2506, 0.760985, 2.90103, 0.0357776, 0.00130548, 0.000222296, -0.0057298, -0.0185363, 0.00136189, 0.00159417, 0.0129246, 0.0052634, 0.0208777, 0.0300417, 0.106039, 0.202705, -0.00990985, -0.445562, 0.632586, -3.12633, -0.0587125, -0.116195, -0.00902426, -0.445816, 0.638395, 3.13295, 0.0556702, 0.119098, 0.0263857, -0.0173516, -0.0515205, 0.0117618, -0.0128618, -0.0316054
0.144391, 0.114193, -0.773142, -0.916974, -1.44712, -0.628289, 1.07914, -0.257424, 0.0439613, 0.00974868, -0.0662521, -0.0327146, -0.00146098, -0.000419163, 0.000716853, 2.58643, 16.8582, 14.9082, 11.3617, 0.766478, 2.89462, 0.0229602, 0.00129334, 0.000212115, -0.00575694, -0.0185888, 0.00120487, 0.00162227, 0.0145842, 0.00698924, 0.0238478, 0.0365111, 0.107418, 0.20077, -0.00988328, -0.44558, 0.632535, -3.12622, -0.058779, -0.116378, -0.00901286, -0.445825, 0.638369, 3.13301, 0.0556922, 0.119043, 0.0267585, -0.0175627, -0.0521796, 0.0101926, -0.0114545, -0.0294084
0.145391, 0.114242, -0.773132, -0.917032, -1.44715, -0.628291, 1.07914, -0.257427, 0.0453053, 0.00844404, -0.0624356, -0.0326497, -0.0018601, -0.000303976, -0.000742801, 2.28492, 16.8225, 15.0947, 11.4728, 0.791197, 2.89462, 0.0559192, 0.00128352, 0.00020317, -0.00578455, -0.0186422, 0.00104708, 0.00164013, 0.0135445, 0.00784555, 0.025552, 0.0402681, 0.107054, 0.208693, -0.00985633, -0.445598, 0.632482, -3.1261, -0.0588463, -0.116563, -0.00899877, -0.445835, 0.638344, 3.13306, 0.055731, 0.11899, 0.0271335, -0.0177744, -0.052841, 0.0114416, -0.0107993, -0.0282844
0.146391, 0.114276, -0.773131, -0.917087, -1.44719, -0.628293, 1.07914, -0.257428, 0.0385266, 0.00562641, -0.0617218, -0.030503, -0.00189618, -0.00045841, -0.00073256, 2.17384, 16.8582, 15.2454, 11.6235, 0.809508, 2.90103, 0.0623279, 0.00126566, 0.000192906, -0.00581178, -0.0186946, 0.000894582, 0.00167136, 0.0179774, 0.00823212, 0.0272071, 0.043303, 0.103822, 0.20378, -0.00982901, -0.445615, 0.632429, -3.12598, -0.0589145, -0.116751, -0.00899236, -0.445844, 0.638316, 3.13312, 0.0557499, 0.118947, 0.0275107, -0.0179865, -0.0535047, 0.00726037, -0.0108169, -0.027626
0.147391, 0.114315, -0.773128, -0.917142, -1.44722, -0.628291, 1.07914, -0.257424, 0.0365063, 0.00521036, -0.0622142, -0.0317013, -0.000569407, -0.000319406, 0.00073233, 1.9477, 16.8225, 15.4279, 11.7703, 0.791197, 2.90103, 0.0293689, 0.00125146, 0.000182254, -0.00584006, -0.0187476, 0.00074162, 0.00170093, 0.0189532, 0.0086141, 0.0274518, 0.0431744, 0.104047, 0.203618, -0.00980131, -0.445634, 0.632375, -3.12586, -0.0589835, -0.116942, -0.00898203, -0.445853, 0.63829, 3.13318, 0.0557722, 0.118907, 0.02789, -0.018199, -0.0541706, 0.00663096, -0.0106914, -0.0281185
0.148391, 0.114357, -0.773125, -0.917198, -1.44725, -0.628292, 1.07913, -0.257426, 0.0391479, 0.00570497, -0.0608664, -0.0319586, -0.000604556, -0.000494555, -2.04064e-05, 1.64619, 16.7471, 15.543, 11.8854, 0.797606, 2.90835, 0.0431018, 0.00123651, 0.000171933, -0.00586939, -0.018803, 0.000586081, 0.00172699, 0.0174805, 0.00910706, 0.0283612, 0.0448056, 0.105694, 0.210607, -0.00977323, -0.445652, 0.63232, -3.12574, -0.0590534, -0.117134, -0.00897215, -0.445863, 0.638264, 3.13323, 0.0558007, 0.118864, 0.0282715, -0.018412, -0.0548388, 0.00838964, -0.0103742, -0.0277653
0.149391, 0.1144, -0.773127, -0.917251, -1.44728, -0.628292, 1.07914, -0.257427, 0.0381393, 0.00498964, -0.0590141, -0.0311855, 0.000759155, 0.000442428, -0.000488322, 1.34071, 16.7114, 15.6144, 11.9568, 0.766478, 2.8873, 0.0559192, 0.00122134, 0.00016212, -0.00590169, -0.0188683, 0.000441054, 0.00175092, 0.0176619, 0.0096648, 0.0299074, 0.0478589, 0.103811, 0.214212, -0.00974476, -0.44567, 0.632265, -3.12562, -0.0591241, -0.117329, -0.00896233, -0.445873, 0.63824, 3.13328, 0.0558326, 0.118841, 0.0286551, -0.0186253, -0.0555092, 0.00845189, -0.0100638, -0.0269026
0.150391, 0.114438, -0.77312, -0.917314, -1.44731, -0.628288, 1.07914, -0.257422, 0.0387686, 0.00702344, -0.062798, -0.0339947, 0.00119125, 0.00028913, 0.00136987, 1.11457, 16.5646, 15.7651, 12.0322, 0.748168, 2.8873, 0.0101428, 0.00120315, 0.000151765, -0.00593165, -0.0189211, 0.000284017, 0.00179253, 0.0176509, 0.00943349, 0.0287103, 0.0448633, 0.108538, 0.214203, -0.00971592, -0.445689, 0.632209, -3.12549, -0.0591957, -0.117527, -0.008955, -0.445883, 0.638213, 3.13334, 0.0558389, 0.118801, 0.0290408, -0.0188391, -0.0561817, 0.008943, -0.0104949, -0.0287723
0.151391, 0.114477, -0.773126, -0.917378, -1.44734, -0.628287, 1.07914, -0.257429, 0.0387599, 0.00487979, -0.0613847, -0.031579, 0.000799402, 0.000459654, -0.00125689, 0.888436, 16.5646, 15.8762, 12.1829, 0.748168, 2.87997, 0.0687366, 0.00118187, 0.000141959, -0.00595956, -0.0189731, 0.000130896, 0.00182137, 0.0187427, 0.00968783, 0.0304899, 0.0484893, 0.105929, 0.21895, -0.00968668, -0.445708, 0.632153, -3.12537, -0.0592682, -0.117726, -0.00895019, -0.445894, 0.638183, 3.13341, 0.0558661, 0.11877, 0.0294287, -0.0190533, -0.0568564, 0.0080958, -0.0105265, -0.0277534
0.152391, 0.114512, -0.773129, -0.917439, -1.44737, -0.628282, 1.07914, -0.257432, 0.0415154, 0.00516456, -0.0615653, -0.030826, 0.00213056, 0.000845696, -0.00205863, 0.701973, 16.4893, 15.9119, 12.2583, 0.705138, 2.86532, 0.101696, 0.00116006, 0.000131518, -0.0059911, -0.0190311, -1.79012e-05, 0.00185621, 0.0176703, 0.00986891, 0.0313229, 0.0495676, 0.105488, 0.225102, -0.00965706, -0.445727, 0.632096, -3.12524, -0.0593415, -0.117929, -0.00894585, -0.445905, 0.638155, 3.13347, 0.0558843, 0.118748, 0.0298187, -0.0192678, -0.0575331, 0.00948066, -0.010537, -0.0275182
0.153391, 0.114559, -0.773131, -0.917509, -1.4474, -0.628281, 1.07914, -0.257424, 0.0423626, 0.00522457, -0.062323, -0.0303846, 0.00186412, 0.00134123, 0.00130635, 0.436165, 16.4178, 15.9516, 12.3297, 0.693236, 2.84427, 0.0293689, 0.00114071, 0.000123126, -0.00602044, -0.0190862, -0.000172785, 0.00189825, 0.0179403, 0.00979769, 0.0319681, 0.0510351, 0.10617, 0.224143, -0.00962704, -0.445747, 0.632038, -3.12511, -0.0594156, -0.118133, -0.00893843, -0.445918, 0.638125, 3.13353, 0.0558925, 0.118719, 0.0302108, -0.0194827, -0.0582119, 0.00955354, -0.0108476, -0.0275766
0.154391, 0.114606, -0.773127, -0.917585, -1.44742, -0.628279, 1.07914, -0.257425, 0.0443003, 0.00401145, -0.0660269, -0.0277065, 0.00171968, 0.00143485, 0.000633538, 0.21003, 16.2671, 15.9873, 12.294, 0.680419, 2.82962, 0.0357776, 0.001119, 0.000115882, -0.00605096, -0.0191423, -0.000331495, 0.00194123, 0.0195623, 0.00904162, 0.0323512, 0.0512881, 0.104433, 0.224966, -0.00959664, -0.445766, 0.631979, -3.12498, -0.0594907, -0.11834, -0.00893305, -0.445932, 0.638096, 3.13359, 0.0559001, 0.118686, 0.0306049, -0.019698, -0.0588927, 0.00832728, -0.0118897, -0.0280095
0.155391, 0.114659, -0.77313, -0.91766, -1.44745, -0.628277, 1.07915, -0.257429, 0.0477399, 0.000917691, -0.0649257, -0.0276454, 0.000910748, 0.00200635, -0.000798345, -0.0557783, 16.1957, 15.9873, 12.3297, 0.686827, 2.80124, 0.0687366, 0.00109909, 0.000108396, -0.0060797, -0.0191956, -0.000487461, 0.00197178, 0.0190704, 0.00914272, 0.0332159, 0.0535999, 0.102556, 0.232754, -0.00956583, -0.445786, 0.63192, -3.12485, -0.0595666, -0.11855, -0.00892535, -0.445946, 0.638064, 3.13366, 0.0559282, 0.118661, 0.0310012, -0.0199136, -0.0595756, 0.00913986, -0.0120041, -0.0277937
0.156391, 0.114707, -0.773132, -0.917748, -1.44749, -0.628277, 1.07915, -0.257427, 0.0455286, 0.00195992, -0.071337, -0.0307082, 0.00104922, 0.00265896, 0.000179847, -0.166862, 16.1203, 16.027, 12.3694, 0.674925, 2.76553, 0.0495105, 0.00107436, 0.00010382, -0.00610533, -0.0192462, -0.000649803, 0.00202133, 0.021411, 0.00828304, 0.0313459, 0.0497575, 0.106434, 0.228811, -0.00953463, -0.445806, 0.63186, -3.12472, -0.0596434, -0.118761, -0.00892173, -0.445964, 0.638028, 3.13373, 0.0559279, 0.118627, 0.0313996, -0.0201295, -0.0602603, 0.00737597, -0.013143, -0.0305339
0.157391, 0.114761, -0.773126, -0.917835, -1.44752, -0.628278, 1.07916, -0.257424, 0.052263, 0.00211143, -0.0743508, -0.0298149, 0.00070041, 0.00285693, 0.000865883, -0.317619, 15.9378, 15.9873, 12.4051, 0.674925, 2.73623, 0.0293689, 0.00105487, 9.87411e-05, -0.00613104, -0.0192971, -0.000823402, 0.00206453, 0.0199211, 0.00763528, 0.0312806, 0.0493832, 0.1073, 0.234427, -0.00950303, -0.445826, 0.6318, -3.12458, -0.059721, -0.118976, -0.00891255, -0.445981, 0.637991, 3.13381, 0.0559385, 0.118579, 0.0318, -0.0203457, -0.060947, 0.00928641, -0.0139544, -0.0311827
0.158391, 0.114826, -0.77312, -0.917926, -1.44755, -0.628281, 1.07916, -0.257431, 0.0551587, 0.00111207, -0.0822731, -0.0290097, -0.000447889, 0.00268393, -0.00162679, -0.508049, 15.791, 15.9119, 12.294, 0.699645, 2.71518, 0.0888782, 0.00103507, 9.46063e-05, -0.00615931, -0.0193505, -0.000994918, 0.00209908, 0.0222647, 0.006072, 0.0298607, 0.0460536, 0.108147, 0.235294, -0.00947103, -0.445847, 0.631738, -3.12445, -0.0597996, -0.119192, -0.00890343, -0.445999, 0.637957, 3.13388, 0.0559632, 0.118537, 0.0322025, -0.0205621, -0.0616356, 0.00751755, -0.0158038, -0.0334885
0.159391, 0.114893, -0.773118, -0.918028, -1.44757, -0.628282, 1.07917, -0.257425, 0.0572603, 0.00269824, -0.0859702, -0.0285334, -0.000501519, 0.00284001, -0.000101184, -0.619133, 15.6799, 15.8762, 12.1829, 0.705138, 2.6868, 0.0623279, 0.00101235, 9.22087e-05, -0.00618433, -0.0193954, -0.00116411, 0.00215029, 0.0224756, 0.00551163, 0.0296821, 0.0453079, 0.110534, 0.235298, -0.00943863, -0.445867, 0.631676, -3.12431, -0.059879, -0.119411, -0.00889653, -0.44602, 0.637918, 3.13396, 0.0559636, 0.118501, 0.032607, -0.0207789, -0.062326, 0.00774308, -0.0165906, -0.0343832
0.160391, 0.114955, -0.77311, -0.918136, -1.44761, -0.628282, 1.07917, -0.257424, 0.0591841, 0.00163956, -0.0912471, -0.0325537, -0.000333953, 0.00324935, 0.000915888, -0.619133, 15.5331, 15.8008, 12.1075, 0.705138, 2.65018, 0.0357776, 0.000988285, 9.02638e-05, -0.00620709, -0.0194357, -0.00134423, 0.00220346, 0.0230879, 0.00482346, 0.0276099, 0.040964, 0.113009, 0.236829, -0.00940582, -0.445888, 0.631614, -3.12417, -0.0599593, -0.119633, -0.00889039, -0.446041, 0.637877, 3.13405, 0.0559624, 0.11845, 0.0330136, -0.0209959, -0.0630183, 0.00771998, -0.0174902, -0.0372004
0.161391, 0.115031, -0.773095, -0.918251, -1.44764, -0.628284, 1.07918, -0.257431, 0.0664233, 0.00483453, -0.0974815, -0.034093, -0.000900509, 0.00348842, -0.0013561, -0.734184, 15.3467, 15.6898, 12.1075, 0.723448, 2.61447, 0.0888782, 0.000970315, 8.94599e-05, -0.0062265, -0.0194697, -0.00153824, 0.00223961, 0.0210241, 0.00371187, 0.0259931, 0.0375027, 0.118855, 0.244607, -0.0093726, -0.445909, 0.63155, -3.12403, -0.0600404, -0.119857, -0.00887748, -0.446063, 0.637831, 3.13415, 0.0559892, 0.11838, 0.0334222, -0.0212132, -0.0637123, 0.0103475, -0.0187188, -0.0393655
0.162391, 0.115104, -0.77309, -0.918383, -1.44767, -0.628287, 1.07918, -0.257431, 0.0683761, 0.0044283, -0.10962, -0.0316264, -0.001753, 0.00391912, -0.000904064, -0.694511, 15.2753, 15.6144, 11.9568, 0.754576, 2.57144, 0.0888782, 0.000941594, 9.29913e-05, -0.006244, -0.0195014, -0.0017208, 0.00230167, 0.0252091, 0.00118611, 0.024013, 0.0329255, 0.118884, 0.237675, -0.00933897, -0.445931, 0.631486, -3.12389, -0.0601225, -0.120083, -0.00887458, -0.44609, 0.637782, 3.13425, 0.0559768, 0.118331, 0.0338328, -0.0214307, -0.0644081, 0.00683465, -0.0215906, -0.0423943
0.163391, 0.115192, -0.773075, -0.918522, -1.44771, -0.628288, 1.07919, -0.257428, 0.0778551, 0.00603701, -0.119512, -0.0318817, -0.00140586, 0.00827178, 0.00160134, -0.76989, 15.1285, 15.5787, 11.8854, 0.760985, 2.54306, 0.0293689, 0.000920758, 9.73026e-05, -0.00625901, -0.019526, -0.00191478, 0.00235568, 0.0234864, -0.00145534, 0.0220041, 0.0307083, 0.119713, 0.239915, -0.00930493, -0.445952, 0.631421, -3.12375, -0.0602054, -0.120312, -0.0088632, -0.446117, 0.637731, 3.13436, 0.0559785, 0.118266, 0.0342455, -0.0216484, -0.0651057, 0.00921745, -0.0243538, -0.0450012
0.164391, 0.115281, -0.773061, -0.918664, -1.44774, -0.628288, 1.0792, -0.257429, 0.0800814, 0.0104999, -0.122587, -0.0293936, -0.000937118, 0.0112674, -0.000153145, -0.734184, 14.9777, 15.5033, 11.6989, 0.760985, 2.52109, 0.0623279, 0.000897601, 0.000101542, -0.00627499, -0.0195492, -0.00210814, 0.00240888, 0.022582, -0.00239219, 0.0229885, 0.0339348, 0.121854, 0.243071, -0.00927048, -0.445974, 0.631356, -3.1236, -0.0602893, -0.120544, -0.00885381, -0.446145, 0.63768, 3.13447, 0.0559824, 0.118205, 0.0346601, -0.0218663, -0.0658049, 0.0104914, -0.025494, -0.0446659
0.165391, 0.115375, -0.773048, -0.918812, -1.44778, -0.62829, 1.07921, -0.25743, 0.0872737, 0.0159707, -0.130617, -0.0323013, -0.00130282, 0.00895902, -0.000576814, -0.694511, 14.8706, 15.3922, 11.5839, 0.779296, 2.50003, 0.0751453, 0.000875403, 0.000107653, -0.00628848, -0.0195716, -0.00230516, 0.00246103, 0.0203785, -0.00323755, 0.0203023, 0.0264564, 0.132082, 0.248381, -0.00923561, -0.445996, 0.63129, -3.12346, -0.060374, -0.120777, -0.0088428, -0.446175, 0.637625, 3.13458, 0.0559892, 0.118141, 0.0350768, -0.0220844, -0.0665058, 0.01334, -0.0264325, -0.0478897
0.166391, 0.115477, -0.773034, -0.918964, -1.44781, -0.628292, 1.07921, -0.257425, 0.0937682, 0.0171185, -0.135989, -0.0348147, -0.00154665, 0.00674459, 0.00131088, -0.694511, 14.7595, 15.2454, 11.4728, 0.797606, 2.4927, 0.0293689, 0.00085536, 0.00011404, -0.0063007, -0.019589, -0.00250679, 0.00251424, 0.0189998, -0.00366857, 0.0183639, 0.0206461, 0.137446, 0.252574, -0.00920033, -0.446018, 0.631223, -3.12331, -0.0604596, -0.121014, -0.00882913, -0.446206, 0.637569, 3.1347, 0.0559956, 0.118073, 0.0354954, -0.0223027, -0.0672083, 0.0152959, -0.0270002, -0.0504274
0.167391, 0.115581, -0.773018, -0.919128, -1.44785, -0.628294, 1.07922, -0.257425, 0.0968327, 0.0210083, -0.140833, -0.035696, -0.000556326, 0.0053805, 0.00063656, -0.583427, 14.6484, 15.1304, 11.322, 0.784789, 2.47897, 0.0357776, 0.000831911, 0.000122473, -0.00631148, -0.0196026, -0.00271097, 0.00257113, 0.0181399, -0.00394625, 0.0173688, 0.0167501, 0.143106, 0.256085, -0.00916462, -0.446041, 0.631155, -3.12316, -0.0605461, -0.121253, -0.00881825, -0.446238, 0.63751, 3.13483, 0.0559976, 0.118003, 0.0359161, -0.0225212, -0.0679124, 0.0166586, -0.02745, -0.0520643
0.168391, 0.115689, -0.773005, -0.919294, -1.44788, -0.628292, 1.07922, -0.25743, 0.106573, 0.0168277, -0.147844, -0.0360463, -0.000370845, 0.00818296, -0.00103369, -0.543754, 14.5731, 15.0193, 11.2863, 0.784789, 2.48538, 0.0751453, 0.000809736, 0.000130395, -0.00632033, -0.0196087, -0.00291397, 0.00261782, 0.0173301, -0.00589458, 0.0157907, 0.0145811, 0.139045, 0.264946, -0.00912849, -0.446063, 0.631087, -3.12301, -0.0606336, -0.121494, -0.00880556, -0.446271, 0.637449, 3.13496, 0.0560171, 0.117937, 0.0363387, -0.0227398, -0.068618, 0.0180845, -0.0295607, -0.0543111
0.169391, 0.115797, -0.772989, -0.919465, -1.44792, -0.62829, 1.07923, -0.257424, 0.108128, 0.0178714, -0.155081, -0.0335166, 0.000193609, 0.00628318, 0.0010063, -0.392998, 14.462, 14.8725, 11.1356, 0.772887, 2.47897, 0.0293689, 0.000786121, 0.000140595, -0.00633105, -0.0196231, -0.00311578, 0.00268207, 0.0196487, -0.00682231, 0.0150777, 0.0106929, 0.140334, 0.260456, -0.00909194, -0.446086, 0.631018, -3.12286, -0.0607219, -0.121738, -0.00879396, -0.446306, 0.637389, 3.13509, 0.0560095, 0.117876, 0.0367632, -0.0229586, -0.0693252, 0.0162893, -0.0307858, -0.0559272
0.170391, 0.115919, -0.772975, -0.919645, -1.44795, -0.628289, 1.07924, -0.257426, 0.107541, 0.0167733, -0.164125, -0.0366913, 0.000366454, 0.0084723, 0.000162237, -0.357292, 14.4263, 14.7217, 11.0641, 0.766478, 2.50003, 0.0431018, 0.000764828, 0.000151901, -0.00633846, -0.0196277, -0.00332157, 0.00273178, 0.0226261, -0.00855018, 0.0124721, 0.0061513, 0.141563, 0.258081, -0.00905497, -0.446109, 0.630949, -3.12271, -0.0608111, -0.121984, -0.00877932, -0.446342, 0.637325, 3.13523, 0.0560263, 0.117811, 0.0371897, -0.0231774, -0.0700339, 0.0140187, -0.0328027, -0.0594956
0.171391, 0.116047, -0.772952, -0.919832, -1.44799, -0.62829, 1.07925, -0.25743, 0.114732, 0.022263, -0.169912, -0.0347668, -0.000230399, 0.010581, -0.0013499, -0.317619, 14.2795, 14.5353, 10.9491, 0.779296, 2.51468, 0.0824695, 0.000745861, 0.00016527, -0.00634573, -0.0196348, -0.00353676, 0.00278043, 0.020285, -0.0100504, 0.0123201, 0.00674802, 0.146539, 0.263667, -0.00901756, -0.446132, 0.630878, -3.12255, -0.0609012, -0.122233, -0.00876186, -0.44638, 0.63726, 3.13536, 0.0560457, 0.117735, 0.0376182, -0.0233964, -0.0707441, 0.0168494, -0.0344313, -0.0602005
0.172391, 0.116182, -0.772933, -0.920033, -1.44802, -0.62829, 1.07926, -0.25743, 0.12102, 0.0200729, -0.178276, -0.0361654, -0.000153587, 0.00798844, -0.000899936, -0.317619, 14.2438, 14.3885, 10.9491, 0.779296, 2.51468, 0.0824695, 0.000725509, 0.000180833, -0.00634733, -0.0196284, -0.00375462, 0.00283421, 0.0212211, -0.0111016, 0.00974414, -0.00106063, 0.147992, 0.266396, -0.00897973, -0.446156, 0.630807, -3.12239, -0.0609922, -0.122484, -0.00874482, -0.446421, 0.637188, 3.13552, 0.0560592, 0.117656, 0.0380486, -0.0236155, -0.0714557, 0.0165888, -0.0356937, -0.0635738
0.173391, 0.116306, -0.772917, -0.920227, -1.44806, -0.628289, 1.07928, -0.257424, 0.118141, 0.0176236, -0.1798, -0.0343169, 0.000134977, 0.0105869, 0.00160409, -0.131157, 14.2438, 14.1623, 10.838, 0.772887, 2.51468, 0.0229602, 0.000699921, 0.00019516, -0.00635507, -0.0196359, -0.00396316, 0.00290457, 0.0241659, -0.011668, 0.0108757, 0.00240431, 0.143886, 0.261663, -0.00894147, -0.44618, 0.630735, -3.12224, -0.0610841, -0.122738, -0.00873311, -0.446461, 0.637122, 3.13566, 0.0560467, 0.117595, 0.0384809, -0.0238347, -0.0721687, 0.0140212, -0.0366147, -0.0634046
0.174391, 0.116443, -0.772891, -0.920433, -1.4481, -0.628291, 1.07929, -0.25743, 0.122403, 0.0210698, -0.18667, -0.0334631, 0.00076816, 0.00796355, -0.000863387, -0.0914839, 14.1684, 14.0513, 10.8777, 0.754576, 2.51468, 0.0751453, 0.000680041, 0.000211756, -0.00635649, -0.0196314, -0.00419151, 0.00295624, 0.0241504, -0.012295, 0.00968741, -0.00286171, 0.149033, 0.265565, -0.00890277, -0.446204, 0.630663, -3.12208, -0.061177, -0.122995, -0.00871471, -0.446504, 0.637049, 3.13581, 0.0560654, 0.117506, 0.0389151, -0.0240539, -0.0728831, 0.0145882, -0.0374413, -0.0653175
0.175391, 0.116577, -0.77287, -0.920645, -1.44813, -0.628289, 1.07931, -0.257427, 0.127146, 0.0177616, -0.192922, -0.0347139, 0.000274753, 0.0106431, 0.000136486, 0.0196001, 14.2041, 13.9799, 10.8777, 0.760985, 2.51468, 0.0559192, 0.000655909, 0.000229675, -0.00635911, -0.0196297, -0.00441041, 0.00302329, 0.0250185, -0.0139377, 0.00825171, -0.00439317, 0.146946, 0.267523, -0.00886363, -0.446228, 0.630589, -3.12192, -0.0612707, -0.123253, -0.00870015, -0.446548, 0.636976, 3.13596, 0.0560609, 0.117434, 0.0393512, -0.0242732, -0.0735988, 0.0143373, -0.0393119, -0.0675638
0.176391, 0.116722, -0.772842, -0.920855, -1.44816, -0.628286, 1.07933, -0.257422, 0.131907, 0.0180256, -0.194855, -0.0315991, 0.0010987, 0.0131486, 0.000836976, 0.0949785, 14.1327, 13.9402, 10.838, 0.736266, 2.50003, 0.0357776, 0.000637784, 0.00024776, -0.00636475, -0.0196347, -0.00463086, 0.00308521, 0.0240406, -0.0147147, 0.00948561, -0.00116904, 0.144452, 0.271521, -0.00882406, -0.446252, 0.630515, -3.12175, -0.0613653, -0.123515, -0.00867942, -0.446592, 0.636906, 3.13611, 0.0560648, 0.117362, 0.0397893, -0.0244926, -0.0743159, 0.0156835, -0.040295, -0.0669918
0.177391, 0.116866, -0.772825, -0.921056, -1.4482, -0.628284, 1.07935, -0.257426, 0.136696, 0.0169287, -0.194112, -0.034949, 0.00120719, 0.0143731, 4.93575e-05, 0.21003, 14.2438, 13.8291, 10.9134, 0.723448, 2.50003, 0.0495105, 0.000619973, 0.000263608, -0.00637016, -0.0196402, -0.00484973, 0.00312861, 0.0215298, -0.0144719, 0.00931421, -0.000770948, 0.14588, 0.282044, -0.00878406, -0.446277, 0.630441, -3.12159, -0.0614609, -0.123779, -0.00865801, -0.446634, 0.636835, 3.13625, 0.0560985, 0.117295, 0.0402292, -0.0247119, -0.0750342, 0.0186279, -0.0401744, -0.0676842
0.178391, 0.117001, -0.772797, -0.921261, -1.44824, -0.628283, 1.07936, -0.257431, 0.13493, 0.0233742, -0.203468, -0.0373435, 0.0012456, 0.0145471, -0.00166252, 0.400459, 14.2041, 13.718, 10.9888, 0.711547, 2.52109, 0.0952869, 0.000599216, 0.000279167, -0.00637714, -0.0196469, -0.00508037, 0.00318374, 0.0232421, -0.0157376, 0.00700846, -0.00605942, 0.155276, 0.278678, -0.00874361, -0.446302, 0.630365, -3.12142, -0.0615574, -0.124045, -0.00863924, -0.446676, 0.636765, 3.1364, 0.056115, 0.117213, 0.040671, -0.0249313, -0.0757538, 0.0175968, -0.0416842, -0.070864
0.179391, 0.117147, -0.772765, -0.921483, -1.44828, -0.628282, 1.07938, -0.257423, 0.135543, 0.0247339, -0.210744, -0.0391096, 0.00106776, 0.0141246, 0.00180778, 0.551216, 14.1684, 13.7537, 11.0641, 0.705138, 2.56412, 0.0165515, 0.000578263, 0.000298268, -0.0063795, -0.0196437, -0.00531843, 0.00325707, 0.0250173, -0.016731, 0.00516293, -0.0106549, 0.159516, 0.273669, -0.00870271, -0.446327, 0.630289, -3.12126, -0.0616548, -0.124315, -0.00861972, -0.446722, 0.636689, 3.13656, 0.0561051, 0.117121, 0.0411146, -0.0251507, -0.0764746, 0.0164585, -0.0429324, -0.0735881
0.180391, 0.117291, -0.772734, -0.921704, -1.44831, -0.628283, 1.0794, -0.257424, 0.137174, 0.0239841, -0.2118, -0.0362289, 0.000474484, 0.0187949, 0.000730469, 0.6623, 14.2041, 13.7537, 11.0999, 0.711547, 2.60074, 0.0293689, 0.000555617, 0.000317446, -0.0063848, -0.0196479, -0.00555395, 0.00332361, 0.0254633, -0.0178119, 0.00685193, -0.00434044, 0.156118, 0.27647, -0.00866138, -0.446352, 0.630212, -3.12109, -0.0617531, -0.124586, -0.00860169, -0.446769, 0.636615, 3.13671, 0.0561061, 0.117036, 0.0415602, -0.0253701, -0.0771966, 0.01637, -0.0442832, -0.0726866
0.181391, 0.117438, -0.772709, -0.921921, -1.44835, -0.628281, 1.07942, -0.257432, 0.137903, 0.0249055, -0.213655, -0.0367923, -0.000124486, 0.01708, -0.00195443, 0.813057, 14.3152, 13.7934, 11.2506, 0.723448, 2.65018, 0.0952869, 0.000535248, 0.000334824, -0.00638852, -0.0196477, -0.00578971, 0.00337381, 0.0260237, -0.0176342, 0.00676634, -0.00579333, 0.159896, 0.281078, -0.00861959, -0.446377, 0.630135, -3.12092, -0.0618523, -0.12486, -0.0085809, -0.446813, 0.63654, 3.13687, 0.0561339, 0.116954, 0.0420076, -0.0255895, -0.0779197, 0.0162594, -0.0443477, -0.0735446
0.182391, 0.117584, -0.772678, -0.922127, -1.44839, -0.62828, 1.07943, -0.257424, 0.141583, 0.0268474, -0.211517, -0.0390561, -8.29898e-05, 0.0147094, 0.00113845, 0.963814, 14.3906, 13.718, 11.3617, 0.723448, 2.72983, 0.0293689, 0.000517852, 0.000348944, -0.00639687, -0.0196532, -0.0060339, 0.0034346, 0.0232476, -0.0164326, 0.00714931, -0.00663063, 0.165404, 0.287089, -0.00857736, -0.446403, 0.630057, -3.12075, -0.0619525, -0.125137, -0.0085572, -0.446855, 0.636468, 3.13702, 0.0561459, 0.116861, 0.0424568, -0.0258089, -0.078644, 0.0193952, -0.0432685, -0.0736523
0.183391, 0.117723, -0.772638, -0.922342, -1.44843, -0.628279, 1.07944, -0.257429, 0.141274, 0.0299447, -0.211012, -0.0406957, 0.000148125, 0.00910509, -0.000699092, 1.11457, 14.3906, 13.7934, 11.4728, 0.717955, 2.79391, 0.0687366, 0.000497714, 0.000363953, -0.00640388, -0.0196558, -0.00628983, 0.00349593, 0.0228622, -0.0148493, 0.00715614, -0.0106525, 0.173245, 0.292547, -0.00853468, -0.446429, 0.629978, -3.12057, -0.0620535, -0.125416, -0.00853565, -0.446898, 0.636394, 3.13718, 0.0561585, 0.116752, 0.0429079, -0.0260282, -0.0793694, 0.0201659, -0.0418936, -0.074321
