alisrour97/Franka_experiments/Real_Robot_scripts/servo-franka/Data_video/log_dyn_INIT1_0.csv
Time,q1,q2,q3,q4,q5,q6,q7,dq1,dq2,dq3,dq4,dq5,dq6,dq7,t1,t2,t3,t4,t5,t6,t7,ex1,ex2,ex3,ex4,ex5,ex6,ev1,ev2,ev3,ev4,ev5,ev6,xd,yd,zd,uxd,uyd,uzd,x,y,z,ux,uy,uz,vxd,vyd,vzd,vx,vy,vz
4.88281e-07, 1.69148, -1.22539, -1.53788, -0.900146, -1.19214, 1.22865, -1.30268, 0.00190973, 0.00160955, -0.00632351, -0.000494783, 0.00163078, -0.00110839, -0.00108476, -0.884941, 57.9236, 27.5638, 6.84296, 2.2771, 2.91568, -0.133595, 0.000985659, -0.00147795, -5.56671e-05, 0.000195169, -0.000978381, -0.00020394, -0.000233955, -2.00578e-05, -0.00156914, -0.00612742, 0.000255946, 0.000878035, 0.471008, -0.543389, 0.335894, -2.08385, -2.16584, -0.129887, 0.469502, -0.542485, 0.336153, -2.08404, -2.16655, -0.128699, 1.77043e-06, 3.2e-05, 1.02972e-05, -4.32024e-05, 0.000505306, -0.00150341
0.0131226, 1.69146, -1.2254, -1.53791, -0.900147, -1.19211, 1.22865, -1.30268, -0.00143572, -0.000369481, -0.00275884, -0.00212749, 0.00100836, -0.000557459, 0.00100107, -0.845268, 57.8522, 27.6392, 6.84296, 2.2652, 2.93033, -0.133595, 0.000976473, -0.00149162, -4.24335e-05, 0.000204777, -0.000945251, -0.000183172, 0.000426353, 0.000800362, -0.00147298, -0.00324208, -0.00109696, -0.00153712, 0.471008, -0.543389, 0.335894, -2.08385, -2.16584, -0.129887, 0.469485, -0.542493, 0.336132, -2.08404, -2.16649, -0.128719, 1.77746e-06, 6.40623e-05, 1.89552e-05, -0.000835475, -0.000162874, -0.00147756
0.0141226, 1.69146, -1.2254, -1.53791, -0.900147, -1.19211, 1.22865, -1.30268, -0.00143572, -0.000369481, -0.00275884, -0.00212749, 0.00100836, -0.000557459, 0.00100107, -0.845268, 57.8522, 27.6392, 6.84296, 2.2652, 2.93033, -0.133595, 0.000976465, -0.00149162, -4.24326e-05, 0.000204774, -0.000945255, -0.00018317, 0.000462609, 0.000801511, -0.00147694, -0.00323745, -0.00107042, -0.00153448, 0.471008, -0.543389, 0.335894, -2.08385, -2.16584, -0.129887, 0.469485, -0.542493, 0.336132, -2.08404, -2.16649, -0.128719, 1.77167e-06, 9.92934e-05, 2.84561e-05, -0.000835475, -0.000162874, -0.00147756
0.0151226, 1.69146, -1.2254, -1.53791, -0.900147, -1.19211, 1.22865, -1.30268, -0.00143572, -0.000369481, -0.00275884, -0.00212749, 0.00100836, -0.000557459, 0.00100107, -0.845268, 57.8522, 27.6392, 6.84296, 2.2652, 2.93033, -0.133595, 0.000976445, -0.00149162, -4.24304e-05, 0.000204766, -0.000945265, -0.000183165, 0.000502253, 0.000802755, -0.00148126, -0.00323237, -0.00104141, -0.00153159, 0.471008, -0.543389, 0.335894, -2.08385, -2.16584, -0.129887, 0.469485, -0.542493, 0.336132, -2.08404, -2.16649, -0.128719, 1.75167e-06, 0.000137819, 3.88327e-05, -0.000835475, -0.000162874, -0.00147756
0.0161226, 1.69146, -1.2254, -1.53791, -0.900147, -1.19211, 1.22865, -1.30268, -0.00143572, -0.000369481, -0.00275884, -0.00212749, 0.00100836, -0.000557459, 0.00100107, -0.845268, 57.8522, 27.6392, 6.84296, 2.2652, 2.93033, -0.133595, 0.000976406, -0.00149163, -4.24261e-05, 0.00020475, -0.000945284, -0.000183156, 0.000545414, 0.000804095, -0.00148594, -0.0032268, -0.00100985, -0.00152845, 0.471008, -0.543389, 0.335894, -2.08385, -2.16584, -0.129887, 0.469485, -0.542493, 0.336132, -2.08404, -2.16649, -0.128719, 1.716e-06, 0.000179762, 5.01169e-05, -0.000835475, -0.000162874, -0.00147756
0.0171226, 1.69146, -1.2254, -1.53791, -0.900147, -1.19211, 1.22865, -1.30268, -0.00143572, -0.000369481, -0.00275884, -0.00212749, 0.00100836, -0.000557459, 0.00100107, -0.845268, 57.8522, 27.6392, 6.84296, 2.2652, 2.93033, -0.133595, 0.000976342, -0.00149163, -4.2419e-05, 0.000204725, -0.000945315, -0.00018314, 0.000592218, 0.000805535, -0.00149101, -0.00322073, -0.000975635, -0.00152504, 0.471008, -0.543389, 0.335894, -2.08385, -2.16584, -0.129887, 0.469485, -0.542493, 0.336132, -2.08404, -2.16649, -0.128719, 1.66317e-06, 0.000225248, 6.23407e-05, -0.000835475, -0.000162874, -0.00147756
0.0181226, 1.69146, -1.2254, -1.53791, -0.900147, -1.19211, 1.22865, -1.30268, -0.00143572, -0.000369481, -0.00275884, -0.00212749, 0.00100836, -0.000557459, 0.00100107, -0.845268, 57.8522, 27.6392, 6.84296, 2.2652, 2.93033, -0.133595, 0.000976246, -0.00149163, -4.24083e-05, 0.000204686, -0.000945362, -0.000183116, 0.000642791, 0.000807076, -0.00149647, -0.00321415, -0.00093868, -0.00152135, 0.471008, -0.543389, 0.335894, -2.08385, -2.16584, -0.129887, 0.469485, -0.542493, 0.336132, -2.08404, -2.16649, -0.128719, 1.59159e-06, 0.000274397, 7.55354e-05, -0.000835475, -0.000162874, -0.00147756
0.0191226, 1.69146, -1.2254, -1.53791, -0.900147, -1.19211, 1.22865, -1.30268, -0.00143572, -0.000369481, -0.00275884, -0.00212749, 0.00100836, -0.000557459, 0.00100107, -0.845268, 57.8522, 27.6392, 6.84296, 2.2652, 2.93033, -0.133595, 0.000976112, -0.00149163, -4.23936e-05, 0.000204632, -0.000945427, -0.000183083, 0.000697255, 0.000808722, -0.00150234, -0.00320702, -0.000898898, -0.00151737, 0.471008, -0.543389, 0.335894, -2.08385, -2.16584, -0.129887, 0.469485, -0.542493, 0.336132, -2.08404, -2.16649, -0.128719, 1.49965e-06, 0.00032733, 8.9732e-05, -0.000835475, -0.000162874, -0.00147756
0.0201226, 1.69146, -1.2254, -1.53791, -0.900147, -1.19211, 1.22865, -1.30268, -0.00143572, -0.000369481, -0.00275884, -0.00212749, 0.00100836, -0.000557459, 0.00100107, -0.845268, 57.8522, 27.6392, 6.84296, 2.2652, 2.93033, -0.133595, 0.000975934, -0.00149164, -4.2374e-05, 0.000204561, -0.000945514, -0.000183039, 0.000755732, 0.000810474, -0.00150863, -0.00319933, -0.000856199, -0.0015131, 0.471008, -0.543389, 0.335894, -2.08385, -2.16584, -0.129887, 0.469485, -0.542493, 0.336132, -2.08404, -2.16649, -0.128719, 1.38564e-06, 0.000384166, 0.000104961, -0.000835475, -0.000162874, -0.00147756
0.0211226, 1.69146, -1.2254, -1.53791, -0.900153, -1.19208, 1.22865, -1.30268, 0.000113371, -0.00204417, -0.000291557, -0.000503423, 0.00356346, 0.000550239, -0.00105575, -0.809562, 57.8879, 27.6035, 6.88263, 2.23407, 2.90103, -0.0814099, 0.000981369, -0.00148714, -3.96671e-05, 0.000193487, -0.000924452, -0.00020079, -0.00013379, -0.000648005, -0.0013829, 0.00151052, -0.00427949, 0.0027328, 0.471008, -0.543389, 0.335894, -2.08385, -2.16584, -0.129887, 0.469489, -0.542487, 0.33613, -2.08401, -2.1665, -0.128754, 1.24785e-06, 0.00044502, 0.000121252, 0.000593715, 0.000816463, -0.00124302
0.0221226, 1.69146, -1.2254, -1.53791, -0.900153, -1.19208, 1.22865, -1.30268, 6.75256e-05, -0.000590442, -0.000213645, -0.000349311, 0.00313679, 0.000366512, 0.000754231, -0.809562, 57.8522, 27.6035, 6.88263, 2.22217, 2.90103, -0.120778, 0.000981466, -0.00148699, -3.99394e-05, 0.000192489, -0.000923631, -0.000197598, -9.05012e-05, -0.000491512, -0.000501249, 0.00143137, -0.00254352, 0.000616475, 0.471008, -0.543388, 0.335894, -2.08385, -2.16584, -0.129887, 0.469489, -0.542486, 0.336131, -2.08402, -2.1665, -0.128756, 1.08446e-06, 0.000510009, 0.000138634, 0.000470632, 0.000696613, -0.000357076
0.0231226, 1.69146, -1.2254, -1.5379, -0.900148, -1.19208, 1.22865, -1.30268, 3.89759e-05, -0.00323552, -0.00364346, -0.000779332, 0.00436596, -2.71614e-05, -0.00166732, -0.809562, 57.7054, 27.4885, 6.77154, 2.16724, 2.90835, -0.0621838, 0.000980188, -0.00148771, -3.93689e-05, 0.000187697, -0.000917118, -0.000198036, 0.000549697, -8.15197e-05, -0.00337066, -0.00174786, -0.00606997, 0.00219747, 0.471008, -0.543388, 0.335894, -2.08385, -2.16584, -0.129887, 0.469489, -0.542487, 0.33613, -2.08401, -2.1665, -0.128768, 8.93621e-07, 0.000579243, 0.000157137, -1.97051e-05, 0.000558698, -0.00325891
0.0241226, 1.69145, -1.2254, -1.5379, -0.900152, -1.19208, 1.22865, -1.30268, 0.000504407, -0.000258082, -0.00408866, -0.000788479, 0.00627822, -0.00110335, 0.000109158, -0.694511, 57.3364, 27.2663, 6.77154, 2.08118, 2.93765, -0.0951428, 0.000979829, -0.00148933, -4.32867e-05, 0.000184815, -0.000922469, -0.00019366, -0.000265644, -0.000228586, -0.00190951, -0.00199963, -0.00510234, 0.00126911, 0.471008, -0.543388, 0.335894, -2.08384, -2.16584, -0.129887, 0.469487, -0.542488, 0.336134, -2.08402, -2.1665, -0.128765, 6.73433e-07, 0.000652833, 0.000176787, 0.000150539, 0.00121834, -0.00167437
0.0251226, 1.69146, -1.22541, -1.5379, -0.900152, -1.19209, 1.22865, -1.30269, 0.00152541, -0.00388755, -0.00639359, -0.00113806, 0.00191945, -0.0015156, -0.00284335, -0.734184, 57.1896, 27.1195, 6.65649, 2.01984, 2.95871, -0.0164075, 0.000978761, -0.00148619, -3.46873e-05, 0.000192976, -0.000920165, -0.000201488, 0.000904812, 2.78361e-05, -0.00500366, -0.00701887, -0.00508453, 0.00303133, 0.471008, -0.543387, 0.335894, -2.08384, -2.16584, -0.129887, 0.46949, -0.542487, 0.336125, -2.08401, -2.1665, -0.12876, 4.21933e-07, 0.000730885, 0.000197611, -0.00017564, 0.000606632, -0.00488271
0.0261226, 1.69147, -1.22541, -1.5379, -0.900157, -1.1921, 1.22865, -1.30268, 0.00507243, -0.000828752, -0.00110704, -0.00269821, -0.000962522, -0.00233292, -0.00142085, -0.76989, 56.9318, 26.933, 6.58508, 1.94568, 2.99441, -0.0292249, 0.000981184, -0.0014821, -3.45079e-05, 0.000196579, -0.000926779, -0.00020396, -0.00195723, -0.00270698, -0.00181792, -0.00547588, -0.000115633, 0.00800883, 0.471008, -0.543387, 0.335895, -2.08384, -2.16584, -0.129887, 0.469494, -0.542484, 0.336126, -2.08401, -2.1665, -0.128749, 1.37109e-07, 0.000813505, 0.000219637, 0.00256802, 0.0031363, -0.00135324
0.0271226, 1.69146, -1.22542, -1.53791, -0.900158, -1.19211, 1.22866, -1.30267, 0.00342953, -0.00488699, -0.00164278, 0.000318446, 0.000344245, -0.00182662, 0.00149417, -0.619133, 56.9318, 26.933, 6.47003, 1.90265, 3.00174, -0.0951428, 0.000973528, -0.00148617, -2.47877e-05, 0.000205326, -0.000925236, -0.000184368, 4.9398e-05, -0.00132842, -0.00384996, -0.00353005, -0.00519394, 0.00108978, 0.471008, -0.543386, 0.335895, -2.08384, -2.16584, -0.129887, 0.46949, -0.542489, 0.336115, -2.08402, -2.16648, -0.128739, -1.83099e-07, 0.000900793, 0.00024289, 0.00118932, 0.00149895, -0.00360634
0.0281226, 1.69146, -1.22544, -1.53791, -0.900165, -1.19212, 1.22866, -1.30268, 0.00201494, -0.00690254, -0.000845735, -0.000218207, -0.000463689, -0.000166645, -0.00168265, -0.583427, 57.0389, 26.8934, 6.47003, 1.90906, 2.97336, -0.0228162, 0.00097004, -0.00148411, -1.55e-05, 0.000211873, -0.000929043, -0.000193787, 0.000971639, -0.00104134, -0.00461444, -0.0019597, -0.00569816, 0.00349505, 0.471008, -0.543385, 0.335895, -2.08384, -2.16584, -0.129887, 0.469492, -0.542491, 0.336106, -2.08401, -2.16649, -0.128729, -5.40806e-07, 0.000992849, 0.000267393, 0.000907629, 0.000786458, -0.00447119
0.0291226, 1.69146, -1.22544, -1.53791, -0.900167, -1.19213, 1.22867, -1.30267, 0.000838132, -0.0072191, 0.000597688, 0.00129489, -0.000888355, 0.0112727, 0.00128573, -0.543754, 57.1143, 26.822, 6.39465, 1.91546, 2.923, -0.0878186, 0.000967142, -0.00148181, -1.49876e-05, 0.000204424, -0.000938896, -0.000186888, 0.00304452, -0.00234426, -0.00301954, 0.00993799, -0.000199024, -0.00138863, 0.471008, -0.543384, 0.335895, -2.08384, -2.16584, -0.129887, 0.469494, -0.542493, 0.336105, -2.08403, -2.16649, -0.128727, -9.38169e-07, 0.00108977, 0.000293171, 0.00234016, -0.00135523, -0.00323154
0.0301226, 1.69147, -1.22544, -1.53791, -0.900168, -1.19215, 1.22868, -1.30267, 0.00228687, -0.00628858, -0.00165367, 0.00229154, -0.00196762, 0.00963077, -0.000329641, -0.468376, 57.15, 26.8934, 6.32324, 1.94568, 2.8873, -0.0557752, 0.000963331, -0.00148018, -1.52854e-05, 0.000209238, -0.000962157, -0.000187812, 0.00322528, -0.00209731, -0.0033646, 0.00638176, 0.000977605, -0.000670726, 0.471008, -0.543383, 0.335895, -2.08384, -2.16584, -0.129887, 0.469496, -0.542495, 0.336105, -2.08403, -2.1665, -0.128698, -1.3774e-06, 0.00119164, 0.000320246, 0.0020871, -0.0013888, -0.00356579
0.0311226, 1.69147, -1.22545, -1.53791, -0.90018, -1.19217, 1.22869, -1.30267, -0.0005715, -0.0064361, -0.00315196, -0.000324365, -0.00643653, 0.00728669, 0.000254957, -0.357292, 57.2253, 26.9687, 6.39465, 1.95209, 2.87997, -0.0685925, 0.000960604, -0.00147835, -1.1228e-05, 0.000216407, -0.000977281, -0.000189418, 0.00479683, 0.000117329, -0.00441213, 0.000154551, 0.00365201, -0.00400066, 0.471008, -0.543382, 0.335896, -2.08384, -2.16584, -0.129887, 0.469498, -0.542496, 0.3361, -2.08403, -2.16651, -0.128675, -1.86074e-06, 0.00129855, 0.00034864, -0.000106786, -0.00276275, -0.00474893
0.0321226, 1.69147, -1.22545, -1.53791, -0.90018, -1.19217, 1.22869, -1.30267, -0.0005715, -0.0064361, -0.00315196, -0.000324365, -0.00643653, 0.00728669, 0.000254957, -0.357292, 57.2253, 26.9687, 6.39465, 1.95209, 2.87997, -0.0685925, 0.000959424, -0.00147839, -1.11e-05, 0.000215932, -0.000977858, -0.000189131, 0.00491207, 0.000120487, -0.00442423, 0.000170356, 0.00373583, -0.00399219, 0.471008, -0.543381, 0.335896, -2.08384, -2.16584, -0.129887, 0.469498, -0.542496, 0.3361, -2.08403, -2.16651, -0.128675, -2.39049e-06, 0.00141058, 0.000378373, -0.000106786, -0.00276275, -0.00474893
0.0331226, 1.69148, -1.22544, -1.53791, -0.90018, -1.1922, 1.2287, -1.30267, 0.00277009, -0.00160775, 0.000982154, -0.000666793, -0.015432, 0.00148572, 0.00514757, -0.206535, 57.15, 26.9687, 6.28357, 1.90906, 2.95138, -0.0750012, 0.000955952, -0.00147605, -1.62156e-05, 0.000222345, -0.00101419, -0.000183411, 0.00330183, -0.000391969, -0.000869035, -0.00570619, 0.0129972, -0.00639098, 0.471008, -0.54338, 0.335896, -2.08384, -2.16584, -0.129887, 0.4695, -0.542499, 0.336105, -2.08406, -2.16652, -0.12863, -2.969e-06, 0.00152782, 0.000409465, 0.00047519, -0.00158206, -0.000972892
0.0341226, 1.69148, -1.22543, -1.53791, -0.900185, -1.19223, 1.2287, -1.30267, 0.00158307, 0.000395904, 0.000732153, -0.000718758, -0.0207166, 0.005109, 0.00357338, -0.166862, 57.0786, 26.9687, 6.28357, 1.89624, 2.98068, -0.0685925, 0.00095435, -0.00147267, -1.84618e-05, 0.000230328, -0.00104273, -0.000189549, 0.00522324, 0.000278266, 0.000581252, -0.00489338, 0.021189, -0.00786131, 0.471008, -0.543379, 0.335897, -2.08384, -2.16584, -0.129888, 0.469504, -0.5425, 0.336107, -2.08406, -2.16654, -0.128593, -3.59863e-06, 0.00165034, 0.000441934, -7.37442e-05, -0.00360708, 0.000213617
0.0351226, 1.69149, -1.22543, -1.53791, -0.900187, -1.19225, 1.22871, -1.30268, 0.00224178, 0.00103993, 0.00138136, -0.000684844, -0.018917, 0.00764537, 0.000496376, -0.0557783, 57.0389, 26.933, 6.28357, 1.85962, 3.00906, -0.00999879, 0.000951398, -0.00146939, -2.03318e-05, 0.000232016, -0.0010678, -0.000194242, 0.00478267, -0.000849046, 0.00136884, -0.00129887, 0.0216813, -0.00324691, 0.471008, -0.543377, 0.335897, -2.08384, -2.16584, -0.129888, 0.469507, -0.542501, 0.336109, -2.08406, -2.16656, -0.128566, -4.2818e-06, 0.00177822, 0.000475796, 0.00106411, -0.00311936, 0.00105957
0.0361226, 1.6915, -1.22543, -1.53791, -0.900195, -1.19227, 1.22873, -1.30267, 0.00249788, 0.00057927, 0.000964433, -0.00153884, -0.0179621, 0.0101096, 0.00196827, 0.059273, 57.0389, 26.933, 6.32324, 1.82941, 3.02371, -0.0484509, 0.000949176, -0.00146436, -2.08067e-05, 0.000236973, -0.0010973, -0.000194055, 0.00475079, -0.00167323, 0.00102112, 0.000459037, 0.0218685, -0.00357924, 0.471008, -0.543375, 0.335898, -2.08384, -2.16584, -0.129888, 0.469512, -0.542502, 0.33611, -2.08408, -2.16657, -0.128531, -5.02096e-06, 0.00191151, 0.000511068, 0.0018728, -0.00286736, 0.00073159
0.0371226, 1.6915, -1.22542, -1.5379, -0.900198, -1.19229, 1.22874, -1.30267, 0.0068848, 0.0019711, 0.000675602, -0.00431454, -0.0170037, 0.0119446, 0.00147208, 0.134651, 56.9675, 26.933, 6.32324, 1.79187, 3.03744, -0.0484509, 0.000947352, -0.00145963, -2.45228e-05, 0.000240147, -0.00112874, -0.000197628, 0.00205065, -0.00511811, 0.00126588, 0.000384465, 0.0238773, 0.00384807, 0.471008, -0.543374, 0.335898, -2.08383, -2.16584, -0.129888, 0.469517, -0.542502, 0.336113, -2.08408, -2.16659, -0.128496, -5.81861e-06, 0.00205028, 0.000547764, 0.00522471, 4.03539e-05, 0.00132521
0.0381226, 1.69151, -1.22542, -1.5379, -0.900202, -1.19232, 1.22875, -1.30268, 0.0036373, 0.00124993, 0.000474886, -0.00322754, -0.0219794, 0.013096, -0.00083147, 0.360787, 56.9675, 26.933, 6.32324, 1.77997, 3.05942, 0.00373412, 0.000940204, -0.00145948, -2.62986e-05, 0.000245224, -0.00116265, -0.000197319, 0.00517889, -0.00267786, 0.00118085, -0.000127968, 0.0277293, 0.000251409, 0.471008, -0.543372, 0.335899, -2.08383, -2.16584, -0.129888, 0.469518, -0.542507, 0.336114, -2.0841, -2.16661, -0.128456, -6.67726e-06, 0.00219459, 0.000585897, 0.00289556, -0.00299039, 0.000867417
0.0391226, 1.69151, -1.22543, -1.53791, -0.900199, -1.19235, 1.22876, -1.30267, 0.00631239, -0.00181327, 0.00101921, 0.000276177, -0.0249534, 0.0187528, 0.0022144, 0.511544, 57.0786, 27.0441, 6.20819, 1.74884, 3.08047, -0.0685925, 0.000931681, -0.00145814, -2.15472e-05, 0.000254946, -0.0011893, -0.000180741, 0.00653886, -0.00424318, 0.000404275, 0.00490188, 0.0297589, -0.00388627, 0.471008, -0.54337, 0.335899, -2.08383, -2.16584, -0.129888, 0.469519, -0.542513, 0.336109, -2.08412, -2.1666, -0.128417, -7.59945e-06, 0.00234449, 0.000625478, 0.00447853, -0.00399953, -0.000118072
0.0401226, 1.69152, -1.22542, -1.53791, -0.900206, -1.19239, 1.22878, -1.30267, 0.00731136, -0.000316902, 0.00273004, -0.00726244, -0.0280713, 0.0229487, -0.00113504, 0.701973, 57.0389, 26.9687, 6.24786, 1.74335, 3.10245, 0.00373412, 0.000926079, -0.00145337, -2.45075e-05, 0.000254111, -0.00123088, -0.000186825, 0.00457358, -0.00717334, 0.00114364, 0.00499693, 0.0365776, 0.00681345, 0.471008, -0.543367, 0.3359, -2.08383, -2.16584, -0.129888, 0.469524, -0.542516, 0.336111, -2.08414, -2.16663, -0.128377, -8.58778e-06, 0.00250002, 0.000666519, 0.00736033, -0.00189771, 0.000869728
0.0411226, 1.69152, -1.22542, -1.5379, -0.900209, -1.19243, 1.22879, -1.30267, 0.00425226, 0.00226733, 0.00287074, -0.00767111, -0.0301689, 0.0214244, 0.00149794, 0.928108, 56.9318, 26.933, 6.20819, 1.73053, 3.1235, -0.0557752, 0.000919252, -0.00145042, -3.14822e-05, 0.000254086, -0.00127993, -0.000175196, 0.00595761, -0.00500692, 0.0026648, 0.00333754, 0.0401718, 0.000847829, 0.471008, -0.543365, 0.3359, -2.08383, -2.16584, -0.129889, 0.469528, -0.542522, 0.336118, -2.08417, -2.16665, -0.128326, -9.64483e-06, 0.00266124, 0.000709027, 0.00530008, -0.00342565, 0.00226474
0.0421226, 1.69154, -1.22542, -1.5379, -0.90021, -1.19247, 1.22882, -1.30267, 0.0065767, 0.000656042, 0.00124024, -0.00736372, -0.0329718, 0.0209475, 0.000765307, 0.963814, 56.9675, 26.9687, 6.13678, 1.74884, 3.1235, -0.0484509, 0.000914391, -0.00144013, -3.07928e-05, 0.000257666, -0.00132674, -0.000180542, 0.00618712, -0.00557819, 0.0010025, -0.000129919, 0.0408992, 0.0019225, 0.471008, -0.543362, 0.335901, -2.08383, -2.16584, -0.129889, 0.469538, -0.542523, 0.336117, -2.08419, -2.16668, -0.128275, -1.07732e-05, 0.00282817, 0.000753011, 0.00581768, -0.00320604, 0.00061448
0.0431226, 1.69156, -1.22542, -1.53791, -0.900205, -1.19251, 1.22884, -1.30267, 0.00732641, 0.000422142, 2.00222e-05, -0.00532002, -0.0394962, 0.0194134, 6.39452e-05, 1.15424, 56.9675, 27.0084, 5.98602, 1.76807, 3.1528, -0.0356336, 0.000903281, -0.00143603, -3.06762e-05, 0.00025851, -0.00137435, -0.000172378, 0.00804655, -0.00431259, 0.000526009, -0.0047056, 0.0453011, -0.0011842, 0.471008, -0.54336, 0.335902, -2.08382, -2.16584, -0.129889, 0.469543, -0.542531, 0.336116, -2.08422, -2.1667, -0.128225, -1.19756e-05, 0.00300084, 0.000798475, 0.00460181, -0.0048475, -6.10222e-05
0.0441226, 1.69158, -1.22543, -1.53791, -0.900201, -1.19257, 1.22886, -1.30266, 0.0108436, -0.00232844, 0.00103228, -0.000905241, -0.0395465, 0.0187742, 0.00104732, 1.22962, 57.0786, 26.9687, 5.83527, 1.77997, 3.17386, -0.0621838, 0.000894691, -0.00142666, -2.87916e-05, 0.000259418, -0.00142402, -0.000168093, 0.00797138, -0.0054003, -0.000376983, -0.00304525, 0.0420709, -0.00202519, 0.471008, -0.543357, 0.335903, -2.08382, -2.16584, -0.129889, 0.469552, -0.542536, 0.336113, -2.08424, -2.16672, -0.128174, -1.32547e-05, 0.00317929, 0.000845424, 0.00565154, -0.00441133, -0.000926843
0.0451226, 1.69159, -1.22542, -1.5379, -0.900201, -1.19262, 1.22889, -1.30266, 0.014751, -0.000632836, 0.000756373, -0.00354135, -0.0444743, 0.0179177, -0.000506483, 1.38038, 57.0389, 26.9687, 5.79956, 1.79828, 3.20224, -0.0292249, 0.000886915, -0.00141815, -3.23514e-05, 0.000260362, -0.00148311, -0.00016799, 0.00642581, -0.00738615, -0.000143932, -0.00801479, 0.0478784, 0.00389288, 0.471008, -0.543354, 0.335903, -2.08382, -2.16584, -0.129889, 0.469561, -0.542541, 0.336116, -2.08427, -2.16675, -0.128113, -1.46131e-05, 0.00336352, 0.000893861, 0.00758661, -0.00265586, -0.000468278
0.0461226, 1.69161, -1.22542, -1.53791, -0.900198, -1.19267, 1.22891, -1.30266, 0.0153942, -0.000428312, -0.000372632, -0.000519383, -0.0474651, 0.0207963, 0.00136977, 1.49146, 57.0389, 27.0084, 5.68848, 1.79828, 3.26724, -0.0750012, 0.000879295, -0.00140873, -3.23886e-05, 0.000269867, -0.00154079, -0.000164825, 0.00833835, -0.00705488, 0.000197114, -0.00650661, 0.0519231, -0.00152617, 0.471008, -0.54335, 0.335904, -2.08382, -2.16584, -0.12989, 0.469571, -0.542545, 0.336115, -2.0843, -2.16678, -0.128044, -1.60536e-05, 0.00355356, 0.000943786, 0.00733505, -0.00441999, -0.000368483
0.0471226, 1.69164, -1.22542, -1.53791, -0.900194, -1.19272, 1.22894, -1.30267, 0.0158248, -0.000290357, -0.00104529, 0.000849278, -0.0490667, 0.0234587, -0.00175658, 1.60651, 57.0389, 27.0441, 5.6131, 1.77997, 3.31759, -0.00267457, 0.000869915, -0.00139887, -3.44858e-05, 0.00027142, -0.00160446, -0.00017111, 0.00947474, -0.00717185, 0.000422442, -0.00490314, 0.0547704, -1.78356e-05, 0.471008, -0.543347, 0.335905, -2.08381, -2.16583, -0.12989, 0.469581, -0.54255, 0.336116, -2.08432, -2.16682, -0.127978, -1.75788e-05, 0.0037494, 0.000995199, 0.00749914, -0.00537592, -0.000274511
0.0481226, 1.69165, -1.22542, -1.5379, -0.90019, -1.19278, 1.22898, -1.30266, 0.0136346, 0.00147325, 0.00193036, -0.00119589, -0.0542234, 0.0266002, 0.00103975, 1.83265, 56.9675, 26.933, 5.53772, 1.74884, 3.34598, -0.0621838, 0.000859712, -0.00138922, -4.09611e-05, 0.000260414, -0.00167048, -0.000158216, 0.0106061, -0.00687971, 0.00260249, -0.00242655, 0.0623763, -0.00349606, 0.471008, -0.543343, 0.335906, -2.08381, -2.16583, -0.12989, 0.469591, -0.542557, 0.336122, -2.08437, -2.16684, -0.127922, -1.91915e-05, 0.00395105, 0.0010481, 0.00732496, -0.0066387, 0.00176419
0.0491226, 1.69167, -1.22542, -1.53791, -0.900193, -1.19284, 1.22901, -1.30266, 0.0161981, 0.000144242, -0.00128997, -0.00230291, -0.0548645, 0.0289903, -0.000997191, 2.02308, 57.0032, 27.0441, 5.57739, 1.74884, 3.36703, -0.0164075, 0.000847575, -0.0013803, -3.72357e-05, 0.00027085, -0.00173665, -0.000158395, 0.0105262, -0.00838385, 0.000581825, -0.00446576, 0.0632976, 0.000318815, 0.471008, -0.543339, 0.335907, -2.08381, -2.16583, -0.129891, 0.4696, -0.542565, 0.336117, -2.0844, -2.16688, -0.127844, -2.08943e-05, 0.0041585, 0.00110247, 0.00874963, -0.00597975, -0.000209662
0.0501226, 1.6917, -1.22541, -1.53791, -0.900185, -1.1929, 1.22904, -1.30266, 0.0185759, 0.00176457, -8.58267e-06, -0.000205256, -0.059921, 0.031107, -0.000660995, 2.17384, 56.9318, 27.0084, 5.50201, 1.74335, 3.38168, -0.0164075, 0.000836805, -0.00136886, -4.3368e-05, 0.000264492, -0.00181108, -0.000154512, 0.0111094, -0.00925759, 0.00232095, -0.00306111, 0.070063, -0.000593116, 0.471008, -0.543335, 0.335908, -2.08381, -2.16583, -0.129891, 0.469612, -0.542571, 0.336122, -2.08444, -2.16692, -0.127775, -2.269e-05, 0.00437173, 0.00115833, 0.00970414, -0.00657426, 0.00144652
0.0511226, 1.69172, -1.22542, -1.53791, -0.90018, -1.19297, 1.22908, -1.30266, 0.0206648, -0.0013308, 6.41372e-06, 0.000466267, -0.0589927, 0.027685, 0.00125761, 2.32459, 57.0389, 27.0084, 5.46234, 1.73694, 3.39633, -0.0621838, 0.000822209, -0.00135813, -4.15449e-05, 0.000261338, -0.00188097, -0.000142533, 0.0103586, -0.00981193, 0.000167821, -0.00581628, 0.0646935, -0.000647904, 0.471008, -0.543331, 0.335909, -2.0838, -2.16583, -0.129891, 0.469624, -0.542581, 0.336119, -2.08449, -2.16694, -0.127707, -2.45814e-05, 0.00459073, 0.00121564, 0.0101512, -0.00525983, -0.000522402
0.0521226, 1.69174, -1.22542, -1.5379, -0.900179, -1.19303, 1.22912, -1.30266, 0.0200504, -5.31251e-05, 0.00177662, -0.000860862, -0.062917, 0.0300995, -0.000380162, 2.43568, 57.0032, 26.933, 5.50201, 1.73053, 3.40365, -0.0292249, 0.000810479, -0.00134661, -4.67742e-05, 0.000255272, -0.00195979, -0.000141613, 0.0110048, -0.0100461, 0.0015859, -0.00439335, 0.0705256, 0.00107949, 0.471008, -0.543326, 0.335911, -2.0838, -2.16583, -0.129892, 0.469636, -0.542588, 0.336123, -2.08453, -2.16699, -0.127634, -2.6571e-05, 0.00481547, 0.00127442, 0.0104574, -0.00588175, 0.000829197
0.0531226, 1.69176, -1.22542, -1.53791, -0.900171, -1.19311, 1.22916, -1.30266, 0.0186819, -0.000871492, -0.000572001, 0.00100656, -0.0613299, 0.0306259, 0.000731506, 2.58643, 57.0389, 27.0084, 5.42664, 1.73053, 3.44668, -0.0557752, 0.000793233, -0.00133761, -4.72776e-05, 0.000254882, -0.00204011, -0.000127976, 0.0127117, -0.00873257, 0.000627363, -0.00418291, 0.0687889, -0.00358179, 0.471008, -0.543321, 0.335912, -2.0838, -2.16583, -0.129892, 0.469645, -0.5426, 0.336122, -2.08458, -2.16702, -0.127552, -2.86617e-05, 0.00504591, 0.00133464, 0.00917, -0.0072426, -0.000282453
0.0541226, 1.69179, -1.22542, -1.53791, -0.900165, -1.19318, 1.2292, -1.30266, 0.0232944, 0.0010888, -0.000376215, 0.00453978, -0.0643393, 0.0322264, -0.00120655, 2.62611, 56.9675, 27.0084, 5.38696, 1.72504, 3.46042, -0.00999879, 0.000780918, -0.00132328, -5.21812e-05, 0.000252119, -0.00212788, -0.000131525, 0.0124862, -0.0104782, 0.00221514, -0.0028547, 0.0739893, -0.00110867, 0.471008, -0.543316, 0.335913, -2.08379, -2.16583, -0.129892, 0.46966, -0.542607, 0.336126, -2.08462, -2.16707, -0.127467, -3.0856e-05, 0.00528201, 0.00139628, 0.0109605, -0.00695687, 0.0013293
0.0551226, 1.69181, -1.22542, -1.53791, -0.900161, -1.19325, 1.22925, -1.30266, 0.0249179, 0.000725384, 0.00068105, 0.00401542, -0.0662811, 0.0374671, 0.00112932, 2.73719, 56.9675, 26.9687, 5.35126, 1.70032, 3.48971, -0.0621838, 0.000765882, -0.00131166, -5.56032e-05, 0.000245764, -0.00221154, -0.000117021, 0.0126, -0.0124331, 0.00265742, 0.00123141, 0.0780162, -0.00149205, 0.471008, -0.543311, 0.335915, -2.08379, -2.16583, -0.129893, 0.469672, -0.542617, 0.336128, -2.08468, -2.16711, -0.127388, -3.31567e-05, 0.00552372, 0.00145934, 0.0129307, -0.00681556, 0.0017524
0.0561226, 1.69184, -1.22542, -1.53791, -0.900161, -1.19333, 1.22929, -1.30266, 0.0247002, 0.00131845, -0.000471107, 0.00195698, -0.0684326, 0.0421095, -0.00117923, 2.77686, 56.9318, 27.0084, 5.38696, 1.69391, 3.50345, -0.00999879, 0.000750713, -0.0012989, -5.6539e-05, 0.000251093, -0.00230384, -0.000117765, 0.0134316, -0.0131592, 0.00270953, 0.00239878, 0.0830989, 0.00114389, 0.471008, -0.543305, 0.335916, -2.08378, -2.16583, -0.129893, 0.469686, -0.542626, 0.336128, -2.08472, -2.16716, -0.127289, -3.55665e-05, 0.00577098, 0.0015238, 0.0136851, -0.00736757, 0.00171725
0.0571226, 1.69187, -1.22542, -1.5379, -0.900151, -1.19341, 1.22933, -1.30266, 0.0252615, 0.000878692, -0.00500447, 0.00398956, -0.0697017, 0.0459635, -0.00105691, 2.77686, 56.9318, 26.933, 5.27588, 1.6756, 3.49612, -0.00267457, 0.000736343, -0.00128449, -6.33607e-05, 0.000238487, -0.00239233, -0.000113836, 0.0156834, -0.0127878, 0.00141337, 0.00207743, 0.0859261, -0.00277628, 0.471008, -0.5433, 0.335918, -2.08378, -2.16583, -0.129894, 0.469701, -0.542635, 0.336133, -2.08477, -2.16721, -0.127213, -3.8088e-05, 0.00602372, 0.00158964, 0.0133453, -0.00915353, 0.000164797
0.0581226, 1.69189, -1.22542, -1.53791, -0.900145, -1.19349, 1.22938, -1.30266, 0.0256158, -0.00108484, -0.0047079, 0.00355975, -0.0751877, 0.0441495, 0.00126246, 2.77686, 57.0032, 26.9687, 5.24017, 1.65729, 3.49612, -0.0557752, 0.00071872, -0.00127188, -6.21502e-05, 0.000237486, -0.00247875, -9.96939e-05, 0.0166866, -0.0122152, 0.000104613, -0.00217335, 0.0877886, -0.00601073, 0.471008, -0.543294, 0.335919, -2.08378, -2.16583, -0.129894, 0.469714, -0.542646, 0.336131, -2.08482, -2.16724, -0.127125, -4.07237e-05, 0.00628188, 0.00165682, 0.0127595, -0.00970762, -0.00119884
0.0591226, 1.69192, -1.22543, -1.5379, -0.900144, -1.19357, 1.22944, -1.30266, 0.0239904, -0.00248662, -0.00270565, 0.00242179, -0.0745298, 0.043994, -0.000141418, 2.85224, 57.0786, 26.933, 5.24017, 1.63257, 3.46042, -0.0292249, 0.000699543, -0.00125862, -6.29807e-05, 0.000228616, -0.00257375, -9.53298e-05, 0.0169111, -0.0119746, -0.000120879, -0.000620005, 0.0858938, -0.00398362, 0.471008, -0.543287, 0.335921, -2.08377, -2.16582, -0.129894, 0.469728, -0.542658, 0.33613, -2.08488, -2.16729, -0.127039, -4.34763e-05, 0.00654537, 0.00172534, 0.0125163, -0.00964092, -0.00138067
0.0601226, 1.69194, -1.22543, -1.53791, -0.900142, -1.19367, 1.22949, -1.30266, 0.0245211, -0.00165786, -0.00386871, 0.00081578, -0.0801249, 0.0477864, 0.000618012, 2.85224, 57.0786, 27.0084, 5.27588, 1.64447, 3.43936, -0.0484509, 0.00067918, -0.00124631, -6.25416e-05, 0.000231892, -0.00267588, -8.26416e-05, 0.0181393, -0.0124699, 1.49514e-05, -0.0016767, 0.0936119, -0.00523335, 0.471008, -0.543281, 0.335923, -2.08377, -2.16582, -0.129895, 0.469741, -0.542671, 0.336127, -2.08494, -2.16733, -0.126931, -4.63483e-05, 0.0068141, 0.00179515, 0.013057, -0.0105853, -0.00138244
0.0611226, 1.69197, -1.22543, -1.53791, -0.900136, -1.19376, 1.22954, -1.30266, 0.0254948, -0.000177307, -0.0018774, 0.00451572, -0.0836128, 0.050915, -0.000537267, 2.81654, 57.0389, 26.9687, 5.24017, 1.64447, 3.41006, -0.0228162, 0.000659016, -0.00123243, -6.74732e-05, 0.000225943, -0.0027856, -7.53086e-05, 0.0195426, -0.0126854, 0.0023055, 0.00293408, 0.0992684, -0.00656372, 0.471008, -0.543274, 0.335924, -2.08376, -2.16582, -0.129895, 0.469756, -0.542684, 0.336131, -2.085, -2.16739, -0.126826, -4.93422e-05, 0.00708797, 0.00186624, 0.0134023, -0.0120406, 0.000725918
0.0621226, 1.692, -1.22543, -1.5379, -0.900138, -1.19385, 1.2296, -1.30266, 0.0253225, -0.00188151, 0.00117715, 0.00152686, -0.0904134, 0.0532171, -0.000832776, 2.81654, 57.1143, 26.8577, 5.31555, 1.62616, 3.38901, -0.00999879, 0.000640216, -0.00121779, -6.93332e-05, 0.000216235, -0.0028848, -7.3328e-05, 0.0201289, -0.0134742, 0.00216175, 0.00294813, 0.104547, -0.00457358, 0.471007, -0.543267, 0.335926, -2.08376, -2.16582, -0.129896, 0.469771, -0.542695, 0.336131, -2.08505, -2.16744, -0.126736, -5.24605e-05, 0.00736687, 0.00193857, 0.0142027, -0.0122861, 0.000541371
0.0631226, 1.69202, -1.22542, -1.53791, -0.900139, -1.19395, 1.22965, -1.30265, 0.0252669, 0.000508852, -0.00194097, 0.00272515, -0.0910516, 0.0544964, 0.0018524, 2.81654, 57.0389, 26.9687, 5.38696, 1.61426, 3.37436, -0.0750012, 0.00061803, -0.00120692, -7.42318e-05, 0.000219784, -0.00300304, -5.31033e-05, 0.0214814, -0.0127397, 0.00271774, 0.001865, 0.108392, -0.0100895, 0.471007, -0.543259, 0.335928, -2.08375, -2.16582, -0.129897, 0.469783, -0.54271, 0.336134, -2.08513, -2.16749, -0.126611, -5.57056e-05, 0.00765073, 0.00201212, 0.0135345, -0.013453, 0.000975975
0.0641226, 1.69204, -1.22542, -1.5379, -0.900137, -1.19404, 1.22971, -1.30266, 0.0220717, 0.00117442, -0.000554225, 0.00446063, -0.0951129, 0.0550364, -0.00117249, 2.81654, 57.0032, 26.933, 5.42664, 1.57123, 3.36703, -0.00999879, 0.000595297, -0.0011948, -7.81362e-05, 0.000211109, -0.00311184, -4.50711e-05, 0.0242187, -0.010425, 0.00403337, 0.00306934, 0.112523, -0.0124181, 0.471007, -0.543252, 0.33593, -2.08374, -2.16582, -0.129897, 0.469796, -0.542725, 0.336136, -2.08519, -2.16754, -0.12651, -5.90798e-05, 0.00793954, 0.00208689, 0.011365, -0.0161639, 0.00199454
0.0651226, 1.69207, -1.22542, -1.5379, -0.900133, -1.19414, 1.22976, -1.30265, 0.0233646, 0.00338137, 0.000486941, 0.0066518, -0.0950703, 0.0505639, 0.00138853, 2.66181, 56.8921, 26.8934, 5.42664, 1.56482, 3.36703, -0.0685925, 0.0005752, -0.00117921, -8.6678e-05, 0.00020618, -0.00323483, -2.98753e-05, 0.0236942, -0.00998385, 0.00551376, 0.00119146, 0.112472, -0.0151234, 0.471007, -0.543244, 0.335932, -2.08374, -2.16582, -0.129898, 0.469812, -0.542738, 0.336143, -2.08526, -2.16759, -0.126389, -6.25855e-05, 0.00823327, 0.00216285, 0.0109557, -0.0155984, 0.0036269
0.0661226, 1.6921, -1.22542, -1.5379, -0.900129, -1.19425, 1.22982, -1.30265, 0.0213547, 0.00225423, 0.00194137, 0.00512671, -0.0990033, 0.0520003, -0.00100706, 2.62611, 56.8921, 26.822, 5.42664, 1.54651, 3.36703, -0.0164075, 0.000551483, -0.00116735, -9.23365e-05, 0.000200901, -0.00335204, -2.22991e-05, 0.0251727, -0.0092865, 0.00536335, 0.00141515, 0.115483, -0.0139469, 0.471007, -0.543236, 0.335935, -2.08373, -2.16581, -0.129898, 0.469825, -0.542753, 0.336147, -2.08533, -2.16765, -0.126276, -6.6225e-05, 0.00853189, 0.00224002, 0.0103032, -0.0167648, 0.00334689
0.0671226, 1.69212, -1.22541, -1.5379, -0.900129, -1.19435, 1.22988, -1.30265, 0.0231501, -0.00399541, -0.000416464, 0.00310173, -0.097306, 0.0536764, 4.07339e-05, 2.58643, 56.8564, 26.8934, 5.46234, 1.5282, 3.3533, -0.0356336, 0.000525203, -0.00115633, -9.49788e-05, 0.000199858, -0.00347269, -2.90459e-06, 0.0250129, -0.0109383, 0.00059871, -0.000110421, 0.109308, -0.0118722, 0.471007, -0.543227, 0.335937, -2.08373, -2.16581, -0.129899, 0.469837, -0.542771, 0.336147, -2.08541, -2.1677, -0.126153, -7.00005e-05, 0.00883538, 0.00231837, 0.0117711, -0.0155021, -0.0013046
0.0681226, 1.69215, -1.22541, -1.5379, -0.900131, -1.19446, 1.22994, -1.30265, 0.0267051, -0.00142817, 0.00052737, 0.00069393, -0.106695, 0.0558658, 0.000501895, 2.43568, 56.781, 26.8577, 5.53772, 1.5401, 3.31759, -0.0484509, 0.00050418, -0.00113934, -0.000101182, 0.000199396, -0.00360203, 2.8409e-06, 0.0246778, -0.0129286, 0.00209256, -0.00317383, 0.121129, -0.00941813, 0.471007, -0.543218, 0.335939, -2.08372, -2.16581, -0.1299, 0.469855, -0.542783, 0.336152, -2.08547, -2.16777, -0.126022, -7.39143e-05, 0.00914373, 0.0023979, 0.013797, -0.0150114, 0.000241745
0.0691226, 1.69218, -1.2254, -1.5379, -0.900128, -1.19456, 1.23, -1.30265, 0.0324138, -0.000512742, 0.00116414, 0.000754633, -0.108803, 0.0567848, 0.000334613, 2.28492, 56.7453, 26.822, 5.53772, 1.54651, 3.2883, -0.0484509, 0.000481195, -0.0011235, -0.000107485, 0.000192361, -0.00372676, 1.13292e-05, 0.0227713, -0.0161393, 0.00261842, -0.00351761, 0.124581, -0.00405029, 0.471007, -0.543209, 0.335941, -2.08371, -2.16581, -0.1299, 0.469872, -0.542797, 0.336156, -2.08554, -2.16783, -0.125903, -7.79688e-05, 0.0094569, 0.0024786, 0.0169503, -0.0127656, 0.00104061
0.0701226, 1.69221, -1.2254, -1.5379, -0.900124, -1.19467, 1.23006, -1.30265, 0.0315538, 0.000196504, 0.00168713, 0.00387888, -0.109306, 0.0628878, 0.00144379, 2.20954, 56.7096, 26.7823, 5.53772, 1.5282, 3.24527, -0.0814099, 0.000455703, -0.00110892, -0.000113294, 0.000181219, -0.00385165, 2.7568e-05, 0.0249614, -0.0160896, 0.00421121, 0.00373965, 0.128618, -0.00863367, 0.471007, -0.5432, 0.335944, -2.08371, -2.16581, -0.129901, 0.469887, -0.542813, 0.33616, -2.08562, -2.16788, -0.125788, -8.21662e-05, 0.00977487, 0.00256046, 0.0170325, -0.0148569, 0.00235645
0.0711226, 1.69224, -1.22541, -1.5379, -0.900123, -1.19478, 1.23013, -1.30265, 0.0320615, -0.0017621, 0.00111201, 0.00301324, -0.110497, 0.0666, -0.0012076, 2.09846, 56.781, 26.7823, 5.53772, 1.53461, 3.22421, -0.0228162, 0.00042911, -0.00109357, -0.000113467, 0.000178879, -0.00397646, 3.57606e-05, 0.0257375, -0.0170416, 0.00300966, 0.00530389, 0.129848, -0.00532572, 0.471007, -0.54319, 0.335947, -2.0837, -2.16581, -0.129902, 0.469903, -0.542829, 0.336158, -2.08569, -2.16794, -0.125664, -8.65087e-05, 0.0100976, 0.00264348, 0.0179634, -0.0150763, 0.00110358
0.0721226, 1.69227, -1.2254, -1.5379, -0.900121, -1.19489, 1.23019, -1.30264, 0.0283841, -0.000506512, 0.000731782, 0.00232932, -0.11515, 0.0690518, 0.00112772, 2.02308, 56.7453, 26.7823, 5.53772, 1.53461, 3.20956, -0.0750012, 0.000401602, -0.00107918, -0.000118722, 0.00017101, -0.00410854, 5.70768e-05, 0.0286388, -0.0149588, 0.00390372, 0.00534165, 0.136341, -0.0124206, 0.471007, -0.54318, 0.335949, -2.08369, -2.1658, -0.129903, 0.469919, -0.542846, 0.336161, -2.08578, -2.168, -0.125537, -9.09987e-05, 0.0104251, 0.00272764, 0.016015, -0.0178359, 0.0016827
0.0731226, 1.6923, -1.2254, -1.53789, -0.900121, -1.195, 1.23026, -1.30265, 0.0288673, 0.000372294, 0.0013159, 0.00390511, -0.114433, 0.071656, -0.00192695, 1.9477, 56.7096, 26.7466, 5.57739, 1.5282, 3.18118, -0.00267457, 0.000376327, -0.0010617, -0.00012307, 0.000164074, -0.00424041, 5.70692e-05, 0.0291536, -0.0155146, 0.0050213, 0.0092461, 0.138001, -0.00972576, 0.471007, -0.543169, 0.335952, -2.08368, -2.1658, -0.129903, 0.469937, -0.54286, 0.336164, -2.08584, -2.16807, -0.125411, -9.56382e-05, 0.0107574, 0.00281294, 0.0166245, -0.0181612, 0.00277454
0.0741226, 1.69233, -1.22541, -1.53789, -0.900125, -1.19511, 1.23033, -1.30265, 0.0291117, -0.00151618, 0.00263513, 0.00136657, -0.113809, 0.0724581, 0.00068206, 1.87232, 56.781, 26.6712, 5.6488, 1.52179, 3.17386, -0.0557752, 0.000353467, -0.00104124, -0.000124892, 0.000154219, -0.00436466, 6.25184e-05, 0.0285017, -0.0166973, 0.00405406, 0.0100499, 0.136401, -0.00895961, 0.471007, -0.543159, 0.335955, -2.08368, -2.1658, -0.129904, 0.469959, -0.542872, 0.336164, -2.08591, -2.16814, -0.125296, -0.00010043, 0.0110943, 0.00289937, 0.0177425, -0.0169832, 0.0019712
0.0751226, 1.69237, -1.22541, -1.53789, -0.900119, -1.19522, 1.2304, -1.30264, 0.03358, -0.000246019, 0.00175272, 0.00290668, -0.113657, 0.0740997, 0.00586376, 1.75727, 56.7453, 26.6712, 5.57739, 1.5163, 3.15921, -0.0750012, 0.000327927, -0.00102135, -0.000130558, 0.000140914, -0.00449873, 7.22694e-05, 0.0275245, -0.0189941, 0.00458166, 0.0109991, 0.138665, -0.0114346, 0.471006, -0.543147, 0.335958, -2.08367, -2.1658, -0.129905, 0.469979, -0.542886, 0.336168, -2.08598, -2.16821, -0.125175, -0.000105375, 0.011436, 0.00298692, 0.0200156, -0.0156639, 0.00266182
0.0761226, 1.6924, -1.2254, -1.53789, -0.900122, -1.19534, 1.23047, -1.30264, 0.0367563, 0.00145358, 0.00116546, 0.000511253, -0.109448, 0.0698444, 0.00358852, 1.64619, 56.6739, 26.6712, 5.6488, 1.53461, 3.15921, -0.0557752, 0.000303983, -0.00100117, -0.000135408, 0.000137442, -0.00463663, 7.61234e-05, 0.0244422, -0.0208692, 0.00446233, 0.00732124, 0.135409, -0.00280051, 0.471006, -0.543136, 0.335961, -2.08366, -2.1658, -0.129906, 0.470001, -0.542898, 0.336172, -2.08605, -2.16828, -0.125039, -0.000110477, 0.0117823, 0.00307558, 0.0217686, -0.0121794, 0.00305449
0.0771226, 1.69244, -1.22541, -1.53789, -0.900119, -1.19545, 1.23054, -1.30264, 0.0362926, 9.42085e-05, -6.05138e-05, 0.00135898, -0.11107, 0.0664456, 0.00316062, 1.64619, 56.7096, 26.7069, 5.6131, 1.55292, 3.15921, -0.0685925, 0.000274916, -0.000983914, -0.000137413, 0.000129492, -0.0047704, 9.07284e-05, 0.0256138, -0.0194181, 0.00304126, 0.00295765, 0.133955, -0.00465378, 0.471006, -0.543124, 0.335964, -2.08365, -2.16579, -0.129907, 0.470019, -0.542914, 0.336172, -2.08613, -2.16834, -0.124911, -0.000115737, 0.0121332, 0.00316535, 0.0203046, -0.0128256, 0.00160273
0.0781226, 1.69248, -1.22541, -1.53788, -0.900124, -1.19556, 1.23061, -1.30265, 0.0358521, 3.30836e-05, 0.00162839, -0.000720058, -0.112312, 0.0686385, -0.000114151, 1.53114, 56.7096, 26.6355, 5.68848, 1.57123, 3.15921, -0.00267457, 0.00025418, -0.000959327, -0.000141419, 0.000120139, -0.0049019, 7.64151e-05, 0.0256828, -0.0201895, 0.00350255, 0.00489293, 0.13632, 0.000442626, 0.471006, -0.543112, 0.335967, -2.08364, -2.16579, -0.129908, 0.470044, -0.542922, 0.336175, -2.08618, -2.16843, -0.12479, -0.000121158, 0.0124888, 0.00325621, 0.0210889, -0.0125775, 0.00211478
0.0791226, 1.69251, -1.2254, -1.53789, -0.900121, -1.19567, 1.23068, -1.30264, 0.0315891, 0.000834982, 0.000249101, 0.000550876, -0.111849, 0.0701602, 0.00178445, 1.57081, 56.6739, 26.6712, 5.6488, 1.55932, 3.15921, -0.0484509, 0.000225115, -0.000941789, -0.000146157, 0.000106368, -0.00503678, 9.33769e-05, 0.0286009, -0.0175785, 0.00398974, 0.00661356, 0.137608, -0.00726262, 0.471006, -0.5431, 0.33597, -2.08363, -2.16579, -0.129909, 0.470063, -0.542939, 0.336178, -2.08627, -2.16849, -0.124668, -0.000126741, 0.012849, 0.00334816, 0.0185979, -0.0152802, 0.00231317
0.0801226, 1.69255, -1.2254, -1.53789, -0.900121, -1.19578, 1.23075, -1.30264, 0.0346349, 0.00230317, -0.000670107, 0.000444422, -0.113648, 0.0719281, 0.00158475, 1.49146, 56.5985, 26.7069, 5.6488, 1.59595, 3.15921, -0.0557752, 0.000202288, -0.00091674, -0.000151258, 9.80232e-05, -0.00517687, 9.14186e-05, 0.0281788, -0.0192389, 0.0044789, 0.00618006, 0.141852, -0.00499019, 0.471006, -0.543087, 0.335973, -2.08362, -2.16579, -0.129909, 0.470089, -0.542948, 0.336182, -2.08633, -2.16858, -0.124536, -0.00013249, 0.0132137, 0.00344119, 0.0202531, -0.0145059, 0.00290428
0.0811226, 1.69259, -1.22539, -1.53789, -0.900121, -1.19589, 1.23082, -1.30264, 0.0350638, 0.00328615, 0.000387762, 0.00035416, -0.114507, 0.0722654, 0.000640757, 1.49146, 56.5231, 26.6712, 5.6488, 1.62616, 3.17386, -0.0420422, 0.000176411, -0.00089598, -0.000158335, 8.64656e-05, -0.00531675, 9.33708e-05, 0.0282291, -0.0196267, 0.00539583, 0.00703535, 0.143928, -0.00330349, 0.471006, -0.543074, 0.335977, -2.08361, -2.16578, -0.12991, 0.47011, -0.542961, 0.336188, -2.0864, -2.16865, -0.124407, -0.000138406, 0.013583, 0.0035353, 0.0206697, -0.0143115, 0.00388393
0.0821226, 1.69263, -1.22539, -1.53788, -0.900116, -1.196, 1.2309, -1.30264, 0.0353636, 0.00301658, 0.00202121, 0.00194995, -0.114278, 0.0732737, 0.00100546, 1.49146, 56.4874, 26.5958, 5.57739, 1.63257, 3.16653, -0.0557752, 0.000148897, -0.000874271, -0.000165074, 6.66548e-05, -0.00545479, 0.000100601, 0.0286952, -0.0199337, 0.00607903, 0.0102016, 0.144007, -0.00386546, 0.471006, -0.54306, 0.33598, -2.0836, -2.16578, -0.129911, 0.470133, -0.542974, 0.336193, -2.08648, -2.16873, -0.124289, -0.00014449, 0.0139569, 0.00363046, 0.0210117, -0.0144904, 0.00457168
0.0831226, 1.69267, -1.22539, -1.53789, -0.900124, -1.19611, 1.23098, -1.30264, 0.0398011, 0.00283922, -0.00041617, -0.00126593, -0.1197, 0.0694386, -0.000498148, 1.45576, 56.4517, 26.6712, 5.68848, 1.65729, 3.15921, -0.0228162, 0.000124224, -0.000849425, -0.000166697, 5.99317e-05, -0.00559462, 9.27801e-05, 0.0273567, -0.0214032, 0.0040645, 5.90431e-05, 0.147237, 0.00188658, 0.471006, -0.543046, 0.335984, -2.08359, -2.16578, -0.129913, 0.470159, -0.542984, 0.336194, -2.08654, -2.16882, -0.124157, -0.000150747, 0.0143352, 0.00372669, 0.0223522, -0.0124199, 0.00284195
0.0841226, 1.69271, -1.2254, -1.53789, -0.900119, -1.19623, 1.23105, -1.30263, 0.0418021, -0.00154615, -0.00111297, 0.000108483, -0.118918, 0.0708421, 0.00187723, 1.34071, 56.5985, 26.7069, 5.6488, 1.6875, 3.16653, -0.0814099, 9.66826e-05, -0.000824886, -0.000162985, 5.2765e-05, -0.00572343, 0.000104073, 0.027822, -0.0225157, 0.00141439, 0.00108399, 0.143189, 0.000329369, 0.471005, -0.543032, 0.335988, -2.08358, -2.16578, -0.129914, 0.470184, -0.542995, 0.336189, -2.08661, -2.16888, -0.124034, -0.000157176, 0.014718, 0.00382396, 0.0233775, -0.0120424, 0.000216243
0.0851226, 1.69276, -1.22539, -1.53789, -0.900121, -1.19634, 1.23112, -1.30264, 0.0373441, 0.000728502, -0.00167022, -0.000837385, -0.116602, 0.0719336, -0.00112662, 1.34071, 56.5231, 26.7466, 5.68848, 1.66919, 3.16653, -0.0164075, 7.11519e-05, -0.000800672, -0.000168734, 3.89447e-05, -0.00586427, 9.62806e-05, 0.0294732, -0.0205391, 0.00271981, 0.00310624, 0.14437, 0.000266717, 0.471005, -0.543017, 0.335992, -2.08357, -2.16577, -0.129915, 0.470209, -0.543006, 0.336194, -2.08667, -2.16897, -0.123908, -0.000163782, 0.0151053, 0.00392227, 0.0215035, -0.0135673, 0.00140643
0.0861226, 1.6928, -1.22539, -1.53789, -0.900123, -1.19646, 1.2312, -1.30264, 0.0347432, 0.000482693, 0.000649584, -0.00137974, -0.116889, 0.0732437, -1.69639e-05, 1.305, 56.5231, 26.6712, 5.72418, 1.70032, 3.15921, -0.0356336, 4.48759e-05, -0.000775238, -0.000171363, 2.88546e-05, -0.00600627, 9.5344e-05, 0.0306009, -0.0198137, 0.00354241, 0.00633303, 0.145114, -0.00187365, 0.471005, -0.543002, 0.335996, -2.08356, -2.16577, -0.129916, 0.470235, -0.543016, 0.336195, -2.08673, -2.16905, -0.123776, -0.000170564, 0.0154971, 0.00402162, 0.0208426, -0.0144453, 0.00216439
0.0871226, 1.69285, -1.2254, -1.53789, -0.900123, -1.19658, 1.23127, -1.30263, 0.0369563, 0.000319563, -0.000402289, -0.000909525, -0.115871, 0.0728642, 0.00047994, 1.22962, 56.5231, 26.7069, 5.72418, 1.70032, 3.18118, -0.0484509, 1.78706e-05, -0.000749964, -0.00017247, 2.39397e-05, -0.00614859, 9.87684e-05, 0.0301559, -0.0208088, 0.00295398, 0.00550063, 0.144318, -0.000719503, 0.471005, -0.542986, 0.336, -2.08355, -2.16577, -0.129917, 0.470261, -0.543026, 0.336195, -2.0868, -2.16913, -0.123637, -0.000177527, 0.0158932, 0.00412199, 0.0217923, -0.0134782, 0.00172241
0.0881226, 1.69289, -1.22539, -1.53789, -0.900126, -1.1967, 1.23135, -1.30264, 0.0378871, 0.00104659, 0.000566929, -0.00152664, -0.115016, 0.0732923, -0.000617077, 1.18995, 56.4874, 26.6712, 5.76385, 1.69391, 3.18851, -0.0228162, -9.50885e-06, -0.000725235, -0.000177242, 1.24865e-05, -0.00629494, 9.51776e-05, 0.0295713, -0.0217957, 0.00359347, 0.0068145, 0.144868, 0.00261652, 0.471005, -0.542971, 0.336004, -2.08354, -2.16576, -0.129918, 0.470287, -0.543037, 0.336199, -2.08687, -2.16921, -0.123503, -0.000184671, 0.0162937, 0.00422337, 0.0227731, -0.0125584, 0.00251581
0.0891226, 1.69293, -1.22539, -1.53789, -0.900123, -1.19682, 1.23142, -1.30263, 0.0375483, 0.000696469, -0.000457337, -8.39484e-05, -0.119619, 0.0734027, 0.00105598, 1.18995, 56.4874, 26.7069, 5.72418, 1.71222, 3.20224, -0.0621838, -4.19331e-05, -0.000704072, -0.00017967, 5.75153e-06, -0.00644375, 0.000108658, 0.0317339, -0.0206046, 0.00322466, 0.00465621, 0.148575, -0.0026392, 0.471005, -0.542954, 0.336008, -2.08353, -2.16576, -0.129919, 0.470309, -0.543052, 0.3362, -2.08695, -2.16928, -0.123359, -0.000192, 0.0166987, 0.00432576, 0.0216405, -0.0142804, 0.00195364
0.0901226, 1.69297, -1.22539, -1.53789, -0.900126, -1.19695, 1.23149, -1.30264, 0.0381648, 0.000463371, -0.00123297, -0.00181486, -0.126397, 0.0744142, -0.00122182, 1.15424, 56.4874, 26.7466, 5.79956, 1.70581, 3.19583, -0.00999879, -7.21567e-05, -0.000681729, -0.000181543, 4.42331e-06, -0.0065926, 0.00010545, 0.0329951, -0.0206228, 0.00260431, 0.000835617, 0.154925, -0.000826686, 0.471004, -0.542938, 0.336012, -2.08351, -2.16576, -0.129921, 0.470333, -0.543065, 0.336201, -2.08701, -2.16937, -0.123211, -0.000199514, 0.0171079, 0.00442916, 0.021674, -0.0150197, 0.00124753
0.0911226, 1.69302, -1.22539, -1.53789, -0.900123, -1.19707, 1.23157, -1.30263, 0.0397077, 0.000308208, 0.000106003, -0.000371428, -0.128256, 0.0750146, 0.000886104, 1.07887, 56.4874, 26.7069, 5.76385, 1.71863, 3.18851, -0.0557752, -0.000102829, -0.000657206, -0.000185152, -4.9306e-06, -0.00674359, 0.000113487, 0.0333249, -0.0212988, 0.0031281, 0.00218221, 0.156727, -0.00260911, 0.471004, -0.54292, 0.336017, -2.0835, -2.16575, -0.129922, 0.470358, -0.543077, 0.336203, -2.08709, -2.16945, -0.123068, -0.000207216, 0.0175215, 0.00453354, 0.0223724, -0.0149846, 0.00179693
0.0921226, 1.69306, -1.22539, -1.53789, -0.900133, -1.19721, 1.23164, -1.30263, 0.0446059, 0.00104016, 7.06382e-05, -0.00367885, -0.129525, 0.0708958, -0.000388685, 0.963814, 56.4517, 26.7069, 5.91064, 1.73053, 3.17386, -0.0292249, -0.000130887, -0.000630254, -0.000186312, -2.8435e-06, -0.00690076, 0.000103646, 0.0303536, -0.0238706, 0.00243052, -0.00419495, 0.157213, 0.00597914, 0.471004, -0.542903, 0.336021, -2.08349, -2.16575, -0.129923, 0.470386, -0.543087, 0.336204, -2.08714, -2.16954, -0.122908, -0.000215108, 0.0179394, 0.00463891, 0.0248012, -0.0114202, 0.00159698
0.0931226, 1.69311, -1.22539, -1.53789, -0.900133, -1.19734, 1.23172, -1.30263, 0.0419919, 0.00152826, 4.70694e-05, -0.00245073, -0.130151, 0.0726271, 0.000455896, 0.85273, 56.416, 26.7069, 5.91064, 1.73053, 3.15921, -0.0484509, -0.000161714, -0.000605826, -0.000191049, -7.18147e-06, -0.00705827, 0.000107619, 0.0325736, -0.0223546, 0.00313805, -0.00190102, 0.159193, 0.00129392, 0.471004, -0.542885, 0.336026, -2.08348, -2.16575, -0.129924, 0.470411, -0.543099, 0.336208, -2.08722, -2.16962, -0.122754, -0.000223192, 0.0183616, 0.00474526, 0.0233845, -0.0133607, 0.00210236
0.0941226, 1.69316, -1.22539, -1.53789, -0.900136, -1.19748, 1.23179, -1.30263, 0.0422845, 0.00101854, 3.13626e-05, -0.00256047, -0.136167, 0.0739489, 0.000814763, 0.777352, 56.416, 26.7069, 5.95032, 1.75525, 3.1528, -0.0621838, -0.00019449, -0.000582124, -0.000192038, -5.03458e-06, -0.00721725, 0.000115123, 0.0342262, -0.022109, 0.00289323, -0.0036238, 0.164606, -0.000642376, 0.471003, -0.542867, 0.336031, -2.08346, -2.16574, -0.129926, 0.470436, -0.543112, 0.336208, -2.08729, -2.1697, -0.12259, -0.00023147, 0.0187881, 0.00485258, 0.0231816, -0.0145378, 0.00171802
0.0951226, 1.6932, -1.22539, -1.5379, -0.900136, -1.19762, 1.23186, -1.30263, 0.0423506, -0.000991631, -0.00174234, -0.00170595, -0.134957, 0.0697374, -0.00213393, 0.701973, 56.4874, 26.7823, 5.95032, 1.75525, 3.14548, 0.0101428, -0.000232216, -0.000561664, -0.000190966, -1.8067e-06, -0.00737827, 0.000120275, 0.0347793, -0.0210403, 0.000786996, -0.00798272, 0.159891, 0.00124224, 0.471003, -0.542848, 0.336035, -2.08345, -2.16574, -0.129927, 0.470458, -0.54313, 0.336205, -2.08737, -2.16978, -0.122424, -0.000239944, 0.0192188, 0.00496086, 0.0220492, -0.0143722, -0.000307409
0.0961226, 1.69324, -1.22539, -1.53789, -0.900138, -1.19775, 1.23194, -1.30263, 0.0466843, 0.00100918, 0.00143688, -0.00197174, -0.139474, 0.0724428, 0.00102002, 0.586922, 56.416, 26.6712, 5.98602, 1.76807, 3.11618, -0.0557752, -0.000263682, -0.000536539, -0.000197713, -8.11688e-06, -0.00754182, 0.000123822, 0.0335336, -0.0240374, 0.00303703, -0.00546995, 0.16719, 0.00263365, 0.471003, -0.542829, 0.33604, -2.08343, -2.16574, -0.129929, 0.470484, -0.543141, 0.336211, -2.08744, -2.16987, -0.122266, -0.000248615, 0.0196537, 0.00507009, 0.025071, -0.0129312, 0.00212569
0.0971226, 1.69324, -1.22539, -1.53789, -0.900138, -1.19775, 1.23194, -1.30263, 0.0466843, 0.00100918, 0.00143688, -0.00197174, -0.139474, 0.0724428, 0.00102002, 0.586922, 56.416, 26.6712, 5.98602, 1.76807, 3.11618, -0.0557752, -0.000283877, -0.000536947, -0.000195744, -1.63245e-05, -0.0075518, 0.000128445, 0.0339847, -0.0240314, 0.00299681, -0.00539366, 0.167511, 0.00266709, 0.471003, -0.542809, 0.336045, -2.08342, -2.16573, -0.12993, 0.470484, -0.543141, 0.336211, -2.08744, -2.16987, -0.122266, -0.000257487, 0.0200928, 0.00518027, 0.025071, -0.0129312, 0.00212569
0.0981226, 1.69329, -1.2254, -1.53789, -0.900144, -1.1979, 1.23201, -1.30263, 0.045631, -0.000997774, 0.000122698, -0.00307715, -0.137305, 0.0735501, -0.00176046, 0.511544, 56.4874, 26.7069, 6.0614, 1.76807, 3.10245, 0.0101428, -0.000320379, -0.000513266, -0.000192182, -1.11718e-05, -0.00771248, 0.000127588, 0.034731, -0.0239351, 0.00131193, -0.00503495, 0.164762, 0.00555436, 0.471002, -0.542789, 0.336051, -2.08341, -2.16573, -0.129932, 0.470508, -0.543156, 0.336206, -2.08751, -2.16995, -0.122098, -0.000266561, 0.0205361, 0.00529139, 0.0249314, -0.0129687, 0.000459542
0.0991226, 1.69334, -1.2254, -1.53789, -0.900146, -1.19804, 1.23209, -1.30263, 0.0466568, -0.000665277, 8.17933e-05, -0.00288622, -0.14027, 0.0749668, -0.00117294, 0.360787, 56.4874, 26.7069, 6.09711, 1.75525, 3.08047, 0.0101428, -0.000353925, -0.000487248, -0.00019476, -1.15811e-05, -0.00787736, 0.000128352, 0.0354982, -0.0243755, 0.00156038, -0.00516908, 0.168572, 0.00484657, 0.471002, -0.542768, 0.336056, -2.08339, -2.16572, -0.129933, 0.470535, -0.543168, 0.336208, -2.08758, -2.17004, -0.121932, -0.000275838, 0.0209836, 0.00540343, 0.0253987, -0.0132985, 0.000683687
0.100123, 1.69343, -1.22539, -1.53789, -0.900157, -1.19832, 1.23224, -1.30263, 0.0409791, 0.00109625, 0.000593159, -0.00329301, -0.145762, 0.0675972, 0.00332628, 0.134651, 56.416, 26.6712, 6.20819, 1.77356, 3.04477, 0.0229602, -0.000402276, -0.000438174, -0.000202472, 8.17184e-08, -0.00820135, 0.000128639, 0.0384127, -0.0193644, 0.0023458, -0.0127538, 0.171351, -0.00649639, 0.471002, -0.542747, 0.336061, -2.08338, -2.16572, -0.129935, 0.470586, -0.543194, 0.336212, -2.08772, -2.17022, -0.121591, -0.000285321, 0.0214351, 0.00551641, 0.020518, -0.016051, 0.0012705
0.101123, 1.69348, -1.2254, -1.53789, -0.900162, -1.19846, 1.23231, -1.30263, 0.0462816, -0.000939642, -0.000439781, -0.00395839, -0.142721, 0.0701075, 0.0047754, -0.0161054, 56.4874, 26.7069, 6.28357, 1.77997, 3.03012, -0.0356336, -0.000437148, -0.00041171, -0.000201287, 2.09007e-06, -0.00836415, 0.00013207, 0.0363899, -0.0231454, 0.000591127, -0.0112598, 0.168696, -0.00151162, 0.471002, -0.542726, 0.336067, -2.08336, -2.16572, -0.129936, 0.470614, -0.543205, 0.33621, -2.08779, -2.1703, -0.121425, -0.000295012, 0.0218908, 0.00563029, 0.0241481, -0.0131722, -0.000148944
0.102123, 1.69352, -1.2254, -1.53789, -0.900168, -1.19861, 1.23239, -1.30263, 0.0450137, -0.000626458, 0.000542029, -0.00440203, -0.140421, 0.0721721, 0.0022537, -0.0914839, 56.4874, 26.6712, 6.35895, 1.79828, 3.02371, -0.00267457, -0.000475329, -0.000389866, -0.000203011, 2.74238e-06, -0.00853024, 0.000133737, 0.0368154, -0.0233311, 0.0012722, -0.00745139, 0.168418, 0.00143224, 0.471001, -0.542704, 0.336072, -2.08334, -2.16571, -0.129938, 0.470636, -0.543221, 0.336211, -2.08786, -2.17039, -0.121257, -0.000304912, 0.0223506, 0.00574509, 0.0243639, -0.0132297, 0.000565886
0.103123, 1.69356, -1.2254, -1.53789, -0.90017, -1.19875, 1.23246, -1.30263, 0.0434486, -0.000417661, -0.000473867, -0.00293458, -0.13838, 0.0728844, 0.0022292, -0.131157, 56.4874, 26.7069, 6.35895, 1.79828, 3.02371, -0.0164075, -0.00051508, -0.000369232, -0.000203745, 6.96102e-06, -0.00869605, 0.000145037, 0.0382839, -0.0222952, 0.00134521, -0.00573626, 0.167536, -0.00113588, 0.471001, -0.542682, 0.336078, -2.08333, -2.16571, -0.12994, 0.470658, -0.543237, 0.33621, -2.08794, -2.17046, -0.121084, -0.000315023, 0.0228145, 0.00586078, 0.0233748, -0.0142692, 0.000556115
0.104123, 1.69361, -1.2254, -1.53789, -0.900178, -1.1989, 1.23253, -1.30263, 0.0434662, -0.0020417, 0.000519306, -0.00455477, -0.137024, 0.0777421, 0.000666366, -0.206535, 56.5628, 26.6712, 6.47003, 1.80469, 3.03744, 0.0101428, -0.000553425, -0.000346361, -0.000202564, 9.18759e-06, -0.00885886, 0.000148083, 0.0384553, -0.0239095, 0.000907737, -0.000839298, 0.167632, 0.0028865, 0.471001, -0.542659, 0.336084, -2.08331, -2.1657, -0.129941, 0.470682, -0.543251, 0.336209, -2.08801, -2.17055, -0.120917, -0.000325348, 0.0232823, 0.00597737, 0.0249671, -0.0138363, 0.000164374
0.105123, 1.69365, -1.2254, -1.53789, -0.900186, -1.19904, 1.23261, -1.30263, 0.0408972, -0.000433123, 0.000346203, -0.00479969, -0.140931, 0.0770972, 0.00104165, -0.317619, 56.5231, 26.6712, 6.54541, 1.81659, 3.03744, -0.00267457, -0.000590482, -0.000321729, -0.000205047, 1.5584e-05, -0.00903324, 0.000148277, 0.0405965, -0.0218986, 0.0018083, -0.00286622, 0.172421, -0.00118308, 0.471, -0.542636, 0.33609, -2.08329, -2.1657, -0.129943, 0.470708, -0.543263, 0.33621, -2.08808, -2.17064, -0.120734, -0.000335889, 0.0237543, 0.00609484, 0.0230582, -0.0156996, 0.000898389
0.106123, 1.69371, -1.2254, -1.53789, -0.900184, -1.19919, 1.23268, -1.30263, 0.0430731, 0.00138168, 0.000230802, -0.00545195, -0.139531, 0.0770972, 0.00176979, -0.468376, 56.4517, 26.6712, 6.5097, 1.8349, 3.02371, -0.0292249, -0.000628954, -0.00029614, -0.000210272, 1.36013e-05, -0.00921018, 0.000158567, 0.0394936, -0.0233669, 0.00259139, -0.00270349, 0.173564, 0.00123794, 0.471, -0.542612, 0.336096, -2.08328, -2.16569, -0.129945, 0.470735, -0.543277, 0.336215, -2.08816, -2.17072, -0.120557, -0.000346646, 0.0242302, 0.00621319, 0.024503, -0.0141951, 0.00191617
0.107123, 1.69375, -1.2254, -1.53789, -0.900192, -1.19934, 1.23276, -1.30263, 0.0419589, 0.000921112, -0.000681351, -0.00565512, -0.142086, 0.0771857, -0.00115863, -0.508049, 56.4517, 26.7069, 6.58508, 1.8349, 3.02371, 0.0357776, -0.000672371, -0.000275368, -0.000211184, 1.62387e-05, -0.00938732, 0.000162887, 0.0411693, -0.0223587, 0.00200365, -0.00450237, 0.175642, 0.00201146, 0.471, -0.542588, 0.336102, -2.08326, -2.16569, -0.129946, 0.470757, -0.543295, 0.336215, -2.08824, -2.17081, -0.120375, -0.000357622, 0.0247101, 0.00633241, 0.023524, -0.01532, 0.00122431
0.108123, 1.69379, -1.2254, -1.53789, -0.900203, -1.19949, 1.23284, -1.30262, 0.044297, -0.000221149, 0.000380984, -0.00969246, -0.14399, 0.0828872, 0.00168683, -0.543754, 56.4874, 26.6712, 6.69617, 1.84772, 2.98709, -0.0292249, -0.000711884, -0.000250013, -0.000210325, 1.62068e-05, -0.00955723, 0.000170167, 0.0402774, -0.0256108, 0.00149685, -0.00175254, 0.179601, 0.00498151, 0.470999, -0.542563, 0.336109, -2.08324, -2.16568, -0.129948, 0.470783, -0.543308, 0.336213, -2.08832, -2.1709, -0.120203, -0.000368819, 0.025194, 0.00645249, 0.0267104, -0.0137434, 0.00088308
0.109123, 1.69384, -1.2254, -1.53789, -0.900206, -1.19964, 1.23292, -1.30263, 0.0458379, 0.000687781, -0.00150925, -0.00770248, -0.145098, 0.0811889, 0.00018003, -0.694511, 56.4517, 26.7466, 6.73187, 1.82941, 2.98068, -0.00267457, -0.000753621, -0.00022639, -0.000211123, 2.16681e-05, -0.00973393, 0.000174513, 0.0410322, -0.0252414, 0.00137156, -0.00452646, 0.180929, 0.00501841, 0.470999, -0.542538, 0.336115, -2.08322, -2.16568, -0.12995, 0.470808, -0.543323, 0.336213, -2.08839, -2.17098, -0.120019, -0.000380238, 0.0256818, 0.00657343, 0.0263529, -0.0139963, 0.000773323
0.110123, 1.69388, -1.2254, -1.53789, -0.900211, -1.1998, 1.23299, -1.30263, 0.0449638, 0.000458518, -0.00100617, -0.00636722, -0.142237, 0.0751842, 0.000149133, -0.76989, 56.4517, 26.7466, 6.77154, 1.84772, 2.97336, -0.00267457, -0.000797844, -0.000205621, -0.00021362, 2.87863e-05, -0.0099167, 0.000185487, 0.0410513, -0.0237629, 0.00106929, -0.00713657, 0.175568, 0.00423774, 0.470999, -0.542512, 0.336122, -2.0832, -2.16567, -0.129952, 0.47083, -0.543341, 0.336215, -2.08847, -2.17107, -0.119826, -0.000391882, 0.0261735, 0.00669522, 0.0248545, -0.0135374, 0.000637934
0.111123, 1.69392, -1.2254, -1.5379, -0.900217, -1.19995, 1.23306, -1.30263, 0.042716, 0.000305676, -0.001506, -0.00614341, -0.149449, 0.0751083, -0.000353461, -0.76989, 56.4517, 26.7823, 6.84296, 1.85321, 2.98709, 0.0101428, -0.000843701, -0.000187831, -0.000214327, 3.7478e-05, -0.0100919, 0.000198646, 0.0441637, -0.021534, 0.000922237, -0.010469, 0.181601, -0.000271225, 0.470998, -0.542486, 0.336128, -2.08318, -2.16567, -0.129954, 0.470849, -0.543359, 0.336214, -2.08855, -2.17114, -0.119638, -0.000403753, 0.0266691, 0.00681784, 0.0227235, -0.0161831, 0.000198046
0.112123, 1.69396, -1.2254, -1.5379, -0.900219, -1.2001, 1.23313, -1.30263, 0.0405988, 0.000203783, -0.00193202, -0.00653714, -0.149634, 0.0746463, 0.000255454, -0.884941, 56.4517, 26.822, 6.80725, 1.85321, 3.00906, -0.00267457, -0.000889391, -0.000168342, -0.000214775, 4.82983e-05, -0.0102695, 0.00021066, 0.0455883, -0.0202499, 0.000690404, -0.0111059, 0.181789, -0.00284337, 0.470998, -0.542459, 0.336135, -2.08317, -2.16566, -0.129956, 0.47087, -0.543377, 0.336214, -2.08863, -2.17122, -0.119446, -0.000415851, 0.0271686, 0.0069413, 0.021472, -0.0171067, -9.0824e-05
0.113123, 1.69401, -1.22539, -1.53789, -0.900223, -1.20026, 1.2332, -1.30263, 0.0410786, 0.000971072, 0.000475226, -0.00474524, -0.154883, 0.0743049, 0.000691211, -0.960319, 56.416, 26.7466, 6.80725, 1.85962, 3.02371, -0.0164075, -0.000935239, -0.000149146, -0.000219459, 5.22692e-05, -0.0104516, 0.000227024, 0.0468472, -0.0198683, 0.00216148, -0.010795, 0.186753, -0.00494282, 0.470997, -0.542432, 0.336142, -2.08315, -2.16566, -0.129958, 0.47089, -0.543395, 0.336218, -2.08872, -2.1713, -0.119257, -0.000428179, 0.027672, 0.00706559, 0.0211778, -0.0180887, 0.00130071
0.114123, 1.69405, -1.22539, -1.5379, -0.900229, -1.20042, 1.23327, -1.30263, 0.0424309, 0.0015754, -0.00144642, -0.00428907, -0.154123, 0.0748955, -0.00197139, -1.07537, 56.3763, 26.822, 6.84296, 1.86603, 3.02371, 0.0495105, -0.000980843, -0.000129521, -0.000220663, 6.50715e-05, -0.0106319, 0.000231929, 0.0471534, -0.0203666, 0.00184235, -0.0114632, 0.187525, -0.00196724, 0.470997, -0.542404, 0.336149, -2.08313, -2.16565, -0.12996, 0.470911, -0.543412, 0.336218, -2.08879, -2.17139, -0.119061, -0.000440739, 0.0281791, 0.00719069, 0.0216625, -0.0178137, 0.00104698
0.115123, 1.69409, -1.22539, -1.5379, -0.900235, -1.20057, 1.23334, -1.30263, 0.0425795, 0.000122246, -0.0017995, -0.00400516, -0.15753, 0.075555, 0.00137142, -1.15075, 56.416, 26.8577, 6.88263, 1.85962, 3.00906, -0.0228162, -0.0010287, -0.000111134, -0.000219204, 7.64677e-05, -0.0108079, 0.00025409, 0.0486497, -0.020084, 0.000921044, -0.0126778, 0.189576, -0.00663822, 0.470997, -0.542376, 0.336156, -2.08311, -2.16564, -0.129962, 0.470931, -0.54343, 0.336216, -2.08887, -2.17145, -0.118869, -0.000453532, 0.0286901, 0.0073166, 0.021388, -0.0186489, 3.79983e-05
0.116123, 1.69413, -1.2254, -1.5379, -0.900236, -1.20073, 1.23341, -1.30263, 0.0393949, -0.00158894, -0.000364448, -0.00283344, -0.154985, 0.0719322, -6.38855e-05, -1.22613, 56.4874, 26.822, 6.88263, 1.8349, 2.98709, 0.00373412, -0.00107709, -9.33921e-05, -0.000217672, 8.3708e-05, -0.0109762, 0.000266866, 0.0499295, -0.0179347, 0.000385484, -0.0124094, 0.184071, -0.00777968, 0.470996, -0.542347, 0.336164, -2.08308, -2.16564, -0.129964, 0.47095, -0.543448, 0.336214, -2.08895, -2.17152, -0.11869, -0.00046656, 0.0292049, 0.00744332, 0.0192552, -0.019403, -0.000498669
0.117123, 1.69417, -1.2254, -1.5379, -0.900238, -1.20088, 1.23347, -1.30263, 0.0372714, -0.00105929, -0.00107818, -0.00201145, -0.153381, 0.0695874, -3.87041e-05, -1.30151, 56.4874, 26.8577, 6.88263, 1.81659, 2.95138, 0.00373412, -0.00112746, -7.75379e-05, -0.00021768, 9.50694e-05, -0.0111529, 0.000286355, 0.0511889, -0.0161689, 0.000420401, -0.0134733, 0.182413, -0.0104009, 0.470996, -0.542318, 0.336171, -2.08306, -2.16563, -0.129966, 0.470967, -0.543468, 0.336213, -2.08903, -2.17159, -0.118498, -0.000479825, 0.0297235, 0.00757084, 0.0175253, -0.0202056, -0.000479838
0.118123, 1.69421, -1.2254, -1.5379, -0.900247, -1.20104, 1.23353, -1.30263, 0.0362657, -0.00154141, -0.000718789, -0.00635906, -0.151974, 0.0673581, -2.28881e-05, -1.41259, 56.5231, 26.8577, 6.95801, 1.79187, 2.923, 0.00373412, -0.00117241, -5.75179e-05, -0.000216175, 0.000112276, -0.0113239, 0.000292594, 0.0503435, -0.0164, -0.000527537, -0.0162804, 0.180392, -0.00690875, 0.470995, -0.542288, 0.336179, -2.08304, -2.16563, -0.129968, 0.470988, -0.543482, 0.336211, -2.0891, -2.17167, -0.118306, -0.000493328, 0.0302458, 0.00769914, 0.0176779, -0.0186926, -0.00116381
0.119123, 1.69425, -1.2254, -1.5379, -0.900252, -1.20119, 1.23359, -1.30263, 0.0406689, -0.000192391, 0.000356025, -0.00457186, -0.15139, 0.0654596, -0.00072515, -1.48797, 56.4874, 26.822, 6.95801, 1.77356, 2.90103, 0.0229602, -0.0012195, -4.06374e-05, -0.00021836, 0.000128853, -0.0114992, 0.00030271, 0.0487851, -0.0183528, 0.000454025, -0.0163197, 0.180605, -0.00269896, 0.470995, -0.542258, 0.336186, -2.08302, -2.16562, -0.129971, 0.471006, -0.543497, 0.336213, -2.08917, -2.17175, -0.11811, -0.000507072, 0.0307718, 0.00782823, 0.0195945, -0.016699, 0.000116504
0.120123, 1.6943, -1.2254, -1.5379, -0.900256, -1.20135, 1.23365, -1.30263, 0.0420922, -0.000128261, -0.000597868, -0.00329727, -0.150798, 0.0584202, 0.000467642, -1.60302, 56.4874, 26.8577, 6.95801, 1.76166, 2.90103, -0.00267457, -0.00126778, -2.37719e-05, -0.000218383, 0.000150095, -0.0116753, 0.000319606, 0.0484225, -0.0174735, -0.000412278, -0.0224933, 0.177084, -0.00384939, 0.470994, -0.542227, 0.336194, -2.083, -2.16561, -0.129973, 0.471024, -0.543514, 0.336213, -2.08924, -2.17181, -0.117908, -0.000521058, 0.0313016, 0.00795809, 0.0186578, -0.0157134, -0.000526553
0.121123, 1.69434, -1.2254, -1.5379, -0.900258, -1.20151, 1.2337, -1.30263, 0.0399222, -8.55075e-05, -0.000398578, -0.00145718, -0.155915, 0.0533077, 0.000821617, -1.7141, 56.4874, 26.8577, 6.91833, 1.76807, 2.89462, -0.0164075, -0.00131741, -8.28625e-06, -0.000216916, 0.000175453, -0.0118498, 0.00033704, 0.0509207, -0.0143592, -0.000429381, -0.0278355, 0.17894, -0.00955149, 0.470994, -0.542196, 0.336202, -2.08297, -2.16561, -0.129975, 0.471041, -0.54353, 0.336211, -2.08931, -2.17188, -0.117703, -0.000535288, 0.031835, 0.00808872, 0.0156231, -0.0177716, -0.000707777
0.122123, 1.69438, -1.2254, -1.53789, -0.900265, -1.20167, 1.23374, -1.30263, 0.0418987, -0.000892223, 0.00477765, -0.00203974, -0.160127, 0.0542187, -0.00114675, -1.7141, 56.5231, 26.7823, 6.95801, 1.78638, 2.89462, 0.0293689, -0.00136888, 3.24989e-06, -0.000215695, 0.000202943, -0.0120219, 0.000350643, 0.0503389, -0.0162154, 0.000794685, -0.025013, 0.1822, -0.00398398, 0.470993, -0.542164, 0.33621, -2.08295, -2.1656, -0.129978, 0.471054, -0.543549, 0.33621, -2.08938, -2.17194, -0.117498, -0.000549763, 0.0323721, 0.00822011, 0.0174865, -0.0167724, 0.000665019
0.123123, 1.69442, -1.2254, -1.5379, -0.900271, -1.20184, 1.23379, -1.30263, 0.0421448, 0.000240403, 0.00169521, -0.00146503, -0.158869, 0.0501805, -5.17341e-05, -1.78948, 56.4874, 26.8577, 6.95801, 1.81018, 2.8873, 0.0101428, -0.00142004, 1.70772e-05, -0.000213791, 0.000238003, -0.0122023, 0.000370662, 0.0508243, -0.0150616, 3.53465e-05, -0.0301916, 0.180857, -0.00638533, 0.470993, -0.542132, 0.336219, -2.08293, -2.16559, -0.12998, 0.471069, -0.543566, 0.336208, -2.08945, -2.172, -0.117276, -0.000564485, 0.0329128, 0.00835225, 0.0163095, -0.0166409, 6.0942e-06
0.124123, 1.69446, -1.2254, -1.53789, -0.900279, -1.202, 1.23384, -1.30263, 0.0391799, 0.000160268, 0.00217036, -0.00505379, -0.157818, 0.0480575, -0.000983406, -1.86486, 56.4874, 26.822, 6.99371, 1.82941, 2.85159, 0.0357776, -0.00146772, 3.37909e-05, -0.000213654, 0.000260473, -0.0123722, 0.000376426, 0.0511184, -0.0140138, -0.000416832, -0.0322829, 0.17946, -0.00461926, 0.470992, -0.542099, 0.336227, -2.0829, -2.16559, -0.129982, 0.471086, -0.543579, 0.336208, -2.0895, -2.17208, -0.117079, -0.000579456, 0.0334572, 0.00848514, 0.0152426, -0.0163599, -0.00032225
0.125123, 1.6945, -1.2254, -1.5379, -0.900288, -1.20216, 1.23388, -1.30263, 0.0393941, 0.000106845, 0.000765447, -0.00685245, -0.15659, 0.0460811, 0.000768938, -1.90453, 56.4874, 26.8577, 6.99371, 1.85321, 2.83694, -0.00267457, -0.00151815, 4.78359e-05, -0.000210989, 0.00029268, -0.0125444, 0.000394774, 0.0509027, -0.0140668, -0.00142588, -0.0354236, 0.178084, -0.00480431, 0.470991, -0.542066, 0.336235, -2.08288, -2.16558, -0.129985, 0.471102, -0.543595, 0.336206, -2.08957, -2.17213, -0.116869, -0.000594677, 0.0340052, 0.00861877, 0.0152358, -0.0154406, -0.00115392
0.126123, 1.69453, -1.2254, -1.53789, -0.900292, -1.20231, 1.23393, -1.30263, 0.0367681, -0.000763988, 0.00146083, -0.00737194, -0.164228, 0.0462147, -0.00141986, -1.82915, 56.5231, 26.822, 6.95801, 1.87244, 2.77926, 0.0495105, -0.00157193, 5.84405e-05, -0.000211414, 0.000313633, -0.0127138, 0.000410019, 0.053946, -0.0120064, -0.00163492, -0.0380785, 0.183868, -0.00690421, 0.470991, -0.542032, 0.336244, -2.08286, -2.16557, -0.129987, 0.471114, -0.543614, 0.336206, -2.08964, -2.1722, -0.116674, -0.000610151, 0.0345567, 0.00875313, 0.0132651, -0.0179456, -0.00163825
0.127123, 1.69457, -1.2254, -1.5379, -0.900301, -1.20247, 1.23398, -1.30263, 0.0370418, 0.00170219, -0.00153808, -0.00555483, -0.161117, 0.0456482, 0.00173241, -1.82915, 56.5628, 26.933, 6.95801, 1.87793, 2.73623, -0.0228162, -0.00162432, 7.07197e-05, -0.000206776, 0.000348826, -0.0128822, 0.00043508, 0.0546481, -0.0114224, -0.00110333, -0.038592, 0.183945, -0.0117731, 0.47099, -0.541997, 0.336253, -2.08283, -2.16557, -0.12999, 0.471127, -0.543629, 0.336202, -2.0897, -2.17225, -0.116463, -0.000625878, 0.0351119, 0.00888822, 0.0127112, -0.0181896, -0.00107099
0.128123, 1.69457, -1.2254, -1.5379, -0.900301, -1.20247, 1.23398, -1.30263, 0.0370418, 0.00170219, -0.00153808, -0.00555483, -0.161117, 0.0456482, 0.00173241, -1.82915, 56.5628, 26.933, 6.95801, 1.87793, 2.73623, -0.0228162, -0.00166038, 7.015e-05, -0.000203482, 0.000334102, -0.0129001, 0.000443098, 0.0552215, -0.011419, -0.0011493, -0.0384849, 0.184348, -0.011731, 0.47099, -0.541962, 0.336262, -2.0828, -2.16556, -0.129992, 0.471127, -0.543629, 0.336202, -2.0897, -2.17225, -0.116463, -0.00064186, 0.0356705, 0.00902402, 0.0127112, -0.0181896, -0.00107099
0.129123, 1.69457, -1.2254, -1.5379, -0.900301, -1.20247, 1.23398, -1.30263, 0.0370418, 0.00170219, -0.00153808, -0.00555483, -0.161117, 0.0456482, 0.00173241, -1.82915, 56.5628, 26.933, 6.95801, 1.87793, 2.73623, -0.0228162, -0.00169702, 6.95766e-05, -0.000200143, 0.000319142, -0.0129183, 0.000451234, 0.0557984, -0.0114158, -0.00119538, -0.0383767, 0.184753, -0.0116886, 0.470989, -0.541926, 0.336271, -2.08278, -2.16555, -0.129995, 0.471127, -0.543629, 0.336202, -2.0897, -2.17225, -0.116463, -0.000658099, 0.0362327, 0.00916054, 0.0127112, -0.0181896, -0.00107099
0.130123, 1.69469, -1.2254, -1.5379, -0.900324, -1.20292, 1.23409, -1.30263, 0.0351777, 0.000774875, -0.00153347, -0.00466458, -0.152333, 0.0414092, 0.00165137, -1.86486, 56.5628, 27.0084, 6.80725, 1.89624, 2.70053, -0.0164075, -0.00177631, 0.000110996, -0.000198988, 0.000445026, -0.0133747, 0.000472023, 0.0553843, -0.0103983, -0.00194928, -0.037231, 0.174809, -0.0112477, 0.470988, -0.54189, 0.33628, -2.08275, -2.16554, -0.129998, 0.471171, -0.54367, 0.336196, -2.08986, -2.17242, -0.115859, -0.000674597, 0.0367984, 0.00929776, 0.0116364, -0.0171403, -0.00158345
0.131123, 1.69473, -1.2254, -1.53789, -0.900339, -1.20307, 1.23413, -1.30263, 0.0380187, 0.000626958, 0.00169631, -0.00686762, -0.152105, 0.0362319, -0.000831798, -1.82915, 56.5628, 26.8934, 6.80725, 1.89624, 2.6868, 0.0357776, -0.00182279, 0.000127448, -0.000200714, 0.000469219, -0.0135369, 0.000467109, 0.0528078, -0.0121396, -0.00185336, -0.0401692, 0.172395, -0.00238683, 0.470988, -0.541853, 0.336289, -2.08273, -2.16554, -0.13, 0.471188, -0.543678, 0.336199, -2.0899, -2.1725, -0.11567, -0.000691354, 0.0373675, 0.00943568, 0.0132695, -0.0139703, -0.00100363
0.132123, 1.69477, -1.2254, -1.53789, -0.900347, -1.20321, 1.23416, -1.30262, 0.0369912, 0.000500752, -0.00153986, -0.0044604, -0.152364, 0.0315184, 0.00185302, -1.78948, 56.5628, 27.0084, 6.77154, 1.90906, 2.70053, -0.0292249, -0.00187367, 0.000138903, -0.000193769, 0.000509322, -0.0136866, 0.000486838, 0.0548224, -0.00955966, -0.00314655, -0.0458104, 0.170536, -0.00980802, 0.470987, -0.541816, 0.336299, -2.0827, -2.16553, -0.130003, 0.4712, -0.54369, 0.336193, -2.08995, -2.17254, -0.115474, -0.000708374, 0.0379402, 0.00957429, 0.0107015, -0.0152927, -0.00237793
0.133123, 1.69481, -1.2254, -1.5379, -0.900359, -1.20335, 1.23419, -1.30263, 0.0373621, -0.000439297, -0.00268162, -0.00568789, -0.15293, 0.028287, -0.000460037, -1.78948, 56.5985, 27.0798, 6.73187, 1.93927, 2.70053, 0.0165515, -0.00192438, 0.000152262, -0.000186486, 0.000546912, -0.0138384, 0.000490595, 0.0549921, -0.00920453, -0.00462366, -0.0504956, 0.169082, -0.00673879, 0.470986, -0.541778, 0.336308, -2.08267, -2.16552, -0.130006, 0.471215, -0.5437, 0.336187, -2.08999, -2.1726, -0.11528, -0.000725657, 0.0385162, 0.00971358, 0.0102817, -0.01467, -0.0037137
0.134123, 1.69484, -1.2254, -1.53789, -0.900375, -1.20349, 1.23422, -1.30262, 0.0388793, 0.000588917, -0.000940982, -0.00845747, -0.147396, 0.0261957, 0.00138876, -1.7141, 56.5628, 27.0441, 6.77154, 1.93378, 2.6932, -0.0292249, -0.00197395, 0.000165496, -0.000185443, 0.000573518, -0.0139929, 0.00050418, 0.0523144, -0.0112077, -0.00411012, -0.049525, 0.165132, -0.00196653, 0.470985, -0.541739, 0.336318, -2.08264, -2.16551, -0.130009, 0.471229, -0.54371, 0.336188, -2.09004, -2.17266, -0.115094, -0.000743204, 0.0390957, 0.00985355, 0.0121872, -0.0114436, -0.00271173
0.135123, 1.69487, -1.2254, -1.53789, -0.900385, -1.20364, 1.23425, -1.30262, 0.0401305, -0.0012429, 0.000216555, -0.00772871, -0.149148, 0.0243753, -0.000294842, -1.63873, 56.6342, 27.0084, 6.69617, 1.95209, 2.6932, 0.00373412, -0.0020285, 0.000175372, -0.00018002, 0.000606423, -0.0141455, 0.000516358, 0.052664, -0.0114531, -0.00494533, -0.0508005, 0.164162, 0.000352195, 0.470985, -0.5417, 0.336328, -2.08262, -2.1655, -0.130011, 0.47124, -0.543723, 0.336184, -2.09008, -2.17271, -0.114904, -0.000761018, 0.0396786, 0.00999418, 0.0123967, -0.011066, -0.00345897
0.136123, 1.69491, -1.2254, -1.53789, -0.900401, -1.20378, 1.23428, -1.30262, 0.0397865, -0.00173043, -0.00244759, -0.00919581, -0.149414, 0.0295457, 0.00102416, -1.63873, 56.6739, 27.1195, 6.69617, 1.94568, 2.64377, -0.0292249, -0.00207923, 0.000189301, -0.000173835, 0.00064366, -0.0142987, 0.000522562, 0.0541717, -0.0120446, -0.00594041, -0.0493162, 0.167179, -0.00128761, 0.470984, -0.541661, 0.336338, -2.08259, -2.1655, -0.130014, 0.471255, -0.543732, 0.336179, -2.09012, -2.17277, -0.114709, -0.000779099, 0.0402649, 0.0101355, 0.0129875, -0.011789, -0.00455482
0.137123, 1.69494, -1.2254, -1.53789, -0.900413, -1.20392, 1.23431, -1.30262, 0.0374584, 0.00366793, 0.00246414, -0.0115105, -0.149511, 0.0312583, 0.0011575, -1.56335, 56.5985, 27.0798, 6.62079, 1.93378, 2.65018, -0.0420422, -0.00213034, 0.000200541, -0.000175277, 0.000672148, -0.014454, 0.00053135, 0.0537722, -0.0123201, -0.00110501, -0.0437203, 0.173715, 0.000579029, 0.470983, -0.54162, 0.336348, -2.08256, -2.16549, -0.130017, 0.471267, -0.543742, 0.336182, -2.09016, -2.17283, -0.114521, -0.00079745, 0.0408545, 0.0102774, 0.0134084, -0.0115416, 0.000413536
0.138123, 1.69498, -1.2254, -1.53789, -0.900424, -1.20406, 1.23434, -1.30263, 0.037022, 0.000114787, 0.00329243, -0.00942763, -0.149839, 0.0281816, -0.0011611, -1.52764, 56.7096, 27.1552, 6.5097, 1.93927, 2.65018, 0.0101428, -0.00218456, 0.000211706, -0.000166766, 0.000713989, -0.0146041, 0.000536639, 0.0551101, -0.0112166, -0.00291143, -0.0449771, 0.169095, 0.00101744, 0.470982, -0.541579, 0.336358, -2.08253, -2.16548, -0.13002, 0.471279, -0.543753, 0.336175, -2.09019, -2.17288, -0.114324, -0.000816072, 0.0414475, 0.01042, 0.0122699, -0.012035, -0.00140344
0.139123, 1.69503, -1.22541, -1.53789, -0.900446, -1.20421, 1.23436, -1.30262, 0.0414813, -0.00139294, 0.000894282, -0.0114081, -0.151341, 0.0304969, 0.000684001, -1.56335, 56.781, 27.2306, 6.54541, 1.9704, 2.65018, -0.0292249, -0.00223386, 0.000228064, -0.000157049, 0.000762885, -0.0147579, 0.000541377, 0.0543292, -0.014031, -0.00499074, -0.0473518, 0.170884, 0.00376649, 0.470982, -0.541538, 0.336369, -2.0825, -2.16547, -0.130023, 0.471296, -0.543758, 0.336168, -2.09022, -2.17293, -0.114116, -0.000834967, 0.0420438, 0.0105633, 0.014957, -0.0102289, -0.00327916
0.140123, 1.69505, -1.2254, -1.53788, -0.900455, -1.20435, 1.23438, -1.30262, 0.0339281, 0.000892531, 0.00503163, -0.0114798, -0.14609, 0.0271188, -0.000527339, -1.41259, 56.7096, 27.1909, 6.39465, 1.95758, 2.67215, -0.00267457, -0.00229113, 0.000233121, -0.00015953, 0.00079471, -0.0149158, 0.000559857, 0.0558148, -0.0104555, -0.00214892, -0.0428179, 0.167106, 0.00128036, 0.470981, -0.541496, 0.336379, -2.08247, -2.16546, -0.130026, 0.471302, -0.543773, 0.336172, -2.09027, -2.17298, -0.113921, -0.000854135, 0.0426434, 0.0107072, 0.0115262, -0.0116835, -0.000452757
0.141123, 1.69509, -1.2254, -1.53788, -0.900479, -1.2045, 1.23441, -1.30262, 0.0366724, -0.000962371, 0.00211475, -0.0131627, -0.143487, 0.0292846, 0.000869148, -1.33721, 56.781, 27.2663, 6.43433, 1.9823, 2.6868, -0.0356336, -0.00234384, 0.00024471, -0.000151303, 0.000838616, -0.0150652, 0.000566571, 0.0552079, -0.0125889, -0.00451084, -0.0435065, 0.165065, 0.00364876, 0.47098, -0.541453, 0.33639, -2.08244, -2.16545, -0.130029, 0.471315, -0.54378, 0.336166, -2.0903, -2.17303, -0.113722, -0.000873578, 0.0432462, 0.0108517, 0.0135285, -0.010027, -0.00261247
0.142123, 1.69512, -1.22541, -1.53787, -0.9005, -1.20464, 1.23442, -1.30262, 0.0314563, 0.000850424, 0.00180251, -0.0146238, -0.141276, 0.0263804, 0.00132542, -1.22613, 56.8564, 27.2663, 6.35895, 1.99512, 2.70053, -0.0557752, -0.00239604, 0.000256407, -0.000145101, 0.000876518, -0.0152098, 0.000570654, 0.0568741, -0.00961182, -0.00378812, -0.0449009, 0.164048, -9.74195e-05, 0.470979, -0.54141, 0.336401, -2.08241, -2.16544, -0.130032, 0.471327, -0.543787, 0.336162, -2.09033, -2.17309, -0.113536, -0.000893298, 0.0438524, 0.0109968, 0.0106231, -0.0113005, -0.00192358
0.143123, 1.69515, -1.2254, -1.53787, -0.900518, -1.20478, 1.23445, -1.30262, 0.0317335, 0.00172996, 0.00056816, -0.0157574, -0.142941, 0.024694, -0.00132043, -1.15075, 56.8207, 27.306, 6.28357, 1.98871, 2.70053, 0.00373412, -0.00245146, 0.000265452, -0.000143864, 0.000912772, -0.0153668, 0.00057687, 0.0573681, -0.00929298, -0.00406613, -0.048612, 0.166089, 0.00269535, 0.470978, -0.541366, 0.336412, -2.08237, -2.16543, -0.130036, 0.471337, -0.543797, 0.336163, -2.09036, -2.17315, -0.113338, -0.000913297, 0.0444617, 0.0111426, 0.0102927, -0.0111485, -0.00212103
0.144123, 1.69518, -1.22541, -1.53786, -0.900543, -1.20492, 1.23446, -1.30261, 0.0318382, -0.000271286, 0.00198105, -0.0175312, -0.140468, 0.0232482, 0.00179848, -1.07537, 56.8921, 27.3774, 6.24786, 1.99512, 2.70053, -0.0685925, -0.00250444, 0.00027667, -0.000136333, 0.000955909, -0.0155122, 0.000586873, 0.0566823, -0.0100515, -0.00517846, -0.04835, 0.161864, 0.00281055, 0.470977, -0.541322, 0.336423, -2.08234, -2.16542, -0.130039, 0.471349, -0.543803, 0.336158, -2.09039, -2.17319, -0.113144, -0.000933575, 0.0450743, 0.0112889, 0.0109643, -0.00965477, -0.00299055
0.145123, 1.69521, -1.2254, -1.53786, -0.900568, -1.20506, 1.23448, -1.30261, 0.032921, 0.000838744, 0.00229406, -0.0188085, -0.137884, 0.0224594, 0.00478322, -1.0357, 56.8564, 27.4885, 6.20819, 1.9823, 2.6932, -0.0356336, -0.00255868, 0.000286296, -0.000133011, 0.000998142, -0.0156658, 0.00058772, 0.0556871, -0.0111294, -0.00476902, -0.0480729, 0.161035, 0.00305025, 0.470976, -0.541277, 0.336434, -2.08231, -2.16541, -0.130042, 0.47136, -0.543811, 0.336157, -2.09041, -2.17325, -0.112944, -0.000954135, 0.0456901, 0.0114359, 0.0119998, -0.00807484, -0.00231865
0.146123, 1.69523, -1.22541, -1.53784, -0.900597, -1.2052, 1.2345, -1.30261, 0.0301248, -0.00190101, 0.00294223, -0.0206403, -0.136773, 0.0225655, 0.00335187, -0.845268, 56.9675, 27.4528, 6.20819, 1.99512, 2.66482, -0.0292249, -0.00261523, 0.00029353, -0.000127818, 0.00102854, -0.0158063, 0.000594943, 0.0569437, -0.010279, -0.00629973, -0.0474593, 0.157926, 0.00410597, 0.470975, -0.541231, 0.336446, -2.08228, -2.1654, -0.130045, 0.471368, -0.54382, 0.336154, -2.09044, -2.1733, -0.11277, -0.000974976, 0.0463091, 0.0115835, 0.0111189, -0.00849388, -0.00385381
0.147123, 1.69526, -1.22542, -1.53784, -0.900622, -1.20533, 1.23452, -1.30261, 0.0271902, -0.000590368, 0.000631474, -0.0233768, -0.135704, 0.0173819, 0.0030096, -0.884941, 57.0786, 27.5281, 6.13678, 2.00061, 2.65018, -0.0420422, -0.0026683, 0.000305435, -0.000119968, 0.00106634, -0.015944, 0.000595264, 0.0576903, -0.00798589, -0.00707922, -0.0541006, 0.15655, 0.00319317, 0.470974, -0.541185, 0.336457, -2.08224, -2.16539, -0.130049, 0.47138, -0.543824, 0.336149, -2.09046, -2.17335, -0.112591, -0.000996102, 0.0469312, 0.0117316, 0.00880628, -0.00858256, -0.00452237
0.148123, 1.69528, -1.22542, -1.53782, -0.900649, -1.20546, 1.23453, -1.30261, 0.0253047, -0.000886701, 0.00482083, -0.0222331, -0.130301, 0.013172, 0.00175692, -0.809562, 57.1143, 27.4885, 6.0614, 2.00702, 2.64377, -0.0292249, -0.00272336, 0.000314207, -0.000117271, 0.00109768, -0.0160859, 0.00059906, 0.0571609, -0.00724864, -0.00595131, -0.0506625, 0.149743, 0.00539741, 0.470973, -0.541138, 0.336469, -2.08221, -2.16538, -0.130052, 0.47139, -0.543831, 0.336149, -2.09049, -2.17341, -0.112415, -0.00101751, 0.0475565, 0.0118804, 0.00807164, -0.00763978, -0.00315605
0.149123, 1.6953, -1.22542, -1.53781, -0.900685, -1.20559, 1.23455, -1.3026, 0.0238823, -0.000334562, 0.00407081, -0.0272237, -0.130925, 0.0106052, 0.00232355, -0.734184, 57.1143, 27.6035, 6.09711, 2.01343, 2.62179, -0.0557752, -0.00277701, 0.000322966, -0.000112323, 0.00113939, -0.0162281, 0.000603409, 0.0569215, -0.00689134, -0.00677939, -0.0557876, 0.150447, 0.0072608, 0.470972, -0.54109, 0.336481, -2.08218, -2.16537, -0.130056, 0.4714, -0.543835, 0.336147, -2.09051, -2.17346, -0.112226, -0.00103921, 0.0481849, 0.0120297, 0.00765414, -0.00666105, -0.00377721
0.150123, 1.69532, -1.22542, -1.5378, -0.900717, -1.20572, 1.23456, -1.3026, 0.0228927, -0.00262907, 0.00743536, -0.0291166, -0.12712, 0.00782763, -0.000528324, -0.658806, 57.2253, 27.5638, 6.0614, 2.03174, 2.62179, 0.00373412, -0.00283222, 0.000330557, -0.000107926, 0.00116725, -0.0163588, 0.000597025, 0.0559273, -0.00731735, -0.0074585, -0.0543153, 0.144032, 0.013738, 0.470971, -0.541042, 0.336493, -2.08214, -2.16536, -0.130059, 0.471408, -0.54384, 0.336146, -2.09052, -2.17352, -0.112067, -0.0010612, 0.0488164, 0.0121795, 0.00799673, -0.00492473, -0.00415699
0.151123, 1.69533, -1.22542, -1.53778, -0.900754, -1.20584, 1.23457, -1.3026, 0.0198252, 0.00233483, 0.0070713, -0.0337718, -0.129106, 0.0106384, 0.00120087, -0.619133, 57.1896, 27.6392, 6.02173, 2.06195, 2.62179, -0.0356336, -0.00288627, 0.000337981, -0.000106813, 0.00120292, -0.0164994, 0.000602264, 0.0568413, -0.00677414, -0.00492777, -0.0542651, 0.152805, 0.0122041, 0.47097, -0.540993, 0.336505, -2.08211, -2.16535, -0.130063, 0.471416, -0.543845, 0.336148, -2.09054, -2.17357, -0.111887, -0.00108347, 0.049451, 0.01233, 0.00755951, -0.00560685, -0.0016358
0.152123, 1.69535, -1.22542, -1.53776, -0.90079, -1.20595, 1.23458, -1.3026, 0.0198003, 0.00108858, 0.00880696, -0.0362831, -0.129205, 0.0124447, -0.000348861, -0.543754, 57.2253, 27.6392, 5.95032, 2.05005, 2.62912, -0.00267457, -0.0029398, 0.000344811, -0.000103436, 0.00123308, -0.0166235, 0.000598127, 0.0567229, -0.00797506, -0.00527843, -0.0523798, 0.153107, 0.0168129, 0.470969, -0.540944, 0.336517, -2.08207, -2.16534, -0.130066, 0.471424, -0.543847, 0.336149, -2.09055, -2.17362, -0.111731, -0.00110604, 0.0500886, 0.012481, 0.00871936, -0.00474751, -0.0018513
0.153152, 1.69536, -1.22542, -1.53775, -0.900833, -1.20608, 1.23459, -1.30259, 0.0164953, -0.000669285, 0.0121441, -0.0376763, -0.126742, 0.0151383, 0.00527125, -0.468376, 57.2968, 27.6749, 5.98602, 2.09308, 2.60074, -0.0228162, -0.00299461, 0.00035217, -9.9387e-05, 0.00126552, -0.0167567, 0.000598287, 0.0576991, -0.00782075, -0.00496493, -0.046101, 0.150929, 0.0116621, 0.470968, -0.540894, 0.33653, -2.08203, -2.16533, -0.13007, 0.471432, -0.54385, 0.336148, -2.09056, -2.17367, -0.111563, -0.0011289, 0.0507293, 0.0126325, 0.00858991, -0.00512492, -0.0015398
0.154152, 1.69538, -1.22542, -1.53774, -0.900872, -1.20619, 1.2346, -1.30258, 0.0197477, -0.00376609, 0.011225, -0.0391502, -0.122964, 0.0112562, 0.00489572, -0.508049, 57.4475, 27.8614, 5.91064, 2.08667, 2.60074, -0.0484509, -0.00305124, 0.000358898, -9.09136e-05, 0.00130226, -0.0168825, 0.00059981, 0.0558189, -0.00959685, -0.00789885, -0.0498333, 0.143586, 0.0174469, 0.470967, -0.540843, 0.336542, -2.082, -2.16532, -0.130073, 0.471439, -0.543854, 0.336143, -2.09057, -2.17371, -0.111397, -0.00115205, 0.051373, 0.0127846, 0.0101635, -0.00209576, -0.00404666
0.155152, 1.69538, -1.22542, -1.53774, -0.900872, -1.20619, 1.2346, -1.30258, 0.0197477, -0.00376609, 0.011225, -0.0391502, -0.122964, 0.0112562, 0.00489572, -0.508049, 57.4475, 27.8614, 5.91064, 2.08667, 2.60074, -0.0484509, -0.00310399, 0.00035827, -8.63953e-05, 0.00128064, -0.0169087, 0.000611229, 0.0564823, -0.00959762, -0.00794662, -0.0496988, 0.144047, 0.0174956, 0.470966, -0.540792, 0.336555, -2.08196, -2.16531, -0.130077, 0.471439, -0.543854, 0.336143, -2.09057, -2.17371, -0.111397, -0.0011755, 0.0520197, 0.0129373, 0.0101635, -0.00209576, -0.00404666
0.156152, 1.69539, -1.22542, -1.53769, -0.900963, -1.20641, 1.23462, -1.30257, 0.0137865, -0.00516641, 0.0149749, -0.0385661, -0.113557, 0.00765244, 0.011278, -0.468376, 57.63, 27.8614, 5.87494, 2.08118, 2.55771, -0.0420422, -0.00315886, 0.000375979, -8.57423e-05, 0.00134467, -0.0171297, 0.000586559, 0.057097, -0.00720015, -0.00744709, -0.0439377, 0.13313, 0.00967776, 0.470965, -0.54074, 0.336568, -2.08192, -2.1653, -0.130081, 0.471458, -0.543855, 0.336147, -2.09058, -2.17383, -0.111107, -0.00119924, 0.0526694, 0.0130904, 0.00778688, -0.00222959, -0.00342361
0.157152, 1.6954, -1.22542, -1.53767, -0.90101, -1.20653, 1.23463, -1.30257, 0.0118682, -0.00512037, 0.0190108, -0.0436349, -0.114175, 0.0151003, 0.0108496, -0.392998, 57.7054, 27.9368, 5.83527, 2.1178, 2.55771, 0.0165515, -0.00321665, 0.000380141, -8.42566e-05, 0.0013698, -0.0172589, 0.000581001, 0.0571531, -0.00926692, -0.00596941, -0.036167, 0.137965, 0.0144828, 0.470963, -0.540687, 0.336581, -2.08189, -2.16528, -0.130085, 0.471463, -0.543859, 0.336149, -2.09059, -2.17389, -0.110952, -0.00122328, 0.0533221, 0.0132441, 0.00988434, -0.00177499, -0.00188603
0.158152, 1.69541, -1.22542, -1.53764, -0.901059, -1.20663, 1.23464, -1.30257, 0.0132422, -0.00199422, 0.0231212, -0.0473827, -0.108352, 0.0164638, 0.0137773, -0.43267, 57.7768, 27.9725, 5.79956, 2.09308, 2.55038, -0.00999879, -0.00326918, 0.00039046, -8.43814e-05, 0.00138748, -0.0173836, 0.000571508, 0.0539249, -0.0124564, -0.00320676, -0.0301975, 0.137556, 0.0201029, 0.470962, -0.540634, 0.336594, -2.08185, -2.16527, -0.130089, 0.471474, -0.543857, 0.336154, -2.0906, -2.17395, -0.110811, -0.00124762, 0.0539777, 0.0133983, 0.0130314, 0.00177153, 0.00139975
0.159152, 1.6954, -1.22543, -1.53761, -0.901112, -1.20675, 1.23465, -1.30256, 0.00732147, -0.00129538, 0.0253267, -0.051402, -0.110189, 0.0122601, 0.00959688, -0.317619, 57.9236, 28.0478, 5.79956, 2.10498, 2.55038, 0.0101428, -0.00332763, 0.000393405, -8.12211e-05, 0.00141078, -0.0175049, 0.000566635, 0.0554479, -0.00943111, -0.00267294, -0.0336118, 0.13818, 0.0224004, 0.470961, -0.54058, 0.336608, -2.08181, -2.16526, -0.130092, 0.471478, -0.54386, 0.336155, -2.0906, -2.174, -0.110666, -0.00127226, 0.0546363, 0.013553, 0.0100613, 0.000718373, 0.00193556
0.160152, 1.6954, -1.22543, -1.53758, -0.90117, -1.20686, 1.23466, -1.30256, 0.00400618, -0.00156388, 0.0269646, -0.0511675, -0.107058, 0.0139746, 0.00604573, -0.242241, 58.11, 28.1232, 5.79956, 2.12421, 2.55038, 0.0431018, -0.00338422, 0.000399438, -7.60424e-05, 0.00143303, -0.0176232, 0.000552754, 0.0569119, -0.00847412, -0.00194646, -0.0285404, 0.136427, 0.0243606, 0.47096, -0.540525, 0.336621, -2.08177, -2.16525, -0.130096, 0.471484, -0.54386, 0.336154, -2.0906, -2.17406, -0.110526, -0.0012972, 0.0552977, 0.0137082, 0.00916157, -0.000217461, 0.00260672
0.161152, 1.6954, -1.22543, -1.53755, -0.901228, -1.20696, 1.23467, -1.30255, 0.00250189, -0.000411015, 0.0305682, -0.0541876, -0.104319, 0.0101707, 0.00664856, -0.206535, 58.11, 28.2343, 5.79956, 2.14252, 2.55771, -0.00999879, -0.0034387, 0.00040718, -8.04051e-05, 0.00144508, -0.0177526, 0.0005484, 0.0555681, -0.00853516, -0.000726078, -0.0283582, 0.133909, 0.0275481, 0.470958, -0.54047, 0.336635, -2.08173, -2.16524, -0.1301, 0.471493, -0.543859, 0.336163, -2.09061, -2.17412, -0.110385, -0.00132244, 0.0559621, 0.013864, 0.00919459, 0.00158664, 0.00417401
0.162152, 1.6954, -1.22543, -1.53752, -0.901292, -1.20706, 1.23467, -1.30255, 0.00123965, -0.000182171, 0.029235, -0.0570965, -0.102664, 0.0119115, 0.00441228, -0.166862, 58.2568, 28.3851, 5.83527, 2.16724, 2.57144, 0.00373412, -0.00349268, 0.000413932, -7.72462e-05, 0.00147047, -0.0178699, 0.000527673, 0.0560596, -0.00874942, -0.00129453, -0.0282784, 0.134432, 0.0310681, 0.470957, -0.540414, 0.336649, -2.08169, -2.16522, -0.130104, 0.4715, -0.543856, 0.336165, -2.0906, -2.17419, -0.110244, -0.00134799, 0.0566293, 0.0140202, 0.00938021, 0.00186646, 0.00368358
0.163152, 1.69539, -1.22543, -1.53748, -0.901349, -1.20717, 1.23468, -1.30254, 0.000366027, -0.00211032, 0.0302526, -0.0591163, -0.105866, 0.00870246, 0.00381655, -0.131157, 58.3679, 28.4565, 5.72418, 2.18555, 2.57876, -0.00999879, -0.00354923, 0.000419891, -7.81315e-05, 0.00148267, -0.0179889, 0.000519747, 0.0568143, -0.00798336, -0.00262648, -0.0325037, 0.134122, 0.0320515, 0.470956, -0.540357, 0.336663, -2.08165, -2.16521, -0.130108, 0.471507, -0.543855, 0.336171, -2.0906, -2.17425, -0.110114, -0.00137384, 0.0572994, 0.0141769, 0.00856754, 0.00196711, 0.00242932
0.164152, 1.69539, -1.22544, -1.53745, -0.901416, -1.20727, 1.23468, -1.30254, -0.000402895, -0.00068959, 0.0298562, -0.0633909, -0.108063, 0.00603366, 0.00231054, -0.0914839, 58.6258, 28.5715, 5.72418, 2.20386, 2.59341, 0.00373412, -0.00360497, 0.000426766, -7.21547e-05, 0.00150253, -0.0180989, 0.000500595, 0.0566846, -0.00768498, -0.00275626, -0.037824, 0.136895, 0.0356312, 0.470954, -0.5403, 0.336677, -2.08161, -2.1652, -0.130113, 0.471514, -0.543851, 0.33617, -2.09058, -2.17431, -0.109986, -0.0014, 0.0579723, 0.0143341, 0.00823439, 0.00277623, 0.00248624
0.165152, 1.69538, -1.22543, -1.5374, -0.901483, -1.20737, 1.23469, -1.30254, -0.000892985, 0.00438737, 0.0316346, -0.0624119, -0.104719, 0.00433209, 0.00443062, -0.0557783, 58.5861, 28.6072, 5.68848, 2.20935, 2.60074, 0.0559192, -0.00365755, 0.000434957, -7.84743e-05, 0.00151279, -0.0182222, 0.000472699, 0.0561851, -0.00747275, 0.000820487, -0.0350505, 0.138629, 0.0340654, 0.470953, -0.540242, 0.336692, -2.08157, -2.16519, -0.130117, 0.471523, -0.543846, 0.336182, -2.09057, -2.17439, -0.109856, -0.00142646, 0.058648, 0.0144917, 0.00811241, 0.00338054, 0.00625775
0.166152, 1.69537, -1.22543, -1.53736, -0.901549, -1.20746, 1.23469, -1.30252, -0.00312846, 0.00439668, 0.0329564, -0.067149, -0.102362, 0.00359501, 0.0103769, 0.059273, 58.6972, 28.6429, 5.6131, 2.21576, 2.59341, -0.00267457, -0.00371375, 0.000440068, -7.91957e-05, 0.00152367, -0.0183343, 0.000464866, 0.0556511, -0.00764866, 0.000635184, -0.0351244, 0.137104, 0.0315281, 0.470951, -0.540183, 0.336706, -2.08153, -2.16517, -0.130121, 0.471529, -0.543842, 0.336188, -2.09057, -2.17445, -0.109735, -0.00145324, 0.0593266, 0.0146499, 0.00823556, 0.00462267, 0.00630933
0.167152, 1.69536, -1.22544, -1.53733, -0.901622, -1.20756, 1.23469, -1.30252, -0.00373028, 0.00360776, 0.0333985, -0.0686964, -0.100653, 0.00221482, 0.0102945, 0.134651, 58.844, 28.8294, 5.57739, 2.22217, 2.60715, 0.0495105, -0.00376961, 0.000445109, -7.44119e-05, 0.00154616, -0.018441, 0.000439799, 0.0556628, -0.00769461, -3.1701e-05, -0.035698, 0.134815, 0.0332085, 0.47095, -0.540124, 0.336721, -2.08148, -2.16516, -0.130125, 0.471535, -0.543837, 0.336189, -2.09054, -2.17451, -0.109608, -0.00148032, 0.0600079, 0.0148084, 0.00823042, 0.00539846, 0.00580448
0.168152, 1.69535, -1.22544, -1.53728, -0.901705, -1.20765, 1.23469, -1.30251, -0.00628737, 0.000777479, 0.0373919, -0.0714326, -0.0994522, 0.00172162, 0.00905771, 0.170357, 58.9551, 28.8691, 5.6131, 2.22858, 2.60715, 0.0165515, -0.00381847, 0.000457135, -7.35536e-05, 0.0015623, -0.0185507, 0.000404759, 0.0558402, -0.00767632, -0.000626121, -0.0330759, 0.131159, 0.0367222, 0.470949, -0.540064, 0.336735, -2.08144, -2.16515, -0.130129, 0.471547, -0.543825, 0.336195, -2.09051, -2.17459, -0.109487, -0.00150772, 0.0606919, 0.0149675, 0.00816954, 0.00599955, 0.00534761
0.169152, 1.69534, -1.22543, -1.53724, -0.901777, -1.20774, 1.23469, -1.30251, -0.00799867, 0.00124639, 0.039307, -0.0731312, -0.0944088, 0.000789017, 0.00676896, 0.325081, 58.9551, 28.9405, 5.50201, 2.25879, 2.62179, 0.0165515, -0.00387403, 0.000461592, -7.82398e-05, 0.00157418, -0.0186658, 0.000383874, 0.0552623, -0.00782451, 3.53228e-05, -0.0302388, 0.12749, 0.041437, 0.470947, -0.540003, 0.33675, -2.0814, -2.16513, -0.130134, 0.471552, -0.543819, 0.336205, -2.0905, -2.17466, -0.109363, -0.00153542, 0.0613787, 0.015127, 0.00829424, 0.0071605, 0.00624415
0.170152, 1.69532, -1.22544, -1.5372, -0.901859, -1.20783, 1.23469, -1.30251, -0.00899978, -0.00205669, 0.0376734, -0.0727499, -0.0944726, 0.000663866, 0.0038398, 0.475838, 59.1019, 29.0159, 5.46234, 2.2652, 2.62179, 0.0495105, -0.00392866, 0.000469052, -7.47264e-05, 0.00158367, -0.0187662, 0.000347255, 0.0571908, -0.00692445, -0.00244132, -0.0316413, 0.124725, 0.0423579, 0.470946, -0.539942, 0.336766, -2.08135, -2.16512, -0.130138, 0.47156, -0.543811, 0.336208, -2.09046, -2.17474, -0.109258, -0.00156344, 0.0620682, 0.0152869, 0.00734523, 0.00629471, 0.00368306
0.171152, 1.69531, -1.22544, -1.53715, -0.901942, -1.20792, 1.23469, -1.3025, -0.00786874, -0.00188961, 0.0445385, -0.0759619, -0.0907916, -0.000505193, 0.00419147, 0.551216, 59.1415, 29.0159, 5.42664, 2.29541, 2.65018, 0.0165515, -0.00397924, 0.000478602, -7.65718e-05, 0.00159652, -0.0188729, 0.000312317, 0.0541393, -0.00969234, -0.000582221, -0.0264294, 0.121664, 0.0504758, 0.470944, -0.53988, 0.336781, -2.08131, -2.16511, -0.130143, 0.47157, -0.543799, 0.336217, -2.09042, -2.17482, -0.109144, -0.00159178, 0.0627604, 0.0154473, 0.0100403, 0.00982582, 0.00606854
0.172152, 1.69529, -1.22544, -1.53711, -0.902031, -1.208, 1.23468, -1.3025, -0.00792351, -0.00345824, 0.0427162, -0.0814538, -0.0871925, -0.00053052, 0.00607279, 0.6623, 59.2487, 29.1666, 5.38696, 2.30823, 2.6575, 0.0623279, -0.00403236, 0.000486843, -7.03807e-05, 0.00161388, -0.0189695, 0.000270471, 0.0530658, -0.0110143, -0.00297236, -0.028911, 0.118259, 0.0537795, 0.470942, -0.539817, 0.336796, -2.08126, -2.16509, -0.130147, 0.471578, -0.543787, 0.336217, -2.09038, -2.1749, -0.109035, -0.00162043, 0.0634553, 0.0156081, 0.0112032, 0.0120081, 0.00399501
0.173152, 1.69528, -1.22544, -1.53705, -0.902116, -1.20807, 1.23468, -1.3025, -0.0111374, -0.00207513, 0.0490546, -0.0806537, -0.0796413, -0.000838057, 0.00660125, 0.777352, 59.2487, 29.1269, 5.27588, 2.31372, 2.67215, 0.0101428, -0.00408198, 0.000497863, -7.42286e-05, 0.00161202, -0.0190668, 0.000230541, 0.0524608, -0.0109093, 0.000266002, -0.0189854, 0.11319, 0.0549265, 0.470941, -0.539753, 0.336812, -2.08122, -2.16508, -0.130152, 0.47159, -0.543773, 0.336228, -2.09034, -2.17498, -0.108947, -0.00164939, 0.0641529, 0.0157694, 0.0111699, 0.0127948, 0.00744914
0.174152, 1.69527, -1.22544, -1.53701, -0.902209, -1.20815, 1.23468, -1.3025, -0.0108764, -0.00121064, 0.0460088, -0.086064, -0.080029, -0.00105762, 0.00439107, 0.777352, 59.2487, 29.2777, 5.27588, 2.35675, 2.6868, 0.0229602, -0.00413095, 0.000511526, -7.24672e-05, 0.00162192, -0.0191669, 0.000177141, 0.0520651, -0.0116449, -0.00112929, -0.0243935, 0.11547, 0.0606015, 0.470939, -0.539689, 0.336828, -2.08117, -2.16506, -0.130156, 0.471603, -0.543756, 0.336234, -2.09028, -2.17508, -0.108844, -0.00167868, 0.0648531, 0.015931, 0.0118087, 0.0141341, 0.00627049
0.175152, 1.69525, -1.22545, -1.53696, -0.90231, -1.20821, 1.23468, -1.3025, -0.0126582, -0.00244075, 0.050347, -0.0897505, -0.0783422, -0.000672368, 0.00351346, 0.85273, 59.324, 29.2777, 5.27588, 2.35675, 2.6868, 0.0165515, -0.00417692, 0.000526289, -7.04966e-05, 0.00162775, -0.0192571, 0.000116256, 0.0513998, -0.0125227, -0.000752931, -0.0208937, 0.113549, 0.0656611, 0.470937, -0.539624, 0.336844, -2.08113, -2.16505, -0.130161, 0.471618, -0.543736, 0.33624, -2.09021, -2.17518, -0.108757, -0.00170828, 0.065556, 0.0160931, 0.0126462, 0.0154723, 0.00687885
0.176152, 1.69523, -1.22545, -1.53691, -0.902409, -1.20828, 1.23468, -1.30249, -0.0116675, -0.0023652, 0.0480003, -0.0942481, -0.0786004, 0.000118825, 0.00236648, 0.963814, 59.3597, 29.3888, 5.24017, 2.38788, 2.67215, 0.0229602, -0.00422813, 0.00053739, -6.57836e-05, 0.0016364, -0.0193484, 6.68643e-05, 0.0509629, -0.0138008, -0.0021879, -0.0244853, 0.115335, 0.0705934, 0.470936, -0.539559, 0.33686, -2.08108, -2.16503, -0.130166, 0.471629, -0.543719, 0.336243, -2.09015, -2.17527, -0.108664, -0.0017382, 0.0662614, 0.0162556, 0.0138231, 0.0168867, 0.00565117
0.177152, 1.69521, -1.22545, -1.53685, -0.902508, -1.20835, 1.23468, -1.3025, -0.0139845, -0.00150391, 0.0506911, -0.0933476, -0.0781636, -0.000682276, 0.000553105, 1.07887, 59.3597, 29.3134, 5.12909, 2.39978, 2.6932, 0.0559192, -0.00427605, 0.000550003, -6.94869e-05, 0.00163213, -0.0194402, 6.04497e-06, 0.0521708, -0.0126561, -0.000597801, -0.0216374, 0.11561, 0.070779, 0.470934, -0.539493, 0.336876, -2.08103, -2.16502, -0.13017, 0.471642, -0.5437, 0.336255, -2.09009, -2.17537, -0.108587, -0.00176845, 0.0669695, 0.0164185, 0.0127546, 0.0161075, 0.00722783
0.178152, 1.69519, -1.22545, -1.5368, -0.90261, -1.20841, 1.23468, -1.30249, -0.0116942, -0.00187596, 0.0528055, -0.0958702, -0.0690281, 6.75768e-05, 0.00221127, 1.15424, 59.3994, 29.3531, 5.01404, 2.43091, 2.67947, 0.0101428, -0.0043246, 0.000564488, -6.794e-05, 0.00163215, -0.01953, -4.91987e-05, 0.0489907, -0.0160614, -0.00055376, -0.0162727, 0.10879, 0.0777215, 0.470932, -0.539426, 0.336892, -2.08098, -2.165, -0.130175, 0.471657, -0.54368, 0.336262, -2.09003, -2.17547, -0.108506, -0.00179901, 0.0676801, 0.0165817, 0.0160106, 0.0200934, 0.00782469
0.179152, 1.69517, -1.22546, -1.53675, -0.902723, -1.20847, 1.23468, -1.30249, -0.0130153, -0.00204486, 0.0523539, -0.100685, -0.0669029, 0.000597937, 0.000126456, 1.22962, 59.4351, 29.3531, 5.01404, 2.46753, 2.66482, 0.0495105, -0.00437185, 0.000579849, -6.48041e-05, 0.00163367, -0.0196183, -0.000121539, 0.0486251, -0.0166677, -0.00141629, -0.0171597, 0.108082, 0.0832845, 0.47093, -0.539358, 0.336909, -2.08094, -2.16499, -0.13018, 0.471672, -0.543658, 0.336267, -2.08995, -2.17558, -0.108427, -0.0018299, 0.0683933, 0.0167454, 0.0165397, 0.0213279, 0.00717317
0.180152, 1.69515, -1.22546, -1.5367, -0.902827, -1.20853, 1.23468, -1.30249, -0.0188263, -0.00393094, 0.0535587, -0.102626, -0.0646272, 0.000406388, 0.0023711, 1.38038, 59.5462, 29.4245, 4.82758, 2.48035, 2.66482, -0.00999879, -0.00442466, 0.000589942, -6.01915e-05, 0.00163262, -0.0196985, -0.000169316, 0.0508315, -0.0143083, -0.0021343, -0.0152448, 0.104667, 0.0784227, 0.470929, -0.53929, 0.336926, -2.08089, -2.16497, -0.130185, 0.471682, -0.543641, 0.33627, -2.08989, -2.17566, -0.108357, -0.00186112, 0.069109, 0.0169095, 0.0142065, 0.0198795, 0.00635412
0.181152, 1.69512, -1.22546, -1.53664, -0.902947, -1.20858, 1.23468, -1.30249, -0.0203339, 8.88952e-07, 0.0528976, -0.105843, -0.0585696, 0.000276747, 0.00113417, 1.41608, 59.4351, 29.4245, 4.82758, 2.50415, 2.66482, 0.00373412, -0.00446822, 0.000607355, -6.29204e-05, 0.00163073, -0.01979, -0.000247656, 0.0498274, -0.0146554, -0.000497177, -0.0139295, 0.104354, 0.0826761, 0.470927, -0.53922, 0.336943, -2.08084, -2.16496, -0.13019, 0.471699, -0.543614, 0.336282, -2.08981, -2.17578, -0.108279, -0.00189266, 0.0698272, 0.0170739, 0.0145475, 0.0213487, 0.00827924
0.182152, 1.69509, -1.22546, -1.53659, -0.903052, -1.20863, 1.23468, -1.30249, -0.0215557, -0.00258057, 0.0513439, -0.106829, -0.0537781, 0.000188865, -0.000384131, 1.57081, 59.5462, 29.4642, 4.64111, 2.52338, 2.66482, 0.0357776, -0.00452253, 0.000615713, -5.81796e-05, 0.00163081, -0.0198679, -0.000304779, 0.050437, -0.0144946, -0.00271333, -0.0135032, 0.0984751, 0.0848173, 0.470925, -0.539151, 0.33696, -2.08079, -2.16494, -0.130195, 0.471707, -0.543597, 0.336286, -2.08973, -2.17587, -0.108211, -0.00192452, 0.0705479, 0.0172387, 0.0142939, 0.0218072, 0.00616363
0.183152, 1.69507, -1.22546, -1.53654, -0.903177, -1.20868, 1.23468, -1.30249, -0.0239603, -0.0017074, 0.0543594, -0.111913, -0.049871, 0.000400452, 0.00147424, 1.53114, 59.5462, 29.4642, 4.64111, 2.52887, 2.6575, -0.00999879, -0.00456457, 0.000636076, -5.65357e-05, 0.00162913, -0.01995, -0.000384578, 0.0492693, -0.0152821, -0.00174982, -0.0106366, 0.096956, 0.0878244, 0.470923, -0.53908, 0.336977, -2.08074, -2.16492, -0.1302, 0.471727, -0.543567, 0.336294, -2.08964, -2.17599, -0.108143, -0.00195671, 0.0712712, 0.0174039, 0.0150425, 0.0235664, 0.00743638
0.184152, 1.69504, -1.22546, -1.53648, -0.903299, -1.20873, 1.23468, -1.30249, -0.0225364, -0.00020052, 0.0567117, -0.113988, -0.047522, 0.000778051, -0.000686408, 1.60651, 59.5065, 29.4642, 4.56573, 2.55359, 2.64377, 0.0357776, -0.00461426, 0.000648876, -5.71032e-05, 0.00162506, -0.0200378, -0.00045846, 0.0476939, -0.0172724, -0.000411639, -0.00806818, 0.0973183, 0.0951461, 0.470921, -0.539009, 0.336994, -2.08069, -2.16491, -0.130205, 0.47174, -0.543544, 0.336304, -2.08956, -2.1761, -0.108071, -0.00198923, 0.0719968, 0.0175694, 0.0169912, 0.0257225, 0.00910524
0.185152, 1.695, -1.22545, -1.53642, -0.903423, -1.20877, 1.23468, -1.30249, -0.0245741, 0.00154405, 0.0591251, -0.115682, -0.04547, 0.00079181, -0.000709235, 1.68189, 59.4351, 29.4245, 4.49432, 2.56549, 2.63644, 0.0431018, -0.00466255, 0.00066206, -6.01306e-05, 0.00161446, -0.0201217, -0.000528839, 0.047762, -0.0171349, 0.00129313, -0.00516823, 0.0978335, 0.096495, 0.470919, -0.538937, 0.337012, -2.08064, -2.16489, -0.13021, 0.471753, -0.543519, 0.336316, -2.08948, -2.17621, -0.10801, -0.00202208, 0.072725, 0.0177353, 0.016889, 0.0261122, 0.0109452
