alisrour97/Franka_experiments/Real_Robot_scripts/servo-franka/Data_video/log_dyn_PI1_k_0.csv
Time,q1,q2,q3,q4,q5,q6,q7,dq1,dq2,dq3,dq4,dq5,dq6,dq7,t1,t2,t3,t4,t5,t6,t7,ex1,ex2,ex3,ex4,ex5,ex6,ev1,ev2,ev3,ev4,ev5,ev6,xd,yd,zd,uxd,uyd,uzd,x,y,z,ux,uy,uz,vxd,vyd,vzd,vx,vy,vz
7.32422e-07, 1.69129, -1.22552, -1.53798, -0.89989, -1.19212, 1.22836, -1.30265, -0.00320349, 0.000740525, -0.00303899, 0.00415347, 0.00198971, -0.00384197, -0.00208867, 0.245735, 57.3721, 27.79, 6.32324, 2.30182, 3.40365, -0.101552, 0.000828343, -0.0017069, 3.25843e-05, 0.000387141, -0.000672929, 0.000276446, 0.00242216, 0.00375162, -0.000235329, -0.00253425, -0.00305896, -0.0055197, 0.471008, -0.543389, 0.335894, -2.08385, -2.16584, -0.129887, 0.469279, -0.542637, 0.336045, -2.08429, -2.1658, -0.128761, 0, 0, 0, -0.00366866, -0.0025085, -0.000495232
0.0121123, 1.69126, -1.22552, -1.53798, -0.899883, -1.1921, 1.22832, -1.30266, -0.00139194, -0.000800465, -0.00034231, 0.00146311, 0.00216382, -0.00267312, -0.00197179, 0.0196001, 57.4475, 27.7503, 6.35895, 2.22858, 3.44668, -0.0951428, 0.000817455, -0.00173398, 3.72554e-05, 0.000406202, -0.000629534, 0.00030318, 0.000502253, 0.00140242, -0.000553854, -0.000774012, -0.00403438, -0.000116186, 0.471008, -0.543389, 0.335894, -2.08385, -2.16584, -0.129887, 0.469246, -0.542648, 0.336036, -2.08428, -2.16571, -0.128766, 3.52292e-06, 9.08712e-06, 4.70091e-06, -0.00139912, -0.000458879, -0.000577878
0.0131123, 1.69126, -1.22552, -1.53798, -0.899883, -1.1921, 1.22832, -1.30266, -0.00139194, -0.000800465, -0.00034231, 0.00146311, 0.00216382, -0.00267312, -0.00197179, 0.0196001, 57.4475, 27.7503, 6.35895, 2.22858, 3.44668, -0.0951428, 0.000817433, -0.00173399, 3.72633e-05, 0.000406191, -0.000629528, 0.000303192, 0.000530889, 0.00141363, -0.000563932, -0.000786534, -0.00401523, -0.000139895, 0.471008, -0.543389, 0.335894, -2.08385, -2.16584, -0.129887, 0.469246, -0.542648, 0.336036, -2.08428, -2.16571, -0.128766, 1.40551e-05, 3.62649e-05, 1.87583e-05, -0.00139912, -0.000458879, -0.000577878
0.0141123, 1.69126, -1.22552, -1.53798, -0.899883, -1.1921, 1.22832, -1.30266, -0.00139194, -0.000800465, -0.00034231, 0.00146311, 0.00216382, -0.00267312, -0.00197179, 0.0196001, 57.4475, 27.7503, 6.35895, 2.22858, 3.44668, -0.0951428, 0.000817372, -0.00173401, 3.72846e-05, 0.000406161, -0.000629514, 0.000303225, 0.000578454, 0.00143224, -0.000580667, -0.00080731, -0.00398342, -0.000179255, 0.471008, -0.543389, 0.335894, -2.08385, -2.16584, -0.129887, 0.469246, -0.542648, 0.336036, -2.08428, -2.16571, -0.128766, 3.15416e-05, 8.14084e-05, 4.21042e-05, -0.00139912, -0.000458879, -0.000577878
0.0151123, 1.69126, -1.22552, -1.53798, -0.899883, -1.1921, 1.22832, -1.30266, -0.00139194, -0.000800465, -0.00034231, 0.00146311, 0.00216382, -0.00267312, -0.00197179, 0.0196001, 57.4475, 27.7503, 6.35895, 2.22858, 3.44668, -0.0951428, 0.000817255, -0.00173406, 3.7326e-05, 0.000406104, -0.000629486, 0.000303289, 0.000644816, 0.00145819, -0.000604011, -0.000836266, -0.00393906, -0.000234142, 0.471008, -0.543389, 0.335894, -2.08385, -2.16584, -0.129887, 0.469246, -0.542648, 0.336036, -2.08428, -2.16571, -0.128766, 5.59279e-05, 0.000144393, 7.4671e-05, -0.00139912, -0.000458879, -0.000577878
0.0161123, 1.69126, -1.22552, -1.53798, -0.899883, -1.1921, 1.22832, -1.30266, -0.00139194, -0.000800465, -0.00034231, 0.00146311, 0.00216382, -0.00267312, -0.00197179, 0.0196001, 57.4475, 27.7503, 6.35895, 2.22858, 3.44668, -0.0951428, 0.000817062, -0.00173413, 3.7394e-05, 0.00040601, -0.00062944, 0.000303394, 0.000729845, 0.00149142, -0.000633912, -0.000873325, -0.00388223, -0.000304429, 0.471008, -0.543389, 0.335894, -2.08385, -2.16584, -0.129886, 0.469246, -0.542648, 0.336036, -2.08428, -2.16571, -0.128766, 8.71593e-05, 0.000225094, 0.000116391, -0.00139912, -0.000458879, -0.000577878
0.0171123, 1.69126, -1.22552, -1.53798, -0.899883, -1.1921, 1.22832, -1.30266, -0.00139194, -0.000800465, -0.00034231, 0.00146311, 0.00216382, -0.00267312, -0.00197179, 0.0196001, 57.4475, 27.7503, 6.35895, 2.22858, 3.44668, -0.0951428, 0.000816775, -0.00173425, 3.74953e-05, 0.000405869, -0.000629371, 0.000303551, 0.000833408, 0.00153189, -0.000670323, -0.000918412, -0.00381303, -0.000389993, 0.471008, -0.543389, 0.335894, -2.08385, -2.16584, -0.129886, 0.469246, -0.542648, 0.336036, -2.08428, -2.16571, -0.128766, 0.000125182, 0.000323387, 0.000167197, -0.00139912, -0.000458879, -0.000577878
0.0181123, 1.69126, -1.22552, -1.53798, -0.899883, -1.1921, 1.22832, -1.30266, -0.00139194, -0.000800465, -0.00034231, 0.00146311, 0.00216382, -0.00267312, -0.00197179, 0.0196001, 57.4475, 27.7503, 6.35895, 2.22858, 3.44668, -0.0951428, 0.000816375, -0.0017344, 3.76363e-05, 0.000405673, -0.000629276, 0.000303769, 0.000955376, 0.00157952, -0.000713194, -0.000971452, -0.00373156, -0.000490708, 0.471008, -0.543388, 0.335894, -2.08385, -2.16584, -0.129886, 0.469246, -0.542648, 0.336036, -2.08428, -2.16571, -0.128766, 0.00016994, 0.000439148, 0.000227022, -0.00139912, -0.000458879, -0.000577878
0.0191125, 1.69126, -1.22552, -1.53798, -0.899883, -1.1921, 1.22832, -1.30266, -0.00139194, -0.000800465, -0.00034231, 0.00146311, 0.00216382, -0.00267312, -0.00197179, 0.0196001, 57.4475, 27.7503, 6.35895, 2.22858, 3.44668, -0.0951428, 0.000815844, -0.00173461, 3.78235e-05, 0.000405414, -0.000629149, 0.000304058, 0.00109562, 0.00163427, -0.000762476, -0.00103237, -0.00363791, -0.00060645, 0.471009, -0.543388, 0.335895, -2.08385, -2.16584, -0.129886, 0.469246, -0.542648, 0.336036, -2.08428, -2.16571, -0.128766, 0.000221382, 0.000572255, 0.000295798, -0.00139912, -0.000458879, -0.000577878
0.0201125, 1.69126, -1.22552, -1.53798, -0.899883, -1.1921, 1.22832, -1.30266, -0.00139194, -0.000800465, -0.00034231, 0.00146311, 0.00216382, -0.00267312, -0.00197179, 0.0196001, 57.4475, 27.7503, 6.35895, 2.22858, 3.44668, -0.0951428, 0.000815164, -0.00173488, 3.80632e-05, 0.000405081, -0.000628987, 0.000304429, 0.001254, 0.00169607, -0.000818119, -0.00110109, -0.00353218, -0.000737097, 0.471009, -0.543387, 0.335895, -2.08384, -2.16584, -0.129885, 0.469246, -0.542648, 0.336036, -2.08428, -2.16571, -0.128766, 0.000279451, 0.000722584, 0.000373459, -0.00139912, -0.000458879, -0.000577878
0.0211125, 1.69126, -1.22552, -1.53798, -0.899883, -1.1921, 1.22832, -1.30266, -0.00139194, -0.000800465, -0.00034231, 0.00146311, 0.00216382, -0.00267312, -0.00197179, 0.0196001, 57.4475, 27.7503, 6.35895, 2.22858, 3.44668, -0.0951428, 0.000814317, -0.00173521, 3.83618e-05, 0.000404667, -0.000628786, 0.00030489, 0.0014304, 0.00176488, -0.000880076, -0.00117754, -0.00341446, -0.000882523, 0.471009, -0.543386, 0.335895, -2.08384, -2.16584, -0.129884, 0.469246, -0.542648, 0.336036, -2.08428, -2.16571, -0.128766, 0.000344096, 0.000890012, 0.000459939, -0.00139912, -0.000458879, -0.000577878
0.022113, 1.69124, -1.22553, -1.53798, -0.899913, -1.19206, 1.22832, -1.30265, -0.00205867, -0.00684118, 0.0019546, -0.00567666, 0.00493164, -0.000232854, 0.00131158, -0.242241, 57.5189, 27.6392, 6.54541, 2.09308, 3.42471, -0.166554, 0.000821258, -0.00173567, 4.37364e-05, 0.000394476, -0.000591185, 0.000290609, -0.000391824, -0.000652135, -0.00442278, 0.000358987, -0.00990121, 0.00340644, 0.47101, -0.543385, 0.335896, -2.08384, -2.16584, -0.129884, 0.469245, -0.542639, 0.336032, -2.08425, -2.16571, -0.128816, 0.000415261, 0.00107442, 0.00055517, 0.000892891, 0.00216865, -0.00377083
0.023113, 1.69124, -1.22553, -1.53798, -0.899913, -1.19206, 1.22832, -1.30265, -0.00205867, -0.00684118, 0.0019546, -0.00567666, 0.00493164, -0.000232854, 0.00131158, -0.242241, 57.5189, 27.6392, 6.54541, 2.09308, 3.42471, -0.166554, 0.000820022, -0.00173615, 4.41718e-05, 0.000393871, -0.000590891, 0.000291281, -0.000179783, -0.000569503, -0.00449721, 0.000267307, -0.00975978, 0.00323183, 0.47101, -0.543384, 0.335896, -2.08384, -2.16585, -0.129883, 0.469245, -0.542639, 0.336032, -2.08425, -2.16571, -0.128816, 0.000492895, 0.00127568, 0.000659086, 0.000892891, 0.00216865, -0.00377083
0.024113, 1.69123, -1.22553, -1.53798, -0.899914, -1.19205, 1.22832, -1.30265, -0.00183076, -0.00426842, -0.00521435, -0.00482777, 0.0094147, 0.000116093, 0.00091015, -0.206535, 57.4475, 27.6392, 6.47003, 2.00061, 3.41739, -0.153737, 0.000818593, -0.00173739, 5.06719e-05, 0.000393358, -0.000573396, 0.000291499, 0.000598677, 0.00031929, -0.00547208, -0.00312249, -0.0101463, 0.00093266, 0.471011, -0.543383, 0.335897, -2.08384, -2.16585, -0.129882, 0.469244, -0.542638, 0.336027, -2.08424, -2.1657, -0.128833, 0.000576942, 0.00149367, 0.000771622, 8.1937e-05, 0.0017318, -0.00471493
0.025113, 1.69124, -1.22554, -1.53798, -0.899912, -1.19204, 1.22832, -1.30266, -0.00052783, -0.0073558, -0.00186102, -0.00113051, 0.0049973, 0.0013793, 0.00680281, -0.242241, 57.2253, 27.417, 6.35895, 1.92096, 3.38168, -0.0685925, 0.000818652, -0.00173483, 5.16829e-05, 0.000382211, -0.000565734, 0.000281247, 0.00196392, 0.000131909, -0.00562648, 4.41244e-05, -0.00931792, -0.00692506, 0.471011, -0.543381, 0.335898, -2.08384, -2.16585, -0.129881, 0.469247, -0.542636, 0.336026, -2.08423, -2.16571, -0.128853, 0.00066735, 0.00172827, 0.000892711, 0.000402729, 0.000650008, -0.00496383
0.026113, 1.69124, -1.22555, -1.53798, -0.899921, -1.19205, 1.22831, -1.30265, -0.000458791, -0.00580229, -0.00273994, -0.00506035, 0.000875678, 0.000632877, 0.011438, -0.242241, 57.0786, 27.1909, 6.39465, 1.85962, 3.38901, -0.10796, 0.000818496, -0.00173349, 6.00961e-05, 0.00039213, -0.000558685, 0.000282629, 0.00180648, 0.000101584, -0.0057329, -0.00515698, -0.00418252, -0.0101057, 0.471012, -0.543379, 0.335899, -2.08384, -2.16585, -0.129879, 0.469249, -0.542633, 0.336019, -2.08422, -2.16571, -0.128848, 0.000764066, 0.00197936, 0.00102229, 0.000520255, 0.00107415, -0.00491581
0.027113, 1.69124, -1.22555, -1.53798, -0.899922, -1.19206, 1.22832, -1.30265, 0.000541981, -0.00640422, -0.00515267, -0.00541076, -0.00154102, -0.00013216, 0.0130524, -0.281914, 57.0032, 27.1552, 6.32324, 1.77997, 3.40365, -0.101552, 0.000814718, -0.00173402, 6.78941e-05, 0.000402382, -0.000557463, 0.000285767, 0.00249926, 0.000396565, -0.00720849, -0.0095488, -0.00277708, -0.0126205, 0.471013, -0.543377, 0.3359, -2.08384, -2.16585, -0.129878, 0.469249, -0.542633, 0.336012, -2.08422, -2.1657, -0.128836, 0.000867038, 0.00224682, 0.00116028, 0.000300128, 0.000872709, -0.00633346
0.028113, 1.69124, -1.22557, -1.53799, -0.899923, -1.19207, 1.22832, -1.30264, -0.000626833, -0.00882391, -0.00268582, -0.00562644, -0.00129068, -0.000334123, 0.00931373, -0.242241, 57.15, 27.0798, 6.24786, 1.76807, 3.41006, -0.0878186, 0.000808184, -0.00173567, 7.78738e-05, 0.000406882, -0.000552679, 0.000293004, 0.00289871, 0.000651757, -0.00784593, -0.00770448, -0.00547017, -0.00877752, 0.471014, -0.543375, 0.335901, -2.08384, -2.16585, -0.129876, 0.469249, -0.542636, 0.336002, -2.08422, -2.16569, -0.128833, 0.000976211, 0.00253053, 0.00130664, 0.000145706, 0.000849736, -0.00687083
0.029113, 1.69124, -1.22557, -1.53799, -0.89993, -1.19208, 1.22832, -1.30264, -0.00129821, -0.00932163, -0.00171579, -0.00766845, -0.00138856, 0.000821919, 0.00681235, -0.206535, 57.261, 27.0441, 6.24786, 1.76807, 3.38168, -0.0814099, 0.000803121, -0.00173692, 8.28948e-05, 0.000411502, -0.000558366, 0.000295505, 0.0028923, 0.000315096, -0.00805151, -0.00694314, -0.00500738, -0.00496775, 0.471015, -0.543372, 0.335903, -2.08383, -2.16585, -0.129874, 0.469248, -0.542638, 0.335998, -2.08422, -2.16569, -0.12882, 0.00109153, 0.00283037, 0.00146128, 0.000589597, 0.00120131, -0.00692834
0.030113, 1.69124, -1.22558, -1.53799, -0.899931, -1.19209, 1.22833, -1.30264, -0.00266253, -0.0102785, -0.00254942, -0.00501954, -0.00645587, 0.00213677, 0.00568061, -0.131157, 57.4078, 27.0798, 6.20819, 1.77997, 3.33865, -0.0951428, 0.000796304, -0.00173827, 8.58413e-05, 0.000410334, -0.000568117, 0.00030008, 0.00602014, 0.00226142, -0.00846939, -0.00763992, -0.00116164, -0.00985992, 0.471016, -0.543369, 0.335904, -2.08383, -2.16585, -0.129871, 0.469248, -0.542641, 0.335995, -2.08423, -2.16569, -0.128809, 0.00121295, 0.00314621, 0.00162416, -0.00113601, -0.00158611, -0.00760484
0.031113, 1.69124, -1.22558, -1.53799, -0.899942, -1.1921, 1.22834, -1.30264, 0.00136882, -0.00992362, 0.00404023, -0.00573604, -0.00611106, 0.00328583, 0.00449724, -0.131157, 57.5189, 27.0798, 6.28357, 1.81018, 3.2883, -0.101552, 0.000793606, -0.00173611, 8.91463e-05, 0.000412536, -0.000579012, 0.000297108, 0.00301167, -0.00142562, -0.00625856, -0.00180766, -0.000529287, -0.00107052, 0.471017, -0.543366, 0.335906, -2.08383, -2.16586, -0.129869, 0.469252, -0.54264, 0.335993, -2.08423, -2.1657, -0.128793, 0.00134042, 0.00347794, 0.00179519, 0.00264594, 0.00152631, -0.00489502
0.032113, 1.69124, -1.22558, -1.53799, -0.899946, -1.19211, 1.22834, -1.30265, 0.0002296, -0.00697036, 0.00288663, -0.00747938, -0.00414935, 0.00269644, 0.00138608, -0.0914839, 57.5189, 27.0798, 6.28357, 1.79828, 3.27456, -0.0484509, 0.000789951, -0.00173552, 8.95432e-05, 0.000411506, -0.000589288, 0.000287868, 0.0028763, -0.00089066, -0.00529588, -0.00297911, 0.000951998, 0.00219211, 0.471019, -0.543362, 0.335908, -2.08383, -2.16586, -0.129866, 0.469254, -0.54264, 0.335994, -2.08422, -2.16572, -0.128782, 0.00147388, 0.00382545, 0.00197432, 0.00227505, 0.00183739, -0.00372818
0.033113, 1.69124, -1.22558, -1.53799, -0.899952, -1.19212, 1.22835, -1.30264, 0.000781859, -0.00407765, 0.000306046, -0.00971008, -0.00291597, 0.00206684, 0.00217335, 0.0196001, 57.4832, 27.1552, 6.32324, 1.79187, 3.26724, -0.0750012, 0.000784215, -0.00173661, 9.19323e-05, 0.000415966, -0.000602374, 0.000295282, 0.00230545, -0.00106837, -0.00504034, -0.00627652, 0.00314743, 0.0027088, 0.47102, -0.543358, 0.33591, -2.08382, -2.16586, -0.129863, 0.469254, -0.542641, 0.335993, -2.08423, -2.16572, -0.12876, 0.00161328, 0.0041886, 0.00216148, 0.00258073, 0.00273204, -0.00320546
0.034113, 1.69125, -1.22558, -1.53799, -0.89995, -1.19213, 1.22835, -1.30265, -1.53061e-05, -0.00208269, 0.00114789, -0.00760622, -0.00667115, 0.000596457, 0.000665026, 0.059273, 57.4475, 27.1195, 6.20819, 1.78638, 3.2883, -0.0484509, 0.000779414, -0.00173595, 9.22333e-05, 0.000414699, -0.000612851, 0.00029461, 0.0039062, 0.000584106, -0.00350502, -0.00744782, 0.00748328, 0.000371535, 0.471022, -0.543354, 0.335912, -2.08382, -2.16586, -0.12986, 0.469257, -0.542641, 0.335994, -2.08423, -2.16573, -0.128747, 0.00175856, 0.00456728, 0.0023566, 0.00118838, 0.00122647, -0.00169291
0.035113, 1.69126, -1.22558, -1.53799, -0.899953, -1.19214, 1.22835, -1.30264, 0.00259632, -0.00153806, 0.00177477, -0.0081601, -0.0129026, 0.00453985, 0.00255964, 0.0949785, 57.4475, 27.0798, 6.17248, 1.74335, 3.30295, -0.101552, 0.000778524, -0.00173264, 9.39453e-05, 0.000417514, -0.00061856, 0.000293175, 0.00445897, -0.000963553, -0.00297464, -0.00717431, 0.0154422, -0.000597482, 0.471024, -0.543349, 0.335915, -2.08382, -2.16586, -0.129856, 0.469262, -0.542637, 0.335995, -2.08423, -2.16574, -0.128735, 0.00190969, 0.00496137, 0.00255964, 0.0029241, 0.00105657, -0.00109862
0.036113, 1.69127, -1.22557, -1.53798, -0.899954, -1.19216, 1.22836, -1.30265, 0.00562307, -0.00113758, 0.00124429, -0.00453996, -0.0142759, 0.00341619, -0.000148062, 0.21003, 57.4475, 27.0798, 6.09711, 1.73694, 3.30295, -0.0484509, 0.000773946, -0.00173, 9.37803e-05, 0.000416422, -0.000636333, 0.000285498, 0.00484681, -0.00122524, -0.00283372, -0.0081513, 0.0165029, 0.000854517, 0.471026, -0.543344, 0.335917, -2.08381, -2.16587, -0.129852, 0.469267, -0.542636, 0.335997, -2.08423, -2.16576, -0.128715, 0.0020666, 0.00537076, 0.00277051, 0.00336133, 0.00107209, -0.000816667
0.037113, 1.69127, -1.22557, -1.53799, -0.899961, -1.19216, 1.22836, -1.30264, 0.00321277, 0.00229455, -5.26573e-05, -0.003674, -0.0134974, 0.00229841, 0.00218949, 0.400459, 57.4475, 27.1195, 6.09711, 1.68201, 3.31027, -0.10796, 0.000770694, -0.00172889, 9.58987e-05, 0.000420451, -0.000644221, 0.000291078, 0.00629344, 0.000901039, -0.00128607, -0.00901181, 0.018964, -0.00541053, 0.471028, -0.543338, 0.33592, -2.08381, -2.16587, -0.129848, 0.46927, -0.542634, 0.335997, -2.08423, -2.16576, -0.128698, 0.00222924, 0.00579533, 0.00298915, 0.00150813, -0.000256749, 0.000769786
0.038113, 1.69129, -1.22557, -1.53799, -0.899964, -1.19217, 1.22836, -1.30265, 0.00354835, 0.00172801, -7.2869e-07, -0.00434332, -0.0136933, 0.00632608, -0.00186807, 0.511544, 57.4475, 27.1195, 6.02173, 1.64447, 3.31759, -0.0164075, 0.000768517, -0.00172401, 9.83356e-05, 0.00042378, -0.000656285, 0.000273631, 0.00691019, 8.50007e-06, -0.00151835, -0.00617284, 0.0209245, -0.000843191, 0.47103, -0.543332, 0.335923, -2.0838, -2.16587, -0.129843, 0.469277, -0.542629, 0.335997, -2.08421, -2.16578, -0.128679, 0.00239756, 0.00623496, 0.00321551, 0.00258154, -0.00035371, 0.000644175
0.039113, 1.69129, -1.22557, -1.53799, -0.899968, -1.19219, 1.22837, -1.30264, 0.0065509, 0.00130074, -0.000809922, -0.00185355, -0.0147345, 0.00427696, 0.000972094, 0.777352, 57.4475, 27.1552, 5.95032, 1.63257, 3.33133, -0.0750012, 0.000761934, -0.00172319, 0.00010096, 0.000424631, -0.000669994, 0.000279977, 0.00699636, -0.000308234, -0.00221585, -0.00866373, 0.0205801, -0.00402053, 0.471033, -0.543326, 0.335927, -2.0838, -2.16588, -0.129838, 0.469281, -0.542629, 0.335997, -2.08422, -2.16579, -0.128658, 0.00257152, 0.00668953, 0.00344951, 0.00304972, 0.000136095, 0.000166537
0.040113, 1.69131, -1.22558, -1.53798, -0.899972, -1.1922, 1.22837, -1.30264, 0.00852257, -0.00152694, 0.000314607, 5.62004e-05, -0.0106005, 0.00219238, -0.00053714, 0.928108, 57.5546, 27.1195, 5.87494, 1.61426, 3.36062, -0.0420422, 0.00076024, -0.00171601, 0.000109207, 0.000427303, -0.000671021, 0.000266061, 0.0061815, -0.00113015, -0.00367319, -0.00740914, 0.0134937, -0.000660071, 0.471035, -0.543319, 0.33593, -2.08379, -2.16588, -0.129833, 0.46929, -0.542622, 0.335992, -2.0842, -2.16581, -0.128651, 0.00275106, 0.00715892, 0.0036911, 0.00396831, 0.00166789, -0.000929226
0.0411133, 1.69132, -1.22558, -1.53799, -0.899974, -1.19222, 1.22837, -1.30263, 0.00438245, -0.00186232, -0.0014462, -0.000890538, -0.0128861, 0.000458773, 0.000889236, 1.18995, 57.5943, 27.1909, 5.76385, 1.62067, 3.39633, -0.0750012, 0.000752244, -0.00171575, 0.000116316, 0.000437828, -0.000682178, 0.000272201, 0.00891963, 0.00205649, -0.00473802, -0.0115719, 0.0145833, -0.00737218, 0.471038, -0.543312, 0.335934, -2.08379, -2.16589, -0.129827, 0.469293, -0.542621, 0.335988, -2.0842, -2.16581, -0.128621, 0.00293613, 0.00764302, 0.00394021, 0.00103043, -0.000517842, -0.00206032
0.0421133, 1.69133, -1.22558, -1.53799, -0.899975, -1.19224, 1.22838, -1.30264, 0.00948574, -0.0011788, -0.000953253, -0.000717109, -0.0150398, 3.69308e-05, -0.00060791, 1.38038, 57.5943, 27.1909, 5.6131, 1.63898, 3.41006, -0.0420422, 0.000748819, -0.00170996, 0.000118114, 0.000440159, -0.000698614, 0.000260084, 0.00744551, -0.000319807, -0.00462658, -0.0133841, 0.017275, -0.00191317, 0.471041, -0.543304, 0.335938, -2.08378, -2.16589, -0.129821, 0.469302, -0.542616, 0.335989, -2.08419, -2.16583, -0.128597, 0.00312667, 0.00814172, 0.00419678, 0.00354546, 0.00151633, -0.00153663
0.0431133, 1.69135, -1.22559, -1.538, -0.899982, -1.19226, 1.22838, -1.30264, 0.0095582, -0.00240924, -0.0033186, -0.00564187, -0.011981, 0.00528767, 0.00011833, 1.72157, 57.6657, 27.306, 5.53772, 1.65729, 3.40365, -0.0557752, 0.000739906, -0.00170735, 0.00012923, 0.000451593, -0.000712319, 0.00025969, 0.00704563, -0.00216382, -0.00660206, -0.0121479, 0.0170892, 0.0012135, 0.471044, -0.543295, 0.335942, -2.08378, -2.16589, -0.129815, 0.469308, -0.542615, 0.335981, -2.08418, -2.16584, -0.128564, 0.00332265, 0.00865489, 0.00446074, 0.00549735, 0.00280383, -0.00321688
0.0441133, 1.69136, -1.22559, -1.53799, -0.899988, -1.19228, 1.22839, -1.30264, 0.0119648, -0.00157087, -0.00127826, -0.00301339, -0.0195561, 0.00982555, 0.000327478, 1.98341, 57.6657, 27.2663, 5.46234, 1.6875, 3.37436, -0.0621838, 0.00073476, -0.00170064, 0.000132808, 0.000452486, -0.000733127, 0.00025034, 0.00877787, -0.00303217, -0.00494157, -0.00923501, 0.0264491, -0.000944597, 0.471048, -0.543286, 0.335947, -2.08377, -2.1659, -0.129808, 0.469318, -0.54261, 0.335981, -2.08418, -2.16587, -0.128536, 0.003524, 0.00918243, 0.00473204, 0.006688, 0.00140128, -0.00160096
0.0451133, 1.69139, -1.22559, -1.538, -0.89999, -1.1923, 1.2284, -1.30263, 0.0185376, -0.00278401, -0.00261082, -0.000172, -0.0258218, 0.00734409, 0.000701461, 2.17384, 57.7411, 27.3417, 5.35126, 1.73694, 3.37436, -0.0750012, 0.000729819, -0.00169155, 0.000141098, 0.000461887, -0.000753063, 0.000240382, 0.00864805, -0.00449348, -0.00649375, -0.0154811, 0.0295567, -0.000503448, 0.471051, -0.543277, 0.335952, -2.08376, -2.1659, -0.129801, 0.469331, -0.542604, 0.335977, -2.08416, -2.16589, -0.1285, 0.00373068, 0.00972421, 0.00501061, 0.00829336, 0.00236997, -0.002879
0.0461133, 1.69141, -1.22559, -1.538, -0.899989, -1.19233, 1.22841, -1.30263, 0.0215552, -0.00100094, -0.00257233, 0.00284066, -0.0285618, 0.00901877, 0.0002366, 2.43568, 57.7054, 27.3774, 5.2005, 1.74335, 3.41006, -0.0685925, 0.000723146, -0.00168473, 0.000145416, 0.000465366, -0.000775437, 0.00023606, 0.00932528, -0.00525961, -0.00522994, -0.0143993, 0.0346163, -0.00110288, 0.471055, -0.543267, 0.335957, -2.08375, -2.16591, -0.129793, 0.469341, -0.5426, 0.335976, -2.08416, -2.16591, -0.128466, 0.00394263, 0.0102801, 0.00529638, 0.00934042, 0.00209423, -0.00147352
0.0471133, 1.69144, -1.22559, -1.538, -0.899988, -1.19235, 1.22842, -1.30263, 0.0278976, -0.00148762, -0.0017123, 0.00489909, -0.0314249, 0.00604933, -0.00105823, 2.66181, 57.7411, 27.3774, 5.05371, 1.76807, 3.43204, -0.0356336, 0.00071871, -0.00167395, 0.000151841, 0.000469673, -0.000796114, 0.000219436, 0.00784465, -0.00742149, -0.0057288, -0.0178572, 0.0353601, 0.00362666, 0.471059, -0.543256, 0.335962, -2.08375, -2.16592, -0.129785, 0.469356, -0.542592, 0.335975, -2.08414, -2.16595, -0.128434, 0.00415982, 0.0108501, 0.00558931, 0.0116456, 0.0042913, -0.00150871
0.0481133, 1.69147, -1.22559, -1.538, -0.899985, -1.19238, 1.22843, -1.30263, 0.0275958, -0.000980578, -0.00206762, 0.00419718, -0.0279031, 0.0127721, 0.00150211, 2.96729, 57.7411, 27.417, 4.86725, 1.76807, 3.46774, -0.0951428, 0.000710512, -0.00166668, 0.000157106, 0.000473391, -0.000820445, 0.000220718, 0.00841327, -0.00872664, -0.00526198, -0.011186, 0.03679, 0.00188919, 0.471064, -0.543245, 0.335968, -2.08374, -2.16592, -0.129777, 0.469368, -0.542588, 0.335974, -2.08415, -2.16596, -0.128396, 0.00438218, 0.0114339, 0.00588931, 0.0132087, 0.00429548, -0.000875403
0.0491133, 1.69149, -1.2256, -1.538, -0.899989, -1.1924, 1.22844, -1.30263, 0.0277413, -0.00148056, 0.000386277, 6.43405e-05, -0.0255012, 0.0133912, -0.000962613, 3.26881, 57.7768, 27.3417, 4.82758, 1.76807, 3.49612, -0.0420422, 0.000706459, -0.00165596, 0.000162438, 0.000474294, -0.000840123, 0.000197054, 0.00687804, -0.0103134, -0.00543251, -0.00967931, 0.0352577, 0.00960152, 0.471068, -0.543234, 0.335974, -2.08373, -2.16593, -0.129768, 0.469383, -0.542579, 0.335973, -2.08412, -2.16601, -0.128369, 0.00460967, 0.0120315, 0.00619634, 0.0149597, 0.0065001, -0.000546496
0.0501133, 1.69152, -1.2256, -1.53801, -0.899986, -1.19243, 1.22845, -1.30263, 0.0247177, -0.00181598, -0.00233985, 0.00283804, -0.0235918, 0.015599, 0.000818319, 3.57032, 57.8125, 27.4528, 4.68079, 1.76807, 3.48971, -0.0814099, 0.000696424, -0.00164753, 0.000171019, 0.000478412, -0.000865049, 0.000199388, 0.0101379, -0.00789505, -0.00608204, -0.00776267, 0.0347176, 0.00122101, 0.471073, -0.543221, 0.335981, -2.08372, -2.16594, -0.129759, 0.469396, -0.542575, 0.33597, -2.08413, -2.16602, -0.12833, 0.00484224, 0.0126428, 0.00651033, 0.0128705, 0.0038939, -0.00130665
0.0511133, 1.69156, -1.2256, -1.538, -0.899987, -1.19246, 1.22846, -1.30263, 0.0282854, -0.00296918, 0.000204155, 6.7076e-05, -0.0260064, 0.0169417, -0.00138573, 3.75678, 57.8879, 27.3774, 4.60541, 1.73694, 3.48239, -0.0292249, 0.000693701, -0.00163143, 0.000178162, 0.000477023, -0.000886277, 0.000170548, 0.00858739, -0.0107045, -0.00654032, -0.0077387, 0.0368329, 0.00927615, 0.471078, -0.543208, 0.335987, -2.08371, -2.16594, -0.129749, 0.469417, -0.542563, 0.335968, -2.0841, -2.16607, -0.128303, 0.00507984, 0.0132677, 0.00683122, 0.0158417, 0.00623534, -0.0012826
0.0521133, 1.69159, -1.2256, -1.538, -0.899983, -1.19249, 1.22847, -1.30262, 0.0321837, -0.000212681, -0.000791304, 0.0020249, -0.0296411, 0.0174692, 0.00124744, 4.02259, 57.8125, 27.417, 4.49432, 1.75525, 3.48239, -0.0878186, 0.00068482, -0.0016213, 0.000180373, 0.000478385, -0.000924133, 0.000168327, 0.00882796, -0.0116577, -0.0053944, -0.00956342, 0.0432716, 0.00648739, 0.471083, -0.543195, 0.335994, -2.0837, -2.16595, -0.129738, 0.469433, -0.542557, 0.335971, -2.08411, -2.1661, -0.128253, 0.00532241, 0.013906, 0.00715894, 0.0170864, 0.00649902, 0.000110483
0.0531133, 1.69163, -1.2256, -1.538, -0.899982, -1.19253, 1.22849, -1.30263, 0.0320172, -0.00273759, -0.000527077, 0.00264946, -0.0312129, 0.0134146, 0.00300818, 4.2884, 57.9236, 27.417, 4.41894, 1.74335, 3.47507, -0.0228162, 0.000675052, -0.00161029, 0.000189586, 0.000478969, -0.000949501, 0.000150002, 0.00984779, -0.0103346, -0.0072833, -0.0137612, 0.0404142, 0.00310298, 0.471088, -0.54318, 0.336002, -2.08369, -2.16596, -0.129728, 0.469449, -0.542551, 0.335968, -2.08409, -2.16614, -0.128217, 0.00556992, 0.0145576, 0.00749345, 0.0159808, 0.00638025, -0.00153845
0.0541133, 1.69166, -1.22561, -1.53801, -0.899975, -1.19256, 1.2285, -1.30262, 0.0320844, -0.00275109, -0.00118626, 0.00401698, -0.0326587, 0.00979476, 0.00506679, 4.55024, 57.9633, 27.4528, 4.30786, 1.74884, 3.48239, -0.0951428, 0.000662819, -0.00160128, 0.000198223, 0.0004804, -0.000976804, 0.000155872, 0.0109716, -0.00885719, -0.00790044, -0.0178077, 0.0401815, -0.00145619, 0.471094, -0.543166, 0.336009, -2.08368, -2.16597, -0.129716, 0.469464, -0.542546, 0.335965, -2.0841, -2.16616, -0.128176, 0.00582231, 0.0152225, 0.00783467, 0.0147756, 0.00597004, -0.00193634
0.0551133, 1.6917, -1.22561, -1.538, -0.899976, -1.19259, 1.22852, -1.30263, 0.0355591, -0.00183257, 4.46378e-05, 0.00241715, -0.0341472, 0.0123574, 0.000986018, 4.66529, 57.9633, 27.417, 4.30786, 1.75525, 3.47507, -0.0228162, 0.000656484, -0.00158464, 0.000203992, 0.000476929, -0.00101082, 0.00012729, 0.00988494, -0.0113906, -0.00735191, -0.0167176, 0.0442207, 0.00695789, 0.4711, -0.54315, 0.336017, -2.08367, -2.16597, -0.129705, 0.469486, -0.542536, 0.335966, -2.08407, -2.16622, -0.128137, 0.00607953, 0.0159004, 0.00818254, 0.0175439, 0.00774047, -0.00095487
0.0561133, 1.69173, -1.22561, -1.538, -0.899965, -1.19263, 1.22854, -1.30262, 0.0352, -0.00205581, 2.99523e-05, 0.00410706, -0.035681, 0.0140793, 0.00402602, 4.89143, 57.999, 27.417, 4.19281, 1.77356, 3.47507, -0.10796, 0.000642305, -0.00157466, 0.000209599, 0.000469427, -0.0010452, 0.000132952, 0.0117794, -0.0106758, -0.00733582, -0.0154073, 0.0464275, 0.000980254, 0.471106, -0.543134, 0.336026, -2.08366, -2.16598, -0.129692, 0.469503, -0.542532, 0.335966, -2.08409, -2.16625, -0.128097, 0.00634154, 0.0165914, 0.00853701, 0.0171607, 0.00652939, -0.000856842
0.0571133, 1.69177, -1.22561, -1.53801, -0.89996, -1.19267, 1.22856, -1.30262, 0.0383021, 0.000393533, -0.00257834, 0.00342654, -0.0404807, 0.0102847, -0.000308073, 5.00251, 57.9236, 27.5281, 4.1571, 1.76807, 3.48239, -0.0228162, 0.000629555, -0.00156259, 0.000214712, 0.000468801, -0.00108861, 0.000118666, 0.011807, -0.0105465, -0.00766956, -0.024128, 0.0517332, 0.00546349, 0.471113, -0.543117, 0.336034, -2.08364, -2.16599, -0.129679, 0.469522, -0.542526, 0.335967, -2.08408, -2.1663, -0.128043, 0.00660828, 0.0172953, 0.00889802, 0.0172872, 0.00725216, -0.000825779
0.0581133, 1.69181, -1.22561, -1.538, -0.89995, -1.19271, 1.22858, -1.30261, 0.0389804, 0.000262984, 0.00087967, 0.00393756, -0.040194, 0.0125271, 0.0020858, 5.15327, 57.9236, 27.417, 4.08173, 1.77997, 3.48239, -0.0814099, 0.000616011, -0.00155075, 0.000217081, 0.000454267, -0.00112631, 0.000118353, 0.0118792, -0.0115758, -0.00655025, -0.019206, 0.0527271, 0.00444903, 0.471119, -0.543099, 0.336043, -2.08363, -2.166, -0.129666, 0.469541, -0.542521, 0.335972, -2.0841, -2.16633, -0.128007, 0.00687971, 0.0180119, 0.00926549, 0.0186298, 0.00776772, 0.000604561
0.0591133, 1.69185, -1.22561, -1.538, -0.899943, -1.19275, 1.2286, -1.30262, 0.0388308, -0.00158744, 0.000586528, 0.00649562, -0.0399041, 0.0137941, 0.000260617, 5.19294, 57.999, 27.417, 4.04602, 1.79828, 3.48971, -0.0484509, 0.000604029, -0.00153484, 0.00022649, 0.000448979, -0.00116123, 9.67579e-05, 0.0137829, -0.0108724, -0.00753334, -0.0174591, 0.0515669, 0.00325903, 0.471126, -0.543081, 0.336053, -2.08362, -2.16601, -0.129652, 0.469564, -0.542513, 0.335969, -2.08408, -2.16639, -0.127966, 0.00715578, 0.0187412, 0.00963939, 0.0182362, 0.00674003, -0.000266348
0.0601133, 1.6919, -1.22562, -1.53801, -0.899935, -1.19279, 1.22863, -1.30262, 0.0408415, -0.00449162, -0.00220738, 0.00629158, -0.0394765, 0.0152251, 4.47457e-06, 5.26832, 58.1458, 27.5281, 3.97064, 1.81018, 3.48971, -0.0420422, 0.000585612, -0.00152345, 0.000242434, 0.000448553, -0.00119189, 9.44991e-05, 0.0145334, -0.011619, -0.0105086, -0.0194314, 0.0498062, 0.00390178, 0.471134, -0.543062, 0.336063, -2.0836, -2.16602, -0.129638, 0.469582, -0.542509, 0.33596, -2.08408, -2.16642, -0.127921, 0.00743644, 0.0194831, 0.0100196, 0.0191816, 0.00722941, -0.00296304
0.0611133, 1.69194, -1.22561, -1.53801, -0.899931, -1.19283, 1.22866, -1.30262, 0.0374228, 0.000439529, -0.000543518, 0.00751079, -0.0385935, 0.0170316, -0.000183309, 5.26832, 57.999, 27.4885, 3.97064, 1.79828, 3.46774, -0.0356336, 0.000573054, -0.00150712, 0.000242327, 0.000433845, -0.00124593, 7.88736e-05, 0.0164029, -0.00975617, -0.00679067, -0.0148021, 0.0550928, 1.95681e-05, 0.471141, -0.543042, 0.336073, -2.08359, -2.16603, -0.129623, 0.469607, -0.542501, 0.335968, -2.08409, -2.16648, -0.127869, 0.00772164, 0.0202374, 0.0104062, 0.0178086, 0.00548961, 0.000861094
0.0621133, 1.69198, -1.22562, -1.53801, -0.899923, -1.19288, 1.22868, -1.30261, 0.0401373, -0.00137722, -0.000362311, 0.00621774, -0.038291, 0.0176643, 0.0023575, 5.30799, 58.0704, 27.4885, 3.93494, 1.79828, 3.46042, -0.101552, 0.000554952, -0.00149389, 0.000250263, 0.000422451, -0.00129052, 7.9502e-05, 0.0157619, -0.011474, -0.00834003, -0.0154693, 0.0540653, 0.000864243, 0.471149, -0.543021, 0.336083, -2.08357, -2.16604, -0.129607, 0.469628, -0.542496, 0.335968, -2.0841, -2.16652, -0.127821, 0.00801134, 0.0210041, 0.0107989, 0.0197347, 0.00719824, -0.000228617
0.0631133, 1.69202, -1.22561, -1.538, -0.899917, -1.19292, 1.22872, -1.30261, 0.0390361, -8.2778e-05, 0.000593703, 0.00847134, -0.0378724, 0.0185565, 0.00136303, 5.3437, 58.0347, 27.4528, 3.89526, 1.79187, 3.45309, -0.0951428, 0.000537009, -0.00148022, 0.000253691, 0.00040391, -0.00134072, 7.39476e-05, 0.0174257, -0.0103933, -0.00707633, -0.0126505, 0.0556982, -0.00128102, 0.471157, -0.543, 0.336094, -2.08356, -2.16606, -0.129591, 0.469651, -0.542491, 0.335972, -2.08411, -2.16657, -0.127775, 0.00830549, 0.021783, 0.0111979, 0.0190553, 0.00609581, 0.00119279
0.0641133, 1.69206, -1.22562, -1.53801, -0.899911, -1.19297, 1.22875, -1.30262, 0.0391568, 0.00450765, -0.000439396, 0.00934885, -0.0425018, 0.0179936, -0.00151117, 5.3437, 58.11, 27.4885, 3.89526, 1.79187, 3.46774, -0.0292249, 0.000518037, -0.00146567, 0.000264481, 0.000393703, -0.00138504, 5.84142e-05, 0.0191003, -0.00905664, -0.00496769, -0.0157593, 0.0643252, -0.00185598, 0.471166, -0.542978, 0.336106, -2.08354, -2.16607, -0.129574, 0.469674, -0.542486, 0.335969, -2.08411, -2.16663, -0.127726, 0.00860403, 0.0225739, 0.011603, 0.018156, 0.00485422, 0.00346075
0.0651133, 1.69211, -1.22562, -1.53801, -0.899912, -1.19302, 1.22878, -1.30261, 0.0407363, 0.00446037, -0.000292916, 0.00509167, -0.0358914, 0.0230446, 0.00145011, 5.26832, 58.0704, 27.4885, 3.97064, 1.77356, 3.46774, -0.0951428, 0.000503222, -0.00144703, 0.000271, 0.000381889, -0.00143772, 4.60813e-05, 0.0171717, -0.012266, -0.00546742, -0.0107784, 0.062334, 0.00208486, 0.471175, -0.542955, 0.336118, -2.08352, -2.16608, -0.129557, 0.469701, -0.542476, 0.335972, -2.08411, -2.16669, -0.12767, 0.00890693, 0.0233769, 0.0120141, 0.0215766, 0.00777036, 0.00358026
0.0661133, 1.69214, -1.22561, -1.538, -0.899909, -1.19307, 1.22882, -1.30261, 0.0402168, 0.00503945, 0.000639951, 0.0038612, -0.0404703, 0.0266401, 0.000232876, 5.38337, 57.999, 27.4528, 3.97064, 1.76807, 3.47507, -0.0750012, 0.000478296, -0.00143845, 0.000275174, 0.000362762, -0.0014944, 4.81321e-05, 0.0189254, -0.012217, -0.00491892, -0.00977747, 0.0690348, 0.00208424, 0.471184, -0.542931, 0.33613, -2.0835, -2.16609, -0.129539, 0.46972, -0.542476, 0.335976, -2.08414, -2.16674, -0.127615, 0.00921413, 0.0241918, 0.0124312, 0.0219182, 0.00676777, 0.00426847
0.0671133, 1.69219, -1.22561, -1.53801, -0.899903, -1.19312, 1.22885, -1.3026, 0.042375, 0.00449143, -0.00217181, 0.00375941, -0.0438648, 0.0287898, 0.000401698, 5.26832, 57.9633, 27.5638, 3.93494, 1.76807, 3.48971, -0.0814099, 0.00045725, -0.0014234, 0.000282375, 0.000350667, -0.00155173, 4.17724e-05, 0.0203398, -0.0126455, -0.00647556, -0.0127297, 0.0731614, 0.000958999, 0.471193, -0.542906, 0.336143, -2.08349, -2.16611, -0.12952, 0.469745, -0.54247, 0.335978, -2.08415, -2.1668, -0.127553, 0.0095256, 0.0250185, 0.0128543, 0.0226521, 0.00645524, 0.00292207
0.0681133, 1.69223, -1.22561, -1.53801, -0.899908, -1.19317, 1.2289, -1.30261, 0.041093, 0.0104238, -0.00144787, 0.00335715, -0.0477671, 0.0314452, -0.00118345, 5.26832, 57.9236, 27.5638, 4.04602, 1.78638, 3.48971, -0.0420422, 0.000435248, -0.00140826, 0.000289926, 0.000334271, -0.00161256, 2.55435e-05, 0.022004, -0.011744, -0.00279266, -0.0114629, 0.0841098, -0.000138521, 0.471203, -0.542881, 0.336156, -2.08347, -2.16612, -0.129501, 0.46977, -0.542465, 0.33598, -2.08415, -2.16687, -0.127492, 0.00984127, 0.0258569, 0.0132832, 0.0222615, 0.00504732, 0.0067569
0.0691133, 1.69227, -1.2256, -1.53801, -0.899904, -1.19322, 1.22894, -1.3026, 0.041082, 0.00930972, -0.000130024, 0.0036286, -0.050217, 0.0381155, 0.00067421, 5.22865, 57.8522, 27.5281, 4.00635, 1.79187, 3.48971, -0.0814099, 0.00041229, -0.00139279, 0.000292363, 0.000304414, -0.0016744, 2.11733e-05, 0.0239924, -0.0125317, -0.0026625, -0.00597857, 0.0887823, -0.00312149, 0.471213, -0.542854, 0.336169, -2.08345, -2.16613, -0.129481, 0.469796, -0.54246, 0.335987, -2.08417, -2.16694, -0.127443, 0.0101611, 0.0267069, 0.013718, 0.0234448, 0.00394689, 0.00698792
0.0701133, 1.69231, -1.2256, -1.53801, -0.899907, -1.19327, 1.22899, -1.3026, 0.038801, 0.00588882, -8.66791e-05, 0.00100269, -0.0471363, 0.0387262, 0.00558603, 5.15327, 57.8879, 27.5281, 4.08173, 1.79187, 3.48239, -0.0951428, 0.000387684, -0.0013775, 0.000302093, 0.00028439, -0.00173357, 1.52892e-05, 0.0249036, -0.0120217, -0.00516203, -0.00552259, 0.0839089, -0.00759494, 0.471223, -0.542827, 0.336183, -2.08343, -2.16615, -0.129461, 0.469822, -0.542455, 0.335987, -2.08419, -2.167, -0.127385, 0.0104851, 0.0275683, 0.0141585, 0.0232017, 0.00427218, 0.00483451
0.0711133, 1.69236, -1.2256, -1.53801, -0.899906, -1.19332, 1.22903, -1.3026, 0.0390347, 0.00514927, -0.000893001, 0.0009286, -0.050477, 0.0433855, 0.00336625, 5.11756, 57.8522, 27.5638, 4.08173, 1.823, 3.48239, -0.0750012, 0.000361123, -0.00136323, 0.000309674, 0.000262406, -0.00179765, 7.81466e-06, 0.0270796, -0.0121672, -0.00581033, -0.00424096, 0.0888808, -0.00730304, 0.471234, -0.542799, 0.336197, -2.08341, -2.16616, -0.12944, 0.469848, -0.542451, 0.335989, -2.0842, -2.16707, -0.127324, 0.0108131, 0.0284411, 0.0146048, 0.0237303, 0.00310266, 0.00429878
0.0721133, 1.6924, -1.2256, -1.538, -0.899906, -1.19338, 1.22908, -1.3026, 0.0413711, 0.00288876, 0.000239886, 0.000814174, -0.0509831, 0.0425139, 0.00229797, 5.00251, 57.8879, 27.5281, 4.08173, 1.81659, 3.47507, -0.0685925, 0.000336177, -0.00134443, 0.000317944, 0.000231316, -0.0018594, -9.85551e-06, 0.0269258, -0.0131733, -0.00727346, -0.00522613, 0.0872301, -0.00415341, 0.471245, -0.54277, 0.336212, -2.08339, -2.16618, -0.129418, 0.469878, -0.542445, 0.335991, -2.08421, -2.16715, -0.127276, 0.0111452, 0.0293251, 0.0150567, 0.0250086, 0.00440519, 0.00329921
0.0731133, 1.69245, -1.2256, -1.538, -0.899905, -1.19343, 1.22913, -1.3026, 0.041945, 0.0110193, 0.00108795, 0.00152433, -0.0521529, 0.0457621, 0.00175035, 4.92713, 57.7768, 27.4885, 4.04602, 1.81018, 3.48971, -0.0685925, 0.000311874, -0.0013273, 0.000321223, 0.000201278, -0.00192516, -2.08393e-05, 0.0274399, -0.0134399, -0.00216636, -0.00165624, 0.0984119, -0.00453557, 0.471256, -0.542741, 0.336228, -2.08336, -2.16619, -0.129396, 0.469907, -0.542438, 0.335999, -2.08423, -2.16722, -0.127221, 0.0114812, 0.0302203, 0.0155142, 0.0258158, 0.00401883, 0.00871184
0.0741133, 1.69249, -1.2256, -1.538, -0.899908, -1.19348, 1.22918, -1.3026, 0.0413469, 0.00719777, -0.000202722, 0.000290751, -0.0579508, 0.0481819, 0.00278874, 4.89143, 57.8125, 27.5281, 4.08173, 1.81018, 3.51077, -0.10796, 0.000284424, -0.00130998, 0.000331081, 0.000174723, -0.00199031, -2.79497e-05, 0.0303248, -0.0126502, -0.00512214, -0.00457919, 0.10135, -0.00833827, 0.471268, -0.54271, 0.336243, -2.08334, -2.16621, -0.129373, 0.469937, -0.542432, 0.336, -2.08425, -2.1673, -0.127162, 0.0118212, 0.0311266, 0.0159772, 0.0253641, 0.00249896, 0.00583294
0.0751133, 1.69255, -1.22559, -1.538, -0.899909, -1.19354, 1.22924, -1.3026, 0.0418543, 0.00781927, 0.000792873, -0.00597405, -0.0530015, 0.0457208, -0.000934127, 4.81605, 57.7054, 27.4885, 4.08173, 1.823, 3.51077, -0.0292249, 0.000258592, -0.001289, 0.000336847, 0.000139605, -0.00206107, -5.01156e-05, 0.0277034, -0.0142388, -0.00585181, -0.00693947, 0.0978357, 0.0027298, 0.47128, -0.542678, 0.33626, -2.08332, -2.16623, -0.129349, 0.469971, -0.542425, 0.336006, -2.08425, -2.16739, -0.127108, 0.012165, 0.0320437, 0.0164457, 0.0271736, 0.00618215, 0.00593904
0.0761133, 1.6926, -1.2256, -1.53801, -0.899914, -1.19359, 1.2293, -1.3026, 0.0493007, 0.00309353, -0.00216268, -0.00536984, -0.0534418, 0.0439684, 0.000690078, 4.701, 57.8125, 27.6035, 4.1214, 1.81659, 3.5181, -0.0621838, 0.000231024, -0.00126748, 0.00035277, 0.000119394, -0.00212749, -6.30364e-05, 0.0265208, -0.0171086, -0.0104742, -0.0128996, 0.0936279, 0.00566883, 0.471292, -0.542646, 0.336276, -2.08329, -2.16625, -0.129324, 0.470005, -0.542416, 0.336002, -2.08426, -2.16747, -0.12704, 0.0125127, 0.0329717, 0.0169196, 0.0301763, 0.00910726, 0.00194457
0.0771133, 1.69265, -1.22559, -1.538, -0.899914, -1.19365, 1.22935, -1.3026, 0.051375, 0.00485775, 0.000321455, -0.00392423, -0.0495736, 0.0466187, 2.05199e-05, 4.74067, 57.7054, 27.5281, 4.1214, 1.81659, 3.53274, -0.0484509, 0.000201865, -0.00124953, 0.000356253, 8.1329e-05, -0.0022022, -7.67307e-05, 0.0258374, -0.018898, -0.00857399, -0.00650558, 0.0939478, 0.00880155, 0.471305, -0.542612, 0.336293, -2.08327, -2.16626, -0.129299, 0.470036, -0.54241, 0.336011, -2.08428, -2.16756, -0.126983, 0.0128642, 0.0339105, 0.0173989, 0.0323597, 0.0105029, 0.00435161
0.0781133, 1.6927, -1.22559, -1.538, -0.899922, -1.19371, 1.22941, -1.30259, 0.0517632, 0.00345581, 0.000214304, -0.00454484, -0.0512338, 0.0491995, 0.00104884, 4.701, 57.7054, 27.5281, 4.19281, 1.823, 3.54648, -0.0750012, 0.000173018, -0.00122806, 0.000368187, 5.4002e-05, -0.00227587, -8.9316e-05, 0.0272307, -0.0191672, -0.00965815, -0.00600051, 0.0959145, 0.00732813, 0.471318, -0.542578, 0.336311, -2.08324, -2.16628, -0.129273, 0.470071, -0.542402, 0.336012, -2.08429, -2.16764, -0.126914, 0.0132194, 0.0348598, 0.0178835, 0.032995, 0.0102548, 0.00354138
0.0791133, 1.69276, -1.22559, -1.538, -0.899931, -1.19378, 1.22947, -1.3026, 0.0559386, 0.0042301, -0.00162037, -0.00591484, -0.0582777, 0.0505245, -0.00119468, 4.62562, 57.63, 27.6035, 4.30786, 1.85321, 3.56845, -0.0228162, 0.000145729, -0.00120446, 0.000378443, 2.91667e-05, -0.00235556, -0.000120399, 0.0278177, -0.0205461, -0.0104903, -0.0113672, 0.10414, 0.0108398, 0.471331, -0.542543, 0.336329, -2.08322, -2.1663, -0.129247, 0.470109, -0.542391, 0.336015, -2.08429, -2.16775, -0.126837, 0.0135784, 0.0358197, 0.0183733, 0.0347222, 0.0108206, 0.00307638
0.0801133, 1.69281, -1.22558, -1.538, -0.89993, -1.19384, 1.22953, -1.30259, 0.0557522, 0.00377752, -0.00108025, -0.00316047, -0.0579378, 0.051594, 0.00164019, 4.701, 57.5943, 27.6035, 4.26819, 1.85962, 3.58218, -0.0878186, 0.000110718, -0.00118719, 0.000385695, -9.75709e-06, -0.00243522, -0.000117588, 0.0297111, -0.0197752, -0.0104303, -0.00891311, 0.104322, 0.00498529, 0.471345, -0.542506, 0.336348, -2.08319, -2.16632, -0.12922, 0.470141, -0.542387, 0.33602, -2.08433, -2.16782, -0.126772, 0.013941, 0.03679, 0.0188684, 0.0343862, 0.00988084, 0.00336063
0.0811133, 1.69287, -1.22558, -1.538, -0.899931, -1.1939, 1.22959, -1.3026, 0.0585978, 0.00177481, -0.000720164, -0.00138072, -0.0583786, 0.0577848, -0.00129218, 4.66529, 57.63, 27.6035, 4.23248, 1.88434, 3.58218, -0.0228162, 7.99656e-05, -0.00116381, 0.000397528, -4.32948e-05, -0.00250909, -0.000143232, 0.0308495, -0.0217654, -0.0111905, -0.00359917, 0.106329, 0.00842212, 0.471359, -0.542469, 0.336367, -2.08316, -2.16634, -0.129192, 0.470179, -0.542377, 0.336022, -2.08433, -2.16793, -0.126709, 0.0143072, 0.0377706, 0.0193685, 0.0367538, 0.00993724, 0.00287285
0.0821133, 1.69293, -1.22558, -1.538, -0.899928, -1.19397, 1.22966, -1.30259, 0.0594532, 0.00208718, -0.00131533, 0.000761048, -0.0590818, 0.0585083, 0.000375649, 4.66529, 57.5943, 27.6392, 4.1571, 1.92096, 3.56845, -0.0557752, 4.49771e-05, -0.00114216, 0.000407534, -7.87076e-05, -0.00259425, -0.000148005, 0.0324538, -0.0213142, -0.0112601, -0.00331975, 0.108131, 0.00437511, 0.471373, -0.542431, 0.336386, -2.08313, -2.16636, -0.129163, 0.470216, -0.542371, 0.336026, -2.08436, -2.16801, -0.126633, 0.014677, 0.0387614, 0.0198738, 0.0367291, 0.00933655, 0.00307441
0.0831133, 1.693, -1.22559, -1.538, -0.899939, -1.19404, 1.22972, -1.30259, 0.060365, -0.00115543, -0.000876884, -0.00530051, -0.0587445, 0.0578681, -0.00119533, 4.66529, 57.7054, 27.6392, 4.26819, 1.93378, 3.57577, -0.0164075, 1.55058e-05, -0.0011149, 0.000427021, -0.000107075, -0.00266203, -0.000181515, 0.0313855, -0.02284, -0.0143181, -0.00704835, 0.105531, 0.0117045, 0.471388, -0.542392, 0.336407, -2.0831, -2.16638, -0.129134, 0.470259, -0.542357, 0.336021, -2.08434, -2.16812, -0.12657, 0.0150503, 0.0397623, 0.0203841, 0.038476, 0.0119258, 0.000684003
0.0841133, 1.69306, -1.22558, -1.538, -0.899942, -1.1941, 1.22978, -1.30259, 0.0618277, 0.00103163, -0.00234783, -0.00300676, -0.0633765, 0.0576883, 0.000907756, 4.62562, 57.63, 27.7146, 4.23248, 1.95209, 3.57577, -0.0621838, -1.42111e-05, -0.00108877, 0.000437626, -0.000135196, -0.00274416, -0.000201251, 0.0334737, -0.0218921, -0.013692, -0.0100181, 0.112047, 0.00590156, 0.471403, -0.542351, 0.336427, -2.08308, -2.1664, -0.129103, 0.470301, -0.542343, 0.336026, -2.08435, -2.16822, -0.12649, 0.0154271, 0.0407732, 0.0208993, 0.0380054, 0.01074, 0.00152266
0.0851133, 1.69313, -1.22558, -1.538, -0.899943, -1.19417, 1.22984, -1.30259, 0.063946, 0.00248, -0.00156522, -0.00364546, -0.0663876, 0.0530078, -0.000845974, 4.66529, 57.5546, 27.7146, 4.1571, 1.9823, 3.56845, -0.0228162, -4.73628e-05, -0.00106445, 0.000447155, -0.000168865, -0.00282951, -0.000222663, 0.0332233, -0.0217329, -0.0135439, -0.0157389, 0.114414, 0.00879772, 0.471419, -0.54231, 0.336448, -2.08304, -2.16642, -0.129072, 0.470341, -0.542332, 0.336032, -2.08436, -2.16832, -0.126412, 0.0158074, 0.041794, 0.0214195, 0.0382234, 0.011979, 0.00223269
0.0861133, 1.6932, -1.22559, -1.538, -0.899942, -1.19424, 1.2299, -1.30259, 0.0646085, -0.00268661, -0.000115459, -0.00110491, -0.0639043, 0.0550509, -0.00130478, 4.62562, 57.7411, 27.6749, 4.08173, 2.00061, 3.56112, -0.00267457, -8.10685e-05, -0.00103832, 0.000466153, -0.000201884, -0.00289645, -0.000247547, 0.0346746, -0.0221292, -0.0159428, -0.0113013, 0.10865, 0.00845556, 0.471435, -0.542268, 0.33647, -2.08301, -2.16645, -0.129041, 0.470384, -0.542319, 0.336029, -2.08435, -2.16842, -0.126351, 0.016191, 0.0428246, 0.0219445, 0.0389682, 0.0119623, 0.00015179
0.0871133, 1.69328, -1.22558, -1.53801, -0.899948, -1.19431, 1.22996, -1.30258, 0.0680708, -1.15169e-05, -0.00276823, -0.001993, -0.0681752, 0.0554632, 0.00133808, 4.58991, 57.6657, 27.79, 4.1214, 2.03815, 3.56112, -0.0621838, -0.000111673, -0.00101019, 0.000480294, -0.00022192, -0.00298259, -0.000270518, 0.0351501, -0.0229365, -0.0159528, -0.0164065, 0.116089, 0.00639771, 0.471451, -0.542224, 0.336492, -2.08298, -2.16647, -0.129008, 0.470429, -0.542303, 0.336032, -2.08435, -2.16853, -0.126256, 0.016578, 0.0438649, 0.0224743, 0.0401788, 0.0125687, 0.000573283
0.0881133, 1.69335, -1.22558, -1.538, -0.899954, -1.19438, 1.23002, -1.30258, 0.0680464, 0.00388083, -0.000917467, -0.00241017, -0.0701561, 0.0605465, 0.000657616, 4.66529, 57.63, 27.7503, 4.1571, 2.04364, 3.56845, -0.0557752, -0.000144606, -0.0009837, 0.000492856, -0.000253548, -0.00306517, -0.000299048, 0.0363013, -0.0235582, -0.0129945, -0.0115942, 0.124738, 0.00671562, 0.471468, -0.54218, 0.336515, -2.08295, -2.16649, -0.128975, 0.470473, -0.542288, 0.336036, -2.08435, -2.16864, -0.126177, 0.0169683, 0.0449148, 0.0230089, 0.041341, 0.012054, 0.00383149
0.0891133, 1.69343, -1.22558, -1.53801, -0.899952, -1.19446, 1.23008, -1.30258, 0.0738256, 0.00284982, 0.000786857, -2.82534e-05, -0.0724038, 0.0604017, -6.80271e-05, 4.62562, 57.63, 27.8257, 4.08173, 2.07477, 3.56845, -0.0420422, -0.000179775, -0.000956676, 0.000507906, -0.000277979, -0.00315204, -0.000320953, 0.0357221, -0.0258862, -0.0133626, -0.0115589, 0.12606, 0.0102732, 0.471485, -0.542135, 0.336538, -2.08291, -2.16652, -0.128941, 0.470518, -0.542274, 0.336038, -2.08435, -2.16875, -0.126084, 0.0173618, 0.0459742, 0.0235482, 0.0440253, 0.0138393, 0.00402554
0.0901133, 1.69351, -1.22558, -1.538, -0.899948, -1.19454, 1.23014, -1.30258, 0.0782132, 0.00209683, 0.00162327, 0.00160587, -0.0776656, 0.0600791, -0.00150177, 4.58991, 57.63, 27.79, 4.00635, 2.10498, 3.56112, -0.00267457, -0.000213467, -0.000928267, 0.000521316, -0.000308936, -0.00323347, -0.000352112, 0.0362823, -0.0270677, -0.013923, -0.0139622, 0.130128, 0.0123799, 0.471503, -0.542088, 0.336562, -2.08288, -2.16654, -0.128906, 0.470565, -0.542258, 0.336043, -2.08434, -2.16886, -0.126005, 0.0177586, 0.047043, 0.0240921, 0.0456025, 0.014491, 0.0038929
0.0911133, 1.69358, -1.22557, -1.53801, -0.899953, -1.19461, 1.23019, -1.30258, 0.0757557, 0.0015456, -0.00131867, 3.86581e-05, -0.0769996, 0.059986, 0.00167882, 4.66529, 57.63, 27.9011, 4.04602, 2.11139, 3.56112, -0.0750012, -0.000250846, -0.00090551, 0.000538248, -0.000326602, -0.00331612, -0.000365445, 0.0385666, -0.0251631, -0.0157764, -0.0171594, 0.129982, 0.00607587, 0.471521, -0.542041, 0.336586, -2.08285, -2.16657, -0.128871, 0.470606, -0.542243, 0.336044, -2.08434, -2.16896, -0.125906, 0.0181585, 0.048121, 0.0246406, 0.0441161, 0.0135196, 0.00231574
0.0921133, 1.69366, -1.22557, -1.53801, -0.899951, -1.19469, 1.23025, -1.30258, 0.0795497, 0.00114118, 0.0015981, 0.000875866, -0.0773848, 0.0604086, 0.00422776, 4.62562, 57.63, 27.9368, 4.00635, 2.13611, 3.53915, -0.0292249, -0.000286669, -0.000876521, 0.000554123, -0.000354207, -0.00340159, -0.000398527, 0.0378177, -0.0272266, -0.0154171, -0.0150831, 0.130697, 0.00692605, 0.471539, -0.541992, 0.336611, -2.08281, -2.16659, -0.128834, 0.470654, -0.542226, 0.336047, -2.08433, -2.16908, -0.125817, 0.0185616, 0.0492083, 0.0251936, 0.0465664, 0.0153778, 0.00327599
0.0931133, 1.69375, -1.22557, -1.53801, -0.899954, -1.19476, 1.2303, -1.30258, 0.0803458, -0.000919361, -0.000322996, -0.000402553, -0.0779314, 0.0546935, 0.00393153, 4.58991, 57.7054, 28.0121, 4.04602, 2.16724, 3.53915, -0.0484509, -0.000321006, -0.000847508, 0.000574361, -0.000373232, -0.00347791, -0.00042652, 0.0383472, -0.0261187, -0.0184291, -0.0233401, 0.127281, 0.00714875, 0.471558, -0.541942, 0.336637, -2.08277, -2.16662, -0.128797, 0.470702, -0.542206, 0.336046, -2.08431, -2.16918, -0.125727, 0.0189677, 0.0503046, 0.0257511, 0.0457753, 0.0163682, 0.000811158
0.0941133, 1.69383, -1.22557, -1.538, -0.899953, -1.19484, 1.23035, -1.30258, 0.0809327, -0.00222103, 6.57996e-05, 0.000615818, -0.0770892, 0.0553034, 0.00268437, 4.66529, 57.7768, 28.0121, 4.00635, 2.18555, 3.53274, -0.0420422, -0.000359365, -0.000821737, 0.000590118, -0.000400823, -0.00356049, -0.000452167, 0.0394872, -0.0260807, -0.0192913, -0.0222517, 0.126254, 0.00766742, 0.471577, -0.541891, 0.336663, -2.08274, -2.16665, -0.128759, 0.470748, -0.54219, 0.33605, -2.0843, -2.1693, -0.125638, 0.0193769, 0.05141, 0.0263131, 0.046157, 0.0164794, 0.000346133
0.0951133, 1.69391, -1.22557, -1.538, -0.899957, -1.19493, 1.2304, -1.30258, 0.0778233, -0.00143395, 0.00164702, -0.000550349, -0.0811053, 0.0510671, 0.00201511, 4.74067, 57.7768, 28.0875, 4.04602, 2.21576, 3.52542, -0.0420422, -0.000399605, -0.00079847, 0.000606155, -0.000417696, -0.0036507, -0.000474827, 0.0416447, -0.0231915, -0.0190407, -0.026889, 0.128901, 0.00476587, 0.471597, -0.541839, 0.33669, -2.0827, -2.16667, -0.128721, 0.470792, -0.542174, 0.336054, -2.0843, -2.1694, -0.125529, 0.0197891, 0.0525242, 0.0268794, 0.0437728, 0.0153047, 0.0009146
0.0961133, 1.694, -1.22556, -1.538, -0.899957, -1.19501, 1.23045, -1.30258, 0.0809851, -0.00175613, 0.000683891, -0.000391556, -0.0847566, 0.0480889, 0.0012752, 4.58991, 57.8125, 28.1232, 4.04602, 2.24048, 3.5181, -0.0356336, -0.000435469, -0.00076818, 0.000623961, -0.000437239, -0.00373583, -0.000510326, 0.0421088, -0.0233669, -0.0203807, -0.0329168, 0.131013, 0.00588376, 0.471617, -0.541786, 0.336717, -2.08266, -2.1667, -0.128681, 0.470843, -0.542153, 0.336057, -2.08427, -2.16953, -0.125428, 0.0202043, 0.0536472, 0.02745, 0.0443313, 0.0161831, 8.46741e-05
0.0971133, 1.69408, -1.22556, -1.538, -0.899963, -1.1951, 1.2305, -1.30257, 0.0793558, 0.00108801, -0.000991488, -0.00204277, -0.0882583, 0.0453826, 0.00172298, 4.58991, 57.8522, 28.1986, 4.1214, 2.2771, 3.52542, -0.0557752, -0.000475739, -0.000742997, 0.000641541, -0.000448855, -0.00382986, -0.000532677, 0.0440225, -0.0211385, -0.0200908, -0.0391187, 0.136359, 0.00231352, 0.471637, -0.541732, 0.336744, -2.08262, -2.16673, -0.128641, 0.470889, -0.542134, 0.33606, -2.08426, -2.16964, -0.125307, 0.0206224, 0.0547789, 0.0280249, 0.0426056, 0.015288, 0.000718209
0.0981133, 1.69417, -1.22556, -1.53799, -0.899963, -1.19519, 1.23054, -1.30257, 0.0801718, 0.00156676, 0.00198382, -0.00137571, -0.0889131, 0.043188, 0.0012438, 4.51453, 57.9633, 28.2343, 4.1214, 2.28992, 3.53274, -0.0557752, -0.000515344, -0.000717074, 0.000661938, -0.000461334, -0.00391107, -0.000561303, 0.0442893, -0.0210338, -0.0193091, -0.0389632, 0.136836, 0.00327632, 0.471658, -0.541677, 0.336773, -2.08258, -2.16676, -0.128599, 0.470936, -0.542114, 0.336061, -2.08424, -2.16975, -0.125201, 0.0210433, 0.0559192, 0.028604, 0.0429615, 0.016041, 0.00203106
0.0991133, 1.69426, -1.22555, -1.53799, -0.899963, -1.19528, 1.23058, -1.30257, 0.0787885, 0.00465087, 0.000842439, -0.000927544, -0.0856208, 0.0418978, -0.00106613, 4.51453, 57.9633, 28.274, 4.1214, 2.31372, 3.53274, -0.00267457, -0.000557154, -0.000694197, 0.000678436, -0.000473577, -0.0039994, -0.000591753, 0.0454021, -0.0195796, -0.0182962, -0.0393402, 0.13735, 0.00338332, 0.471679, -0.54162, 0.336802, -2.08254, -2.16679, -0.128557, 0.470981, -0.542095, 0.336067, -2.08422, -2.16986, -0.125086, 0.0214671, 0.057068, 0.0291872, 0.0420122, 0.0158749, 0.0034872
0.100113, 1.69435, -1.22555, -1.53799, -0.899965, -1.19537, 1.23062, -1.30256, 0.083194, 0.00121238, 6.23433e-05, -0.000626164, -0.0881208, 0.046897, 0.0064793, 4.43916, 58.0704, 28.3097, 4.1214, 2.32654, 3.51077, -0.0685925, -0.000597134, -0.000666347, 0.0006979, -0.000491056, -0.00408358, -0.000614935, 0.0462477, -0.0220873, -0.0207553, -0.0381166, 0.13939, -0.00216416, 0.471701, -0.541563, 0.336831, -2.08249, -2.16682, -0.128514, 0.471032, -0.542073, 0.33607, -2.0842, -2.16997, -0.124979, 0.0218936, 0.0582252, 0.0297746, 0.044884, 0.0166806, 0.00143792
0.101113, 1.69444, -1.22555, -1.53798, -0.899973, -1.19546, 1.23066, -1.30257, 0.082747, -0.000491894, 0.000293514, -0.00302175, -0.0856669, 0.0447784, 0.00305551, 4.36378, 58.1458, 28.3097, 4.23248, 2.35126, 3.50345, -0.0228162, -0.000636854, -0.000639414, 0.000715991, -0.000503926, -0.00417244, -0.000658844, 0.0463666, -0.0218728, -0.022593, -0.0403074, 0.135614, 0.00292257, 0.471723, -0.541504, 0.336861, -2.08245, -2.16685, -0.128471, 0.471082, -0.54205, 0.336075, -2.08417, -2.17011, -0.124864, 0.0223229, 0.0593907, 0.030366, 0.0450363, 0.0180021, 0.000202899
0.102113, 1.69453, -1.22554, -1.53796, -0.899973, -1.19555, 1.2307, -1.30256, 0.0854093, 0.00150326, 0.00271863, -0.00109087, -0.0874682, 0.0481629, 0.00381862, 4.2884, 58.2172, 28.3454, 4.19281, 2.35126, 3.49612, -0.0621838, -0.000679312, -0.000615484, 0.000731386, -0.000521014, -0.00425938, -0.000681159, 0.0469965, -0.0232756, -0.0205525, -0.0358776, 0.141299, 0.00266891, 0.471746, -0.541444, 0.336892, -2.08241, -2.16688, -0.128426, 0.471129, -0.542028, 0.336084, -2.08415, -2.17022, -0.124752, 0.022755, 0.0605644, 0.0309614, 0.0469688, 0.0183004, 0.00267228
0.103113, 1.69462, -1.22554, -1.53796, -0.899981, -1.19564, 1.23073, -1.30257, 0.0870499, 0.00209502, 0.00263012, -0.00249377, -0.0883948, 0.0405601, 0.00085563, 4.21302, 58.3282, 28.4565, 4.26819, 2.36316, 3.50345, -0.00999879, -0.000722253, -0.000592394, 0.000751339, -0.000524361, -0.00434748, -0.000717539, 0.0464476, -0.0225222, -0.0216133, -0.0443462, 0.139877, 0.00713957, 0.471769, -0.541383, 0.336923, -2.08236, -2.16691, -0.128381, 0.471176, -0.542005, 0.336088, -2.08411, -2.17034, -0.124625, 0.0231896, 0.0617462, 0.0315607, 0.0465925, 0.0201557, 0.00233242
0.104113, 1.69471, -1.22552, -1.53795, -0.899987, -1.19574, 1.23076, -1.30256, 0.0855738, 0.00834207, 0.00446954, -0.00342822, -0.0901735, 0.0348068, 0.0026852, 4.13764, 58.3282, 28.4961, 4.34357, 2.37598, 3.5181, -0.0621838, -0.000763734, -0.000568924, 0.000765955, -0.000530818, -0.0044392, -0.000745391, 0.0468525, -0.0203866, -0.0182754, -0.0487292, 0.145441, 0.00386422, 0.471792, -0.54132, 0.336955, -2.08231, -2.16694, -0.128334, 0.471224, -0.541981, 0.336098, -2.08409, -2.17046, -0.124495, 0.0236269, 0.0629361, 0.0321639, 0.045037, 0.0203441, 0.00623526
0.105113, 1.6948, -1.22553, -1.53794, -0.89999, -1.19583, 1.23079, -1.30257, 0.0842487, 0.00270187, 0.00818902, -0.00228733, -0.0925214, 0.0357927, -0.000514777, 4.06226, 58.6258, 28.5715, 4.34357, 2.4126, 3.5181, 0.00373412, -0.000809948, -0.000545583, 0.000791325, -0.000540001, -0.00451543, -0.000779684, 0.0493654, -0.0195895, -0.0203881, -0.0459378, 0.14266, 0.00487859, 0.471816, -0.541257, 0.336987, -2.08227, -2.16698, -0.128287, 0.471272, -0.541958, 0.336098, -2.08405, -2.17057, -0.124385, 0.0240668, 0.0641338, 0.032771, 0.0446961, 0.0193518, 0.00439211
0.106113, 1.69488, -1.22552, -1.53793, -0.900003, -1.19592, 1.23082, -1.30256, 0.0825532, 0.0096647, 0.0111056, -0.00412473, -0.0905656, 0.0268652, 0.00669189, 4.02259, 58.7329, 28.6429, 4.45465, 2.38788, 3.5181, -0.0557752, -0.000854222, -0.000524844, 0.000808907, -0.000544977, -0.00460229, -0.000802409, 0.0482559, -0.0175415, -0.0166506, -0.0507266, 0.14432, -0.0014639, 0.47184, -0.541192, 0.337021, -2.08222, -2.16701, -0.128239, 0.471318, -0.541933, 0.336106, -2.08403, -2.17068, -0.124256, 0.0245092, 0.0653394, 0.0333819, 0.0431924, 0.0209934, 0.008929
0.107113, 1.69497, -1.2255, -1.53792, -0.900014, -1.19601, 1.23084, -1.30256, 0.0842928, 0.0126692, 0.0109328, -0.00679677, -0.0921854, 0.0245872, 0.0029654, 3.98292, 58.8083, 28.6826, 4.49432, 2.4126, 3.53274, -0.00267457, -0.000898906, -0.000504969, 0.000824317, -0.000550466, -0.00469004, -0.000839811, 0.0477953, -0.0179518, -0.0160418, -0.0553836, 0.148643, 0.00464911, 0.471865, -0.541126, 0.337054, -2.08217, -2.16705, -0.12819, 0.471363, -0.541908, 0.336117, -2.08398, -2.17081, -0.124128, 0.0249541, 0.0665526, 0.0339965, 0.0440539, 0.0225858, 0.0102035
0.108113, 1.69505, -1.2255, -1.53791, -0.900028, -1.19611, 1.23087, -1.30256, 0.0859574, 0.00904009, 0.00907647, -0.00963518, -0.0960792, 0.0234355, 0.00402548, 3.94721, 58.9908, 28.7937, 4.56573, 2.4126, 3.52542, -0.0484509, -0.000946443, -0.000486253, 0.000844337, -0.000553262, -0.00477529, -0.000865494, 0.0488771, -0.0181345, -0.0198513, -0.0622136, 0.148905, 0.00459412, 0.47189, -0.541059, 0.337088, -2.08212, -2.16708, -0.12814, 0.471408, -0.541884, 0.336123, -2.08395, -2.17092, -0.123998, 0.0254015, 0.0677736, 0.0346148, 0.0445831, 0.0233309, 0.00688705
0.109113, 1.69514, -1.22548, -1.5379, -0.900037, -1.1962, 1.23089, -1.30256, 0.08802, 0.0151879, 0.0116884, -0.00998895, -0.0952297, 0.022452, 0.00152435, 3.87183, 59.0662, 28.8691, 4.56573, 2.39978, 3.52542, -0.00999879, -0.000992232, -0.000466684, 0.000858651, -0.000559632, -0.0048635, -0.000899557, 0.0477407, -0.0191449, -0.0159944, -0.0608448, 0.154604, 0.00986696, 0.471916, -0.54099, 0.337123, -2.08207, -2.16712, -0.128089, 0.471454, -0.541858, 0.336137, -2.08392, -2.17105, -0.123868, 0.0258513, 0.069002, 0.0352367, 0.0461446, 0.0251332, 0.011462
0.110113, 1.69522, -1.22547, -1.53788, -0.900054, -1.1963, 1.23091, -1.30256, 0.0876408, 0.0187452, 0.0129245, -0.0122193, -0.0952237, 0.0212111, 0.00121486, 3.87183, 59.1772, 28.9802, 4.64111, 2.40619, 3.53915, -0.00999879, -0.00104077, -0.000449993, 0.000875818, -0.000557513, -0.00495489, -0.000930066, 0.0478169, -0.0188681, -0.0143061, -0.0620295, 0.158474, 0.0112783, 0.471942, -0.540921, 0.337159, -2.08202, -2.16715, -0.128038, 0.471498, -0.541833, 0.336147, -2.08388, -2.17116, -0.123724, 0.0263034, 0.0702379, 0.0358623, 0.0463875, 0.0260238, 0.0137517
0.111113, 1.69531, -1.22545, -1.53786, -0.900066, -1.19639, 1.23093, -1.30255, 0.0910024, 0.0167631, 0.0179128, -0.0111185, -0.0949563, 0.0159568, 0.00190832, 3.72108, 59.3597, 29.0555, 4.60541, 2.40619, 3.53915, -0.0356336, -0.00108779, -0.000429803, 0.000891393, -0.000563999, -0.00504381, -0.000963279, 0.0465013, -0.0199988, -0.0146376, -0.0627619, 0.154202, 0.014436, 0.471968, -0.54085, 0.337195, -2.08197, -2.16719, -0.127985, 0.471546, -0.541806, 0.33616, -2.08384, -2.17129, -0.123592, 0.0267579, 0.0714811, 0.0364913, 0.0479111, 0.0286654, 0.0142217
0.112113, 1.69539, -1.22544, -1.53785, -0.900082, -1.19649, 1.23094, -1.30255, 0.0858209, 0.0143328, 0.0168043, -0.0143555, -0.0952207, 0.0125085, 0.000909227, 3.75678, 59.5819, 29.2023, 4.60541, 2.41809, 3.52542, -0.0228162, -0.00114125, -0.000417986, 0.000909969, -0.0005628, -0.00512962, -0.000988895, 0.0493187, -0.0165154, -0.0173925, -0.0683051, 0.151345, 0.0115521, 0.471995, -0.540778, 0.337232, -2.08192, -2.16723, -0.127932, 0.471586, -0.541783, 0.33617, -2.0838, -2.1714, -0.123453, 0.0272147, 0.0727316, 0.0371239, 0.0448924, 0.0274089, 0.011807
0.113113, 1.69548, -1.22542, -1.53783, -0.900105, -1.19659, 1.23095, -1.30255, 0.0889639, 0.0168059, 0.0169154, -0.0187866, -0.0949612, 0.00885193, 0.00560585, 3.6457, 59.7644, 29.3134, 4.68079, 2.43091, 3.53915, -0.0292249, -0.00118642, -0.000398351, 0.000927016, -0.000555126, -0.00521882, -0.00102921, 0.047233, -0.0181089, -0.0174505, -0.074119, 0.153126, 0.0129087, 0.472023, -0.540705, 0.337269, -2.08186, -2.16726, -0.127878, 0.471634, -0.541751, 0.336183, -2.08375, -2.17153, -0.123304, 0.0276737, 0.0739892, 0.0377598, 0.0468641, 0.0308028, 0.0126586
0.114113, 1.69548, -1.22542, -1.53783, -0.900105, -1.19659, 1.23095, -1.30255, 0.0889639, 0.0168059, 0.0169154, -0.0187866, -0.0949612, 0.00885193, 0.00560585, 3.6457, 59.7644, 29.3134, 4.68079, 2.43091, 3.53915, -0.0292249, -0.0012649, -0.000428219, 0.000954266, -0.00059311, -0.00520197, -0.000988289, 0.0485637, -0.0176131, -0.0179054, -0.0746265, 0.153981, 0.0118796, 0.472051, -0.54063, 0.337307, -2.08181, -2.1673, -0.127822, 0.471634, -0.541751, 0.336183, -2.08375, -2.17153, -0.123304, 0.028135, 0.0752539, 0.0383992, 0.0468641, 0.0308028, 0.0126586
0.115113, 1.69548, -1.22542, -1.53783, -0.900105, -1.19659, 1.23095, -1.30255, 0.0889639, 0.0168059, 0.0169154, -0.0187866, -0.0949612, 0.00885193, 0.00560585, 3.6457, 59.7644, 29.3134, 4.68079, 2.43091, 3.53915, -0.0292249, -0.00134472, -0.000458588, 0.000981978, -0.000631734, -0.00518484, -0.000946696, 0.0499017, -0.0171149, -0.0183628, -0.0751359, 0.15484, 0.0108459, 0.472079, -0.540554, 0.337346, -2.08175, -2.16734, -0.127766, 0.471634, -0.541751, 0.336183, -2.08375, -2.17153, -0.123304, 0.0285984, 0.0765256, 0.0390419, 0.0468641, 0.0308028, 0.0126586
0.116113, 1.69573, -1.22536, -1.53776, -0.900166, -1.1969, 1.23097, -1.30254, 0.0811246, 0.0163163, 0.0190204, -0.0213075, -0.103903, 0.00390543, 0.000881399, 3.57032, 60.2087, 29.5752, 4.64111, 2.47394, 3.53915, 0.0101428, -0.00134024, -0.000357057, 0.000967799, -0.000540549, -0.00550479, -0.00112635, 0.0548445, -0.0112445, -0.0187297, -0.0823007, 0.159951, 0.00701318, 0.472108, -0.540477, 0.337386, -2.0817, -2.16738, -0.127709, 0.471765, -0.541667, 0.336234, -2.08361, -2.17191, -0.122839, 0.0290639, 0.0778042, 0.0396878, 0.04164, 0.0270072, 0.0123626
0.117113, 1.69581, -1.22533, -1.53774, -0.900186, -1.19701, 1.23097, -1.30254, 0.0814835, 0.0169324, 0.0206921, -0.023766, -0.105918, 0.00211304, 0.00294873, 3.49494, 60.3198, 29.722, 4.56573, 2.47394, 3.56112, -0.0484509, -0.00139344, -0.000344692, 0.00098224, -0.000529508, -0.0056014, -0.00115073, 0.0551086, -0.0112185, -0.0187503, -0.0849996, 0.16232, 0.00652355, 0.472137, -0.540398, 0.337426, -2.08164, -2.16742, -0.127651, 0.471808, -0.541638, 0.336251, -2.08357, -2.17203, -0.122673, 0.0295316, 0.0790895, 0.040337, 0.0420924, 0.028034, 0.0129518
0.118113, 1.69589, -1.22532, -1.53772, -0.900224, -1.19711, 1.23098, -1.30254, 0.0820365, 0.0138159, 0.0237851, -0.0301091, -0.10802, 0.00192237, -6.10715e-05, 3.53065, 60.5777, 29.7974, 4.68079, 2.48035, 3.5538, 0.0101428, -0.00144589, -0.000330516, 0.00100353, -0.000517346, -0.0056912, -0.00120046, 0.0543811, -0.0127715, -0.0208702, -0.0873049, 0.1621, 0.0154266, 0.472167, -0.540319, 0.337466, -2.08158, -2.16746, -0.127592, 0.471853, -0.541607, 0.336262, -2.0835, -2.17217, -0.122515, 0.0300013, 0.0803815, 0.0409894, 0.0440075, 0.0304355, 0.0115749
0.119113, 1.69598, -1.2253, -1.53769, -0.900252, -1.19722, 1.23098, -1.30253, 0.0884457, 0.0195718, 0.0268532, -0.0308911, -0.105269, 0.00224329, 0.00664341, 3.45527, 60.7602, 29.8371, 4.64111, 2.49866, 3.53274, -0.0420422, -0.00149802, -0.000315668, 0.00102208, -0.00050843, -0.00577929, -0.00123408, 0.0509534, -0.0168286, -0.0172759, -0.0844038, 0.166679, 0.0169754, 0.472197, -0.540238, 0.337508, -2.08152, -2.1675, -0.127533, 0.4719, -0.541574, 0.336277, -2.08345, -2.17229, -0.122359, 0.030473, 0.0816802, 0.0416449, 0.048539, 0.0347421, 0.0161823
0.120113, 1.69606, -1.22527, -1.53768, -0.900285, -1.19732, 1.23097, -1.30254, 0.087989, 0.0268554, 0.022574, -0.0318072, -0.102434, 0.00163188, 0.00296373, 3.45527, 60.6848, 30.0236, 4.60541, 2.50415, 3.53274, 0.0101428, -0.00155026, -0.000303805, 0.00103355, -0.000488353, -0.00588574, -0.00127917, 0.0518277, -0.0155844, -0.0151353, -0.0876283, 0.172543, 0.0187142, 0.472228, -0.540155, 0.33755, -2.08146, -2.16755, -0.127472, 0.471944, -0.541541, 0.336299, -2.08338, -2.17243, -0.122173, 0.0309467, 0.0829853, 0.0423035, 0.0478853, 0.0348034, 0.0188591
0.121113, 1.69614, -1.22525, -1.53765, -0.900323, -1.19743, 1.23097, -1.30253, 0.0883, 0.0267997, 0.0200202, -0.033382, -0.100583, 0.00119019, 0.00402192, 3.41956, 60.8356, 30.0593, 4.60541, 2.51056, 3.53274, -0.0356336, -0.00160401, -0.000290723, 0.00105268, -0.000475702, -0.00597632, -0.00131564, 0.0527231, -0.0152783, -0.0168177, -0.0906943, 0.171957, 0.0176788, 0.472259, -0.540072, 0.337592, -2.0814, -2.16759, -0.12741, 0.471989, -0.541507, 0.336314, -2.08332, -2.17256, -0.122009, 0.0314223, 0.0842969, 0.0429652, 0.0480272, 0.0354758, 0.017731
0.122113, 1.69623, -1.22522, -1.53762, -0.900361, -1.19754, 1.23097, -1.30253, 0.0881099, 0.0285002, 0.0238739, -0.0344784, -0.0990509, 0.000361535, 0.00798092, 3.41956, 60.907, 30.095, 4.60541, 2.51697, 3.54648, -0.0420422, -0.00165823, -0.000277483, 0.00106981, -0.000460964, -0.00607411, -0.00135934, 0.0525074, -0.0155631, -0.0151387, -0.0881778, 0.172712, 0.0157546, 0.472291, -0.539987, 0.337635, -2.08134, -2.16763, -0.127348, 0.472036, -0.541472, 0.336332, -2.08326, -2.1727, -0.121835, 0.0318998, 0.0856148, 0.0436298, 0.0488462, 0.0367622, 0.0200783
0.123113, 1.69631, -1.2252, -1.5376, -0.900401, -1.19765, 1.23097, -1.30253, 0.0846867, 0.0302867, 0.0219226, -0.0344354, -0.102785, -0.000243985, 0.00496837, 3.41956, 60.9427, 30.206, 4.56573, 2.52338, 3.56112, -0.0164075, -0.00171349, -0.000265186, 0.00108857, -0.000438123, -0.00617398, -0.00140338, 0.0563482, -0.0122087, -0.0151188, -0.0919809, 0.178165, 0.0120581, 0.472323, -0.5399, 0.337679, -2.08127, -2.16768, -0.127284, 0.472081, -0.541437, 0.336348, -2.08318, -2.17284, -0.121649, 0.0323792, 0.0869389, 0.0442973, 0.0461233, 0.0341473, 0.0202785
0.124113, 1.69639, -1.22517, -1.53758, -0.900439, -1.19775, 1.23097, -1.30252, 0.0814747, 0.0252905, 0.0205085, -0.0327222, -0.10703, 0.000151755, 0.00447222, 3.45527, 60.9824, 30.3211, 4.45465, 2.56549, 3.5538, -0.0356336, -0.00177373, -0.000256169, 0.00110843, -0.000422126, -0.00627146, -0.00143734, 0.0613374, -0.00894684, -0.0185913, -0.0944963, 0.177598, 0.00480038, 0.472355, -0.539813, 0.337724, -2.08121, -2.16772, -0.127219, 0.472125, -0.541405, 0.336364, -2.08313, -2.17297, -0.121472, 0.0328604, 0.0882692, 0.0449678, 0.0434061, 0.0309428, 0.0168531
0.125113, 1.69648, -1.22515, -1.53755, -0.900484, -1.19786, 1.23096, -1.30253, 0.0848878, 0.0270561, 0.0207013, -0.0365719, -0.104384, -0.00484771, 0.00114726, 3.37989, 61.0538, 30.3925, 4.41894, 2.59021, 3.56112, 0.0229602, -0.00182738, -0.000239312, 0.00112897, -0.000406078, -0.0063674, -0.00149598, 0.0588244, -0.0105824, -0.0191171, -0.100163, 0.17606, 0.0147276, 0.472389, -0.539724, 0.337769, -2.08114, -2.16777, -0.127154, 0.472176, -0.541366, 0.33638, -2.08304, -2.17313, -0.121297, 0.0333434, 0.0896055, 0.045641, 0.0454095, 0.0349113, 0.0173441
0.126113, 1.69656, -1.22512, -1.53753, -0.900531, -1.19797, 1.23096, -1.30251, 0.0814803, 0.0317364, 0.0222269, -0.0393961, -0.106052, -0.0030575, 0.00366164, 3.41956, 60.9824, 30.3925, 4.37927, 2.61493, 3.54648, -0.0484509, -0.00188593, -0.000228874, 0.00114353, -0.000393154, -0.00647377, -0.00152981, 0.060661, -0.00909574, -0.0163553, -0.0989782, 0.183924, 0.0103311, 0.472422, -0.539634, 0.337815, -2.08108, -2.16781, -0.127088, 0.472222, -0.541331, 0.336402, -2.08298, -2.17327, -0.121112, 0.0338281, 0.0909478, 0.0463171, 0.0445862, 0.0339537, 0.0205117
0.127113, 1.69664, -1.22509, -1.5375, -0.900584, -1.19808, 1.23096, -1.30252, 0.078226, 0.0253904, 0.020615, -0.0424577, -0.108538, -0.0023145, 0.000459912, 3.49494, 61.0538, 30.5036, 4.37927, 2.63965, 3.54648, 0.0101428, -0.00194702, -0.000219435, 0.00116719, -0.000371834, -0.00657103, -0.0015808, 0.0641267, -0.00712566, -0.0213275, -0.102929, 0.181195, 0.0104321, 0.472456, -0.539542, 0.337862, -2.08101, -2.16786, -0.12702, 0.472267, -0.541295, 0.336416, -2.0829, -2.17342, -0.120927, 0.0343145, 0.092296, 0.0469959, 0.04305, 0.0325555, 0.0158088
0.128144, 1.69672, -1.22507, -1.53748, -0.900637, -1.19819, 1.23096, -1.30251, 0.0817088, 0.0207854, 0.0212995, -0.0469087, -0.110924, -0.00616476, 0.0023811, 3.45527, 61.1292, 30.5433, 4.34357, 2.67627, 3.53915, -0.0420422, -0.00200436, -0.000204201, 0.00118904, -0.000356836, -0.00666955, -0.00163178, 0.0630428, -0.00878251, -0.0254108, -0.110327, 0.178039, 0.0143694, 0.472491, -0.539449, 0.337909, -2.08094, -2.16791, -0.126952, 0.472318, -0.541255, 0.336432, -2.08282, -2.17357, -0.120747, 0.0348026, 0.09365, 0.0476774, 0.0449981, 0.0356758, 0.0125735
0.129144, 1.69672, -1.22507, -1.53748, -0.900637, -1.19819, 1.23096, -1.30251, 0.0817088, 0.0207854, 0.0212995, -0.0469087, -0.110924, -0.00616476, 0.0023811, 3.45527, 61.1292, 30.5433, 4.34357, 2.67627, 3.53915, -0.0420422, -0.00210353, -0.000241811, 0.00122343, -0.000404721, -0.00664865, -0.00158047, 0.0644721, -0.00825423, -0.0258981, -0.110859, 0.178949, 0.0132783, 0.472526, -0.539355, 0.337957, -2.08087, -2.16796, -0.126882, 0.472318, -0.541255, 0.336432, -2.08282, -2.17357, -0.120747, 0.0352924, 0.0950097, 0.0483616, 0.0449981, 0.0356758, 0.0125735
0.130144, 1.69672, -1.22507, -1.53748, -0.900637, -1.19819, 1.23096, -1.30251, 0.0817088, 0.0207854, 0.0212995, -0.0469087, -0.110924, -0.00616476, 0.0023811, 3.45527, 61.1292, 30.5433, 4.34357, 2.67627, 3.53915, -0.0420422, -0.00220413, -0.000279955, 0.0012583, -0.000453291, -0.00662747, -0.00152846, 0.0659072, -0.00772407, -0.0263872, -0.111391, 0.179861, 0.0121839, 0.472561, -0.539259, 0.338006, -2.0808, -2.168, -0.126812, 0.472318, -0.541255, 0.336432, -2.08282, -2.17357, -0.120747, 0.0357837, 0.096375, 0.0490484, 0.0449981, 0.0356758, 0.0125735
0.131144, 1.69697, -1.225, -1.53739, -0.900816, -1.1985, 1.23096, -1.3025, 0.0752193, 0.0222139, 0.0214447, -0.0520087, -0.106696, -0.00197098, 0.00495622, 3.41956, 61.1649, 30.5433, 4.30786, 2.73761, 3.51077, -0.00999879, -0.00217811, -0.000159809, 0.00125579, -0.00031869, -0.00695398, -0.00180582, 0.0681403, -0.00592553, -0.0259835, -0.10747, 0.181062, 0.0080408, 0.472597, -0.539162, 0.338055, -2.08073, -2.16805, -0.126741, 0.472473, -0.541127, 0.336484, -2.08255, -2.17405, -0.120223, 0.0362765, 0.0977458, 0.0497377, 0.0437978, 0.0347017, 0.0133752
0.132144, 1.69705, -1.22498, -1.53736, -0.900879, -1.1986, 1.23096, -1.30249, 0.0734874, 0.0223353, 0.0206992, -0.0506419, -0.103338, -0.000764365, 0.0100791, 3.49494, 61.2006, 30.6186, 4.26819, 2.75592, 3.48971, -0.0557752, -0.00224209, -0.000150496, 0.00128222, -0.000308309, -0.00703965, -0.00184996, 0.0703641, -0.00457701, -0.0262868, -0.105107, 0.179818, -0.000322637, 0.472634, -0.539064, 0.338106, -2.08066, -2.1681, -0.126669, 0.47252, -0.541088, 0.336498, -2.08247, -2.17419, -0.120057, 0.0367709, 0.0991221, 0.0504295, 0.0430213, 0.0338696, 0.0134685
0.133144, 1.69713, -1.22494, -1.53734, -0.900944, -1.1987, 1.23096, -1.3025, 0.0730069, 0.0247608, 0.0204011, -0.0530083, -0.101825, -0.000139749, 0.00966844, 3.53065, 61.1292, 30.6901, 4.23248, 2.78064, 3.47507, 0.0101428, -0.00230442, -0.000139681, 0.00130399, -0.000292015, -0.00713852, -0.00191309, 0.0709181, -0.004484, -0.0257074, -0.105494, 0.182445, 0.000903721, 0.472671, -0.538964, 0.338156, -2.08059, -2.16815, -0.126595, 0.47257, -0.541046, 0.336518, -2.08237, -2.17436, -0.119872, 0.0372668, 0.100504, 0.0511238, 0.0434702, 0.0346113, 0.0146537
0.134144, 1.69721, -1.22492, -1.5373, -0.901017, -1.1988, 1.23096, -1.30249, 0.0777831, 0.024722, 0.0257971, -0.0595702, -0.102973, 4.85716e-05, 0.00835399, 3.49494, 61.1292, 30.6544, 4.26819, 2.78064, 3.46774, -0.0164075, -0.00236244, -0.000123674, 0.00132782, -0.000282814, -0.00722839, -0.00197607, 0.0674138, -0.00894027, -0.0254452, -0.105499, 0.184761, 0.0137821, 0.472708, -0.538862, 0.338208, -2.08052, -2.16821, -0.126521, 0.472624, -0.540997, 0.336536, -2.08227, -2.17452, -0.119703, 0.0377641, 0.101891, 0.0518204, 0.0482957, 0.0396123, 0.0160083
0.135144, 1.69728, -1.22489, -1.53728, -0.901082, -1.1989, 1.23096, -1.30249, 0.0794774, 0.0224718, 0.0298463, -0.0642061, -0.0960778, 0.000206501, 0.00697516, 3.53065, 61.0934, 30.7297, 4.1571, 2.79895, 3.46042, -0.0356336, -0.0024276, -0.000113438, 0.0013512, -0.000274692, -0.00732126, -0.00202897, 0.0647569, -0.0119397, -0.026552, -0.101792, 0.178083, 0.0240815, 0.472746, -0.53876, 0.33826, -2.08044, -2.16826, -0.126446, 0.472674, -0.540955, 0.336555, -2.08218, -2.17468, -0.11953, 0.0382628, 0.103283, 0.0525195, 0.0516475, 0.0439278, 0.0159289
0.136144, 1.69736, -1.22486, -1.53724, -0.90116, -1.19899, 1.23096, -1.30248, 0.0788529, 0.0261269, 0.0320801, -0.0713263, -0.0954127, 0.000573433, 0.00469571, 3.53065, 61.0934, 30.7297, 4.19281, 2.79346, 3.44668, -0.0228162, -0.00248807, -9.87752e-05, 0.00137567, -0.000268281, -0.00740975, -0.00209932, 0.0634721, -0.0130995, -0.0250275, -0.102709, 0.182775, 0.0320964, 0.472785, -0.538656, 0.338313, -2.08036, -2.16831, -0.12637, 0.472729, -0.540907, 0.336574, -2.08207, -2.17486, -0.119364, 0.0387628, 0.10468, 0.0532208, 0.0533172, 0.0464114, 0.0182974
0.137144, 1.69744, -1.22484, -1.53721, -0.901244, -1.19908, 1.23096, -1.30248, 0.0789155, 0.0241823, 0.0326856, -0.070923, -0.0952961, 0.000598911, 0.00352072, 3.49494, 61.1649, 30.7654, 4.26819, 2.79895, 3.43936, -0.0228162, -0.0025478, -8.25492e-05, 0.00140318, -0.000258125, -0.00749618, -0.00217031, 0.0650701, -0.0126593, -0.0264016, -0.102625, 0.181618, 0.0322297, 0.472824, -0.538551, 0.338366, -2.08029, -2.16836, -0.126293, 0.472785, -0.540855, 0.336591, -2.08196, -2.17503, -0.119195, 0.0392642, 0.106082, 0.0539245, 0.0533899, 0.0464265, 0.0174125
0.138144, 1.69751, -1.22481, -1.53717, -0.901323, -1.19917, 1.23097, -1.30247, 0.0759918, 0.0235854, 0.0381494, -0.0742725, -0.095945, 0.000900824, 0.00623617, 3.57032, 61.2006, 30.7297, 4.23248, 2.82367, 3.42471, 0.00373412, -0.00261198, -7.07253e-05, 0.00142657, -0.000260326, -0.0075817, -0.00223768, 0.0659258, -0.0121701, -0.0256002, -0.0995984, 0.182496, 0.0308533, 0.472864, -0.538444, 0.338421, -2.08021, -2.16842, -0.126215, 0.472838, -0.540808, 0.336612, -2.08185, -2.17521, -0.11904, 0.0397669, 0.107489, 0.0546303, 0.0534703, 0.046845, 0.0187944
0.139144, 1.69759, -1.22478, -1.53714, -0.901408, -1.19926, 1.23096, -1.30246, 0.0769028, 0.0254318, 0.0361972, -0.0778227, -0.0897935, 0.000841079, 0.00720001, 3.6457, 61.2759, 30.8051, 4.23248, 2.82367, 3.41739, -0.0621838, -0.00267476, -5.81976e-05, 0.00145276, -0.000254569, -0.00766369, -0.00230065, 0.0649486, -0.0132274, -0.0262612, -0.100695, 0.180686, 0.0338721, 0.472904, -0.538336, 0.338476, -2.08013, -2.16847, -0.126136, 0.472892, -0.540757, 0.336631, -2.08175, -2.17537, -0.118878, 0.0402709, 0.108901, 0.0553384, 0.0549692, 0.0493693, 0.018967
0.140144, 1.69766, -1.22475, -1.53709, -0.901495, -1.19934, 1.23096, -1.30246, 0.0798778, 0.0269583, 0.0415186, -0.0795395, -0.0916988, 0.00131756, 0.00304682, 3.6457, 61.3513, 30.7297, 4.19281, 2.84198, 3.39633, -0.00267457, -0.00273388, -4.07231e-05, 0.00147356, -0.000261981, -0.00774902, -0.00238904, 0.0637611, -0.015501, -0.0243243, -0.0981863, 0.184852, 0.0432264, 0.472944, -0.538226, 0.338531, -2.08005, -2.16853, -0.126055, 0.472952, -0.540702, 0.336656, -2.08162, -2.17557, -0.118728, 0.040776, 0.110318, 0.0560486, 0.057776, 0.051763, 0.0217003
0.141144, 1.69774, -1.22472, -1.53705, -0.901584, -1.19943, 1.23096, -1.30245, 0.0779178, 0.0293215, 0.0419975, -0.0832823, -0.0880209, 0.000861083, 0.00433605, 3.6814, 61.4981, 30.8051, 4.1214, 2.8548, 3.39633, -0.0557752, -0.00279489, -2.40676e-05, 0.00150049, -0.000261247, -0.00782856, -0.00246069, 0.0639077, -0.0150517, -0.023733, -0.098262, 0.18516, 0.0435699, 0.472985, -0.538115, 0.338588, -2.07997, -2.16858, -0.125974, 0.473011, -0.540646, 0.336676, -2.0815, -2.17575, -0.118573, 0.0412824, 0.111739, 0.0567608, 0.0578648, 0.0529299, 0.0229891
0.142144, 1.69781, -1.22469, -1.53701, -0.901678, -1.1995, 1.23096, -1.30245, 0.0771764, 0.0333446, 0.0414441, -0.0898487, -0.0852706, 0.000561088, 0.00117762, 3.83216, 61.5695, 30.9162, 4.08173, 2.8667, 3.39633, -0.00267457, -0.00285826, -1.18121e-05, 0.00152385, -0.000266327, -0.007908, -0.00253978, 0.0629334, -0.0156277, -0.0229706, -0.100931, 0.188328, 0.0512014, 0.473027, -0.538002, 0.338645, -2.07989, -2.16864, -0.125892, 0.473066, -0.540592, 0.3367, -2.08138, -2.17594, -0.118424, 0.0417899, 0.113165, 0.0574751, 0.0589418, 0.0552273, 0.0245884
0.143144, 1.69789, -1.22465, -1.53696, -0.901772, -1.19958, 1.23096, -1.30243, 0.0753879, 0.0315067, 0.0399171, -0.090968, -0.0827189, 0.000364333, 0.00834549, 3.90754, 61.7163, 30.9519, 4.00635, 2.87311, 3.39633, -0.0750012, -0.00291759, 5.89964e-06, 0.0015448, -0.000279071, -0.00798577, -0.00261531, 0.0648625, -0.0143375, -0.0251875, -0.102184, 0.185406, 0.0422758, 0.473069, -0.537889, 0.338703, -2.07981, -2.1687, -0.125809, 0.473128, -0.540533, 0.336728, -2.08126, -2.17613, -0.118284, 0.0422985, 0.114595, 0.0581914, 0.0581534, 0.0550345, 0.0228608
0.144144, 1.69796, -1.22463, -1.53692, -0.901877, -1.19965, 1.23097, -1.30243, 0.0782038, 0.0317013, 0.043338, -0.0937376, -0.0775092, 0.000778129, 0.00809338, 3.94721, 61.9385, 31.063, 4.00635, 2.90973, 3.38168, -0.00267457, -0.00297598, 2.58014e-05, 0.00157218, -0.000287674, -0.00805749, -0.00271616, 0.0625579, -0.0172292, -0.0248676, -0.0986695, 0.182605, 0.0499863, 0.473111, -0.537773, 0.338761, -2.07972, -2.16875, -0.125725, 0.473191, -0.540471, 0.336749, -2.08111, -2.17633, -0.118147, 0.0428082, 0.11603, 0.0589097, 0.0614758, 0.0588244, 0.0241567
0.145144, 1.69802, -1.22459, -1.53687, -0.901989, -1.19972, 1.23096, -1.30241, 0.0725954, 0.032262, 0.0460058, -0.0988507, -0.0729788, 0.000784549, 0.0130388, 4.17335, 62.0139, 31.1741, 4.00635, 2.93445, 3.37436, -0.0621838, -0.00303626, 3.98195e-05, 0.0015913, -0.000297885, -0.00813854, -0.00279773, 0.063535, -0.0156309, -0.0245293, -0.0962749, 0.180522, 0.0456302, 0.473154, -0.537657, 0.338821, -2.07964, -2.16881, -0.12564, 0.47325, -0.54041, 0.33678, -2.08099, -2.17653, -0.118, 0.0433189, 0.117469, 0.0596298, 0.0604443, 0.0591767, 0.025113
0.146144, 1.69809, -1.22455, -1.53681, -0.9021, -1.19979, 1.23096, -1.30241, 0.0722523, 0.0347747, 0.0529107, -0.0986864, -0.0698565, 0.00051893, 0.00821422, 4.24873, 62.1249, 31.2137, 3.97064, 2.96466, 3.37436, -0.0228162, -0.00309338, 5.95869e-05, 0.0016086, -0.000320584, -0.0082173, -0.0029042, 0.0629135, -0.0162949, -0.0211031, -0.0892332, 0.180817, 0.0531348, 0.473198, -0.537538, 0.338881, -2.07955, -2.16887, -0.125554, 0.473315, -0.540345, 0.336814, -2.08084, -2.17676, -0.11787, 0.0438306, 0.118913, 0.0603519, 0.0617311, 0.0607412, 0.0292932
0.147144, 1.69816, -1.2245, -1.53675, -0.902212, -1.19985, 1.23097, -1.30239, 0.0670405, 0.0369259, 0.0520764, -0.100597, -0.0719403, 0.000614143, 0.00766905, 4.39948, 62.2321, 31.3605, 3.89526, 2.98938, 3.36703, -0.0621838, -0.00315559, 7.40246e-05, 0.00162681, -0.000339863, -0.00829707, -0.00298997, 0.0665752, -0.012833, -0.0206357, -0.0913306, 0.18574, 0.0479247, 0.473242, -0.537419, 0.338941, -2.07946, -2.16893, -0.125467, 0.473376, -0.540283, 0.336846, -2.08071, -2.17696, -0.117732, 0.0443433, 0.12036, 0.0610757, 0.0589513, 0.0583484, 0.0300285
0.148144, 1.69822, -1.22447, -1.53669, -0.902339, -1.19992, 1.23097, -1.30238, 0.0670989, 0.0364343, 0.0526896, -0.109014, -0.0678855, 0.000135854, 0.0101124, 4.51453, 62.4185, 31.4716, 3.97064, 3.0022, 3.37436, -0.0557752, -0.0032124, 9.29187e-05, 0.00164812, -0.000358747, -0.00836783, -0.00309527, 0.0646274, -0.0146647, -0.0224379, -0.0938908, 0.183388, 0.0534373, 0.473287, -0.537298, 0.339003, -2.07938, -2.16899, -0.125378, 0.473441, -0.540214, 0.336878, -2.08056, -2.17718, -0.117604, 0.044857, 0.121812, 0.0618013, 0.0611501, 0.0620799, 0.0292152
0.149144, 1.69828, -1.22443, -1.53664, -0.902467, -1.19997, 1.23096, -1.30238, 0.0676126, 0.0373406, 0.0481233, -0.11246, -0.0604609, 0.000597464, 0.00778277, 4.62562, 62.5653, 31.6581, 3.93494, 3.0141, 3.36062, -0.0621838, -0.00327041, 0.000110554, 0.00166958, -0.000376558, -0.00843741, -0.00320277, 0.0643367, -0.0152575, -0.0245182, -0.0962321, 0.180027, 0.0584417, 0.473332, -0.537175, 0.339065, -2.07929, -2.16905, -0.125289, 0.473505, -0.540145, 0.336909, -2.0804, -2.1774, -0.117475, 0.0453715, 0.123267, 0.0625286, 0.0621665, 0.0641665, 0.0279143
0.150144, 1.69834, -1.22439, -1.53657, -0.902591, -1.20003, 1.23096, -1.30237, 0.0630927, 0.0352975, 0.0528757, -0.116241, -0.0551575, 0.000397011, 0.00579139, 4.66529, 62.8232, 31.7731, 3.81988, 3.026, 3.36062, -0.0621838, -0.00333073, 0.000126962, 0.00169078, -0.00040618, -0.00849922, -0.00330783, 0.0648818, -0.014426, -0.0248692, -0.0916253, 0.174404, 0.0622276, 0.473377, -0.537051, 0.339128, -2.0792, -2.16911, -0.125199, 0.473568, -0.540076, 0.336941, -2.08024, -2.17762, -0.117366, 0.0458869, 0.124727, 0.0632577, 0.061862, 0.0651045, 0.0282407
0.151144, 1.6984, -1.22434, -1.5365, -0.90273, -1.20008, 1.23096, -1.30236, 0.0577385, 0.0425421, 0.059869, -0.122127, -0.0505799, 2.63416e-05, 0.00309238, 4.77637, 62.8589, 31.8842, 3.81988, 3.026, 3.36703, -0.0292249, -0.00338866, 0.000142668, 0.00170243, -0.000435318, -0.00857859, -0.0034223, 0.0639455, -0.0136889, -0.0192286, -0.0856282, 0.178568, 0.0683861, 0.473423, -0.536926, 0.339191, -2.07911, -2.16918, -0.125108, 0.473632, -0.540006, 0.336984, -2.08009, -2.17787, -0.117239, 0.0464031, 0.12619, 0.0639883, 0.0618301, 0.0666002, 0.0347108
0.152144, 1.69845, -1.2243, -1.53643, -0.902869, -1.20013, 1.23096, -1.30235, 0.0586847, 0.03919, 0.064771, -0.126436, -0.0524364, 1.68308e-05, 0.00791206, 4.81605, 63.1168, 31.9953, 3.81988, 3.05713, 3.36703, -0.0484509, -0.00344751, 0.000160123, 0.00172298, -0.000469235, -0.00863883, -0.00353244, 0.0634336, -0.0153208, -0.0206205, -0.0851916, 0.177829, 0.068918, 0.47347, -0.536799, 0.339256, -2.07902, -2.16924, -0.125016, 0.473698, -0.539933, 0.337019, -2.07993, -2.17809, -0.117135, 0.0469202, 0.127658, 0.0647206, 0.0639045, 0.0688585, 0.0340944
0.153144, 1.6985, -1.22425, -1.53635, -0.903004, -1.20017, 1.23096, -1.30234, 0.056316, 0.0401362, 0.0690067, -0.129344, -0.0436005, 1.06729e-05, 0.00891394, 4.85175, 63.2278, 32.0707, 3.6731, 3.05072, 3.36703, -0.00267457, -0.00350916, 0.000173526, 0.00173528, -0.000513059, -0.00870471, -0.0036438, 0.0624296, -0.0157753, -0.0193793, -0.0788817, 0.172412, 0.071947, 0.473517, -0.53667, 0.339321, -2.07892, -2.1693, -0.124922, 0.473761, -0.539863, 0.337062, -2.07977, -2.17833, -0.117035, 0.047438, 0.129128, 0.0654544, 0.0648885, 0.0711526, 0.0361941
0.154144, 1.69854, -1.22421, -1.53628, -0.903149, -1.20022, 1.23096, -1.30233, 0.0543593, 0.0433839, 0.0695629, -0.134335, -0.0478624, 0.000244063, 0.00851879, 4.89143, 63.3746, 32.1421, 3.63342, 3.08185, 3.36062, -0.0484509, -0.00356968, 0.000187632, 0.00175125, -0.000552108, -0.00876628, -0.00375365, 0.0637978, -0.0148171, -0.018359, -0.0825066, 0.180599, 0.0724045, 0.473565, -0.53654, 0.339387, -2.07883, -2.16937, -0.124828, 0.473824, -0.53979, 0.337102, -2.07961, -2.17856, -0.116933, 0.0479565, 0.130603, 0.0661897, 0.0645478, 0.0710782, 0.037759
0.155144, 1.69858, -1.22416, -1.5362, -0.903295, -1.20025, 1.23096, -1.30232, 0.0519746, 0.0417354, 0.0719355, -0.13911, -0.0453333, -0.000346225, 0.00979868, 4.9668, 63.5611, 32.2532, 3.52234, 3.08826, 3.37436, -0.0164075, -0.00363409, 0.000197082, 0.00176735, -0.000598091, -0.0088199, -0.00386294, 0.0640817, -0.0145921, -0.0196049, -0.0823556, 0.177781, 0.0738154, 0.473613, -0.536409, 0.339453, -2.07873, -2.16943, -0.124733, 0.473884, -0.539719, 0.337143, -2.07945, -2.17879, -0.116846, 0.0484757, 0.132081, 0.0669265, 0.0648075, 0.0724559, 0.0372299
0.156144, 1.69863, -1.22411, -1.53612, -0.903455, -1.20029, 1.23096, -1.3023, 0.0495758, 0.0439233, 0.074798, -0.145784, -0.0396456, -0.000231048, 0.0136936, 4.92713, 63.5968, 32.3285, 3.52234, 3.11847, 3.37436, -0.0621838, -0.00369139, 0.000213918, 0.00178094, -0.00064049, -0.00888322, -0.00398539, 0.0627847, -0.0152711, -0.0186278, -0.0802598, 0.176686, 0.0754813, 0.473662, -0.536276, 0.33952, -2.07864, -2.1695, -0.124636, 0.473951, -0.53964, 0.337187, -2.07928, -2.17904, -0.116745, 0.0489955, 0.133562, 0.0676647, 0.0659959, 0.0751002, 0.0391107
0.157144, 1.69866, -1.22407, -1.53604, -0.903621, -1.20032, 1.23096, -1.30229, 0.0475915, 0.0427575, 0.0749472, -0.150516, -0.0346923, -0.000154205, 0.0131469, 4.89143, 63.7436, 32.4793, 3.52234, 3.13129, 3.37436, -0.0164075, -0.00375165, 0.000228473, 0.00180156, -0.00068286, -0.00893353, -0.00411521, 0.0629148, -0.0152534, -0.0203417, -0.0803627, 0.172847, 0.0788174, 0.473711, -0.536142, 0.339588, -2.07854, -2.16956, -0.124539, 0.474017, -0.539562, 0.337225, -2.07909, -2.17929, -0.116657, 0.049516, 0.135047, 0.0684043, 0.0664389, 0.0767171, 0.0381391
0.158144, 1.6987, -1.22402, -1.53596, -0.903795, -1.20035, 1.23096, -1.30228, 0.0420332, 0.0467397, 0.0769849, -0.159145, -0.0314453, 0.00067696, 0.0111234, 4.89143, 63.819, 32.5547, 3.59772, 3.15509, 3.3533, -0.0484509, -0.00381105, 0.000242427, 0.00181806, -0.000728665, -0.00898762, -0.00424313, 0.0630114, -0.0142743, -0.0186475, -0.0798245, 0.176033, 0.0837433, 0.473761, -0.536006, 0.339657, -2.07844, -2.16963, -0.124441, 0.474082, -0.539481, 0.337268, -2.07891, -2.17954, -0.116569, 0.0500371, 0.136535, 0.0691452, 0.0660569, 0.077808, 0.0405716
0.159144, 1.69872, -1.22397, -1.53587, -0.903965, -1.20037, 1.23095, -1.30227, 0.0345908, 0.0490128, 0.078554, -0.164722, -0.0285633, 0.000179942, 0.00710781, 4.89143, 63.7793, 32.6261, 3.52234, 3.16791, 3.36062, -0.0164075, -0.00387354, 0.000251977, 0.00183151, -0.000777316, -0.00904092, -0.00436866, 0.0650588, -0.0112262, -0.017727, -0.0794558, 0.176852, 0.0858057, 0.473811, -0.535869, 0.339727, -2.07834, -2.1697, -0.124341, 0.474144, -0.539403, 0.337314, -2.07873, -2.17979, -0.116482, 0.0505588, 0.138026, 0.0698875, 0.063657, 0.0769994, 0.0420104
0.160144, 1.69875, -1.22391, -1.53578, -0.904152, -1.2004, 1.23095, -1.30225, 0.0318205, 0.0504664, 0.0833578, -0.172499, -0.0274644, 0.000119888, 0.00658459, 4.77637, 63.7436, 32.6658, 3.59772, 3.21094, 3.36062, -0.0484509, -0.00393088, 0.000266157, 0.00184495, -0.000825577, -0.00909563, -0.0045073, 0.0641665, -0.011743, -0.016637, -0.0784891, 0.178683, 0.0918861, 0.473862, -0.53573, 0.339797, -2.07824, -2.16977, -0.124241, 0.474211, -0.539319, 0.337362, -2.07853, -2.18006, -0.116394, 0.0510809, 0.13952, 0.0706309, 0.0647065, 0.0792328, 0.0439513
0.161144, 1.69877, -1.22386, -1.53568, -0.904341, -1.20042, 1.23094, -1.30224, 0.0266918, 0.0474696, 0.0903543, -0.176466, -0.0252221, -0.00473074, 0.00862063, 4.77637, 63.7436, 32.7015, 3.63342, 3.21643, 3.36062, -0.0228162, -0.00399103, 0.000276902, 0.00185783, -0.00088258, -0.00914291, -0.00464686, 0.0647139, -0.00980742, -0.0171652, -0.0774565, 0.172216, 0.0912416, 0.473913, -0.53559, 0.339868, -2.07814, -2.16984, -0.12414, 0.474275, -0.539235, 0.337411, -2.07833, -2.18033, -0.116323, 0.0516036, 0.141018, 0.0713756, 0.0633012, 0.0801819, 0.044156
0.162144, 1.6988, -1.22382, -1.53557, -0.904527, -1.20044, 1.23094, -1.30223, 0.0274196, 0.0466428, 0.0914846, -0.175552, -0.0234397, -0.00355475, 0.0116727, 4.58991, 63.819, 32.7768, 3.59772, 3.21643, 3.36062, -0.0356336, -0.00405004, 0.000292611, 0.00187596, -0.000945829, -0.0091786, -0.00478823, 0.0658304, -0.0100508, -0.0175901, -0.0749088, 0.17137, 0.0881064, 0.473965, -0.535448, 0.33994, -2.07804, -2.16991, -0.124037, 0.474345, -0.539148, 0.337455, -2.07813, -2.18059, -0.116269, 0.0521267, 0.142518, 0.0721215, 0.0640988, 0.0806558, 0.0443037
0.163144, 1.69882, -1.22377, -1.53547, -0.904721, -1.20045, 1.23094, -1.30221, 0.021035, 0.0487242, 0.0933087, -0.184342, -0.0221615, -0.00239926, 0.00972694, 4.55024, 63.7793, 32.8126, 3.55804, 3.21643, 3.3533, -0.0621838, -0.00411116, 0.00030352, 0.0018887, -0.00101133, -0.00922127, -0.00492848, 0.066911, -0.00847791, -0.0170422, -0.0753065, 0.174455, 0.0915512, 0.474018, -0.535305, 0.340012, -2.07793, -2.16998, -0.123934, 0.47441, -0.539063, 0.337506, -2.07794, -2.18086, -0.11621, 0.0526502, 0.144021, 0.0728685, 0.0631211, 0.0809369, 0.0454797
0.164144, 1.69883, -1.22372, -1.53535, -0.904913, -1.20046, 1.23093, -1.3022, 0.0162289, 0.0491978, 0.0995139, -0.186229, -0.0172551, -0.00233365, 0.0109067, 4.51453, 63.7793, 32.7768, 3.44696, 3.23566, 3.36703, -0.0356336, -0.00417235, 0.000312925, 0.00190014, -0.001084, -0.0092534, -0.00507348, 0.067749, -0.00724429, -0.0151106, -0.0682364, 0.171557, 0.09072, 0.474071, -0.53516, 0.340086, -2.07783, -2.17005, -0.123829, 0.474475, -0.538976, 0.337558, -2.07773, -2.18113, -0.116169, 0.0531742, 0.145527, 0.0736165, 0.0625288, 0.0812654, 0.0480495
0.165144, 1.69884, -1.22368, -1.53524, -0.905126, -1.20047, 1.23093, -1.30219, 0.0158257, 0.0453744, 0.10106, -0.193065, -0.0137115, -0.00628494, 0.00796511, 4.47486, 63.819, 32.8522, 3.44696, 3.25946, 3.36062, -0.0292249, -0.00423253, 0.000325561, 0.00191987, -0.00114911, -0.00928533, -0.00523173, 0.066396, -0.00796906, -0.01862, -0.0727447, 0.164425, 0.100087, 0.474124, -0.535014, 0.34016, -2.07772, -2.17012, -0.123723, 0.474543, -0.538886, 0.337603, -2.07751, -2.18142, -0.11612, 0.0536985, 0.147036, 0.0743657, 0.0635849, 0.0846764, 0.0455175
0.166144, 1.69885, -1.22363, -1.53512, -0.905337, -1.20048, 1.23092, -1.30218, 0.0115756, 0.0491603, 0.107411, -0.200208, -0.00993246, -0.0102298, 0.00502524, 4.47486, 63.7079, 32.8522, 3.37158, 3.25397, 3.37436, -0.00267457, -0.00429314, 0.00033394, 0.00192987, -0.00122077, -0.00932106, -0.00538565, 0.0648902, -0.0073118, -0.0158022, -0.0718711, 0.164287, 0.10814, 0.474178, -0.534866, 0.340234, -2.07762, -2.17019, -0.123617, 0.474607, -0.538796, 0.337658, -2.07729, -2.1817, -0.116073, 0.0542231, 0.148547, 0.0751158, 0.06351, 0.0872163, 0.049305
0.167144, 1.69885, -1.22358, -1.53499, -0.905559, -1.20048, 1.23091, -1.30216, 0.0123801, 0.0492412, 0.113899, -0.204422, -0.00757126, -0.0116204, 0.011111, 4.43916, 63.7079, 32.7768, 3.2605, 3.25946, 3.3533, -0.0685925, -0.00434811, 0.000350109, 0.0019406, -0.00130544, -0.00935034, -0.00554886, 0.0628677, -0.00923688, -0.0147297, -0.0689454, 0.162761, 0.10927, 0.474232, -0.534717, 0.34031, -2.07751, -2.17026, -0.123509, 0.47468, -0.538699, 0.337714, -2.07707, -2.182, -0.116047, 0.054748, 0.150061, 0.0758669, 0.0659222, 0.0906533, 0.0513619
0.168144, 1.69886, -1.22353, -1.53487, -0.905792, -1.20048, 1.23091, -1.30216, 0.00824971, 0.0492476, 0.115787, -0.211423, -0.00584449, -0.00743088, 0.0060297, 4.47486, 63.7079, 32.8126, 3.18512, 3.26587, 3.31759, -0.00999879, -0.00440566, 0.000363799, 0.00195517, -0.00138291, -0.00938102, -0.00572855, 0.0638892, -0.00917671, -0.0149768, -0.0661238, 0.164823, 0.116741, 0.474287, -0.534566, 0.340386, -2.0774, -2.17034, -0.123401, 0.47475, -0.538602, 0.337767, -2.07682, -2.18231, -0.116012, 0.0552732, 0.151577, 0.0766189, 0.0664227, 0.0911962, 0.0517164
0.169144, 1.69885, -1.22348, -1.53474, -0.906026, -1.20049, 1.23091, -1.30214, 0.00436021, 0.0488641, 0.11914, -0.217263, -0.00567238, -0.00975914, 0.0117039, 4.55024, 63.5968, 32.7768, 3.11371, 3.30249, 3.29562, -0.0750012, -0.00446426, 0.000375829, 0.00196428, -0.00146567, -0.00941848, -0.00589162, 0.0645242, -0.00788478, -0.0153623, -0.0678822, 0.164373, 0.11284, 0.474343, -0.534414, 0.340463, -2.07729, -2.17041, -0.123291, 0.47482, -0.538506, 0.337826, -2.0766, -2.18261, -0.115974, 0.0557986, 0.153096, 0.0773717, 0.0656725, 0.0920868, 0.0520362
0.170144, 1.69885, -1.22343, -1.5346, -0.906277, -1.20049, 1.2309, -1.30213, 0.000683282, 0.0489334, 0.123474, -0.228119, -0.00524927, -0.006935, 0.0111488, 4.66529, 63.5968, 32.7768, 3.18512, 3.33362, 3.28097, -0.0164075, -0.00452089, 0.000388422, 0.00198045, -0.00154192, -0.00944333, -0.0060791, 0.0637982, -0.0089606, -0.0153745, -0.0665697, 0.167122, 0.120336, 0.474399, -0.53426, 0.340541, -2.07718, -2.17049, -0.12318, 0.474891, -0.538405, 0.337878, -2.07634, -2.18293, -0.115942, 0.0563242, 0.154618, 0.0781255, 0.0672461, 0.0943769, 0.0528539
0.171144, 1.69885, -1.22338, -1.53447, -0.906522, -1.20049, 1.2309, -1.30211, -2.88985e-05, 0.0545487, 0.13072, -0.228407, -0.00465113, -0.00484329, 0.0143131, 4.701, 63.4857, 32.8522, 3.07404, 3.35834, 3.26724, -0.0484509, -0.00457829, 0.000403235, 0.00199217, -0.00162427, -0.00947897, -0.00625553, 0.0636442, -0.00961374, -0.00985532, -0.0582416, 0.173819, 0.119115, 0.474456, -0.534104, 0.340619, -2.07707, -2.17056, -0.123068, 0.474964, -0.538304, 0.337936, -2.0761, -2.18325, -0.115904, 0.05685, 0.156141, 0.07888, 0.0686466, 0.0952459, 0.0590618
0.172144, 1.69884, -1.22333, -1.53432, -0.906776, -1.20049, 1.2309, -1.3021, -0.0015194, 0.0518245, 0.133561, -0.240249, -0.00487152, -0.00272414, 0.0132852, 4.77637, 63.4103, 32.8126, 3.03833, 3.40137, 3.23886, 0.0101428, -0.00463491, 0.000417918, 0.00200401, -0.00170754, -0.00951269, -0.00644887, 0.0622858, -0.0117271, -0.0123455, -0.060172, 0.174232, 0.129233, 0.474513, -0.533947, 0.340699, -2.07696, -2.17064, -0.122956, 0.475038, -0.5382, 0.337995, -2.07585, -2.18358, -0.11587, 0.0573759, 0.157667, 0.0796352, 0.0711295, 0.0985895, 0.0574953
0.173144, 1.69883, -1.22328, -1.53418, -0.90704, -1.20049, 1.2309, -1.30208, -0.00350687, 0.0504651, 0.137753, -0.247302, -0.00405865, -0.00222592, 0.0175253, 4.89143, 63.3032, 32.8126, 2.96295, 3.41968, 3.23886, -0.0621838, -0.00469162, 0.000431872, 0.00201405, -0.00179269, -0.00954987, -0.00663126, 0.0617925, -0.0125168, -0.0130151, -0.059381, 0.17381, 0.130355, 0.47457, -0.533789, 0.340779, -2.07684, -2.17071, -0.122842, 0.475112, -0.538096, 0.338056, -2.0756, -2.18391, -0.115832, 0.0579019, 0.159194, 0.0803912, 0.0724005, 0.100743, 0.0576397
0.174144, 1.69883, -1.22323, -1.53403, -0.907309, -1.20049, 1.23089, -1.30207, -0.00395316, 0.0477893, 0.140056, -0.253488, -0.00256801, -0.00124878, 0.0159077, 4.9668, 63.2635, 32.8522, 2.88757, 3.41327, 3.22421, -0.0164075, -0.00474598, 0.000449357, 0.00202771, -0.00187682, -0.00958134, -0.00683354, 0.0613067, -0.0138369, -0.0150453, -0.0594699, 0.171849, 0.13745, 0.474629, -0.533629, 0.340859, -2.07673, -2.17079, -0.122727, 0.475189, -0.537986, 0.338114, -2.07533, -2.18425, -0.1158, 0.0584279, 0.160724, 0.0811479, 0.0741455, 0.103123, 0.0564216
0.175144, 1.69882, -1.22318, -1.53388, -0.90759, -1.2005, 1.23089, -1.30205, -0.0051229, 0.0497941, 0.141774, -0.261227, -0.0033804, -0.00571784, 0.0178588, 5.07789, 63.1921, 32.8879, 2.81219, 3.4563, 3.22421, -0.0484509, -0.00479939, 0.00046693, 0.00203954, -0.00196173, -0.00961671, -0.00703656, 0.060258, -0.0136427, -0.0152011, -0.0661041, 0.173929, 0.140451, 0.474687, -0.533468, 0.340941, -2.07661, -2.17087, -0.122611, 0.475267, -0.537875, 0.338175, -2.07506, -2.1846, -0.115764, 0.0589541, 0.162256, 0.0819052, 0.0744322, 0.105706, 0.0571932
0.176144, 1.6988, -1.22313, -1.53372, -0.90787, -1.2005, 1.23089, -1.30204, -0.00778652, 0.049472, 0.149649, -0.267842, -0.00230963, -0.00410142, 0.0123864, 5.26832, 63.1921, 32.9236, 2.62573, 3.4563, 3.21689, -0.0228162, -0.00485418, 0.000484201, 0.00204951, -0.00205999, -0.00964784, -0.00724719, 0.0593899, -0.0147982, -0.0137524, -0.0606474, 0.174609, 0.152064, 0.474746, -0.533304, 0.341023, -2.07649, -2.17095, -0.122494, 0.475346, -0.537764, 0.338239, -2.07478, -2.18496, -0.115747, 0.0594802, 0.16379, 0.0826631, 0.0761395, 0.107932, 0.059476
0.177144, 1.69879, -1.22308, -1.53355, -0.908153, -1.2005, 1.23089, -1.30202, -0.00865505, 0.0513667, 0.155543, -0.273785, -0.0024973, -0.00288361, 0.0149562, 5.41908, 63.2278, 32.9633, 2.47894, 3.48102, 3.20956, -0.0484509, -0.00490919, 0.000502913, 0.00206294, -0.00215988, -0.00967349, -0.00745375, 0.0583322, -0.0162045, -0.0117412, -0.0575823, 0.178449, 0.155402, 0.474806, -0.53314, 0.341106, -2.07637, -2.17103, -0.122376, 0.475426, -0.537651, 0.3383, -2.07451, -2.18531, -0.115736, 0.0600063, 0.165325, 0.0834216, 0.0781126, 0.110274, 0.062335
0.178144, 1.69878, -1.22303, -1.53337, -0.908455, -1.2005, 1.23089, -1.302, -0.00924968, 0.0567225, 0.1626, -0.282276, -0.00305272, -0.00250912, 0.0116735, 5.56983, 63.1168, 32.999, 2.40356, 3.51764, 3.21689, -0.0621838, -0.00495685, 0.000527163, 0.00206989, -0.00226022, -0.00971145, -0.00768473, 0.0558006, -0.0182589, -0.00772735, -0.0553981, 0.185818, 0.167453, 0.474866, -0.532974, 0.34119, -2.07626, -2.17111, -0.122257, 0.475513, -0.53753, 0.338369, -2.07421, -2.18569, -0.115715, 0.0605324, 0.166863, 0.0841806, 0.0807544, 0.113802, 0.0673755
0.179144, 1.69876, -1.22299, -1.53319, -0.908761, -1.2005, 1.23089, -1.30199, -0.0136209, 0.0521134, 0.168304, -0.29365, -0.00229614, -0.00163807, 0.0111542, 5.76026, 63.2278, 33.0387, 2.32819, 3.52405, 3.20956, -0.00267457, -0.00500719, 0.000550889, 0.00208567, -0.00236442, -0.00973209, -0.00792303, 0.055131, -0.0190524, -0.0101959, -0.0549515, 0.182655, 0.175539, 0.474927, -0.532806, 0.341275, -2.07613, -2.17119, -0.122137, 0.475599, -0.537408, 0.338429, -2.0739, -2.18608, -0.115714, 0.0610583, 0.168402, 0.0849401, 0.0819468, 0.116415, 0.0657725
0.180144, 1.69874, -1.22295, -1.53302, -0.909078, -1.2005, 1.23089, -1.30197, -0.0195331, 0.049325, 0.170035, -0.30107, -0.00266746, -0.000760858, 0.0147533, 6.06178, 63.1921, 33.1855, 2.25281, 3.55426, 3.19583, -0.0420422, -0.00505994, 0.000569923, 0.00209975, -0.00245678, -0.00976513, -0.00815003, 0.0572153, -0.017258, -0.0123946, -0.056237, 0.182053, 0.1722, 0.474989, -0.532637, 0.34136, -2.07601, -2.17127, -0.122016, 0.475681, -0.537288, 0.338492, -2.0736, -2.18646, -0.115687, 0.0615842, 0.169942, 0.0857, 0.0806809, 0.116146, 0.0641045
0.181144, 1.69872, -1.2229, -1.53283, -0.909405, -1.20051, 1.23088, -1.30196, -0.0169829, 0.0495337, 0.179928, -0.30726, -0.0033853, -0.00114894, 0.0143187, 6.21253, 63.1921, 33.1101, 2.2171, 3.59729, 3.20956, -0.00267457, -0.00510357, 0.000598988, 0.00211113, -0.00255834, -0.00979643, -0.00840902, 0.0538174, -0.0209874, -0.0102837, -0.0520878, 0.18378, 0.183901, 0.47505, -0.532466, 0.341446, -2.07589, -2.17135, -0.121894, 0.475774, -0.537157, 0.338559, -2.07327, -2.18687, -0.115673, 0.0621099, 0.171484, 0.0864603, 0.0848794, 0.120903, 0.0673407
0.182144, 1.6987, -1.22285, -1.53264, -0.909729, -1.20051, 1.23088, -1.30193, -0.0200942, 0.0483451, 0.182898, -0.314449, -0.00294501, -0.000865772, 0.016986, 6.43867, 63.1168, 33.0744, 2.14172, 3.6156, 3.20956, -0.0420422, -0.00515288, 0.000621997, 0.00212196, -0.0026603, -0.00982773, -0.00864683, 0.0540821, -0.0208628, -0.0112624, -0.0526121, 0.18382, 0.184891, 0.475113, -0.532294, 0.341533, -2.07577, -2.17143, -0.121771, 0.475861, -0.537031, 0.338627, -2.07297, -2.18727, -0.115656, 0.0626355, 0.173028, 0.087221, 0.0852548, 0.122329, 0.0670987
0.183144, 1.69868, -1.22281, -1.53245, -0.910058, -1.20051, 1.23088, -1.30192, -0.0222439, 0.0454383, 0.18512, -0.317117, -0.00264898, -0.000380771, 0.0167808, 6.6648, 63.1168, 33.1498, 1.99097, 3.63391, 3.20224, -0.0228162, -0.0052055, 0.000643534, 0.00213824, -0.00276355, -0.00985257, -0.00889325, 0.0556389, -0.0201994, -0.0129193, -0.0518397, 0.182019, 0.185372, 0.475176, -0.53212, 0.34162, -2.07564, -2.17152, -0.121646, 0.475947, -0.536906, 0.33869, -2.07264, -2.18767, -0.115648, 0.0631608, 0.174573, 0.087982, 0.0851179, 0.122557, 0.0660086
0.184144, 1.69866, -1.22278, -1.53225, -0.910402, -1.20051, 1.23088, -1.3019, -0.0181553, 0.041497, 0.190184, -0.324141, -0.0017716, -0.000852525, 0.0121333, 6.77985, 63.1921, 33.1101, 1.87988, 3.63391, 3.21689, -0.00999879, -0.00524888, 0.000674653, 0.00215665, -0.00286966, -0.0098695, -0.00916416, 0.052392, -0.0243829, -0.0151566, -0.0522258, 0.178699, 0.201854, 0.475239, -0.531945, 0.341709, -2.07552, -2.1716, -0.121521, 0.476043, -0.536769, 0.338753, -2.07229, -2.18809, -0.115652, 0.0636859, 0.176119, 0.0887433, 0.0895931, 0.127849, 0.0649109
0.185144, 1.69863, -1.22273, -1.53204, -0.910752, -1.20051, 1.23087, -1.30188, -0.023155, 0.0482027, 0.194937, -0.331753, -0.000744463, -0.000610457, 0.0141968, 6.96632, 63.0057, 33.1498, 1.87988, 3.62201, 3.21689, -0.0164075, -0.00529301, 0.000701511, 0.00216256, -0.0029804, -0.00990466, -0.00942938, 0.0521171, -0.0234867, -0.0108474, -0.0502499, 0.185989, 0.202838, 0.475303, -0.531768, 0.341798, -2.07539, -2.17169, -0.121395, 0.476136, -0.536634, 0.338828, -2.07196, -2.18852, -0.115641, 0.0642108, 0.177667, 0.0895048, 0.0893958, 0.128976, 0.0700017
0.186144, 1.69861, -1.22268, -1.53182, -0.911107, -1.20052, 1.23087, -1.30187, -0.023593, 0.0460541, 0.20119, -0.339835, -0.0018558, -0.000438552, 0.0182691, 7.00599, 62.97, 33.0744, 1.87988, 3.65863, 3.21689, 0.0357776, -0.00533278, 0.000735425, 0.00217332, -0.00309362, -0.00993164, -0.00971462, 0.0506163, -0.0254343, -0.0114684, -0.0495916, 0.186286, 0.206917, 0.475368, -0.53159, 0.341888, -2.07526, -2.17177, -0.121268, 0.476235, -0.536491, 0.3389, -2.0716, -2.18896, -0.115643, 0.0647353, 0.179216, 0.0902666, 0.0917788, 0.132196, 0.0703111
