alisrour97/Franka_experiments/Real_Robot_scripts/servo-franka/Data_video/log_dyn_PI2_0.csv
Time,q1,q2,q3,q4,q5,q6,q7,dq1,dq2,dq3,dq4,dq5,dq6,dq7,t1,t2,t3,t4,t5,t6,t7,ex1,ex2,ex3,ex4,ex5,ex6,ev1,ev2,ev3,ev4,ev5,ev6,xd,yd,zd,uxd,uyd,uzd,x,y,z,ux,uy,uz,vxd,vyd,vzd,vx,vy,vz
9.76563e-07, 1.69114, -1.22551, -1.53773, -0.899964, -1.19189, 1.22848, -1.30265, -0.00519808, -0.00133184, -0.00383509, 0.00305336, -0.00106667, 0.00108215, -0.00152473, -0.76989, 57.7768, 27.4885, 6.80725, 1.90906, 3.06674, -0.133595, 0.000867349, -0.00168602, -6.86978e-05, -3.16242e-05, -0.000535932, 0.000162072, 0.00436306, 0.00415467, -0.00129687, -0.000728485, -0.000100391, -0.00855167, 0.471008, -0.543389, 0.335894, -2.08385, -2.16584, -0.129887, 0.46929, -0.542616, 0.336152, -2.08432, -2.16598, -0.129373, -1.41255e-05, -9.11997e-05, -6.59526e-05, -0.00405424, -0.00436892, -0.00189845
0.0120857, 1.69114, -1.22554, -1.53777, -0.899992, -1.1919, 1.22848, -1.30266, -0.00271381, -0.00195091, -0.00356792, 0.00019701, -0.00105351, 0.00148584, 0.00130047, -0.392998, 57.8879, 27.417, 6.65649, 1.93927, 3.01639, -0.140919, 0.000859531, -0.00168805, -3.28254e-05, 1.88113e-05, -0.000524089, 0.000159938, 0.00240617, 0.00198109, -0.00202813, -0.00190735, -0.000210387, -0.00633583, 0.471008, -0.543389, 0.335894, -2.08385, -2.16584, -0.129887, 0.469293, -0.542615, 0.33611, -2.08428, -2.16596, -0.129318, -2.13283e-05, -0.000136675, -0.000102379, -0.00198703, -0.00228101, -0.00241873
0.0130857, 1.69114, -1.22554, -1.53777, -0.899992, -1.1919, 1.22848, -1.30266, -0.00271381, -0.00195091, -0.00356792, 0.00019701, -0.00105351, 0.00148584, 0.00130047, -0.392998, 57.8879, 27.417, 6.65649, 1.93927, 3.01639, -0.140919, 0.000859543, -0.00168805, -3.2832e-05, 1.88018e-05, -0.000524087, 0.000159937, 0.00235129, 0.00197241, -0.00199618, -0.00187907, -0.000200665, -0.00639666, 0.471008, -0.543389, 0.335894, -2.08385, -2.16584, -0.129887, 0.469293, -0.542615, 0.33611, -2.08428, -2.16596, -0.129318, -2.91898e-05, -0.000186294, -0.000142179, -0.00198703, -0.00228101, -0.00241873
0.0140857, 1.69114, -1.22554, -1.53777, -0.899992, -1.1919, 1.22848, -1.30266, -0.00271381, -0.00195091, -0.00356792, 0.00019701, -0.00105351, 0.00148584, 0.00130047, -0.392998, 57.8879, 27.417, 6.65649, 1.93927, 3.01639, -0.140919, 0.000859573, -0.00168805, -3.28499e-05, 1.87759e-05, -0.00052408, 0.000159933, 0.00229166, 0.00196297, -0.00196143, -0.0018482, -0.00018994, -0.00646292, 0.471008, -0.543389, 0.335894, -2.08385, -2.16584, -0.129887, 0.469293, -0.542615, 0.33611, -2.08428, -2.16596, -0.129318, -3.77325e-05, -0.000240197, -0.00018547, -0.00198703, -0.00228101, -0.00241873
0.0150857, 1.69114, -1.22554, -1.53777, -0.899992, -1.1919, 1.22848, -1.30266, -0.00271381, -0.00195091, -0.00356792, 0.00019701, -0.00105351, 0.00148584, 0.00130047, -0.392998, 57.8879, 27.417, 6.65649, 1.93927, 3.01639, -0.140919, 0.000859633, -0.00168804, -3.28845e-05, 1.87257e-05, -0.000524067, 0.000159925, 0.00222713, 0.00195277, -0.00192376, -0.00181462, -0.000178167, -0.00653479, 0.471008, -0.543389, 0.335894, -2.08385, -2.16584, -0.129887, 0.469293, -0.542615, 0.33611, -2.08428, -2.16596, -0.129318, -4.69786e-05, -0.000298522, -0.00023237, -0.00198703, -0.00228101, -0.00241873
0.0160857, 1.69114, -1.22554, -1.53777, -0.899992, -1.1919, 1.22848, -1.30266, -0.00271381, -0.00195091, -0.00356792, 0.00019701, -0.00105351, 0.00148584, 0.00130047, -0.392998, 57.8879, 27.417, 6.65649, 1.93927, 3.01639, -0.140919, 0.000859731, -0.00168802, -3.29415e-05, 1.86431e-05, -0.000524046, 0.000159912, 0.00215755, 0.00194176, -0.00188309, -0.00177827, -0.000165301, -0.00661247, 0.471008, -0.54339, 0.335894, -2.08385, -2.16584, -0.129887, 0.469293, -0.542615, 0.33611, -2.08428, -2.16596, -0.129318, -5.69498e-05, -0.000361405, -0.000282992, -0.00198703, -0.00228101, -0.00241873
0.0170857, 1.69114, -1.22554, -1.53777, -0.899992, -1.1919, 1.22848, -1.30266, -0.00271381, -0.00195091, -0.00356792, 0.00019701, -0.00105351, 0.00148584, 0.00130047, -0.392998, 57.8879, 27.417, 6.65649, 1.93927, 3.01639, -0.140919, 0.000859877, -0.001688, -3.30261e-05, 1.85202e-05, -0.000524015, 0.000159892, 0.00208277, 0.00192993, -0.00183933, -0.00173903, -0.000151298, -0.00669612, 0.471008, -0.54339, 0.335894, -2.08385, -2.16584, -0.129886, 0.469293, -0.542615, 0.33611, -2.08428, -2.16596, -0.129318, -6.7667e-05, -0.000428975, -0.000337449, -0.00198703, -0.00228101, -0.00241873
0.0180857, 1.69114, -1.22554, -1.53777, -0.899992, -1.1919, 1.22848, -1.30266, -0.00271381, -0.00195091, -0.00356792, 0.00019701, -0.00105351, 0.00148584, 0.00130047, -0.392998, 57.8879, 27.417, 6.65649, 1.93927, 3.01639, -0.140919, 0.00086008, -0.00168797, -3.31439e-05, 1.8349e-05, -0.000523971, 0.000159865, 0.00200266, 0.00191726, -0.0017924, -0.00169682, -0.000136114, -0.00678593, 0.471008, -0.54339, 0.335893, -2.08385, -2.16584, -0.129886, 0.469293, -0.542615, 0.33611, -2.08428, -2.16596, -0.129318, -7.91509e-05, -0.000501362, -0.000395848, -0.00198703, -0.00228101, -0.00241873
0.0190857, 1.69114, -1.22554, -1.53777, -0.899992, -1.1919, 1.22848, -1.30266, -0.00271381, -0.00195091, -0.00356792, 0.00019701, -0.00105351, 0.00148584, 0.00130047, -0.392998, 57.8879, 27.417, 6.65649, 1.93927, 3.01639, -0.140919, 0.000860349, -0.00168793, -3.33e-05, 1.81216e-05, -0.000523914, 0.000159829, 0.00191707, 0.00190373, -0.00174219, -0.00165155, -0.000119704, -0.00688207, 0.471008, -0.54339, 0.335893, -2.08385, -2.16584, -0.129886, 0.469293, -0.542615, 0.33611, -2.08428, -2.16596, -0.129318, -9.14213e-05, -0.000578688, -0.000458296, -0.00198703, -0.00228101, -0.00241873
0.0200857, 1.69114, -1.22554, -1.53777, -0.899992, -1.1919, 1.22848, -1.30266, -0.00271381, -0.00195091, -0.00356792, 0.00019701, -0.00105351, 0.00148584, 0.00130047, -0.392998, 57.8879, 27.417, 6.65649, 1.93927, 3.01639, -0.140919, 0.000860692, -0.00168787, -3.34997e-05, 1.78303e-05, -0.00052384, 0.000159783, 0.00182586, 0.0018893, -0.00168864, -0.00160314, -0.000102025, -0.00698471, 0.471008, -0.54339, 0.335893, -2.08385, -2.16584, -0.129885, 0.469293, -0.542615, 0.33611, -2.08428, -2.16596, -0.129318, -0.000104498, -0.000661074, -0.000524897, -0.00198703, -0.00228101, -0.00241873
0.0210857, 1.69114, -1.22554, -1.53777, -0.899992, -1.1919, 1.22848, -1.30266, -0.00271381, -0.00195091, -0.00356792, 0.00019701, -0.00105351, 0.00148584, 0.00130047, -0.392998, 57.8879, 27.417, 6.65649, 1.93927, 3.01639, -0.140919, 0.000861119, -0.0016878, -3.37483e-05, 1.74673e-05, -0.000523749, 0.000159726, 0.00172892, 0.00187397, -0.00163166, -0.00155149, -8.30329e-05, -0.00709402, 0.471008, -0.543391, 0.335893, -2.08385, -2.16584, -0.129885, 0.469293, -0.542615, 0.33611, -2.08428, -2.16596, -0.129318, -0.000118398, -0.000748633, -0.000595748, -0.00198703, -0.00228101, -0.00241873
0.0220859, 1.69114, -1.22554, -1.53777, -0.899992, -1.1919, 1.22848, -1.30266, -0.00271381, -0.00195091, -0.00356792, 0.00019701, -0.00105351, 0.00148584, 0.00130047, -0.392998, 57.8879, 27.417, 6.65649, 1.93927, 3.01639, -0.140919, 0.000861639, -0.00168772, -3.40508e-05, 1.70249e-05, -0.000523639, 0.000159657, 0.00162612, 0.00185772, -0.00157116, -0.00149653, -6.26833e-05, -0.00721015, 0.471008, -0.543391, 0.335892, -2.08385, -2.16584, -0.129884, 0.469293, -0.542615, 0.33611, -2.08428, -2.16596, -0.129318, -0.000133141, -0.000841478, -0.000670947, -0.00198703, -0.00228101, -0.00241873
0.0230859, 1.69114, -1.22554, -1.53777, -0.899992, -1.1919, 1.22848, -1.30266, -0.00271381, -0.00195091, -0.00356792, 0.00019701, -0.00105351, 0.00148584, 0.00130047, -0.392998, 57.8879, 27.417, 6.65649, 1.93927, 3.01639, -0.140919, 0.000862259, -0.00168762, -3.44123e-05, 1.64955e-05, -0.000523507, 0.000159575, 0.00151734, 0.00184052, -0.00150708, -0.00143816, -4.09333e-05, -0.00733325, 0.471008, -0.543392, 0.335892, -2.08385, -2.16584, -0.129884, 0.469293, -0.542615, 0.33611, -2.08428, -2.16596, -0.129318, -0.000148743, -0.000939713, -0.000750586, -0.00198703, -0.00228101, -0.00241873
0.0240859, 1.69114, -1.22554, -1.53777, -0.899992, -1.1919, 1.22848, -1.30266, -0.00271381, -0.00195091, -0.00356792, 0.00019701, -0.00105351, 0.00148584, 0.00130047, -0.392998, 57.8879, 27.417, 6.65649, 1.93927, 3.01639, -0.140919, 0.000862989, -0.00168751, -3.48379e-05, 1.58714e-05, -0.000523353, 0.000159477, 0.00140246, 0.00182235, -0.00143934, -0.00137632, -1.77398e-05, -0.00746348, 0.471008, -0.543393, 0.335891, -2.08385, -2.16584, -0.129883, 0.469293, -0.542615, 0.33611, -2.08428, -2.16596, -0.129318, -0.00016522, -0.00104344, -0.000834754, -0.00198703, -0.00228101, -0.00241873
0.0250859, 1.69113, -1.22556, -1.53781, -0.900001, -1.1919, 1.22851, -1.30266, -0.00201583, 0.000692664, -0.00303691, 0.000254432, 0.00103027, 0.00102047, 0.000447694, -0.0161054, 58.0347, 27.417, 6.62079, 1.93927, 2.93765, -0.133595, 0.000847979, -0.00169409, -1.07837e-05, 3.59449e-05, -0.000522455, 0.000177929, 0.000164787, 0.00122964, 0.000302317, -0.000142126, 0.000686495, -0.00519974, 0.471007, -0.543393, 0.335891, -2.08385, -2.16584, -0.129882, 0.469286, -0.542627, 0.336084, -2.08429, -2.16593, -0.129293, -0.000182589, -0.00115275, -0.000923534, -0.00139384, -0.00141227, -0.000613537
0.0260859, 1.69113, -1.22555, -1.53782, -0.899993, -1.1919, 1.22851, -1.30266, -0.000396163, 0.000442157, -0.00314583, 0.00276298, 0.000449487, 0.000680307, -0.000650973, -0.0557783, 58.0347, 27.4528, 6.5097, 1.94568, 2.93765, -0.10796, 0.000846625, -0.00169504, -1.15616e-05, 3.58556e-05, -0.00052502, 0.000185201, 0.000188078, 0.00100342, 0.000425001, 0.000187425, 0.000605322, -0.00508492, 0.471007, -0.543394, 0.33589, -2.08385, -2.16584, -0.129881, 0.469285, -0.542629, 0.336084, -2.0843, -2.16592, -0.129289, -0.000200863, -0.00126774, -0.00101701, -0.00118092, -0.00155988, -0.0005963
0.0270859, 1.69113, -1.22556, -1.53782, -0.899995, -1.1919, 1.22851, -1.30266, -0.00117735, 0.000548261, 0.000286729, 0.00183816, -0.00797952, -5.50906e-05, 0.000515454, -0.0161054, 57.8879, 27.3417, 6.5097, 1.92096, 2.95138, -0.133595, 0.000847168, -0.00169515, -1.20756e-05, 3.17452e-05, -0.00052426, 0.00018876, 0.000992896, 0.00169699, 0.00163213, -0.00161554, 0.00711269, -0.00754412, 0.471007, -0.543395, 0.335889, -2.08384, -2.16584, -0.129879, 0.469284, -0.54263, 0.336084, -2.0843, -2.16592, -0.129293, -0.000220057, -0.00138849, -0.00111525, -0.00182043, -0.00268934, 0.00039341
0.0280859, 1.69113, -1.22555, -1.53782, -0.899997, -1.1919, 1.22851, -1.30266, 0.000154206, 0.000192047, -0.00370969, 0.00215059, -0.00667257, -3.67287e-05, -0.00108052, -0.0557783, 57.4832, 27.2306, 6.47003, 1.81018, 2.95138, -0.0951428, 0.000849609, -0.00169377, -1.31196e-05, 3.57595e-05, -0.000529079, 0.000182761, 0.000964687, 0.00154234, 6.40827e-05, -0.00449441, 0.0059965, -0.00654725, 0.471007, -0.543396, 0.335888, -2.08384, -2.16584, -0.129878, 0.469285, -0.542629, 0.336084, -2.0843, -2.16592, -0.129282, -0.000240182, -0.00151507, -0.00121833, -0.00174373, -0.00254041, -0.00125828
0.0290859, 1.69114, -1.22557, -1.53783, -0.899993, -1.19191, 1.22852, -1.30266, 0.00270957, -0.00142298, -0.00369399, 0.00403003, -0.00337934, -0.000838289, -0.00292439, -0.166862, 57.3721, 27.1195, 6.35895, 1.75525, 2.97336, -0.0356336, 0.000849484, -0.00169042, -3.76335e-06, 3.79786e-05, -0.000519499, 0.000178799, -0.000343855, 0.0002487, -0.000736055, -0.00319916, 0.00123624, -0.0028513, 0.471007, -0.543398, 0.335887, -2.08384, -2.16584, -0.129876, 0.469288, -0.542629, 0.336074, -2.08429, -2.16592, -0.129288, -0.000261251, -0.00164757, -0.00132632, -0.000548499, -0.00120499, -0.00199226
0.0300859, 1.69113, -1.22558, -1.53783, -0.899999, -1.19191, 1.22852, -1.30265, -0.00310616, -0.00260059, -0.00516043, -0.000553027, -0.00584292, -0.00106749, 0.00072917, -0.0914839, 57.261, 26.933, 6.35895, 1.70581, 2.98709, -0.10796, 0.000847035, -0.00169219, 2.31989e-06, 4.11092e-05, -0.000517267, 0.000194574, 0.00160774, 0.00301933, -0.00220626, -0.00712032, 0.00232198, -0.00992608, 0.471007, -0.543399, 0.335886, -2.08384, -2.16584, -0.129874, 0.469286, -0.542632, 0.336066, -2.0843, -2.1659, -0.129284, -0.000283275, -0.00178604, -0.00143928, -0.00332088, -0.00315721, -0.0037763
0.0310859, 1.69113, -1.22558, -1.53784, -0.899995, -1.19192, 1.22853, -1.30265, -0.0040923, -0.00331894, -0.00360112, 0.00195872, -0.00929022, -0.002068, 0.000486113, -0.0161054, 57.15, 26.8934, 6.24786, 1.70032, 3.02371, -0.10796, 0.000841047, -0.00169718, 5.1538e-06, 4.41457e-05, -0.000522536, 0.000210793, 0.00295127, 0.00439305, -0.00166727, -0.00685643, 0.00361671, -0.0134323, 0.471006, -0.543401, 0.335885, -2.08384, -2.16584, -0.129872, 0.469281, -0.542639, 0.336061, -2.08432, -2.16589, -0.129271, -0.000306264, -0.00193055, -0.00155726, -0.00464831, -0.00476724, -0.00352915
0.0320859, 1.69112, -1.2256, -1.53785, -0.900006, -1.19193, 1.22854, -1.30266, -0.00292191, -0.00844028, -0.00719244, -0.000660714, -0.00772382, 0.00249806, -0.00282941, -0.0161054, 57.3721, 26.933, 6.32324, 1.71222, 3.04477, -0.0228162, 0.000838386, -0.00169615, 1.89829e-05, 5.25285e-05, -0.000518055, 0.000201468, 0.00289049, 0.00265095, -0.00587131, -0.0070591, 2.33435e-05, -0.00797444, 0.471006, -0.543402, 0.335883, -2.08384, -2.16584, -0.12987, 0.469281, -0.542641, 0.336046, -2.0843, -2.16589, -0.129265, -0.000330225, -0.00208114, -0.00168032, -0.0030864, -0.00413951, -0.00784645
0.0330859, 1.69112, -1.22561, -1.53785, -0.900007, -1.19195, 1.22855, -1.30265, -0.00469168, -0.00899837, -0.00473334, 0.000335077, -0.00664452, 0.00702167, 0.000792494, 0.0949785, 57.4832, 26.8934, 6.28357, 1.73053, 3.03744, -0.0951428, 0.000833503, -0.00169745, 2.13432e-05, 4.30806e-05, -0.000525134, 0.000217897, 0.00359493, 0.00244828, -0.00459434, 0.000323161, 0.000559477, -0.0128573, 0.471006, -0.543404, 0.335882, -2.08384, -2.16584, -0.129868, 0.46928, -0.542647, 0.336041, -2.08433, -2.16588, -0.129264, -0.000355167, -0.00223786, -0.0018085, -0.00283765, -0.00517994, -0.00682915
0.0340859, 1.69111, -1.22562, -1.53784, -0.900018, -1.19196, 1.22857, -1.30265, -0.00592801, -0.0100124, -0.00213493, -0.00248942, -0.00460173, 0.0111173, 0.000528329, 0.21003, 57.63, 26.822, 6.39465, 1.71863, 3.00906, -0.0951428, 0.000831434, -0.00169689, 2.30767e-05, 3.06664e-05, -0.000531725, 0.000217928, 0.00270269, 0.00102845, -0.00412756, 0.00596866, -1.39739e-05, -0.00959426, 0.471005, -0.543406, 0.33588, -2.08384, -2.16584, -0.129865, 0.46928, -0.542651, 0.336038, -2.08434, -2.16589, -0.129269, -0.000381096, -0.00240075, -0.00194184, -0.00146063, -0.00447574, -0.00640592
0.0350859, 1.69111, -1.22563, -1.53784, -0.900019, -1.19197, 1.22859, -1.30265, -0.00486895, -0.0113787, -0.00274585, -0.00318415, -0.00776272, 0.0141827, -0.000868484, 0.245735, 57.8125, 26.8577, 6.32324, 1.70581, 2.98068, -0.0621838, 0.000827916, -0.00169429, 2.72182e-05, 1.73759e-05, -0.000538619, 0.00021836, 0.00304126, 0.000127353, -0.00491649, 0.00612245, 0.00290314, -0.00809103, 0.471005, -0.543408, 0.335878, -2.08384, -2.16584, -0.129862, 0.469282, -0.542656, 0.336031, -2.08435, -2.16589, -0.129274, -0.000408018, -0.00256985, -0.00208038, -0.000604023, -0.0048208, -0.00740317
0.0360859, 1.6911, -1.22562, -1.53784, -0.90002, -1.19198, 1.22861, -1.30265, -0.0051633, -0.00540626, 0.000142913, -0.00469363, -0.0103985, 0.0142994, 0.00482637, 0.325081, 57.7054, 26.8934, 6.28357, 1.70032, 3.00906, -0.0814099, 0.000825258, -0.00169518, 1.95649e-05, 6.60336e-06, -0.000564148, 0.000231695, 0.00189234, -0.000198728, -0.00045338, 0.00745454, 0.0110513, -0.0125775, 0.471005, -0.543411, 0.335877, -2.08384, -2.16583, -0.129859, 0.469281, -0.542662, 0.336036, -2.08438, -2.1659, -0.129255, -0.000435936, -0.00274516, -0.00222414, -0.000186182, -0.00453544, -0.00297148
0.0370859, 1.69109, -1.22563, -1.53784, -0.900033, -1.19199, 1.22863, -1.30265, -0.00608662, -0.00728245, -0.000842362, -0.00934403, -0.0112186, 0.0193934, 0.00435467, 0.436165, 57.8522, 26.933, 6.39465, 1.66369, 3.03012, -0.101552, 0.000822929, -0.00169309, 2.3966e-05, -3.57788e-06, -0.000574123, 0.000234588, 0.00179896, -0.00145177, -0.00193218, 0.00852596, 0.0128634, -0.00989699, 0.471004, -0.543413, 0.335874, -2.08384, -2.16583, -0.129855, 0.469283, -0.542667, 0.33603, -2.08439, -2.1659, -0.129252, -0.000464854, -0.00292672, -0.00237315, 0.000979571, -0.00434596, -0.00460399
0.0380859, 1.69109, -1.22562, -1.53784, -0.900036, -1.192, 1.22864, -1.30265, -0.00502025, -0.000676721, 0.000359233, -0.00830894, -0.0121392, 0.016802, 0.000517678, 0.475838, 57.6657, 26.8934, 6.32324, 1.63257, 3.09512, -0.0292249, 0.000824176, -0.0016909, 1.37596e-05, -1.40363e-05, -0.000602987, 0.000227663, 0.00045648, -0.00136516, 0.00235616, 0.00788729, 0.0188286, -0.00600025, 0.471004, -0.543416, 0.335872, -2.08384, -2.16583, -0.129852, 0.469285, -0.54267, 0.336037, -2.0844, -2.16593, -0.129232, -0.000494774, -0.00311453, -0.00252743, 0.000970047, -0.00387197, -0.000312912
0.0390859, 1.69109, -1.22563, -1.53785, -0.900038, -1.19202, 1.22866, -1.30265, -0.00513593, -0.00318719, -0.00152916, -0.00451489, -0.0127399, 0.0207455, 9.03981e-05, 0.551216, 57.7768, 26.9687, 6.24786, 1.59595, 3.13815, -0.0164075, 0.000821079, -0.00169006, 1.59141e-05, -2.20583e-05, -0.000614738, 0.00023615, 0.00257926, -0.00085362, 0.00122169, 0.0111205, 0.0186033, -0.010324, 0.471003, -0.543419, 0.33587, -2.08384, -2.16583, -0.129848, 0.469286, -0.542675, 0.336032, -2.08442, -2.16593, -0.129224, -0.000525695, -0.00330858, -0.00268698, 0.000463169, -0.00600803, -0.00190667
0.0400859, 1.69109, -1.22562, -1.53784, -0.90005, -1.19203, 1.22868, -1.30264, -0.0060418, 0.00037047, 0.000739741, -0.00851281, -0.00865222, 0.0233855, 0.00263276, 0.6623, 57.6657, 26.8934, 6.32324, 1.56482, 3.18851, -0.0814099, 0.000822546, -0.00168586, 6.34286e-06, -4.00928e-05, -0.000646765, 0.000240664, 0.000227609, -0.00255092, 0.00397283, 0.0159624, 0.0203371, -0.00811701, 0.471003, -0.543422, 0.335867, -2.08384, -2.16583, -0.129843, 0.46929, -0.542678, 0.336039, -2.08445, -2.16595, -0.129207, -0.000557617, -0.00350887, -0.00285182, 0.00214167, -0.00424067, 0.000958786
0.0410859, 1.69108, -1.22562, -1.53784, -0.900061, -1.19204, 1.22871, -1.30265, -0.00673367, 0.0010048, -0.000437902, -0.00719148, -0.00985716, 0.0265019, 0.000929487, 0.777352, 57.63, 26.933, 6.35895, 1.52179, 3.20956, -0.0557752, 0.00082145, -0.00168361, 1.08577e-06, -5.55344e-05, -0.000673797, 0.00023993, 0.00144492, -0.00211918, 0.00455971, 0.0179986, 0.0234895, -0.00950212, 0.471002, -0.543426, 0.335864, -2.08384, -2.16583, -0.129839, 0.469291, -0.542684, 0.336042, -2.08447, -2.16597, -0.129192, -0.000590537, -0.00371538, -0.00302192, 0.00174231, -0.00575693, 0.00119228
0.0420859, 1.69108, -1.22561, -1.53784, -0.900063, -1.19206, 1.22874, -1.30265, -0.00709848, 0.00144704, -0.000294217, -0.00669494, -0.00702275, 0.0283231, -3.35158e-05, 0.888436, 57.5943, 26.933, 6.28357, 1.50348, 3.24527, -0.0356336, 0.00081913, -0.00168167, -5.32659e-06, -7.33046e-05, -0.00070172, 0.000244273, 0.00107435, -0.00251018, 0.00526031, 0.0214909, 0.0225022, -0.00859611, 0.471002, -0.543429, 0.335861, -2.08384, -2.16583, -0.129834, 0.469293, -0.54269, 0.336045, -2.0845, -2.16598, -0.129178, -0.000624453, -0.00392809, -0.0031973, 0.00211096, -0.00569563, 0.0017544
0.0430859, 1.69107, -1.22562, -1.53784, -0.900073, -1.19207, 1.22877, -1.30265, -0.00610845, -0.000749275, 0.000730164, -0.00751203, -0.0100053, 0.0249231, 0.00079325, 1.07887, 57.6657, 26.8934, 6.24786, 1.49707, 3.28097, -0.0557752, 0.000816579, -0.0016791, -8.58064e-06, -9.77284e-05, -0.000724046, 0.000248902, 0.000382187, -0.00254892, 0.0040155, 0.0174566, 0.0211679, -0.00848466, 0.471001, -0.543433, 0.335858, -2.08384, -2.16582, -0.129829, 0.469295, -0.542697, 0.336044, -2.08453, -2.166, -0.129177, -0.000659358, -0.00414696, -0.00337792, 0.00204504, -0.005038, 0.000450866
0.0440859, 1.69107, -1.22562, -1.53785, -0.900079, -1.19209, 1.2288, -1.30264, -0.00465644, -0.0022954, -0.0038762, -0.00483423, -0.0135042, 0.0275758, 0.00129312, 1.11457, 57.7411, 27.0798, 6.20819, 1.5282, 3.30295, -0.0750012, 0.000813846, -0.00167475, -5.3436e-06, -0.000101964, -0.000750941, 0.000255539, 0.00235782, -0.00211449, 0.00215429, 0.0151705, 0.0239692, -0.0135517, 0.471, -0.543437, 0.335855, -2.08383, -2.16582, -0.129823, 0.469299, -0.542703, 0.336037, -2.08455, -2.16601, -0.129148, -0.000695248, -0.00437195, -0.00356376, 0.00157865, -0.00694473, -0.00186627
0.0450859, 1.69106, -1.22562, -1.53785, -0.900077, -1.19211, 1.22883, -1.30264, -0.0082057, -0.00071954, -0.000914661, 0.000573204, -0.0154321, 0.0294987, 0.000901233, 1.34071, 57.7054, 27.0084, 6.02173, 1.5401, 3.324, -0.0750012, 0.000806377, -0.0016757, -1.56214e-05, -0.000136248, -0.000786392, 0.000275557, 0.0050936, 0.000419891, 0.00539132, 0.0219323, 0.0273577, -0.0209454, 0.471, -0.543442, 0.335851, -2.08383, -2.16582, -0.129818, 0.469298, -0.542716, 0.336043, -2.08461, -2.16602, -0.129143, -0.000732114, -0.004603, -0.00375481, -0.000774495, -0.0104785, 0.000790961
0.0460859, 1.69106, -1.22562, -1.53785, -0.900088, -1.19213, 1.22887, -1.30264, -0.00320422, -0.000498059, -0.00144571, -4.21175e-05, -0.0172359, 0.0325199, -8.1889e-05, 1.38038, 57.7054, 27.0441, 6.02173, 1.56482, 3.30295, -0.0557752, 0.000806941, -0.00166705, -1.9519e-05, -0.000156021, -0.000823, 0.000270614, 0.00318866, -0.0028179, 0.00540991, 0.0223567, 0.0308534, -0.015658, 0.470999, -0.543446, 0.335848, -2.08383, -2.16582, -0.129812, 0.469306, -0.542721, 0.336043, -2.08463, -2.16605, -0.129122, -0.000769946, -0.00484006, -0.003951, 0.00235387, -0.00870534, 0.000810991
0.0470859, 1.69106, -1.22561, -1.53785, -0.900088, -1.19216, 1.22891, -1.30264, -0.00134273, 0.000582206, -0.00179957, 0.00225219, -0.0232269, 0.0384074, 0.000679509, 1.49146, 57.6657, 27.0798, 5.91064, 1.58954, 3.31027, -0.0750012, 0.000802686, -0.00166382, -2.8015e-05, -0.000179464, -0.000865568, 0.000283798, 0.00454138, -0.00371178, 0.00682218, 0.0254232, 0.0396909, -0.0191042, 0.470998, -0.543451, 0.335844, -2.08383, -2.16582, -0.129805, 0.469309, -0.542731, 0.336046, -2.08468, -2.16607, -0.129097, -0.000808735, -0.00508306, -0.00415231, 0.00330725, -0.0104646, 0.00176728
0.0480859, 1.69106, -1.22562, -1.53786, -0.900086, -1.19219, 1.22895, -1.30264, 0.000944654, -0.00222065, -0.00472659, 0.00469649, -0.0229257, 0.0382684, 0.000469524, 1.57081, 57.7768, 27.2306, 5.76385, 1.60785, 3.31027, -0.0750012, 0.000796612, -0.00165812, -2.73833e-05, -0.000201623, -0.000900861, 0.000295033, 0.00477762, -0.00403793, 0.0045126, 0.0236206, 0.0366946, -0.0203601, 0.470997, -0.543456, 0.33584, -2.08383, -2.16582, -0.129798, 0.469314, -0.542742, 0.33604, -2.08472, -2.16608, -0.129078, -0.000848468, -0.00533191, -0.00435868, 0.0035182, -0.0105779, -0.000766143
0.0490859, 1.69107, -1.22561, -1.53786, -0.900088, -1.19221, 1.22899, -1.30264, 0.000451128, 0.00730714, -0.00315137, 0.00471525, -0.0230046, 0.0373835, -0.00113266, 1.60651, 57.6657, 27.2306, 5.68848, 1.63898, 3.33133, -0.0356336, 0.00079805, -0.0016475, -3.84964e-05, -0.000228426, -0.00095091, 0.00028881, 0.0034061, -0.00373375, 0.0107877, 0.0252327, 0.0457684, -0.0190292, 0.470997, -0.543461, 0.335835, -2.08383, -2.16581, -0.129791, 0.469324, -0.542747, 0.336047, -2.08475, -2.16612, -0.12905, -0.000889131, -0.00558652, -0.00457004, 0.00335168, -0.0104566, 0.00544071
0.0500859, 1.69107, -1.22562, -1.53786, -0.900092, -1.19224, 1.22903, -1.30264, 0.00110993, 0.00278356, -0.00210114, 0.00393728, -0.0267364, 0.0355987, 1.72155e-07, 1.72157, 57.7768, 27.2306, 5.6488, 1.63898, 3.38168, -0.0557752, 0.000795755, -0.00163989, -3.9326e-05, -0.000253951, -0.000982633, 0.000293663, 0.00335916, -0.00384302, 0.00838003, 0.0221828, 0.0435279, -0.0198411, 0.470996, -0.543467, 0.335831, -2.08383, -2.16581, -0.129784, 0.469331, -0.542754, 0.336043, -2.08478, -2.16614, -0.129038, -0.00093071, -0.0058468, -0.00478633, 0.00333053, -0.0102955, 0.00285097
0.0510859, 1.69108, -1.22562, -1.53787, -0.900089, -1.19227, 1.22907, -1.30264, 0.00673354, 0.00390909, -0.00223615, 0.00512263, -0.0298795, 0.038748, 0.00071916, 1.75727, 57.7054, 27.2663, 5.53772, 1.65088, 3.44668, -0.0750012, 0.000794615, -0.00163116, -4.63583e-05, -0.000277369, -0.00102792, 0.000303955, 0.00178899, -0.00695817, 0.00931956, 0.0232992, 0.0489302, -0.017532, 0.470995, -0.543473, 0.335826, -2.08383, -2.16581, -0.129776, 0.469339, -0.542762, 0.336044, -2.08483, -2.16617, -0.129009, -0.000973186, -0.00611264, -0.00500747, 0.00637708, -0.00902837, 0.00370705
0.0520859, 1.69109, -1.22562, -1.53787, -0.90009, -1.1923, 1.22912, -1.30264, 0.00687117, 0.00289327, -0.00325413, 0.0041748, -0.0312833, 0.0416222, -0.00022741, 1.83265, 57.7054, 27.3417, 5.50201, 1.63898, 3.49612, -0.0557752, 0.000793629, -0.00162169, -5.44485e-05, -0.00030406, -0.00107795, 0.00030611, 0.00203122, -0.00750176, 0.0086605, 0.0238742, 0.0507206, -0.01692, 0.470994, -0.543479, 0.335821, -2.08382, -2.16581, -0.129768, 0.469348, -0.54277, 0.336047, -2.08487, -2.1662, -0.12898, -0.00101654, -0.00638391, -0.00523338, 0.00686147, -0.00941511, 0.00277632
0.0530859, 1.6911, -1.22562, -1.53787, -0.900086, -1.19233, 1.22917, -1.30264, 0.00686016, 0.00214425, -0.00216952, 0.00448981, -0.0335958, 0.049431, 0.00282627, 1.90803, 57.7054, 27.3417, 5.42664, 1.65729, 3.52542, -0.00999879, 0.000791599, -0.00161199, -6.15926e-05, -0.000332969, -0.00112686, 0.000310276, 0.00293704, -0.00884467, 0.00952598, 0.0308045, 0.0557122, -0.0208632, 0.470993, -0.543485, 0.335816, -2.08382, -2.1658, -0.129759, 0.469357, -0.542779, 0.336048, -2.08491, -2.16623, -0.128953, -0.00106076, -0.00666049, -0.00546395, 0.00822218, -0.0106642, 0.00321914
0.0540859, 1.69111, -1.22562, -1.53787, -0.900088, -1.19237, 1.22922, -1.30263, 0.00605395, 0.00251908, -0.00144642, 0.00211551, -0.0394202, 0.0469216, 0.00468373, 2.02308, 57.6657, 27.3417, 5.46234, 1.65729, 3.52542, -0.0750012, 0.00079139, -0.00160039, -7.09763e-05, -0.000366112, -0.00118112, 0.000319112, 0.00298292, -0.00797753, 0.00968644, 0.0257565, 0.0598339, -0.0234246, 0.470992, -0.543492, 0.33581, -2.08382, -2.1658, -0.12975, 0.469368, -0.542787, 0.336052, -2.08497, -2.16626, -0.128925, -0.00110581, -0.00694224, -0.0056991, 0.00731862, -0.0110514, 0.00316148
0.0550859, 1.69112, -1.22561, -1.53787, -0.900087, -1.19241, 1.22927, -1.30263, 0.00642911, 0.00263577, -0.00179955, 0.00665441, -0.03353, 0.0547234, 0.00341653, 2.09846, 57.63, 27.3774, 5.50201, 1.63898, 3.51077, -0.0750012, 0.000790034, -0.00158754, -8.14281e-05, -0.000403874, -0.00124152, 0.000319072, 0.00355118, -0.00924892, 0.0111222, 0.0372719, 0.0587062, -0.0243331, 0.470991, -0.543499, 0.335805, -2.08382, -2.1658, -0.12974, 0.46938, -0.542796, 0.336056, -2.08501, -2.16631, -0.128896, -0.00115168, -0.007229, -0.00593872, 0.00861484, -0.0120681, 0.00421289
0.0560859, 1.69113, -1.22561, -1.53788, -0.900094, -1.19245, 1.22933, -1.30264, 0.00976325, 0.00268327, -0.00212776, 0.00233092, -0.0348617, 0.0541919, 0.000802797, 2.17384, 57.5943, 27.417, 5.6131, 1.64447, 3.53274, -0.0292249, 0.000791848, -0.00157354, -8.91244e-05, -0.00042882, -0.00130133, 0.000312225, 0.00073672, -0.0118325, 0.0104103, 0.033528, 0.0601706, -0.0156358, 0.47099, -0.543506, 0.335799, -2.08382, -2.16579, -0.129731, 0.469393, -0.542802, 0.336057, -2.08505, -2.16636, -0.128854, -0.00119834, -0.00752062, -0.00618267, 0.0110222, -0.00936587, 0.00362445
0.0570859, 1.69114, -1.22562, -1.53788, -0.900088, -1.19249, 1.22938, -1.30264, 0.0104603, 0.000186568, -0.00141854, 0.00275899, -0.035273, 0.054594, 0.000937955, 2.32459, 57.6657, 27.417, 5.57739, 1.63898, 3.53915, -0.0356336, 0.000787211, -0.0015636, -9.61716e-05, -0.000464416, -0.00135828, 0.000320744, 0.000437915, -0.0123771, 0.00945605, 0.0343921, 0.0582459, -0.0156052, 0.470988, -0.543514, 0.335793, -2.08381, -2.16579, -0.12972, 0.469402, -0.542815, 0.336057, -2.0851, -2.16639, -0.128825, -0.00124576, -0.00781692, -0.00643084, 0.0114735, -0.00919804, 0.00246386
0.0580859, 1.69116, -1.22562, -1.53788, -0.900093, -1.19253, 1.22944, -1.30263, 0.0116048, -0.00158774, -1.76948e-05, 0.000446263, -0.0405933, 0.0546415, 0.00220741, 2.32459, 57.7411, 27.3774, 5.6488, 1.62616, 3.5538, -0.0750012, 0.00079103, -0.00154504, -0.000101746, -0.000496007, -0.00141435, 0.000317732, -0.000155972, -0.0132773, 0.00874043, 0.031959, 0.0610967, -0.0152008, 0.470987, -0.543521, 0.335786, -2.08381, -2.16579, -0.12971, 0.469419, -0.542819, 0.336056, -2.08514, -2.16643, -0.128793, -0.00129392, -0.00811772, -0.00668309, 0.0122772, -0.00876557, 0.0015698
0.0590859, 1.69117, -1.22562, -1.53787, -0.900087, -1.19258, 1.22949, -1.30263, 0.0145953, -0.00102016, 0.00165862, 0.00217597, -0.0392057, 0.0591491, 0.00108993, 2.3603, 57.7411, 27.306, 5.57739, 1.60785, 3.57577, -0.0621838, 0.000792026, -0.00152966, -0.000112095, -0.000534813, -0.00147386, 0.00031692, -0.00152039, -0.0158868, 0.0103575, 0.0386013, 0.0626792, -0.0117883, 0.470986, -0.54353, 0.335779, -2.08381, -2.16578, -0.129699, 0.469434, -0.542827, 0.336059, -2.08519, -2.16648, -0.128764, -0.00134278, -0.00842284, -0.00693927, 0.0148444, -0.00786573, 0.00304293
0.0600859, 1.69119, -1.22563, -1.53787, -0.900087, -1.19262, 1.22955, -1.30264, 0.0125421, -0.00148657, 0.00110574, 0.00160667, -0.0435115, 0.0583141, -0.000899025, 2.43568, 57.7768, 27.306, 5.57739, 1.59595, 3.58218, -0.0164075, 0.000793074, -0.00151401, -0.000119902, -0.000568422, -0.00153525, 0.000310614, -0.000196732, -0.0141894, 0.0100558, 0.0356021, 0.0654487, -0.0134458, 0.470984, -0.543538, 0.335772, -2.08381, -2.16578, -0.129687, 0.469448, -0.542835, 0.33606, -2.08523, -2.16653, -0.128728, -0.00139231, -0.00873205, -0.00719924, 0.0131361, -0.00950471, 0.00233091
0.0610859, 1.69121, -1.22562, -1.53787, -0.900087, -1.19267, 1.22961, -1.30263, 0.0149274, 0.000700955, 0.00166517, 0.00118813, -0.0465999, 0.0582945, 0.0011484, 2.47535, 57.7054, 27.2663, 5.57739, 1.58954, 3.57577, -0.0621838, 0.000795345, -0.00149754, -0.000133734, -0.000604816, -0.00160847, 0.000313298, -0.00144509, -0.0153836, 0.0115698, 0.0344656, 0.070318, -0.0139963, 0.470983, -0.543547, 0.335765, -2.0838, -2.16578, -0.129675, 0.469464, -0.542843, 0.336066, -2.08529, -2.16658, -0.128682, -0.00144249, -0.00904515, -0.00746282, 0.0142889, -0.00876947, 0.00371971
0.0620859, 1.69122, -1.22564, -1.53787, -0.90009, -1.19272, 1.22967, -1.30263, 0.0160649, -0.00378541, 0.000182084, 4.46299e-05, -0.0538898, 0.0584754, 0.000567494, 2.55073, 57.8879, 27.306, 5.6131, 1.58313, 3.56112, -0.0557752, 0.000794752, -0.0014819, -0.000134459, -0.000632474, -0.00166618, 0.000315689, -0.000443673, -0.0153668, 0.00842603, 0.0290542, 0.0722391, -0.0147978, 0.470982, -0.543556, 0.335758, -2.0838, -2.16577, -0.129663, 0.469478, -0.542852, 0.336059, -2.08533, -2.16662, -0.128642, -0.00149327, -0.00936199, -0.00772991, 0.0141432, -0.00959187, 0.000193385
0.0630859, 1.69124, -1.22563, -1.53787, -0.900079, -1.19277, 1.22972, -1.30263, 0.0187096, 0.000922194, -0.00115882, 0.00997047, -0.0495786, 0.0584687, -0.0010503, 2.55073, 57.7411, 27.2306, 5.46234, 1.57123, 3.54648, -0.0164075, 0.000796961, -0.00146536, -0.000152793, -0.000677864, -0.00174039, 0.000314577, -5.51189e-05, -0.0148498, 0.0121739, 0.0348052, 0.072793, -0.0189724, 0.47098, -0.543565, 0.33575, -2.0838, -2.16577, -0.12965, 0.469494, -0.542862, 0.336069, -2.08539, -2.16667, -0.128604, -0.00154466, -0.00968246, -0.00800043, 0.0137255, -0.0108937, 0.00357881
0.0640859, 1.69126, -1.22564, -1.53787, -0.900085, -1.19283, 1.22978, -1.30263, 0.0214219, -0.00596656, -9.81512e-05, 0.00453413, -0.0511572, 0.0577117, 0.000779943, 2.51106, 57.8879, 27.1909, 5.57739, 1.55932, 3.5538, -0.0557752, 0.000801928, -0.00144523, -0.000155981, -0.0007055, -0.00180045, 0.000308191, -0.00256343, -0.0176416, 0.00776377, 0.030989, 0.0674431, -0.0137046, 0.470979, -0.543575, 0.335742, -2.0838, -2.16576, -0.129636, 0.469512, -0.542866, 0.336064, -2.08543, -2.16672, -0.128561, -0.00159663, -0.0100065, -0.00827433, 0.0162121, -0.00794864, -0.000745354
0.0650859, 1.69128, -1.22563, -1.53786, -0.900082, -1.19288, 1.22984, -1.30262, 0.0197685, -0.00247071, 0.0023428, 0.00345655, -0.0570344, 0.0581724, 0.0012486, 2.62611, 57.8125, 27.0798, 5.57739, 1.55292, 3.53274, -0.0750012, 0.000801218, -0.0014324, -0.000173229, -0.000746597, -0.00188101, 0.000316866, -0.00214531, -0.0167986, 0.0108894, 0.0310478, 0.075962, -0.0161634, 0.470977, -0.543585, 0.335734, -2.08379, -2.16576, -0.129623, 0.469524, -0.542879, 0.336073, -2.0855, -2.16677, -0.12851, -0.00164918, -0.0103339, -0.00855153, 0.0154461, -0.00920428, 0.00202429
0.0660859, 1.6913, -1.22565, -1.53787, -0.900082, -1.19294, 1.2299, -1.30263, 0.0222464, -0.00443778, -0.000344033, 0.00491116, -0.0564345, 0.0581248, -0.00132532, 2.58643, 57.9236, 27.1552, 5.6131, 1.5163, 3.5181, -0.0164075, 0.000803595, -0.0014136, -0.000174281, -0.000772284, -0.00194165, 0.000310353, -0.00255904, -0.0175453, 0.00907751, 0.0293102, 0.073719, -0.0139242, 0.470975, -0.543595, 0.335725, -2.08379, -2.16576, -0.129608, 0.469541, -0.542886, 0.336065, -2.08553, -2.16681, -0.128464, -0.00170228, -0.0106648, -0.00883197, 0.0160583, -0.0088173, -3.92508e-06
0.0670859, 1.69132, -1.22564, -1.53787, -0.900078, -1.193, 1.22996, -1.30263, 0.023001, 0.00033102, -0.000336353, 0.00377784, -0.0557424, 0.0584053, -0.000636875, 2.58643, 57.7768, 27.1552, 5.6131, 1.49158, 3.49612, -0.0228162, 0.00080496, -0.00139934, -0.000188881, -0.000802385, -0.00202245, 0.000313721, -0.00416726, -0.0183243, 0.0119415, 0.0298607, 0.0782766, -0.0131782, 0.470974, -0.543606, 0.335716, -2.08379, -2.16575, -0.129594, 0.469554, -0.542897, 0.33607, -2.08559, -2.16686, -0.1284, -0.00175593, -0.0109989, -0.0091156, 0.0168293, -0.00797245, 0.00276605
0.0680859, 1.69133, -1.22564, -1.53787, -0.900073, -1.19306, 1.23001, -1.30262, 0.0204537, -0.00149841, 0.00145875, 0.00289636, -0.0543839, 0.057644, 0.00175254, 2.58643, 57.7054, 27.0798, 5.6131, 1.44214, 3.49612, -0.0814099, 0.000805431, -0.00138614, -0.000203748, -0.000839479, -0.00209833, 0.000329326, -0.00422125, -0.0175132, 0.011682, 0.031463, 0.074963, -0.0164245, 0.470972, -0.543617, 0.335707, -2.08378, -2.16575, -0.129578, 0.469566, -0.54291, 0.336075, -2.08566, -2.1669, -0.128347, -0.0018101, -0.0113362, -0.00940234, 0.0159539, -0.00824965, 0.00225589
0.0690859, 1.69135, -1.22564, -1.53787, -0.900069, -1.19312, 1.23007, -1.30263, 0.0233636, -0.00218868, 0.00351077, 0.00539726, -0.0593232, 0.0570267, -0.00147126, 2.51106, 57.7411, 26.9687, 5.6131, 1.42383, 3.49612, -0.00999879, 0.00080793, -0.00136913, -0.000212387, -0.000873515, -0.00216661, 0.000322295, -0.00460059, -0.0183505, 0.0123828, 0.0313393, 0.0778678, -0.0136413, 0.47097, -0.543628, 0.335698, -2.08378, -2.16574, -0.129563, 0.469582, -0.542919, 0.336074, -2.08571, -2.16695, -0.128301, -0.00186479, -0.0116765, -0.00969213, 0.0167475, -0.00828904, 0.0026913
0.0700859, 1.69137, -1.22564, -1.53787, -0.900069, -1.19318, 1.23013, -1.30262, 0.0214127, 3.822e-05, 0.00313059, 0.00540253, -0.0577997, 0.0612944, 0.000718513, 2.47535, 57.6657, 26.933, 5.68848, 1.39911, 3.50345, -0.0557752, 0.000809559, -0.00135504, -0.000224804, -0.000902372, -0.00224576, 0.000331819, -0.0041068, -0.0181583, 0.0142761, 0.0361615, 0.0810338, -0.0179435, 0.470968, -0.54364, 0.335688, -2.08378, -2.16574, -0.129546, 0.469594, -0.542931, 0.336077, -2.08577, -2.16699, -0.128235, -0.00191999, -0.0120199, -0.00998491, 0.0165869, -0.00941902, 0.00419703
0.0710859, 1.69139, -1.22564, -1.53786, -0.900065, -1.19324, 1.23018, -1.30262, 0.021758, 0.00149649, 0.00465166, 0.0065454, -0.0613663, 0.0593775, -0.000738748, 2.3603, 57.5943, 26.822, 5.72418, 1.3689, 3.52542, -0.0228162, 0.000812898, -0.00133936, -0.000238566, -0.00093613, -0.00232196, 0.000333103, -0.00425741, -0.0176451, 0.0158871, 0.0350215, 0.0843932, -0.018115, 0.470966, -0.543652, 0.335678, -2.08377, -2.16573, -0.12953, 0.469608, -0.542941, 0.336081, -2.08582, -2.16704, -0.128178, -0.00197567, -0.0123662, -0.0102806, 0.0160721, -0.0098854, 0.00553076
0.0720859, 1.69141, -1.22563, -1.53787, -0.900062, -1.19331, 1.23023, -1.30262, 0.0266896, 0.00688023, -9.84941e-05, 0.00727155, -0.0592487, 0.0593245, -1.55703e-05, 2.17384, 57.3364, 26.822, 5.76385, 1.33136, 3.51077, -0.0356336, 0.000818018, -0.00132356, -0.000255946, -0.000960247, -0.00240963, 0.000334563, -0.00657006, -0.0196085, 0.017447, 0.0320954, 0.0885129, -0.0167552, 0.470964, -0.543664, 0.335668, -2.08377, -2.16572, -0.129512, 0.469623, -0.54295, 0.336088, -2.08588, -2.16709, -0.128099, -0.00203183, -0.0127153, -0.0105792, 0.0179511, -0.00811094, 0.00707124
0.0730859, 1.69141, -1.22563, -1.53787, -0.900062, -1.19331, 1.23023, -1.30262, 0.0266896, 0.00688023, -9.84941e-05, 0.00727155, -0.0592487, 0.0593245, -1.55703e-05, 2.17384, 57.3364, 26.822, 5.76385, 1.33136, 3.51077, -0.0356336, 0.000832145, -0.00132134, -0.000264498, -0.000973784, -0.00240711, 0.0003327, -0.00696212, -0.01967, 0.0176927, 0.0323494, 0.0886386, -0.017248, 0.470962, -0.543677, 0.335657, -2.08377, -2.16572, -0.129495, 0.469623, -0.54295, 0.336088, -2.08588, -2.16709, -0.128099, -0.00208844, -0.0130671, -0.0108805, 0.0179511, -0.00811094, 0.00707124
0.0740859, 1.69144, -1.22564, -1.53786, -0.900052, -1.19344, 1.23035, -1.30261, 0.0245041, 0.00120596, 0.00184957, 0.00609936, -0.066516, 0.0504322, 0.00176997, 1.9477, 57.261, 26.5601, 5.83527, 1.32587, 3.48239, -0.0814099, 0.000820705, -0.00129605, -0.000281446, -0.00102761, -0.00256422, 0.000356848, -0.00608583, -0.0167697, 0.0144692, 0.0225051, 0.0845785, -0.0220649, 0.47096, -0.54369, 0.335646, -2.08376, -2.16571, -0.129476, 0.469647, -0.542976, 0.336091, -2.08601, -2.16717, -0.127978, -0.00214551, -0.0134215, -0.0111846, 0.0149117, -0.0089532, 0.00353624
0.0750859, 1.69146, -1.22564, -1.53786, -0.900048, -1.19351, 1.2304, -1.30262, 0.0242785, 0.000870059, -0.00145844, 0.009275, -0.0676584, 0.0522012, 0.000468835, 1.79694, 57.1143, 26.5244, 5.91064, 1.29474, 3.47507, -0.0621838, 0.000823487, -0.00128299, -0.000293739, -0.00104877, -0.00264471, 0.000362481, -0.00431035, -0.0156145, 0.0139599, 0.0223912, 0.0861153, -0.0262329, 0.470958, -0.543704, 0.335635, -2.08376, -2.16571, -0.129457, 0.469658, -0.542988, 0.336092, -2.08606, -2.16721, -0.127901, -0.00220301, -0.0137786, -0.0114914, 0.0137456, -0.0110319, 0.00248605
0.0760859, 1.69148, -1.22564, -1.53787, -0.900039, -1.19358, 1.23045, -1.30262, 0.0250846, 0.00184575, 0.000258715, 0.00947644, -0.0694417, 0.0544128, -0.000670088, 1.60651, 57.0389, 26.449, 5.95032, 1.27002, 3.43936, -0.0356336, 0.000824568, -0.00126913, -0.000305241, -0.00107766, -0.00272466, 0.000369778, -0.00487889, -0.0165717, 0.0155785, 0.0252991, 0.0896711, -0.0247658, 0.470956, -0.543717, 0.335624, -2.08375, -2.1657, -0.129438, 0.46967, -0.543002, 0.336092, -2.08612, -2.16726, -0.127831, -0.00226092, -0.014138, -0.0118008, 0.0146825, -0.0110399, 0.00383368
0.0770859, 1.6915, -1.22565, -1.53787, -0.900029, -1.19366, 1.2305, -1.30262, 0.020639, -0.00134609, 0.00153654, 0.00965214, -0.0753149, 0.0551109, -0.000208842, 1.49146, 57.0032, 26.3736, 5.98602, 1.25171, 3.43204, -0.0420422, 0.000821961, -0.00126111, -0.000316181, -0.00110325, -0.00280249, 0.000389998, -0.00198289, -0.013848, 0.0147343, 0.0250543, 0.0915507, -0.0315788, 0.470954, -0.543731, 0.335612, -2.08375, -2.16569, -0.129418, 0.469676, -0.54302, 0.33609, -2.08619, -2.16728, -0.127759, -0.00231925, -0.0144999, -0.0121127, 0.0119769, -0.0142423, 0.00232167
0.0780859, 1.69151, -1.22564, -1.53786, -0.90002, -1.19374, 1.23055, -1.30262, 0.0221766, -0.00257199, 0.00508668, 0.00893163, -0.0796651, 0.0553481, 0.00535086, 1.305, 56.781, 26.1872, 6.0614, 1.22699, 3.43204, -0.0621838, 0.000824135, -0.00125003, -0.000335637, -0.00113341, -0.00289053, 0.000404523, -0.0030247, -0.0151355, 0.015374, 0.0259355, 0.0940232, -0.0352333, 0.470951, -0.543746, 0.3356, -2.08374, -2.16569, -0.129398, 0.469686, -0.543035, 0.336097, -2.08627, -2.16732, -0.127681, -0.00237796, -0.014864, -0.0124272, 0.0131903, -0.0136236, 0.00276103
0.0790859, 1.69153, -1.22564, -1.53787, -0.900012, -1.19382, 1.2306, -1.30262, 0.0210244, -0.000675647, 3.60447e-06, 0.00759601, -0.0786617, 0.0508059, 0.00321686, 1.07887, 56.5628, 26.1872, 6.17248, 1.2215, 3.43204, -0.0420422, 0.000825451, -0.00123899, -0.000348716, -0.00114709, -0.00298085, 0.000419984, -0.00310926, -0.0132072, 0.014419, 0.0179813, 0.0933999, -0.0357312, 0.470949, -0.543761, 0.335587, -2.08374, -2.16568, -0.129377, 0.469695, -0.54305, 0.336098, -2.08633, -2.16735, -0.127582, -0.00243706, -0.0152304, -0.012744, 0.0111678, -0.0138384, 0.00157285
0.0800859, 1.69156, -1.22565, -1.53787, -0.9, -1.19391, 1.23065, -1.30262, 0.0231718, -0.00292863, -0.00418707, 0.00675702, -0.0773463, 0.0528327, 0.000508493, 0.85273, 56.4874, 26.0761, 6.28357, 1.20318, 3.41739, 0.0101428, 0.00082603, -0.00122709, -0.000361182, -0.00116949, -0.003067, 0.000430284, -0.00368462, -0.0144896, 0.011821, 0.0160452, 0.0916363, -0.0322241, 0.470946, -0.543776, 0.335575, -2.08373, -2.16567, -0.129355, 0.469705, -0.543066, 0.336097, -2.08639, -2.16739, -0.127497, -0.00249652, -0.0155988, -0.0130633, 0.012274, -0.0131867, -0.0012618
0.0810859, 1.69157, -1.22566, -1.53786, -0.899986, -1.19399, 1.2307, -1.30261, 0.0215349, -0.00832264, -0.00316439, 0.010091, -0.0759204, 0.0440473, 0.0024943, 0.626595, 56.4517, 25.9253, 6.35895, 1.17206, 3.42471, -0.0420422, 0.000825025, -0.00121771, -0.000370852, -0.00119326, -0.00314323, 0.000455626, -0.00327515, -0.0117226, 0.00904769, 0.0116322, 0.0804833, -0.0382232, 0.470944, -0.543792, 0.335562, -2.08373, -2.16567, -0.129333, 0.469712, -0.543084, 0.336093, -2.08647, -2.16741, -0.127421, -0.00255634, -0.0159693, -0.0133848, 0.00936436, -0.013648, -0.00430105
0.0820859, 1.6916, -1.22565, -1.53788, -0.899982, -1.19408, 1.23074, -1.30261, 0.0202443, -0.00122769, -0.00782957, 0.0058689, -0.0864936, 0.0469288, 0.00281311, 0.400459, 56.0828, 26.0007, 6.58508, 1.17206, 3.43204, -0.0685925, 0.00082686, -0.00120889, -0.000387263, -0.00119388, -0.00324919, 0.000472839, -0.00168332, -0.0103938, 0.0115725, 0.00420203, 0.0984235, -0.0425528, 0.470941, -0.543808, 0.335548, -2.08372, -2.16566, -0.129311, 0.469719, -0.5431, 0.336096, -2.08653, -2.16744, -0.12729, -0.0026165, -0.0163418, -0.0137086, 0.00812632, -0.0160347, -0.00233823
0.0830859, 1.69162, -1.22566, -1.53788, -0.899966, -1.19417, 1.23079, -1.30262, 0.0201624, -0.00517795, -0.00354703, 0.00977836, -0.0932101, 0.0439141, -0.00115291, 0.134651, 56.0828, 25.8896, 6.65649, 1.17206, 3.45309, 0.0165515, 0.000826189, -0.00119929, -0.00039647, -0.00121008, -0.00333095, 0.000486285, -0.000405983, -0.00905431, 0.0113211, 0.00401284, 0.0980248, -0.042756, 0.470939, -0.543824, 0.335534, -2.08372, -2.16565, -0.129287, 0.469726, -0.543118, 0.336091, -2.08659, -2.16748, -0.1272, -0.00267698, -0.0167161, -0.0140346, 0.00676474, -0.0176861, -0.00306978
0.0840859, 1.69164, -1.22566, -1.53788, -0.899951, -1.19426, 1.23082, -1.30261, 0.0190677, -0.0065069, -0.00360377, 0.0125528, -0.0932948, 0.0419289, 0.00149541, -0.0914839, 55.9003, 25.7786, 6.73187, 1.16015, 3.46774, -0.0420422, 0.000826193, -0.00119241, -0.000412162, -0.00122213, -0.00342339, 0.000516798, 0.000432352, -0.00752562, 0.0110568, 0.00386322, 0.0956654, -0.0494935, 0.470936, -0.543841, 0.33552, -2.08371, -2.16564, -0.129264, 0.469731, -0.543137, 0.336092, -2.08667, -2.16749, -0.127093, -0.00273778, -0.0170921, -0.0143627, 0.00519772, -0.0189117, -0.0037423
0.0850859, 1.69166, -1.22567, -1.53789, -0.89994, -1.19436, 1.23087, -1.30262, 0.0174185, -0.00800782, -0.00225717, 0.00958014, -0.0974068, 0.0411824, -0.000119444, -0.281914, 55.8606, 25.7389, 6.88263, 1.13544, 3.46042, -0.00999879, 0.000823695, -0.00118549, -0.00041678, -0.00122722, -0.0035062, 0.00053798, 0.000459204, -0.00699559, 0.0105344, 0.00148001, 0.0974498, -0.0481551, 0.470933, -0.543858, 0.335506, -2.08371, -2.16563, -0.129239, 0.469735, -0.543157, 0.336082, -2.08674, -2.16751, -0.126987, -0.00279888, -0.0174699, -0.0146928, 0.00458933, -0.0192572, -0.0045764
0.0860859, 1.69168, -1.22567, -1.5379, -0.899921, -1.19445, 1.23091, -1.30262, 0.0202284, -0.00377652, -0.003478, 0.00926892, -0.102265, 0.0397197, -0.000535449, -0.508049, 55.6027, 25.6675, 6.95801, 1.13544, 3.47507, 0.00373412, 0.000823239, -0.00117927, -0.000432858, -0.00123575, -0.00360226, 0.000563808, -0.000645911, -0.00760206, 0.0125459, -0.00305407, 0.105271, -0.0475306, 0.470931, -0.543875, 0.335491, -2.0837, -2.16563, -0.129214, 0.469739, -0.543177, 0.336083, -2.08681, -2.16753, -0.126872, -0.00286026, -0.0178492, -0.015025, 0.005168, -0.01883, -0.00276962
0.0870859, 1.6917, -1.22568, -1.53789, -0.899911, -1.19455, 1.23095, -1.30262, 0.0191786, -0.00335828, -0.00182867, 0.00723311, -0.10534, 0.0439843, 0.000903342, -0.734184, 55.4559, 25.481, 7.1048, 1.14093, 3.46774, -0.0292249, 0.000826315, -0.00116859, -0.00044455, -0.001245, -0.00369228, 0.000582948, -0.000542471, -0.0082496, 0.0138051, 0.000191612, 0.110516, -0.0490176, 0.470928, -0.543893, 0.335476, -2.0837, -2.16562, -0.129189, 0.469747, -0.543194, 0.336079, -2.08688, -2.16756, -0.126763, -0.00292192, -0.0182301, -0.0153591, 0.00580308, -0.0194801, -0.00189652
0.0880859, 1.69172, -1.22568, -1.5379, -0.899892, -1.19466, 1.23098, -1.30261, 0.0237734, 9.34666e-06, -0.00341229, 0.0105684, -0.106762, 0.0434498, 0.000869291, -0.920646, 55.3091, 25.4056, 7.18018, 1.13544, 3.43936, -0.0356336, 0.000823328, -0.00116439, -0.00045621, -0.00124804, -0.00378746, 0.000616233, -0.00178814, -0.00955101, 0.0156768, -0.000861604, 0.114881, -0.0492216, 0.470925, -0.543911, 0.335461, -2.08369, -2.16561, -0.129163, 0.469749, -0.543216, 0.336075, -2.08695, -2.16757, -0.12664, -0.00298385, -0.0186124, -0.0156951, 0.00706526, -0.0188672, -0.000231295
0.0890859, 1.69175, -1.22569, -1.53792, -0.899877, -1.19476, 1.23102, -1.30262, 0.0233863, -0.00280576, -0.00700361, 0.0121777, -0.107385, 0.0427012, -0.00180569, -1.07537, 55.1266, 25.4413, 7.29126, 1.11072, 3.41739, 0.0293689, 0.00082284, -0.00115826, -0.000465348, -0.00124409, -0.00388116, 0.000636587, -0.000504884, -0.00825404, 0.013205, -0.00406221, 0.112464, -0.0507871, 0.470922, -0.54393, 0.335445, -2.08368, -2.1656, -0.129136, 0.469753, -0.543237, 0.336068, -2.08702, -2.16759, -0.126512, -0.00304602, -0.0189961, -0.016033, 0.00566331, -0.0201906, -0.0031692
0.0900859, 1.69177, -1.22569, -1.53792, -0.899852, -1.19487, 1.23105, -1.30262, 0.0239471, -0.00582602, -0.00738056, 0.0138183, -0.108482, 0.0413844, -0.000949728, -1.26183, 54.9799, 25.2588, 7.25555, 1.0979, 3.41739, 0.0229602, 0.000821467, -0.00115376, -0.000478624, -0.00124849, -0.00397324, 0.000669392, -0.00025123, -0.00789357, 0.0116585, -0.00530401, 0.109765, -0.0535922, 0.470919, -0.543949, 0.335429, -2.08368, -2.16559, -0.129109, 0.469755, -0.543259, 0.336065, -2.08709, -2.1676, -0.126392, -0.00310843, -0.019381, -0.0163726, 0.0051935, -0.0206029, -0.00506429
0.0910859, 1.6918, -1.2257, -1.53793, -0.899832, -1.19498, 1.23109, -1.30261, 0.0274724, -0.00504069, -0.0109437, 0.0161245, -0.11006, 0.0409253, 0.00154952, -1.45226, 54.8291, 25.3303, 7.29126, 1.10431, 3.40365, -0.0356336, 0.000820114, -0.00114693, -0.0004885, -0.00124018, -0.004078, 0.000706921, -0.000633611, -0.008522, 0.0112353, -0.00862354, 0.111918, -0.0574533, 0.470916, -0.543968, 0.335413, -2.08367, -2.16558, -0.129081, 0.469759, -0.543281, 0.336058, -2.08718, -2.1676, -0.126245, -0.00317106, -0.0197671, -0.0167139, 0.00572954, -0.0205206, -0.00578371
0.0920859, 1.69183, -1.22571, -1.53794, -0.899813, -1.1951, 1.23112, -1.30262, 0.0251864, -0.00833925, -0.012071, 0.016982, -0.115687, 0.0350543, -0.00065301, -1.56335, 54.722, 25.2192, 7.36664, 1.10431, 3.41006, 0.0101428, 0.000821453, -0.00114137, -0.000499659, -0.00123484, -0.00417061, 0.000729254, 0.00125646, -0.00526905, 0.00890163, -0.0165497, 0.110438, -0.0612114, 0.470912, -0.543988, 0.335396, -2.08366, -2.16557, -0.129052, 0.469762, -0.543301, 0.336052, -2.08724, -2.16762, -0.126114, -0.00323391, -0.0201544, -0.0170569, 0.00239997, -0.022548, -0.00862424
0.0930859, 1.69186, -1.22571, -1.53794, -0.899793, -1.19521, 1.23114, -1.30262, 0.0277824, -0.00890976, -0.00999392, 0.0145369, -0.114129, 0.0309376, 0.000317694, -1.7141, 54.5355, 25.1081, 7.44202, 1.086, 3.41006, -0.00999879, 0.000825049, -0.00113312, -0.000513909, -0.00122889, -0.00427204, 0.000755504, -0.00217209, -0.0071423, 0.00874771, -0.018874, 0.106889, -0.0565334, 0.470909, -0.544008, 0.335379, -2.08366, -2.16556, -0.129023, 0.469767, -0.543319, 0.336049, -2.08731, -2.16764, -0.125973, -0.00329695, -0.0205426, -0.0174015, 0.00407996, -0.0194511, -0.00864695
0.0940859, 1.69189, -1.22572, -1.53796, -0.899767, -1.19533, 1.23117, -1.30262, 0.0264675, -0.0115923, -0.00879631, 0.0184026, -0.119465, 0.028349, 0.0006918, -1.86486, 54.5712, 25.1438, 7.40631, 1.07959, 3.39633, -0.0228162, 0.000825373, -0.00112628, -0.000517341, -0.00121433, -0.00435945, 0.0007878, -8.42056e-05, -0.00478968, 0.00826023, -0.0204391, 0.107024, -0.0633444, 0.470906, -0.544029, 0.335362, -2.08365, -2.16555, -0.128993, 0.469771, -0.54334, 0.336035, -2.08737, -2.16764, -0.125835, -0.00336018, -0.0209318, -0.0177477, 0.00172395, -0.0219228, -0.00972587
0.0950859, 1.69192, -1.22573, -1.53797, -0.89975, -1.19544, 1.2312, -1.30262, 0.0260819, -0.00672264, -0.00600285, 0.0177091, -0.122583, 0.0312506, -0.00028082, -1.90453, 54.4641, 25.1081, 7.51739, 1.0741, 3.38168, -0.00267457, 0.000828864, -0.00111801, -0.000528143, -0.0012023, -0.00446133, 0.000809903, -0.000685481, -0.0053748, 0.0125871, -0.0164704, 0.115912, -0.0625152, 0.470903, -0.54405, 0.335344, -2.08364, -2.16554, -0.128963, 0.469776, -0.543359, 0.336028, -2.08743, -2.16766, -0.125685, -0.00342359, -0.0213219, -0.0180953, 0.00238285, -0.0223606, -0.00572599
0.0960859, 1.69195, -1.22575, -1.53798, -0.899723, -1.19556, 1.23123, -1.30262, 0.0261145, -0.00889084, -0.0110657, 0.0167096, -0.125587, 0.0282998, -0.000896316, -1.94024, 54.4641, 25.1081, 7.51739, 1.09241, 3.37436, 0.0165515, 0.00082578, -0.00111604, -0.000534235, -0.00118896, -0.00455404, 0.000848209, 0.00011574, -0.00395843, 0.00940659, -0.0252075, 0.115356, -0.0649837, 0.470899, -0.544071, 0.335326, -2.08363, -2.16553, -0.128932, 0.469775, -0.543384, 0.336016, -2.0875, -2.16765, -0.125541, -0.00348715, -0.0217127, -0.0184443, 0.000816544, -0.0231113, -0.00929617
0.0970859, 1.69199, -1.22575, -1.53799, -0.899696, -1.19569, 1.23126, -1.30262, 0.0302003, -0.00654621, -0.012891, 0.0191235, -0.12282, 0.0314136, 0.000625389, -2.01562, 54.3134, 25.0327, 7.51739, 1.0979, 3.3533, -0.0164075, 0.000830029, -0.00110679, -0.00055056, -0.00118389, -0.00466211, 0.000879032, -0.00149058, -0.0062972, 0.0108251, -0.0217663, 0.11718, -0.0651643, 0.470896, -0.544093, 0.335307, -2.08363, -2.16552, -0.1289, 0.469781, -0.543403, 0.336014, -2.08758, -2.16767, -0.125391, -0.00355087, -0.0221042, -0.0187947, 0.00308373, -0.0220393, -0.00806918
0.0980859, 1.69202, -1.22575, -1.53801, -0.899673, -1.1958, 1.23128, -1.30262, 0.0306916, -0.00766879, -0.0148549, 0.020001, -0.124434, 0.0328248, 0.000893317, -1.97991, 54.2776, 25.1081, 7.5531, 1.07959, 3.3533, -0.0292249, 0.000830813, -0.00110262, -0.000558061, -0.00116402, -0.00475983, 0.000915606, -0.000906498, -0.00619604, 0.0099834, -0.022439, 0.118335, -0.0677726, 0.470892, -0.544115, 0.335289, -2.08362, -2.16551, -0.128868, 0.469782, -0.543426, 0.336002, -2.08765, -2.16767, -0.125233, -0.00361472, -0.0224964, -0.0191465, 0.00290892, -0.0228828, -0.00933965
0.0990859, 1.69206, -1.22577, -1.53802, -0.899643, -1.19593, 1.23131, -1.30262, 0.0328751, -0.00701969, -0.015606, 0.0223078, -0.126041, 0.0349307, -0.00157334, -2.01562, 54.3134, 25.0327, 7.51739, 1.0741, 3.324, 0.0293689, 0.000833345, -0.00109442, -0.000567019, -0.00115713, -0.00485435, 0.000939987, -0.00100271, -0.00703292, 0.0107862, -0.0208797, 0.121442, -0.0666762, 0.470888, -0.544138, 0.335269, -2.08361, -2.1655, -0.128835, 0.469787, -0.543447, 0.335992, -2.08771, -2.16768, -0.125094, -0.00367869, -0.0228891, -0.0194995, 0.00370716, -0.0232696, -0.00891111
0.100086, 1.69209, -1.22577, -1.53803, -0.899617, -1.19605, 1.23133, -1.30262, 0.0330652, -0.00941363, -0.0143312, 0.0285872, -0.122375, 0.0312477, 0.00112219, -1.97991, 54.2062, 24.997, 7.5531, 1.05578, 3.31027, -0.0292249, 0.00083838, -0.00108698, -0.000579906, -0.00114304, -0.00495594, 0.000975254, -0.000810998, -0.00580769, 0.0106546, -0.0181771, 0.113787, -0.073417, 0.470885, -0.54416, 0.33525, -2.0836, -2.16549, -0.128801, 0.469791, -0.543466, 0.335986, -2.08779, -2.16768, -0.124938, -0.00374278, -0.0232822, -0.0198537, 0.00242171, -0.0238819, -0.00938723
0.101086, 1.69213, -1.22578, -1.53804, -0.899584, -1.19617, 1.23136, -1.30262, 0.0340549, -0.0105855, -0.0130435, 0.0286, -0.123842, 0.0282774, 0.00074883, -1.97991, 54.2062, 24.9573, 7.51739, 1.03656, 3.30295, -0.0292249, 0.000841347, -0.00107869, -0.000590532, -0.00113294, -0.00505672, 0.00100528, -0.00186423, -0.005969, 0.0104052, -0.020228, 0.11249, -0.0725427, 0.470881, -0.544184, 0.33523, -2.08359, -2.16547, -0.128767, 0.469796, -0.543488, 0.335977, -2.08786, -2.16769, -0.124787, -0.00380697, -0.0236758, -0.020209, 0.00247215, -0.0231906, -0.0098307
0.102086, 1.69217, -1.22579, -1.53806, -0.899551, -1.1963, 1.23138, -1.30262, 0.033091, -0.0102709, -0.0131231, 0.0286713, -0.122359, 0.0304839, 0.000737108, -1.90453, 54.1666, 24.9573, 7.47772, 1.02466, 3.30295, -0.0356336, 0.000842741, -0.00107319, -0.000600026, -0.00111545, -0.00515974, 0.00104624, -0.0019352, -0.00602956, 0.0111136, -0.0171481, 0.112848, -0.0736993, 0.470877, -0.544207, 0.33521, -2.08358, -2.16546, -0.128732, 0.469798, -0.543512, 0.335966, -2.08793, -2.16769, -0.124624, -0.00387125, -0.0240696, -0.0205654, 0.0024923, -0.0236207, -0.00947869
0.103086, 1.69222, -1.2258, -1.53806, -0.899523, -1.19643, 1.2314, -1.30262, 0.0374632, -0.010074, -0.0128694, 0.0299744, -0.123456, 0.0316566, -0.0019157, -1.90453, 54.1309, 24.8105, 7.51739, 0.981627, 3.31759, 0.0293689, 0.000852909, -0.00106069, -0.000613965, -0.00110281, -0.00526114, 0.00105971, -0.00366809, -0.00839408, 0.0116747, -0.0161207, 0.114724, -0.06873, 0.470873, -0.544231, 0.335189, -2.08357, -2.16545, -0.128697, 0.469806, -0.543527, 0.335961, -2.08799, -2.16771, -0.12447, -0.00393561, -0.0244637, -0.0209229, 0.00474866, -0.0222934, -0.00908705
0.104086, 1.69226, -1.22581, -1.53808, -0.899492, -1.19657, 1.23143, -1.30262, 0.0395221, -0.0109361, -0.0131952, 0.0280031, -0.126804, 0.028661, 0.000893306, -1.86486, 54.1309, 24.8105, 7.5531, 0.969725, 3.31027, -0.0292249, 0.000854744, -0.00105314, -0.000622367, -0.00108216, -0.0053717, 0.00110291, -0.00510997, -0.00909604, 0.0107082, -0.0215412, 0.115586, -0.0696607, 0.470869, -0.544256, 0.335168, -2.08357, -2.16544, -0.128661, 0.46981, -0.543551, 0.335948, -2.08807, -2.16771, -0.124294, -0.00400003, -0.0248579, -0.0212814, 0.00529843, -0.0210867, -0.0101984
0.105086, 1.6923, -1.22584, -1.5381, -0.89946, -1.19671, 1.23145, -1.30262, 0.0405422, -0.0149298, -0.0150911, 0.0265259, -0.132324, 0.0255458, 0.000358402, -1.78948, 54.2776, 24.8859, 7.59277, 0.951415, 3.324, -0.0228162, 0.000854968, -0.00104807, -0.000622622, -0.00105082, -0.00546961, 0.00114237, -0.00490078, -0.00861951, 0.00745668, -0.0293322, 0.115079, -0.070133, 0.470865, -0.544281, 0.335147, -2.08356, -2.16543, -0.128624, 0.469811, -0.543575, 0.335927, -2.08813, -2.1677, -0.124119, -0.0040645, -0.0252522, -0.0216408, 0.00464533, -0.0212072, -0.0137863
0.106086, 1.6923, -1.22584, -1.5381, -0.89946, -1.19671, 1.23145, -1.30262, 0.0405422, -0.0149298, -0.0150911, 0.0265259, -0.132324, 0.0255458, 0.000358402, -1.78948, 54.2776, 24.8859, 7.59277, 0.951415, 3.324, -0.0228162, 0.000883111, -0.00104368, -0.000640236, -0.00108043, -0.00546541, 0.00113871, -0.00534359, -0.00868862, 0.00775447, -0.0289852, 0.115285, -0.0707581, 0.470861, -0.544306, 0.335125, -2.08355, -2.16541, -0.128586, 0.469811, -0.543575, 0.335927, -2.08813, -2.1677, -0.124119, -0.00412902, -0.0256465, -0.022001, 0.00464533, -0.0212072, -0.0137863
0.107086, 1.6923, -1.22584, -1.5381, -0.89946, -1.19671, 1.23145, -1.30262, 0.0405422, -0.0149298, -0.0150911, 0.0265259, -0.132324, 0.0255458, 0.000358402, -1.78948, 54.2776, 24.8859, 7.59277, 0.951415, 3.324, -0.0228162, 0.000911697, -0.00103921, -0.000658148, -0.00111059, -0.00546117, 0.001135, -0.00578645, -0.0087577, 0.0080531, -0.0286358, 0.115494, -0.0713859, 0.470857, -0.544332, 0.335103, -2.08354, -2.1654, -0.128548, 0.469811, -0.543575, 0.335927, -2.08813, -2.1677, -0.124119, -0.00419356, -0.0260407, -0.0223621, 0.00464533, -0.0212072, -0.0137863
0.108086, 1.69245, -1.22587, -1.53814, -0.899349, -1.19714, 1.23152, -1.30261, 0.0453924, -0.018927, -0.0144699, 0.0321699, -0.140242, 0.0311066, 0.00115384, -1.75378, 54.2419, 24.7352, 7.62848, 0.926695, 3.29562, -0.0356336, 0.000867014, -0.00102131, -0.000653447, -0.000991684, -0.00580315, 0.00125123, -0.00432028, -0.0105893, 0.00725971, -0.0250117, 0.120572, -0.0752255, 0.470853, -0.544358, 0.335081, -2.08353, -2.16539, -0.128509, 0.469826, -0.543644, 0.335892, -2.08836, -2.16771, -0.123588, -0.00425812, -0.0264347, -0.0227239, 0.00643294, -0.0228518, -0.0152163
0.109086, 1.69249, -1.22589, -1.53816, -0.899304, -1.19729, 1.23154, -1.30262, 0.0448458, -0.0171282, -0.0142007, 0.037653, -0.141874, 0.0273469, -0.00140084, -1.6784, 54.2419, 24.7352, 7.59277, 0.895568, 3.31027, 0.0229602, 0.000865651, -0.00101825, -0.000664137, -0.000971508, -0.00591664, 0.00129568, -0.00319029, -0.00826014, 0.00917235, -0.0256313, 0.121532, -0.079105, 0.470849, -0.544384, 0.335058, -2.08352, -2.16537, -0.12847, 0.469826, -0.543673, 0.33588, -2.08844, -2.1677, -0.123406, -0.00432269, -0.0268285, -0.0230865, 0.00415391, -0.0247504, -0.013793
0.110086, 1.69253, -1.2259, -1.53817, -0.899265, -1.19744, 1.23156, -1.30262, 0.041279, -0.0150736, -0.0132175, 0.0399738, -0.149225, 0.0254564, -0.000459124, -1.60302, 54.2062, 24.6995, 7.62848, 0.901976, 3.30295, 0.0101428, 0.000867326, -0.00101285, -0.000677025, -0.000949273, -0.00603708, 0.00134121, -0.000503725, -0.00475983, 0.0113814, -0.0276676, 0.128499, -0.0882678, 0.470844, -0.544411, 0.335035, -2.08351, -2.16536, -0.12843, 0.469827, -0.5437, 0.33587, -2.08853, -2.1677, -0.123214, -0.00438725, -0.027222, -0.0234497, 0.000771848, -0.028279, -0.0122822
0.111086, 1.69259, -1.22591, -1.53819, -0.899224, -1.19759, 1.23158, -1.30261, 0.0437018, -0.0166035, -0.0123047, 0.0376684, -0.148633, 0.0193287, 0.00162674, -1.60302, 54.1666, 24.6598, 7.70386, 0.877257, 3.29562, -0.0420422, 0.000872367, -0.00100407, -0.000689273, -0.000928332, -0.00615288, 0.00138503, -0.00350508, -0.00584426, 0.0101195, -0.0331445, 0.123894, -0.0859275, 0.47084, -0.544438, 0.335012, -2.08349, -2.16534, -0.128389, 0.469832, -0.543724, 0.335859, -2.08861, -2.16769, -0.123028, -0.00445179, -0.0276151, -0.0238135, 0.00163679, -0.0254706, -0.0134609
0.112086, 1.69263, -1.22593, -1.5382, -0.899182, -1.19774, 1.2316, -1.30262, 0.0476793, -0.0157075, -0.014745, 0.0393121, -0.149741, 0.0181819, -0.00108562, -1.56335, 54.1666, 24.6241, 7.77924, 0.870848, 3.324, 0.0165515, 0.000875234, -0.000997679, -0.000699089, -0.000904551, -0.00626627, 0.00142184, -0.00470554, -0.00699843, 0.0100081, -0.0361957, 0.125488, -0.0829236, 0.470836, -0.544466, 0.334988, -2.08348, -2.16533, -0.128348, 0.469834, -0.54375, 0.335845, -2.08868, -2.1677, -0.122841, -0.00451631, -0.0280078, -0.0241779, 0.00267835, -0.0246136, -0.0137857
0.113086, 1.69268, -1.22594, -1.53822, -0.899131, -1.1979, 1.23162, -1.30262, 0.0508434, -0.0167685, -0.010411, 0.0472624, -0.14934, 0.0179559, 0.000259621, -1.52764, 54.2419, 24.5884, 7.70386, 0.846129, 3.33865, -0.00999879, 0.000875231, -0.000993357, -0.000708886, -0.00088379, -0.00637866, 0.00147627, -0.00510231, -0.00784245, 0.0121392, -0.0288608, 0.123315, -0.0865258, 0.470831, -0.544494, 0.334964, -2.08347, -2.16531, -0.128305, 0.469834, -0.543779, 0.33583, -2.08878, -2.16768, -0.122656, -0.00458078, -0.0283999, -0.0245428, 0.0035225, -0.0249069, -0.0120114
0.114086, 1.69274, -1.22594, -1.53823, -0.899092, -1.19806, 1.23164, -1.30261, 0.0526621, -0.011276, -0.0111808, 0.0453252, -0.154151, 0.0177994, 0.00135989, -1.60302, 54.0555, 24.5884, 7.81494, 0.827819, 3.3533, -0.0420422, 0.000883163, -0.000983989, -0.000727575, -0.000856792, -0.00651068, 0.00151671, -0.00635533, -0.00855671, 0.0150385, -0.0322684, 0.133157, -0.0868539, 0.470826, -0.544522, 0.334939, -2.08346, -2.1653, -0.128263, 0.46984, -0.543802, 0.335825, -2.08886, -2.16768, -0.122445, -0.00464521, -0.0287914, -0.0249081, 0.00423548, -0.0244775, -0.00934247
0.115086, 1.69278, -1.22596, -1.53824, -0.899037, -1.1982, 1.23166, -1.30262, 0.0479577, -0.0128072, -0.00675208, 0.0477004, -0.148001, 0.0134502, -4.28283e-05, -1.56335, 54.0952, 24.513, 7.77924, 0.804015, 3.3533, -0.0164075, 0.000883355, -0.000981335, -0.00073951, -0.000848288, -0.00661283, 0.00156827, -0.0064459, -0.00615031, 0.016191, -0.0272416, 0.124016, -0.088634, 0.470822, -0.544551, 0.334914, -2.08345, -2.16528, -0.128219, 0.469838, -0.543833, 0.335812, -2.08895, -2.16767, -0.122282, -0.00470957, -0.0291822, -0.0252738, 0.00180832, -0.0250544, -0.00848091
0.116086, 1.69283, -1.22598, -1.53826, -0.898988, -1.19835, 1.23168, -1.30262, 0.0445569, -0.0136566, -0.00930316, 0.0476656, -0.148307, 0.0143413, -0.000774528, -1.52764, 54.1309, 24.5487, 7.81494, 0.784789, 3.36703, 0.00373412, 0.000884448, -0.000978679, -0.000749879, -0.00082785, -0.00672125, 0.00161905, -0.00462023, -0.00400825, 0.0153452, -0.0280543, 0.124159, -0.0931858, 0.470817, -0.54458, 0.334889, -2.08344, -2.16527, -0.128175, 0.469836, -0.543862, 0.335797, -2.08904, -2.16765, -0.1221, -0.00477385, -0.0295723, -0.0256399, -0.000361246, -0.0272045, -0.00989786
0.117086, 1.69283, -1.22598, -1.53826, -0.898988, -1.19835, 1.23168, -1.30262, 0.0445569, -0.0136566, -0.00930316, 0.0476656, -0.148307, 0.0143413, -0.000774528, -1.52764, 54.1309, 24.5487, 7.81494, 0.784789, 3.36703, 0.00373412, 0.000917449, -0.000973538, -0.000770805, -0.000863809, -0.0067167, 0.00161479, -0.00505896, -0.00407619, 0.0156497, -0.0276822, 0.124393, -0.0938376, 0.470812, -0.54461, 0.334863, -2.08342, -2.16525, -0.12813, 0.469836, -0.543862, 0.335797, -2.08904, -2.16765, -0.1221, -0.00483806, -0.0299616, -0.0260062, -0.000361246, -0.0272045, -0.00989786
0.118086, 1.69292, -1.22601, -1.5383, -0.898876, -1.19866, 1.23172, -1.30262, 0.0471793, -0.0183001, -0.0111007, 0.0511621, -0.146631, 0.0166177, 7.39792e-05, -1.6784, 54.0952, 24.5487, 7.81494, 0.772887, 3.36062, -0.0228162, 0.000886975, -0.00097093, -0.000776102, -0.000798049, -0.00694577, 0.0017323, -0.00490744, -0.00520594, 0.0131357, -0.0252755, 0.119644, -0.096021, 0.470808, -0.54464, 0.334837, -2.08341, -2.16524, -0.128084, 0.469835, -0.543923, 0.335772, -2.08923, -2.16761, -0.121736, -0.00490216, -0.0303499, -0.0263728, 0.000614621, -0.0273099, -0.0128061
0.119086, 1.69297, -1.22603, -1.53831, -0.898822, -1.19881, 1.23174, -1.30262, 0.0454648, -0.0192698, -0.00974401, 0.0522928, -0.151801, 0.0177236, -0.0016461, -1.7141, 54.0555, 24.4733, 7.89032, 0.760985, 3.34598, 0.0229602, 0.000888363, -0.000968471, -0.000793437, -0.000792167, -0.00705929, 0.001783, -0.00330207, -0.00392752, 0.013703, -0.0244611, 0.123455, -0.0987011, 0.470803, -0.54467, 0.334811, -2.0834, -2.16522, -0.128038, 0.469834, -0.543955, 0.335763, -2.08933, -2.1676, -0.121563, -0.00496616, -0.0307373, -0.0267396, -0.000647191, -0.0294216, -0.0128214
0.120086, 1.693, -1.22605, -1.53832, -0.898764, -1.19896, 1.23175, -1.30261, 0.042402, -0.0225883, -0.00966247, 0.051165, -0.148822, 0.0138027, 0.0013101, -1.6784, 54.1309, 24.4376, 7.92602, 0.772887, 3.33133, -0.0420422, 0.000885356, -0.000970491, -0.000804557, -0.000781334, -0.0071635, 0.00185579, -0.00340947, -0.00222166, 0.0117347, -0.02638, 0.116005, -0.103266, 0.470798, -0.544701, 0.334784, -2.08339, -2.1652, -0.127991, 0.469827, -0.54399, 0.335746, -2.08944, -2.16756, -0.12139, -0.00503004, -0.0311236, -0.0271065, -0.00249187, -0.0294693, -0.0150614
0.121086, 1.69305, -1.22607, -1.53834, -0.898699, -1.19912, 1.23177, -1.30262, 0.0436945, -0.0230417, -0.011428, 0.0584142, -0.149243, 0.0154907, -0.000313391, -1.78948, 54.1309, 24.4733, 7.89032, 0.772887, 3.31759, -0.00999879, 0.000883423, -0.000970831, -0.000817293, -0.000766938, -0.00727329, 0.0019192, -0.0016023, -0.00134093, 0.0122348, -0.0231004, 0.116485, -0.108353, 0.470793, -0.544732, 0.334757, -2.08337, -2.16519, -0.127943, 0.469822, -0.544025, 0.335732, -2.08954, -2.16754, -0.121208, -0.0050938, -0.0315088, -0.0274735, -0.00335164, -0.0317515, -0.0151868
0.122086, 1.6931, -1.22608, -1.53835, -0.898634, -1.19928, 1.23179, -1.30262, 0.0445931, -0.0225937, -0.0141258, 0.0587857, -0.151092, 0.0123448, 0.000503151, -1.90453, 54.0952, 24.4376, 7.92602, 0.784789, 3.29562, -0.0292249, 0.00088298, -0.000969829, -0.000832648, -0.00075487, -0.00738752, 0.00198602, -0.00176879, -0.000561369, 0.0115795, -0.0286016, 0.117308, -0.111195, 0.470788, -0.544764, 0.33473, -2.08336, -2.16517, -0.127895, 0.469819, -0.544059, 0.335719, -2.08965, -2.16751, -0.121023, -0.00515741, -0.0318928, -0.0278405, -0.00422387, -0.0319023, -0.0161505
0.123086, 1.69315, -1.22611, -1.53837, -0.898569, -1.19943, 1.23181, -1.30262, 0.0457153, -0.0232687, -0.0145917, 0.0613759, -0.150981, 0.00967532, 9.80765e-05, -2.05529, 54.0952, 24.4733, 8.0014, 0.779296, 3.28097, -0.0228162, 0.000882848, -0.000968465, -0.000844408, -0.000745451, -0.0074919, 0.00204923, -0.00207197, -0.000129817, 0.011387, -0.0299068, 0.115304, -0.112796, 0.470782, -0.544796, 0.334702, -2.08335, -2.16515, -0.127846, 0.469816, -0.544093, 0.335703, -2.08975, -2.16748, -0.120851, -0.00522087, -0.0322756, -0.0282076, -0.00473587, -0.0319738, -0.016647
0.124086, 1.69319, -1.22613, -1.53838, -0.898502, -1.19959, 1.23182, -1.30262, 0.0440195, -0.0219136, -0.0154943, 0.0641478, -0.15018, 0.00763602, 0.000302744, -2.091, 54.0198, 24.4019, 8.03711, 0.760985, 3.26724, -0.0292249, 0.000879457, -0.000971967, -0.00086062, -0.000739672, -0.0076017, 0.00212316, -0.00124073, 0.00185152, 0.0124621, -0.0300355, 0.114994, -0.117967, 0.470777, -0.544828, 0.334674, -2.08333, -2.16513, -0.127796, 0.469808, -0.544132, 0.33569, -2.08987, -2.16744, -0.120675, -0.00528417, -0.032657, -0.0285745, -0.00670728, -0.0334221, -0.0160182
0.125086, 1.69324, -1.22615, -1.5384, -0.898422, -1.19974, 1.23184, -1.30262, 0.046375, -0.0189192, -0.0179259, 0.0689495, -0.153444, 0.0108288, -0.000781514, -2.28143, 53.9841, 24.4019, 7.9657, 0.741759, 3.25259, -0.00267457, 0.000876454, -0.00097224, -0.00087549, -0.000736019, -0.00771015, 0.00219525, -9.87715e-05, 0.00181545, 0.0145041, -0.0283691, 0.12229, -0.121733, 0.470772, -0.54486, 0.334645, -2.08332, -2.16511, -0.127746, 0.469803, -0.544169, 0.335676, -2.08998, -2.1674, -0.120503, -0.0053473, -0.0330371, -0.0289414, -0.00661617, -0.0352416, -0.0145467
0.126086, 1.69329, -1.22617, -1.53841, -0.898351, -1.1999, 1.23186, -1.30262, 0.0471444, -0.0197449, -0.014048, 0.069781, -0.158233, 0.0137334, 0.000224976, -2.43218, 53.9484, 24.2908, 8.0014, 0.736266, 3.22421, -0.0228162, 0.000875752, -0.000971292, -0.00089369, -0.000739774, -0.00782129, 0.0022658, -0.00010576, 0.000821305, 0.0160392, -0.0240914, 0.126774, -0.123101, 0.470766, -0.544894, 0.334616, -2.0833, -2.1651, -0.127694, 0.469799, -0.544206, 0.335665, -2.0901, -2.16737, -0.120335, -0.00541024, -0.0334157, -0.0293081, -0.00562794, -0.0358083, -0.0134282
0.127086, 1.69333, -1.22619, -1.53843, -0.898279, -1.20006, 1.23188, -1.30261, 0.0496125, -0.017107, -0.014099, 0.0685906, -0.156494, 0.0101252, 0.000624703, -2.54723, 53.9087, 24.2908, 8.11249, 0.736266, 3.22421, -0.0356336, 0.000870806, -0.000975247, -0.000907175, -0.000730738, -0.00793274, 0.00234613, -0.00294348, -0.000375884, 0.0172707, -0.0267813, 0.126635, -0.12019, 0.470761, -0.544927, 0.334587, -2.08329, -2.16508, -0.127643, 0.469791, -0.544246, 0.335648, -2.09022, -2.16733, -0.120152, -0.00547299, -0.0337927, -0.0296745, -0.00454869, -0.0335236, -0.0121773
0.128086, 1.69338, -1.22621, -1.53846, -0.898197, -1.20022, 1.2319, -1.30262, 0.0491997, -0.0214672, -0.0146404, 0.0738455, -0.159408, 0.00774863, -0.000532967, -2.69799, 53.873, 24.3265, 8.11249, 0.723448, 3.21689, -0.00999879, 0.00086603, -0.000977698, -0.000920223, -0.000725182, -0.00804044, 0.00242487, -0.000773146, 0.00175361, 0.0153551, -0.0281346, 0.123311, -0.12588, 0.470756, -0.544961, 0.334557, -2.08327, -2.16506, -0.12759, 0.469783, -0.544287, 0.335631, -2.09034, -2.16728, -0.119975, -0.00553554, -0.0341681, -0.0300408, -0.00673255, -0.0358348, -0.0147032
0.129086, 1.69342, -1.22623, -1.53848, -0.89811, -1.20038, 1.23193, -1.30262, 0.0496004, -0.0200201, -0.0140908, 0.0766243, -0.155839, 0.0113074, -0.000117952, -2.7337, 53.7619, 24.3265, 8.15216, 0.693236, 3.19583, -0.0164075, 0.000858169, -0.000983891, -0.000938676, -0.000728787, -0.00815381, 0.00251251, -0.00114203, 0.000972016, 0.0173851, -0.0211365, 0.123579, -0.127568, 0.47075, -0.544995, 0.334527, -2.08326, -2.16504, -0.127537, 0.469773, -0.544332, 0.335618, -2.09048, -2.16724, -0.119801, -0.00559787, -0.0345419, -0.0304067, -0.0059498, -0.0361239, -0.0130324
0.130086, 1.69347, -1.22626, -1.5385, -0.898024, -1.20054, 1.23195, -1.30261, 0.0468721, -0.0233522, -0.0136462, 0.0788629, -0.160861, 0.0140976, 0.00137943, -2.77337, 53.8373, 24.3265, 8.18787, 0.705138, 3.16653, -0.0557752, 0.000848969, -0.000988478, -0.000947704, -0.000730564, -0.00825595, 0.002609, 0.00181596, 0.00286828, 0.0165896, -0.0190934, 0.125701, -0.135793, 0.470744, -0.545029, 0.334497, -2.08324, -2.16502, -0.127483, 0.469763, -0.544377, 0.335595, -2.09062, -2.16717, -0.119635, -0.00565998, -0.0349139, -0.0307722, -0.00782995, -0.0393718, -0.0145809
0.131086, 1.69352, -1.22628, -1.53852, -0.89794, -1.2007, 1.23197, -1.30262, 0.0466429, -0.0211886, -0.0125925, 0.0827325, -0.158397, 0.0194954, -0.000775803, -2.88445, 53.7262, 24.2908, 8.26324, 0.705138, 3.17386, -0.00999879, 0.000846316, -0.000989072, -0.000964675, -0.00073304, -0.00836726, 0.00268428, 0.00229012, 0.0024028, 0.0195682, -0.00990768, 0.128354, -0.136628, 0.470739, -0.545064, 0.334466, -2.08323, -2.165, -0.127428, 0.469758, -0.544417, 0.335581, -2.09074, -2.16714, -0.119462, -0.00572185, -0.0352841, -0.0311374, -0.00729618, -0.0406483, -0.0120932
0.132086, 1.69357, -1.22631, -1.53854, -0.897848, -1.20086, 1.232, -1.30262, 0.0509761, -0.0208493, -0.0148254, 0.0864557, -0.156134, 0.0201196, -0.000788469, -2.92413, 53.6508, 24.2512, 8.29895, 0.699645, 3.1528, -0.00267457, 0.000840225, -0.000991184, -0.000979855, -0.000739906, -0.00847672, 0.0027713, 0.00109695, 0.000773017, 0.0196275, -0.00874616, 0.12737, -0.136589, 0.470733, -0.5451, 0.334435, -2.08321, -2.16498, -0.127372, 0.469751, -0.544461, 0.335564, -2.09087, -2.16709, -0.119294, -0.00578347, -0.0356524, -0.0315021, -0.00576948, -0.0397808, -0.0122668
0.133086, 1.69363, -1.22634, -1.53856, -0.897748, -1.20102, 1.23203, -1.30261, 0.0521108, -0.0252337, -0.0175522, 0.0911118, -0.154155, 0.0201908, 0.000932416, -2.9995, 53.6508, 24.2512, 8.26324, 0.680419, 3.13815, -0.0420422, 0.000834774, -0.000990627, -0.000993185, -0.000754728, -0.00857773, 0.0028631, 0.00215432, 0.00128276, 0.0169681, -0.00811065, 0.121489, -0.142506, 0.470727, -0.545135, 0.334403, -2.08319, -2.16496, -0.127316, 0.469746, -0.544504, 0.335545, -2.09101, -2.16703, -0.119141, -0.00584484, -0.0360188, -0.0318663, -0.00640279, -0.0408036, -0.0154043
0.134086, 1.69369, -1.22638, -1.53859, -0.89765, -1.20119, 1.23206, -1.30262, 0.0512871, -0.0293546, -0.0194796, 0.0905131, -0.157721, 0.019705, -9.0466e-05, -2.9995, 53.6905, 24.2512, 8.26324, 0.668517, 3.13815, -0.0228162, 0.000825574, -0.000993609, -0.00100193, -0.000761692, -0.00867892, 0.00295561, 0.00337297, 0.00230385, 0.0140828, -0.0120143, 0.120497, -0.144485, 0.470721, -0.545171, 0.334371, -2.08318, -2.16494, -0.127259, 0.469738, -0.544551, 0.33552, -2.09115, -2.16697, -0.11898, -0.00590595, -0.0363832, -0.0322299, -0.00754963, -0.0419699, -0.0187727
0.135086, 1.69374, -1.22641, -1.53861, -0.897552, -1.20135, 1.23209, -1.30262, 0.0514102, -0.0288479, -0.0240857, 0.0923345, -0.161435, 0.0193533, -0.00128101, -3.03521, 53.5794, 24.2512, 8.29895, 0.680419, 3.13815, 0.0101428, 0.000818117, -0.000995514, -0.00101677, -0.000768178, -0.00879387, 0.00304525, 0.00505036, 0.00389148, 0.0132776, -0.0168158, 0.124298, -0.148901, 0.470716, -0.545208, 0.334339, -2.08316, -2.16492, -0.127202, 0.469731, -0.544597, 0.335502, -2.09129, -2.16692, -0.118803, -0.00596678, -0.0367455, -0.032593, -0.0091665, -0.0439296, -0.0201392
0.136086, 1.6938, -1.22644, -1.53864, -0.897444, -1.20153, 1.23211, -1.30262, 0.0541292, -0.0304523, -0.0228043, 0.0971226, -0.165138, 0.0242318, 0.00131613, -3.03521, 53.5397, 24.1758, 8.18787, 0.705138, 3.13083, -0.0484509, 0.0008081, -0.000997987, -0.00102993, -0.000779945, -0.00890526, 0.0031479, 0.00597123, 0.0026572, 0.0140495, -0.0110724, 0.127998, -0.15427, 0.47071, -0.545245, 0.334306, -2.08314, -2.16489, -0.127143, 0.469724, -0.544646, 0.335481, -2.09144, -2.16686, -0.118633, -0.00602732, -0.0371056, -0.0329554, -0.00793162, -0.0452667, -0.0199218
0.137086, 1.69386, -1.22648, -1.53867, -0.897343, -1.2017, 1.23215, -1.30262, 0.0552786, -0.0324821, -0.0245506, 0.100802, -0.166358, 0.0282973, -0.00153008, -2.9995, 53.5397, 24.2154, 8.18787, 0.711547, 3.10977, 0.0165515, 0.000799058, -0.000997686, -0.0010364, -0.000785274, -0.00901397, 0.00323726, 0.00735861, 0.00244767, 0.0133499, -0.00787786, 0.129098, -0.155383, 0.470704, -0.545282, 0.334273, -2.08313, -2.16487, -0.127084, 0.469719, -0.544693, 0.335453, -2.09158, -2.1668, -0.11846, -0.00608756, -0.0374636, -0.0333171, -0.00775953, -0.0468784, -0.0211958
0.138086, 1.69393, -1.22653, -1.5387, -0.897235, -1.20187, 1.23218, -1.30262, 0.0575298, -0.0347676, -0.0246189, 0.105028, -0.165173, 0.0300787, -0.000545334, -2.88445, 53.5794, 24.2154, 8.11249, 0.717955, 3.1235, 0.00373412, 0.000789654, -0.000997336, -0.00104069, -0.000797082, -0.00911158, 0.00333598, 0.00738359, 0.00158667, 0.0129028, -0.00398891, 0.126716, -0.158116, 0.470697, -0.545319, 0.33424, -2.08311, -2.16485, -0.127025, 0.469713, -0.54474, 0.335422, -2.09172, -2.16673, -0.118304, -0.0061475, -0.0378192, -0.0336781, -0.00697528, -0.0471547, -0.0220299
0.139086, 1.694, -1.22657, -1.53872, -0.897131, -1.20204, 1.23222, -1.30261, 0.0599847, -0.0345434, -0.0261278, 0.106827, -0.167414, 0.0272203, 0.00156922, -2.92413, 53.5397, 24.1401, 8.11249, 0.748168, 3.1235, -0.0484509, 0.000787869, -0.000988799, -0.00104841, -0.000808541, -0.00921703, 0.00342247, 0.00685778, 0.00159927, 0.012676, -0.00793354, 0.127664, -0.161548, 0.470691, -0.545357, 0.334206, -2.08309, -2.16483, -0.126964, 0.469716, -0.544781, 0.335396, -2.09185, -2.16668, -0.11814, -0.00620712, -0.0381726, -0.0340383, -0.00707425, -0.0469545, -0.0225321
0.140086, 1.69407, -1.2266, -1.53876, -0.897016, -1.20221, 1.23226, -1.30262, 0.0610258, -0.0352165, -0.0301177, 0.108553, -0.168862, 0.0294057, -0.00112399, -2.80907, 53.3929, 24.1758, 7.9657, 0.748168, 3.13083, 0.0101428, 0.000778567, -0.000987128, -0.00105931, -0.000822398, -0.00933187, 0.00351714, 0.00790859, 0.00180114, 0.0115523, -0.00922686, 0.129706, -0.162387, 0.470685, -0.545395, 0.334172, -2.08307, -2.1648, -0.126903, 0.469712, -0.544829, 0.335371, -2.092, -2.16663, -0.117967, -0.00626642, -0.0385235, -0.0343977, -0.00734045, -0.0481787, -0.0241571
0.141086, 1.69414, -1.22665, -1.53879, -0.896905, -1.20238, 1.2323, -1.30262, 0.063664, -0.0361695, -0.0312053, 0.107211, -0.168999, 0.0356519, -3.34116e-06, -2.62261, 53.3929, 24.1401, 7.92602, 0.748168, 3.13815, -0.00999879, 0.000769145, -0.000984901, -0.00106354, -0.000838596, -0.00943378, 0.0036173, 0.00692926, -0.00099443, 0.0111452, -0.00552866, 0.132543, -0.160924, 0.470679, -0.545434, 0.334138, -2.08305, -2.16478, -0.126841, 0.469709, -0.544878, 0.335339, -2.09215, -2.16656, -0.117809, -0.00632538, -0.038872, -0.0347562, -0.00465754, -0.0473831, -0.0248568
0.142086, 1.69421, -1.22669, -1.53883, -0.896787, -1.20254, 1.23234, -1.30261, 0.0626678, -0.0342457, -0.0329014, 0.110813, -0.168634, 0.0354773, 0.00142193, -2.43218, 53.2819, 24.1401, 7.81494, 0.748168, 3.15921, -0.0484509, 0.000759854, -0.000983669, -0.00107071, -0.000850849, -0.00953991, 0.00372453, 0.00811936, 0.000654146, 0.0125139, -0.00457673, 0.134128, -0.1679, 0.470673, -0.545473, 0.334103, -2.08303, -2.16476, -0.126778, 0.469705, -0.544927, 0.33531, -2.0923, -2.16649, -0.11764, -0.006384, -0.0392179, -0.0351138, -0.00626697, -0.0491816, -0.0239935
0.143086, 1.69429, -1.22673, -1.53888, -0.896668, -1.20271, 1.23238, -1.30262, 0.0711429, -0.0378546, -0.0403458, 0.116005, -0.174375, 0.0407281, -0.000476203, -2.3568, 53.2462, 24.1401, 7.73956, 0.766478, 3.15921, -0.00999879, 0.000755992, -0.00097231, -0.00107448, -0.000866201, -0.00964646, 0.00380878, 0.0090636, -0.00207094, 0.00881003, -0.00797584, 0.138456, -0.168243, 0.470666, -0.545512, 0.334068, -2.08301, -2.16473, -0.126715, 0.46971, -0.54497, 0.335278, -2.09243, -2.16644, -0.117476, -0.00644226, -0.0395612, -0.0354704, -0.00371276, -0.049777, -0.0282425
0.144086, 1.69437, -1.22678, -1.53892, -0.896541, -1.20288, 1.23242, -1.30262, 0.0745851, -0.0413764, -0.0435837, 0.121578, -0.177892, 0.0396956, -0.000317469, -2.16637, 53.2462, 24.1758, 7.59277, 0.760985, 3.16653, -0.00999879, 0.000746397, -0.000968468, -0.00107705, -0.000879509, -0.00974743, 0.00391335, 0.0103842, -0.00171602, 0.00638907, -0.0111567, 0.137449, -0.173228, 0.47066, -0.545551, 0.334033, -2.08299, -2.16471, -0.126651, 0.469708, -0.545019, 0.335243, -2.09258, -2.16637, -0.117313, -0.00650015, -0.0399019, -0.035826, -0.00417144, -0.0510644, -0.0311815
0.145086, 1.69445, -1.22683, -1.53896, -0.896416, -1.20305, 1.23246, -1.30262, 0.0733142, -0.0438521, -0.0429539, 0.123749, -0.171603, 0.0375843, 0.000975149, -1.94024, 53.2462, 24.2154, 7.51739, 0.772887, 3.20956, -0.0420422, 0.000737308, -0.000964101, -0.00107843, -0.000893197, -0.00984682, 0.00401693, 0.00984279, -0.00104789, 0.00561184, -0.00810521, 0.128812, -0.175917, 0.470653, -0.545591, 0.333997, -2.08297, -2.16469, -0.126586, 0.469706, -0.545068, 0.335207, -2.09273, -2.16629, -0.117151, -0.00655767, -0.0402399, -0.0361806, -0.00494515, -0.0507759, -0.0321978
0.146086, 1.69454, -1.22688, -1.539, -0.89629, -1.20322, 1.23251, -1.30261, 0.0822773, -0.0454628, -0.0397082, 0.122493, -0.166688, 0.042287, 0.000887458, -1.75378, 53.2462, 24.1401, 7.44202, 0.779296, 3.21689, -0.0484509, 0.000733882, -0.000951134, -0.00108215, -0.000921343, -0.00994591, 0.00410957, 0.00409525, -0.00845281, 0.00588744, -0.000559231, 0.126013, -0.163309, 0.470647, -0.545631, 0.333961, -2.08295, -2.16466, -0.12652, 0.469713, -0.545112, 0.335174, -2.09287, -2.16623, -0.117006, -0.00661481, -0.0405751, -0.036534, 0.00219966, -0.0451753, -0.0316324
0.147086, 1.69463, -1.22694, -1.53905, -0.896155, -1.20339, 1.23256, -1.30262, 0.0832738, -0.0484846, -0.041034, 0.127826, -0.166909, 0.0409574, -0.0015785, -1.56335, 53.3215, 24.2154, 7.36664, 0.772887, 3.22421, 0.0101428, 0.000724474, -0.000943178, -0.0010805, -0.000939163, -0.0100441, 0.00420903, 0.00531305, -0.00741768, 0.0044932, -0.00050042, 0.12248, -0.165872, 0.47064, -0.545672, 0.333924, -2.08293, -2.16464, -0.126454, 0.469714, -0.545161, 0.335134, -2.09302, -2.16617, -0.116849, -0.00667155, -0.0409074, -0.0368864, 0.00109853, -0.0465384, -0.0335163
0.148086, 1.69472, -1.22699, -1.5391, -0.896015, -1.20356, 1.23261, -1.30262, 0.0903251, -0.0464791, -0.0430976, 0.131842, -0.169106, 0.0396032, -6.89892e-05, -1.37688, 53.3572, 24.2154, 7.29126, 0.784789, 3.23886, -0.0164075, 0.000715372, -0.000934257, -0.0010814, -0.00096305, -0.0101442, 0.00431851, 0.00351657, -0.00963478, 0.0053216, -0.00308979, 0.125929, -0.166383, 0.470633, -0.545713, 0.333887, -2.08291, -2.16461, -0.126387, 0.469717, -0.545211, 0.335096, -2.09317, -2.16609, -0.116695, -0.00672789, -0.0412368, -0.0372375, 0.00322499, -0.0451303, -0.0328448
0.149086, 1.69481, -1.22703, -1.53915, -0.895871, -1.20373, 1.23266, -1.30262, 0.09168, -0.042346, -0.0413322, 0.135648, -0.168879, 0.0440212, -0.00102934, -1.15075, 53.2819, 24.0647, 7.18018, 0.772887, 3.23886, 0.0101428, 0.000707907, -0.000925245, -0.00109127, -0.000996132, -0.0102527, 0.00442225, 0.00331721, -0.0106451, 0.00953307, 0.0047526, 0.131948, -0.167253, 0.470627, -0.545754, 0.33385, -2.08289, -2.16458, -0.126319, 0.46972, -0.545261, 0.335068, -2.09334, -2.16603, -0.116543, -0.00678382, -0.0415633, -0.0375874, 0.00433511, -0.0458647, -0.0290394
0.150086, 1.69491, -1.22708, -1.5392, -0.895731, -1.20391, 1.23271, -1.30262, 0.0923632, -0.0452954, -0.0456856, 0.138649, -0.174232, 0.0468135, 5.97606e-05, -1.0357, 53.3215, 24.1401, 7.18018, 0.766478, 3.25259, -0.00999879, 0.000701351, -0.000912422, -0.00109184, -0.00100807, -0.0103671, 0.00452637, 0.00605552, -0.00959496, 0.00718356, 0.0023184, 0.135154, -0.174776, 0.47062, -0.545796, 0.333812, -2.08287, -2.16456, -0.126251, 0.469726, -0.545308, 0.335029, -2.09349, -2.16596, -0.11636, -0.00683932, -0.0418868, -0.0379361, 0.00323681, -0.0485742, -0.0320977
0.151086, 1.69501, -1.22714, -1.53926, -0.895584, -1.20409, 1.23276, -1.30262, 0.0940729, -0.0521222, -0.0516722, 0.142325, -0.178394, 0.0450869, 3.98404e-05, -0.845268, 53.4326, 24.2154, 7.14447, 0.779296, 3.23886, -0.00999879, 0.000689203, -0.000903421, -0.00109006, -0.00102507, -0.0104786, 0.00464057, 0.00854138, -0.00807109, 0.00159642, -0.00510612, 0.131369, -0.181088, 0.470613, -0.545838, 0.333774, -2.08285, -2.16453, -0.126182, 0.469729, -0.545362, 0.334987, -2.09365, -2.16588, -0.116184, -0.0068944, -0.0422071, -0.0382834, 0.00153024, -0.0505541, -0.0382966
0.152086, 1.69511, -1.22719, -1.53931, -0.895436, -1.20428, 1.23281, -1.30261, 0.090048, -0.053608, -0.0494172, 0.144325, -0.181499, 0.0477857, 0.00172198, -0.694511, 53.5397, 24.1401, 7.14447, 0.797606, 3.24527, -0.0557752, 0.000680593, -0.000892252, -0.00109237, -0.00104727, -0.0105898, 0.00475366, 0.0111165, -0.00596088, 0.00253312, -0.000413736, 0.133627, -0.189108, 0.470606, -0.54588, 0.333736, -2.08282, -2.1645, -0.126112, 0.469734, -0.545412, 0.33495, -2.09382, -2.1658, -0.116014, -0.00694903, -0.0425243, -0.0386293, -0.000503856, -0.0536439, -0.0380468
0.153086, 1.69522, -1.22725, -1.53937, -0.895282, -1.20447, 1.23287, -1.30262, 0.0929374, -0.0528452, -0.0504131, 0.149076, -0.183293, 0.0499599, -0.00176814, -0.543754, 53.6905, 24.1758, 7.14447, 0.797606, 3.24527, 0.0229602, 0.000669026, -0.000881797, -0.00109265, -0.00106795, -0.0107047, 0.00486056, 0.011585, -0.00656107, 0.00362728, 0.00201516, 0.137001, -0.188694, 0.470599, -0.545922, 0.333697, -2.0828, -2.16448, -0.126041, 0.469738, -0.545466, 0.334909, -2.09398, -2.16573, -0.115838, -0.00700322, -0.0428383, -0.0389739, 0.000100806, -0.0545637, -0.0374038
0.154086, 1.69532, -1.2273, -1.53943, -0.895129, -1.20465, 1.23291, -1.30262, 0.0985753, -0.0520019, -0.0522241, 0.147813, -0.189548, 0.0560972, -0.000229322, -0.392998, 53.8373, 24.2512, 7.21588, 0.797606, 3.25259, -0.00267457, 0.000658077, -0.000871922, -0.00108912, -0.00108191, -0.0108128, 0.00497523, 0.0105084, -0.0101456, 0.00388074, 0.00188885, 0.146773, -0.187174, 0.470592, -0.545965, 0.333659, -2.08278, -2.16445, -0.12597, 0.469741, -0.545518, 0.334865, -2.09414, -2.16565, -0.115659, -0.00705695, -0.0431491, -0.039317, 0.00359861, -0.0537033, -0.0374496
0.155086, 1.69542, -1.22736, -1.53948, -0.894966, -1.20485, 1.23297, -1.30261, 0.0994969, -0.0504466, -0.0516974, 0.152283, -0.188825, 0.0617588, 0.00181381, -0.242241, 53.9484, 24.2512, 7.18018, 0.791197, 3.23153, -0.0557752, 0.000643602, -0.000863051, -0.00109236, -0.00110938, -0.0109335, 0.00510791, 0.0112498, -0.0108703, 0.00634821, 0.0101194, 0.150464, -0.192424, 0.470585, -0.546008, 0.333619, -2.08275, -2.16442, -0.125898, 0.469743, -0.545576, 0.334826, -2.09433, -2.16556, -0.115481, -0.00711021, -0.0434565, -0.0396587, 0.00439225, -0.0550914, -0.0354944
0.156086, 1.69553, -1.22741, -1.53954, -0.894802, -1.20504, 1.23302, -1.30262, 0.101981, -0.050029, -0.0535607, 0.159579, -0.190387, 0.0553947, -0.0012322, -0.166862, 54.0952, 24.2154, 7.21588, 0.754576, 3.23886, 0.0101428, 0.00063322, -0.000852163, -0.00109383, -0.00113154, -0.0110453, 0.00521963, 0.0119407, -0.00898577, 0.00653441, 0.00571211, 0.148886, -0.195456, 0.470578, -0.546052, 0.33358, -2.08273, -2.16439, -0.125825, 0.469748, -0.545629, 0.334786, -2.09449, -2.16548, -0.115307, -0.007163, -0.0437605, -0.0399988, 0.00248967, -0.0561834, -0.0356953
0.157086, 1.69564, -1.22746, -1.5396, -0.894634, -1.20523, 1.23308, -1.30262, 0.102907, -0.0511514, -0.0560305, 0.158872, -0.193651, 0.0551522, 0.000399235, -0.0557783, 54.1666, 24.2154, 7.29126, 0.723448, 3.25259, -0.0228162, 0.000619335, -0.00084456, -0.00109957, -0.00115813, -0.0111671, 0.00535113, 0.0122019, -0.00888439, 0.00512928, 0.00165862, 0.150931, -0.198474, 0.470571, -0.546096, 0.33354, -2.08271, -2.16437, -0.125751, 0.469749, -0.545688, 0.334749, -2.09468, -2.16539, -0.115125, -0.0072153, -0.0440611, -0.0403373, 0.00229032, -0.0565305, -0.0374588
0.158086, 1.69575, -1.22752, -1.53966, -0.894453, -1.20542, 1.23312, -1.30262, 0.104919, -0.0527523, -0.057847, 0.164079, -0.191158, 0.0499143, 0.00121559, -0.0161054, 54.2776, 24.2154, 7.25555, 0.686827, 3.27456, -0.0484509, 0.000604949, -0.000836987, -0.00110366, -0.00118183, -0.0112832, 0.00548423, 0.0119889, -0.00791973, 0.00396493, -0.000907282, 0.144758, -0.202578, 0.470564, -0.54614, 0.333499, -2.08268, -2.16434, -0.125677, 0.46975, -0.545746, 0.334711, -2.09487, -2.16529, -0.114944, -0.0072671, -0.0443582, -0.0406742, 0.00122195, -0.0564782, -0.0388806
0.159086, 1.69586, -1.22757, -1.53972, -0.894276, -1.2056, 1.23318, -1.30262, 0.105726, -0.0525891, -0.0590252, 0.163282, -0.18507, 0.0516762, -0.000885026, 0.059273, 54.4641, 24.2154, 7.29126, 0.662108, 3.26724, -0.00267457, 0.000591531, -0.000828944, -0.00110644, -0.00121461, -0.0113896, 0.00560818, 0.0102572, -0.0093998, 0.00392711, 0.00234892, 0.141346, -0.198175, 0.470556, -0.546184, 0.333458, -2.08266, -2.16431, -0.125602, 0.469751, -0.545804, 0.33467, -2.09505, -2.1652, -0.114784, -0.00731841, -0.0446518, -0.0410095, 0.00258606, -0.0549954, -0.0390354
0.160086, 1.69597, -1.22762, -1.53979, -0.894091, -1.20579, 1.23323, -1.30262, 0.107239, -0.0547153, -0.0627746, 0.16949, -0.185754, 0.0491114, -8.13909e-05, 0.0949785, 54.6109, 24.3265, 7.29126, 0.656615, 3.24527, -0.0164075, 0.00057453, -0.000822644, -0.0011101, -0.00124364, -0.0115066, 0.00575288, 0.0119246, -0.00772079, 0.00217391, -0.000579315, 0.138613, -0.205596, 0.470549, -0.546229, 0.333417, -2.08263, -2.16428, -0.125526, 0.469751, -0.545866, 0.33463, -2.09525, -2.1651, -0.114606, -0.0073692, -0.0449417, -0.0413431, 0.000848328, -0.0567316, -0.0413021
0.161086, 1.69609, -1.22768, -1.53986, -0.893901, -1.20597, 1.23328, -1.30261, 0.112166, -0.0563343, -0.0631819, 0.174372, -0.181095, 0.0511659, 0.0014038, 0.0949785, 54.7577, 24.3622, 7.29126, 0.637389, 3.23886, -0.0557752, 0.000560024, -0.000814577, -0.00111566, -0.00127945, -0.0116177, 0.00589565, 0.0103707, -0.0102961, 0.00194702, 0.00484692, 0.13431, -0.205771, 0.470542, -0.546274, 0.333376, -2.08261, -2.16425, -0.12545, 0.469753, -0.545925, 0.334592, -2.09545, -2.16499, -0.114441, -0.00741948, -0.0452279, -0.0416749, 0.00330583, -0.0553432, -0.0417048
0.162086, 1.6962, -1.22773, -1.53992, -0.893717, -1.20616, 1.23334, -1.30262, 0.114869, -0.0542353, -0.0625789, 0.177119, -0.184057, 0.0486338, 0.000189882, 0.134651, 54.9045, 24.3622, 7.33093, 0.643798, 3.21689, -0.0356336, 0.000546911, -0.000806026, -0.00112338, -0.00131205, -0.011737, 0.0060244, 0.00964264, -0.0105001, 0.00370582, 0.00327616, 0.137721, -0.205736, 0.470534, -0.546319, 0.333334, -2.08258, -2.16422, -0.125373, 0.469755, -0.545984, 0.334556, -2.09564, -2.1649, -0.114264, -0.00746922, -0.0455105, -0.042005, 0.00350398, -0.0551682, -0.0401932
0.163086, 1.69632, -1.22778, -1.53998, -0.893518, -1.20636, 1.23339, -1.30262, 0.120023, -0.0576895, -0.0624951, 0.183895, -0.189715, 0.0465058, -0.00204355, 0.170357, 55.1266, 24.3622, 7.29126, 0.637389, 3.19583, 0.0229602, 0.000528064, -0.000800074, -0.00112818, -0.00134678, -0.0118549, 0.00616814, 0.0102256, -0.0109593, 0.00245656, 0.00134708, 0.137763, -0.206831, 0.470527, -0.546364, 0.333292, -2.08255, -2.16419, -0.125295, 0.469754, -0.546049, 0.334515, -2.09584, -2.1648, -0.11409, -0.00751843, -0.0457892, -0.0423333, 0.00388433, -0.055812, -0.0418614
0.164086, 1.69644, -1.22783, -1.54006, -0.893328, -1.20655, 1.23345, -1.30261, 0.125039, -0.0532387, -0.0649428, 0.186469, -0.193845, 0.0486857, 0.00128249, 0.134651, 55.1981, 24.4733, 7.36664, 0.625487, 3.20224, -0.0484509, 0.000513365, -0.000791392, -0.00113598, -0.00137186, -0.0119864, 0.00631718, 0.00955653, -0.0126466, 0.00481677, 0.000462161, 0.147128, -0.210759, 0.470519, -0.54641, 0.33325, -2.08253, -2.16416, -0.125216, 0.469756, -0.54611, 0.334478, -2.09605, -2.16469, -0.113889, -0.00756709, -0.0460641, -0.0426597, 0.00559114, -0.055719, -0.0398118
0.165086, 1.69656, -1.22788, -1.54012, -0.893117, -1.20675, 1.2335, -1.30262, 0.12442, -0.0498147, -0.0650898, 0.195452, -0.192807, 0.0505209, -0.00131515, 0.170357, 55.3845, 24.513, 7.29126, 0.637389, 3.20224, 0.0101428, 0.000490711, -0.000790597, -0.001146, -0.00140714, -0.0121122, 0.00647341, 0.0118569, -0.0106422, 0.00849289, 0.00741701, 0.150132, -0.217127, 0.470512, -0.546456, 0.333207, -2.0825, -2.16412, -0.125137, 0.469751, -0.54618, 0.334442, -2.09627, -2.16458, -0.113704, -0.0076152, -0.0463352, -0.0429842, 0.0037697, -0.0589071, -0.0367953
0.166086, 1.69667, -1.22792, -1.54019, -0.892908, -1.20695, 1.23354, -1.30262, 0.118768, -0.0474995, -0.0681975, 0.198447, -0.193089, 0.0513455, -0.00111412, 0.285408, 55.4559, 24.5487, 7.36664, 0.625487, 3.21689, 0.0165515, 0.00047088, -0.000790006, -0.00116125, -0.00144289, -0.0122418, 0.00662918, 0.0155006, -0.00632428, 0.0098158, 0.00814422, 0.1532, -0.227834, 0.470504, -0.546503, 0.333164, -2.08247, -2.16409, -0.125057, 0.469745, -0.546248, 0.334411, -2.09649, -2.16446, -0.113515, -0.00766275, -0.0466022, -0.0433068, -0.000407595, -0.0631517, -0.0362291
0.167086, 1.69679, -1.22797, -1.54027, -0.892695, -1.20716, 1.23359, -1.30262, 0.114605, -0.0535026, -0.0700341, 0.205784, -0.197071, 0.0480319, 0.00119003, 0.285408, 55.7138, 24.6995, 7.36664, 0.631896, 3.21689, -0.0356336, 0.00044644, -0.00079032, -0.00116631, -0.00146714, -0.0123684, 0.00680472, 0.0205897, -0.00107545, 0.0068054, 0.00572154, 0.148519, -0.243474, 0.470496, -0.546549, 0.333121, -2.08245, -2.16406, -0.124976, 0.469738, -0.54632, 0.334369, -2.09673, -2.16432, -0.113313, -0.00770973, -0.0468653, -0.0436274, -0.00563627, -0.0681933, -0.0401308
0.168086, 1.69691, -1.22802, -1.54034, -0.892476, -1.20736, 1.23364, -1.30262, 0.116555, -0.0537092, -0.0702838, 0.207623, -0.200013, 0.0495769, 0.000793354, 0.325081, 55.936, 24.8105, 7.36664, 0.643798, 3.23153, -0.0356336, 0.000424273, -0.000789481, -0.00117631, -0.00149771, -0.0124961, 0.00696821, 0.0207643, -0.00169309, 0.00716792, 0.006428, 0.151778, -0.24453, 0.470489, -0.546596, 0.333077, -2.08242, -2.16403, -0.124894, 0.469733, -0.54639, 0.334332, -2.09695, -2.1642, -0.113118, -0.00775613, -0.0471243, -0.043946, -0.00504487, -0.0686548, -0.0401396
0.169086, 1.69704, -1.22806, -1.54041, -0.892261, -1.20757, 1.23369, -1.30262, 0.123168, -0.0520055, -0.0709488, 0.212528, -0.201668, 0.0555941, -0.0006918, 0.285408, 56.0828, 24.8105, 7.36664, 0.637389, 3.24527, -0.00267457, 0.000408545, -0.000781435, -0.00119094, -0.00153309, -0.0126315, 0.00711916, 0.019896, -0.00509405, 0.00909877, 0.0121656, 0.158021, -0.242367, 0.470481, -0.546643, 0.333034, -2.08239, -2.164, -0.124812, 0.469734, -0.546455, 0.334299, -2.09717, -2.1641, -0.112921, -0.00780194, -0.0473792, -0.0442625, -0.00164726, -0.0682088, -0.038532
0.170086, 1.69718, -1.2281, -1.54049, -0.892038, -1.20778, 1.23373, -1.30261, 0.122438, -0.0490389, -0.0735473, 0.218212, -0.20393, 0.0502139, 0.000759503, 0.21003, 56.1581, 24.8859, 7.40631, 0.643798, 3.27456, -0.0356336, 0.000389268, -0.000778694, -0.00120633, -0.00155677, -0.0127733, 0.0072884, 0.0217383, -0.00165727, 0.0105515, 0.00762729, 0.160164, -0.252284, 0.470473, -0.546691, 0.332989, -2.08236, -2.16396, -0.124729, 0.46973, -0.546523, 0.334267, -2.0974, -2.16397, -0.112701, -0.00784715, -0.04763, -0.044577, -0.00500032, -0.0706423, -0.0375794
0.171086, 1.6973, -1.22814, -1.54056, -0.891802, -1.20798, 1.23377, -1.30261, 0.121041, -0.0495622, -0.0776753, 0.219258, -0.199666, 0.0504879, 0.000506335, 0.285408, 56.3406, 24.9216, 7.33093, 0.625487, 3.31027, -0.0356336, 0.000363437, -0.000782952, -0.00122178, -0.00159399, -0.0129021, 0.0074711, 0.0224593, -0.000474161, 0.00928462, 0.00729613, 0.156826, -0.255523, 0.470465, -0.546738, 0.332945, -2.08233, -2.16393, -0.124645, 0.46972, -0.546599, 0.334234, -2.09765, -2.16383, -0.112508, -0.00789177, -0.0478765, -0.0448893, -0.00625142, -0.071455, -0.0392135
0.172086, 1.69743, -1.22819, -1.54064, -0.891572, -1.20818, 1.23381, -1.30262, 0.11917, -0.0458722, -0.0835715, 0.223497, -0.202729, 0.0508731, -0.00159522, 0.285408, 56.4874, 25.0724, 7.36664, 0.650206, 3.33865, 0.0165515, 0.000341497, -0.000783189, -0.00123246, -0.00161882, -0.0130303, 0.00763878, 0.025763, 0.00291993, 0.0103812, 0.0040285, 0.163556, -0.26356, 0.470457, -0.546786, 0.3329, -2.0823, -2.16389, -0.124561, 0.469713, -0.54667, 0.334197, -2.09788, -2.1637, -0.112303, -0.00793577, -0.0481188, -0.0451995, -0.00952326, -0.0752666, -0.038835
0.173086, 1.69756, -1.22822, -1.54073, -0.891327, -1.20838, 1.23386, -1.30261, 0.122435, -0.0456018, -0.0835638, 0.230144, -0.203198, 0.052604, 0.00134402, 0.21003, 56.5985, 25.1835, 7.36664, 0.643798, 3.33865, -0.0484509, 0.000318071, -0.00078334, -0.00124899, -0.00165316, -0.0131649, 0.00782755, 0.0262292, 0.00231344, 0.0117123, 0.00840069, 0.164955, -0.269937, 0.470449, -0.546834, 0.332855, -2.08227, -2.16386, -0.124476, 0.469707, -0.546744, 0.334164, -2.09813, -2.16355, -0.112098, -0.00797915, -0.0483568, -0.0455074, -0.00889012, -0.0761439, -0.0379216
0.174086, 1.69769, -1.22827, -1.54081, -0.891073, -1.20859, 1.2339, -1.30262, 0.125459, -0.0469956, -0.0866103, 0.242167, -0.19897, 0.0487214, 0.000421293, 0.245735, 56.781, 25.2945, 7.29126, 0.686827, 3.34598, -0.0356336, 0.000288119, -0.000788684, -0.00126268, -0.00168949, -0.0132973, 0.00801902, 0.0276731, 0.00406037, 0.011204, 0.00978242, 0.157783, -0.277287, 0.470441, -0.546883, 0.332809, -2.08224, -2.16383, -0.12439, 0.469695, -0.546824, 0.334128, -2.09839, -2.1634, -0.111897, -0.00802191, -0.0485903, -0.0458132, -0.0106463, -0.0777969, -0.0388918
0.175086, 1.69783, -1.2283, -1.5409, -0.890829, -1.2088, 1.23394, -1.30261, 0.129538, -0.0437155, -0.0841636, 0.244127, -0.202063, 0.0459259, 0.000518221, 0.21003, 56.781, 25.3303, 7.44202, 0.711547, 3.3533, -0.0420422, 0.00026677, -0.000789031, -0.00128125, -0.00171639, -0.0134372, 0.00820181, 0.0256565, 0.00268332, 0.0141021, 0.00909865, 0.162359, -0.275702, 0.470433, -0.546931, 0.332763, -2.08221, -2.16379, -0.124304, 0.469688, -0.546897, 0.334097, -2.09864, -2.16325, -0.111678, -0.00806403, -0.0488195, -0.0461166, -0.00926603, -0.0764226, -0.0360693
0.176086, 1.69797, -1.22834, -1.54099, -0.890571, -1.20901, 1.23397, -1.30262, 0.134348, -0.0420247, -0.0868138, 0.249166, -0.204556, 0.0431945, -0.00182466, 0.21003, 56.9318, 25.5564, 7.44202, 0.741759, 3.37436, 0.0165515, 0.000238976, -0.000794493, -0.00129391, -0.00173082, -0.013576, 0.008393, 0.025321, 0.00238129, 0.0146465, 0.00543909, 0.165014, -0.275842, 0.470425, -0.54698, 0.332717, -2.08218, -2.16375, -0.124217, 0.469676, -0.546975, 0.334059, -2.09889, -2.1631, -0.111445, -0.00810551, -0.0490442, -0.0464177, -0.0089947, -0.076387, -0.0357913
0.177086, 1.69811, -1.22838, -1.54108, -0.890303, -1.20922, 1.23401, -1.30261, 0.139835, -0.0409352, -0.0890452, 0.252804, -0.210432, 0.0411648, 0.00146233, 0.245735, 56.9675, 25.6675, 7.33093, 0.760985, 3.38901, -0.0557752, 0.000209741, -0.000802435, -0.00131279, -0.00175951, -0.0137127, 0.00860583, 0.0249842, 0.0015508, 0.0148272, 0.000403086, 0.170306, -0.280627, 0.470417, -0.547029, 0.332671, -2.08215, -2.16372, -0.124129, 0.469662, -0.547056, 0.334027, -2.09916, -2.16292, -0.111227, -0.00814634, -0.0492643, -0.0467165, -0.00820979, -0.0762681, -0.0358883
0.178086, 1.69826, -1.22842, -1.54117, -0.890037, -1.20943, 1.23403, -1.30262, 0.142532, -0.0417009, -0.0833812, 0.255307, -0.2097, 0.0388999, 0.000703617, 0.245735, 57.1896, 25.7389, 7.33093, 0.772887, 3.43204, -0.0484509, 0.00018514, -0.000805575, -0.00132392, -0.00178078, -0.013835, 0.00879476, 0.0227718, -0.000102261, 0.0166272, 0.00486349, 0.167661, -0.27714, 0.470409, -0.547078, 0.332624, -2.08211, -2.16368, -0.12404, 0.469652, -0.547132, 0.333988, -2.0994, -2.16276, -0.111017, -0.00818651, -0.0494799, -0.0470129, -0.00660273, -0.0745072, -0.0341228
0.179086, 1.69841, -1.22846, -1.54126, -0.889762, -1.20964, 1.23406, -1.30263, 0.142236, -0.0399813, -0.0847511, 0.2588, -0.212319, 0.0331363, -0.00217578, 0.21003, 57.1896, 25.7786, 7.29126, 0.766478, 3.46042, 0.0229602, 0.000161808, -0.000808087, -0.00134438, -0.00180845, -0.0139694, 0.00898153, 0.0237021, 0.00247477, 0.0174064, -0.00032355, 0.168813, -0.279883, 0.470401, -0.547128, 0.332577, -2.08208, -2.16365, -0.123951, 0.469643, -0.547207, 0.333958, -2.09965, -2.16261, -0.110801, -0.00822601, -0.0496909, -0.0473069, -0.00914971, -0.0758619, -0.0337011
0.180086, 1.69856, -1.2285, -1.54135, -0.889484, -1.20986, 1.23408, -1.30262, 0.14654, -0.0422521, -0.086923, 0.26084, -0.217498, 0.0297705, 0.00071962, 0.245735, 57.3364, 25.8539, 7.25555, 0.791197, 3.46042, -0.0356336, 0.000134606, -0.000812348, -0.00135837, -0.00182769, -0.0141032, 0.0091906, 0.0234586, 0.00203253, 0.0153248, -0.00703202, 0.169634, -0.283715, 0.470393, -0.547178, 0.33253, -2.08205, -2.16361, -0.123861, 0.469632, -0.547286, 0.33392, -2.09991, -2.16243, -0.110573, -0.00826484, -0.0498971, -0.0475984, -0.00883971, -0.0754906, -0.0360255
0.181086, 1.69872, -1.22854, -1.54146, -0.889198, -1.21008, 1.23411, -1.30262, 0.149545, -0.0412713, -0.0955732, 0.266965, -0.219641, 0.0224852, 5.02853e-06, 0.285408, 57.3721, 25.965, 7.14447, 0.791197, 3.46042, -0.0228162, 0.000105446, -0.000818943, -0.00137349, -0.00184144, -0.0142424, 0.00940028, 0.0250292, 0.00483632, 0.0131579, -0.0190212, 0.169318, -0.290953, 0.470384, -0.547228, 0.332482, -2.08201, -2.16357, -0.12377, 0.469619, -0.547368, 0.333883, -2.10018, -2.16225, -0.110333, -0.00830299, -0.0500987, -0.0478874, -0.0117103, -0.077026, -0.0385981
0.182086, 1.69888, -1.22858, -1.54155, -0.888923, -1.21031, 1.23413, -1.30262, 0.154299, -0.0423643, -0.0938131, 0.26926, -0.217693, 0.0219352, -0.00145471, 0.325081, 57.4832, 26.0007, 7.14447, 0.822325, 3.45309, 0.0165515, 8.28867e-05, -0.00081894, -0.00138604, -0.00185185, -0.0143786, 0.00959282, 0.0226376, 0.00220483, 0.0134039, -0.0163656, 0.166597, -0.28597, 0.470376, -0.547278, 0.332434, -2.08198, -2.16353, -0.123678, 0.469613, -0.547442, 0.333844, -2.10042, -2.16209, -0.110094, -0.00834046, -0.0502955, -0.0481739, -0.00919327, -0.0747909, -0.0383641
0.183086, 1.69905, -1.22862, -1.54165, -0.888621, -1.21053, 1.23415, -1.30262, 0.157863, -0.039095, -0.0982911, 0.279298, -0.215287, 0.0209189, 0.000250897, 0.400459, 57.5546, 26.0007, 6.91833, 0.834227, 3.46042, -0.0164075, 5.66122e-05, -0.000823306, -0.00140401, -0.00187104, -0.0145103, 0.00980579, 0.0238049, 0.00324627, 0.0151161, -0.0151482, 0.167313, -0.295033, 0.470368, -0.547328, 0.332386, -2.08195, -2.1635, -0.123586, 0.469602, -0.547521, 0.33381, -2.10069, -2.1619, -0.109866, -0.00837722, -0.0504874, -0.0484579, -0.0101573, -0.0764406, -0.0371012
0.184086, 1.69922, -1.22866, -1.54175, -0.888324, -1.21075, 1.23416, -1.30262, 0.159701, -0.0391144, -0.101702, 0.286931, -0.21529, 0.0167945, 0.000404623, 0.511544, 57.5943, 26.0007, 6.80725, 0.846129, 3.43204, -0.0228162, 3.09799e-05, -0.000826815, -0.00141748, -0.0018818, -0.0146409, 0.0100177, 0.0252717, 0.00529845, 0.0147311, -0.0180091, 0.165265, -0.302384, 0.470359, -0.547378, 0.332338, -2.08191, -2.16346, -0.123493, 0.469591, -0.547599, 0.333771, -2.10095, -2.16172, -0.109629, -0.00841329, -0.0506745, -0.0487392, -0.0122058, -0.0781012, -0.0379166
