alisrour97/Franka_experiments/Real_Robot_scripts/servo-franka/Data_video/log_dyn_INIT1_k_ki_0.csv
Time,q1,q2,q3,q4,q5,q6,q7,dq1,dq2,dq3,dq4,dq5,dq6,dq7,t1,t2,t3,t4,t5,t6,t7,ex1,ex2,ex3,ex4,ex5,ex6,ev1,ev2,ev3,ev4,ev5,ev6,xd,yd,zd,uxd,uyd,uzd,x,y,z,ux,uy,uz,vxd,vyd,vzd,vx,vy,vz
4.88281e-07, 1.69112, -1.22473, -1.53808, -0.900019, -1.19169, 1.22872, -1.30267, 0.00304347, -0.00140815, 0.00971542, -0.00796602, 0.00498551, 0.00134074, 0.00808346, -1.18645, 56.5628, 27.0441, 6.91833, 1.46686, 2.65018, -0.127186, 0.000890253, -0.00169359, -0.000417981, -7.80933e-05, -0.00129465, 0.000227193, -0.00644796, -0.00602729, 0.00146415, 0.00759911, -0.00465535, 0.00827539, 0.471008, -0.543389, 0.335894, -2.08385, -2.16584, -0.129887, 0.469285, -0.542658, 0.33649, -2.08483, -2.16632, -0.128604, -4.82042e-07, 4.44613e-06, 1.21621e-06, 0.00584132, 0.00639132, 0.00226603
0.0120151, 1.69114, -1.22474, -1.538, -0.900073, -1.19166, 1.22873, -1.30267, -0.00140413, -0.000709476, 0.00989846, -0.00860201, 0.00171073, 0.000795193, 0.00226094, -0.734184, 56.5628, 27.0441, 6.88263, 1.48517, 2.62179, -0.147328, 0.000936882, -0.00164924, -0.000431132, -0.000141342, -0.0012616, 0.00010746, -0.0041664, -0.00322488, 0.00203676, 0.00619995, -0.00163264, 0.00923922, 0.471008, -0.543389, 0.335894, -2.08385, -2.16584, -0.129887, 0.469343, -0.542598, 0.336515, -2.08469, -2.16649, -0.128753, -1.47349e-06, 1.36697e-05, 3.70923e-06, 0.00314379, 0.00394532, 0.00256429
0.0130151, 1.69114, -1.22474, -1.538, -0.900073, -1.19166, 1.22873, -1.30267, -0.00140413, -0.000709476, 0.00989846, -0.00860201, 0.00171073, 0.000795193, 0.00226094, -0.734184, 56.5628, 27.0441, 6.88263, 1.48517, 2.62179, -0.147328, 0.000936874, -0.00164924, -0.000431131, -0.000141344, -0.0012616, 0.000107461, -0.00415265, -0.00322587, 0.00203532, 0.0062019, -0.00162646, 0.00924037, 0.471008, -0.543389, 0.335894, -2.08385, -2.16584, -0.129887, 0.469343, -0.542598, 0.336515, -2.08469, -2.16649, -0.128753, -2.9032e-06, 2.69793e-05, 7.30333e-06, 0.00314379, 0.00394532, 0.00256429
0.0140151, 1.69114, -1.22474, -1.538, -0.900073, -1.19166, 1.22873, -1.30267, -0.00140413, -0.000709476, 0.00989846, -0.00860201, 0.00171073, 0.000795193, 0.00226094, -0.734184, 56.5628, 27.0441, 6.88263, 1.48517, 2.62179, -0.147328, 0.000936854, -0.00164924, -0.000431129, -0.000141349, -0.00126161, 0.000107463, -0.00413403, -0.00322722, 0.00203336, 0.00620454, -0.00161809, 0.00924192, 0.471008, -0.543389, 0.335894, -2.08385, -2.16584, -0.129887, 0.469343, -0.542598, 0.336515, -2.08469, -2.16649, -0.128753, -4.83863e-06, 4.50071e-05, 1.21677e-05, 0.00314379, 0.00394532, 0.00256429
0.0150151, 1.69114, -1.22474, -1.538, -0.900073, -1.19166, 1.22873, -1.30267, -0.00140413, -0.000709476, 0.00989846, -0.00860201, 0.00171073, 0.000795193, 0.00226094, -0.734184, 56.5628, 27.0441, 6.88263, 1.48517, 2.62179, -0.147328, 0.000936815, -0.00164924, -0.000431125, -0.00014136, -0.00126162, 0.000107468, -0.00410994, -0.00322895, 0.00203083, 0.00620796, -0.00160726, 0.00924393, 0.471008, -0.543389, 0.335894, -2.08385, -2.16584, -0.129887, 0.469343, -0.542598, 0.336515, -2.08469, -2.16649, -0.128753, -7.34058e-06, 6.83239e-05, 1.84546e-05, 0.00314379, 0.00394532, 0.00256429
0.0160151, 1.69114, -1.22474, -1.538, -0.900073, -1.19166, 1.22873, -1.30267, -0.00140413, -0.000709476, 0.00989846, -0.00860201, 0.00171073, 0.000795193, 0.00226094, -0.734184, 56.5628, 27.0441, 6.88263, 1.48517, 2.62179, -0.147328, 0.00093675, -0.00164923, -0.000431118, -0.000141377, -0.00126164, 0.000107475, -0.00407989, -0.00323111, 0.00202768, 0.00621225, -0.00159374, 0.00924644, 0.471008, -0.543389, 0.335894, -2.08385, -2.16584, -0.129887, 0.469343, -0.542598, 0.336515, -2.08469, -2.16649, -0.128753, -1.04607e-05, 9.7416e-05, 2.62933e-05, 0.00314379, 0.00394532, 0.00256429
0.0170151, 1.69114, -1.22474, -1.538, -0.900073, -1.19166, 1.22873, -1.30267, -0.00140413, -0.000709476, 0.00989846, -0.00860201, 0.00171073, 0.000795193, 0.00226094, -0.734184, 56.5628, 27.0441, 6.88263, 1.48517, 2.62179, -0.147328, 0.000936654, -0.00164923, -0.000431108, -0.000141402, -0.00126168, 0.000107487, -0.00404349, -0.00323373, 0.00202387, 0.00621745, -0.00157734, 0.00924947, 0.471008, -0.543389, 0.335894, -2.08385, -2.16584, -0.129887, 0.469343, -0.542598, 0.336515, -2.08469, -2.16649, -0.128753, -1.42391e-05, 0.000132663, 3.57838e-05, 0.00314379, 0.00394532, 0.00256429
0.0180151, 1.69114, -1.22474, -1.538, -0.900073, -1.19166, 1.22873, -1.30267, -0.00140413, -0.000709476, 0.00989846, -0.00860201, 0.00171073, 0.000795193, 0.00226094, -0.734184, 56.5628, 27.0441, 6.88263, 1.48517, 2.62179, -0.147328, 0.000936519, -0.00164922, -0.000431093, -0.000141437, -0.00126172, 0.000107503, -0.00400047, -0.00323682, 0.00201937, 0.00622362, -0.00155795, 0.00925306, 0.471008, -0.543389, 0.335894, -2.08385, -2.16584, -0.129887, 0.469343, -0.542598, 0.336515, -2.08469, -2.16649, -0.128753, -1.87016e-05, 0.000174312, 4.69907e-05, 0.00314379, 0.00394532, 0.00256429
0.0190151, 1.69114, -1.22474, -1.538, -0.900073, -1.19166, 1.22873, -1.30267, -0.00140413, -0.000709476, 0.00989846, -0.00860201, 0.00171073, 0.000795193, 0.00226094, -0.734184, 56.5628, 27.0441, 6.88263, 1.48517, 2.62179, -0.147328, 0.000936341, -0.00164921, -0.000431075, -0.000141483, -0.00126179, 0.000107524, -0.00395075, -0.00324039, 0.00201419, 0.00623077, -0.00153553, 0.00925722, 0.471008, -0.543389, 0.335894, -2.08385, -2.16584, -0.129887, 0.469343, -0.542598, 0.336515, -2.08469, -2.16649, -0.128753, -2.38577e-05, 0.00022246, 5.99368e-05, 0.00314379, 0.00394532, 0.00256429
0.0200151, 1.69114, -1.22474, -1.538, -0.900073, -1.19166, 1.22873, -1.30267, -0.00140413, -0.000709476, 0.00989846, -0.00860201, 0.00171073, 0.000795193, 0.00226094, -0.734184, 56.5628, 27.0441, 6.88263, 1.48517, 2.62179, -0.147328, 0.000936112, -0.00164919, -0.00043105, -0.000141543, -0.00126186, 0.00010755, -0.00389439, -0.00324443, 0.00200832, 0.00623889, -0.0015101, 0.00926192, 0.471008, -0.543389, 0.335894, -2.08385, -2.16584, -0.129887, 0.469343, -0.542598, 0.336515, -2.08469, -2.16649, -0.128753, -2.96979e-05, 0.000277024, 7.45974e-05, 0.00314379, 0.00394532, 0.00256429
0.0210151, 1.69114, -1.22474, -1.538, -0.900073, -1.19166, 1.22873, -1.30267, -0.00140413, -0.000709476, 0.00989846, -0.00860201, 0.00171073, 0.000795193, 0.00226094, -0.734184, 56.5628, 27.0441, 6.88263, 1.48517, 2.62179, -0.147328, 0.000935827, -0.00164917, -0.00043102, -0.000141618, -0.00126196, 0.000107584, -0.00383171, -0.00324892, 0.00200181, 0.00624796, -0.00148179, 0.00926716, 0.471008, -0.543388, 0.335894, -2.08385, -2.16584, -0.129887, 0.469343, -0.542598, 0.336515, -2.08469, -2.16649, -0.128753, -3.61913e-05, 0.000337726, 9.08941e-05, 0.00314379, 0.00394532, 0.00256429
0.0220151, 1.69116, -1.22474, -1.53791, -0.900093, -1.19165, 1.22874, -1.30268, 0.00145919, -6.90741e-05, 0.00779202, -0.00205972, -0.000184243, 0.00177739, -0.00146194, -0.0557783, 56.4874, 26.9687, 6.73187, 1.5163, 2.60074, -0.0878186, 0.000968089, -0.00161761, -0.000461966, -0.000218546, -0.00126106, 2.21337e-05, -0.00224003, -0.00298283, 0.00247078, 0.00711346, 0.000872135, 0.00843719, 0.471008, -0.543388, 0.335894, -2.08385, -2.16584, -0.129887, 0.469374, -0.54257, 0.336549, -2.08464, -2.16661, -0.128848, -4.33151e-05, 0.00040436, 0.000108769, 0.00294475, 0.00235753, 0.00280624
0.0230151, 1.69116, -1.22474, -1.5379, -0.900087, -1.19165, 1.22874, -1.30267, 0.00228672, -0.000881304, 0.00896982, 0.00255216, -0.000315971, 0.0018544, 0.00123389, -0.0914839, 56.5231, 26.9687, 6.69617, 1.52179, 2.58609, -0.147328, 0.000969385, -0.00161411, -0.000463135, -0.000227198, -0.00125884, 2.49109e-05, -0.00129994, -0.00264299, 0.00300854, 0.0101622, -0.000214148, 0.00306787, 0.471008, -0.543388, 0.335894, -2.08385, -2.16584, -0.129887, 0.469378, -0.542568, 0.336551, -2.08465, -2.16661, -0.128859, -5.10658e-05, 0.000476901, 0.000128212, 0.00265063, 0.0014053, 0.00322103
0.0240151, 1.69116, -1.22474, -1.53789, -0.900088, -1.19165, 1.22874, -1.30267, 0.0010483, -0.00335053, 0.00845749, 0.00191201, 0.000916061, 0.00133146, -0.000157395, -0.0557783, 56.3763, 26.8934, 6.69617, 1.49158, 2.58609, -0.120778, 0.000970111, -0.00161371, -0.00046712, -0.000232119, -0.00126236, 2.31123e-05, -0.00081339, -0.00209506, 0.00129905, 0.00952616, -0.00385291, 0.00401213, 0.471008, -0.543387, 0.335894, -2.08385, -2.16584, -0.129887, 0.469378, -0.542567, 0.336555, -2.08465, -2.16662, -0.128861, -5.94401e-05, 0.000555325, 0.000149214, 0.00205072, 0.00124409, 0.00149504
0.0250151, 1.69116, -1.22474, -1.53789, -0.900083, -1.19165, 1.22874, -1.30268, 0.000968143, -0.00513131, 0.00877257, 0.00403105, 0.00176939, 0.00341508, -0.00105185, -0.0557783, 56.1938, 26.7823, 6.58508, 1.46045, 2.65018, -0.0951428, 0.000966181, -0.00161704, -0.000467171, -0.0002355, -0.00126003, 2.9583e-05, 8.97295e-05, -0.00214773, 0.000839029, 0.0128959, -0.00546498, 0.00345114, 0.471008, -0.543387, 0.335895, -2.08385, -2.16584, -0.129887, 0.469375, -0.542571, 0.336555, -2.08466, -2.16661, -0.128867, -6.84344e-05, 0.000639605, 0.000171766, 0.00211001, 0.000509741, 0.000921602
0.0260151, 1.69116, -1.22474, -1.53789, -0.900075, -1.19165, 1.22874, -1.30268, 0.0016826, 0.00083456, 0.00968389, 0.00410229, -0.00239591, 0.000325238, -0.00242868, -0.0914839, 55.9717, 26.6355, 6.39465, 1.43024, 2.71518, -0.0484509, 0.000964253, -0.00161743, -0.000470979, -0.000243594, -0.00126314, 3.26177e-05, -0.000372143, -0.00155661, 0.00435493, 0.00949862, 0.00236054, 0.00441499, 0.471008, -0.543386, 0.335895, -2.08384, -2.16584, -0.129887, 0.469375, -0.542573, 0.336558, -2.08466, -2.16661, -0.128872, -7.80454e-05, 0.000729718, 0.000195859, 0.00162045, 0.000490493, 0.00450687
0.0270151, 1.69116, -1.22474, -1.53789, -0.900074, -1.19165, 1.22875, -1.30267, 0.00396446, 0.0015207, 0.00852054, 0.00423096, -0.00174822, 0.00391128, -0.00134643, -0.206535, 55.9003, 26.5601, 6.32324, 1.42383, 2.75088, -0.0557752, 0.000964837, -0.00161289, -0.000472203, -0.000251443, -0.0012688, 3.32197e-05, -0.000826385, -0.00332705, 0.00454901, 0.0116815, 0.00446419, 0.00512829, 0.471008, -0.543385, 0.335895, -2.08384, -2.16584, -0.129887, 0.469379, -0.542571, 0.33656, -2.08467, -2.16662, -0.128875, -8.82697e-05, 0.000825639, 0.000221482, 0.00336914, 0.00107741, 0.00474128
0.0280151, 1.69116, -1.22474, -1.53788, -0.900076, -1.19166, 1.22876, -1.30267, 0.000993338, 0.0041825, 0.0130976, 0.00361791, -0.00213488, 0.00608377, -0.000184485, -0.131157, 56.0074, 26.5244, 6.28357, 1.44214, 2.80124, -0.0750012, 0.000961546, -0.00161206, -0.000471266, -0.00026201, -0.00127189, 3.76963e-05, -0.000492529, -0.00291346, 0.00798566, 0.0177932, 0.00822453, 0.00360955, 0.471008, -0.543384, 0.335895, -2.08384, -2.16584, -0.129887, 0.46938, -0.542574, 0.336558, -2.08468, -2.16662, -0.128884, -9.91039e-05, 0.000927342, 0.000248628, 0.00308124, 0.000303636, 0.00812251
0.0290151, 1.69115, -1.22474, -1.53789, -0.900083, -1.19166, 1.22878, -1.30267, -0.00194383, 0.000309687, 0.00989634, 0.00138586, -0.00231984, 0.0104351, -0.00229233, -0.0161054, 56.1185, 26.6355, 6.32324, 1.46045, 2.77926, -0.0164075, 0.000955245, -0.00161353, -0.000470805, -0.000271926, -0.00128276, 3.78246e-05, 0.00178966, -0.00205519, 0.00479453, 0.0177764, 0.0070342, 0.00324221, 0.471007, -0.543383, 0.335895, -2.08384, -2.16584, -0.129887, 0.469379, -0.542579, 0.336557, -2.08469, -2.16663, -0.128884, -0.000110545, 0.0010348, 0.000277287, 0.00217906, -0.0013859, 0.00467184
0.0300151, 1.69115, -1.22474, -1.53789, -0.900081, -1.19167, 1.22881, -1.30267, -0.00299523, -0.00146692, 0.00900512, -0.000551875, -0.00377879, 0.0140127, 0.000642514, 0.059273, 56.1938, 26.7069, 6.24786, 1.5163, 2.74356, -0.0750012, 0.00094753, -0.00161279, -0.00047496, -0.000290069, -0.00130667, 5.38573e-05, 0.00281611, -0.00227216, 0.00352564, 0.0185391, 0.00847671, 8.69685e-05, 0.471007, -0.543382, 0.335896, -2.08384, -2.16584, -0.129887, 0.46938, -0.542586, 0.33656, -2.08473, -2.16663, -0.128878, -0.000122588, 0.001148, 0.000307449, 0.0023746, -0.00208188, 0.00328323
0.0310164, 1.69114, -1.22473, -1.53789, -0.900083, -1.19167, 1.22883, -1.30267, -0.00454735, -0.000910557, 0.0041718, -0.000686867, -0.00308287, 0.0199194, -0.000554554, 0.170357, 56.1938, 26.822, 6.24786, 1.5282, 2.74356, -0.0484509, 0.000940101, -0.00161351, -0.000478437, -0.000306181, -0.00132571, 6.04164e-05, 0.00502023, -0.00173952, 0.00271051, 0.0200134, 0.0117154, -0.00222373, 0.471007, -0.543381, 0.335896, -2.08384, -2.16584, -0.129887, 0.469379, -0.542593, 0.336563, -2.08476, -2.16664, -0.128876, -0.000135232, 0.0012669, 0.000339106, 0.0018794, -0.00403529, 0.00218398
0.0320164, 1.69114, -1.22472, -1.5379, -0.900085, -1.19167, 1.22885, -1.30267, -0.00392364, 0.00343674, 0.00342593, -0.00153234, -0.00350373, 0.0237087, -0.00155616, 0.21003, 56.1581, 26.822, 6.28357, 1.56482, 2.75821, -0.0164075, 0.000936562, -0.00160923, -0.0004847, -0.000324791, -0.00135096, 5.70264e-05, 0.00483752, -0.00272273, 0.00516882, 0.0223396, 0.0184654, -0.000429632, 0.471007, -0.54338, 0.335896, -2.08384, -2.16584, -0.129887, 0.469384, -0.542596, 0.336569, -2.08478, -2.16666, -0.128871, -0.000148472, 0.00139149, 0.000372248, 0.0029303, -0.00406849, 0.00464325
0.0330164, 1.69114, -1.22472, -1.53789, -0.900082, -1.19168, 1.22888, -1.30267, 0.000590426, 0.00435547, 0.00369552, 0.000562268, -0.00240493, 0.0298914, 0.00137031, 0.21003, 56.0828, 26.7823, 6.20819, 1.56482, 2.81589, -0.0814099, 0.000933618, -0.0016027, -0.000493212, -0.000353745, -0.00137483, 6.31661e-05, 0.00386912, -0.0060818, 0.00638904, 0.0288593, 0.0215333, -0.000233178, 0.471007, -0.543379, 0.335897, -2.08384, -2.16584, -0.129888, 0.469391, -0.542598, 0.336577, -2.08481, -2.16668, -0.128879, -0.000162305, 0.00152173, 0.000406866, 0.00628062, -0.0030326, 0.00593181
0.0340164, 1.69114, -1.22471, -1.53789, -0.900086, -1.19168, 1.22891, -1.30267, 0.00175177, 0.00489269, 0.00458958, -0.000687732, -0.00121431, 0.0244083, -0.00149377, 0.285408, 56.0074, 26.7069, 6.24786, 1.55292, 2.89462, -0.0164075, 0.000928541, -0.00159921, -0.000499323, -0.000378247, -0.00139783, 5.76341e-05, 0.00207944, -0.00630141, 0.00628825, 0.024718, 0.0185337, 0.00570205, 0.471007, -0.543377, 0.335897, -2.08384, -2.16584, -0.129888, 0.469394, -0.542603, 0.336582, -2.08483, -2.16671, -0.128883, -0.000176727, 0.00165761, 0.000442951, 0.0064179, -0.00110538, 0.0061395
0.0350164, 1.69114, -1.2247, -1.5379, -0.900083, -1.19169, 1.22894, -1.30267, 0.00254609, 0.00770004, -0.00147496, 0.00120383, -0.00607482, 0.0257211, 0.000462357, 0.245735, 55.8249, 26.7823, 6.17248, 1.56482, 2.95871, -0.0557752, 0.000923579, -0.00159322, -0.000506059, -0.000398445, -0.00142966, 6.49432e-05, 0.0045292, -0.00491117, 0.00611048, 0.019332, 0.0262748, -0.00171553, 0.471007, -0.543375, 0.335898, -2.08384, -2.16584, -0.129888, 0.469401, -0.542607, 0.336589, -2.08486, -2.16673, -0.128873, -0.000191736, 0.0017991, 0.000480493, 0.00509563, -0.0034119, 0.0056632
0.0360164, 1.69114, -1.2247, -1.5379, -0.900086, -1.19169, 1.22898, -1.30267, 0.00259759, 0.00526038, -0.00103293, -0.000108351, -0.00833641, 0.0318108, 0.00368564, 0.360787, 55.8249, 26.7823, 6.20819, 1.5401, 3.01639, -0.0164075, 0.000916638, -0.00158772, -0.000508942, -0.000428106, -0.00145269, 6.59641e-05, 0.00549132, -0.00622468, 0.00517256, 0.0231476, 0.0288643, -0.00422785, 0.471006, -0.543374, 0.335898, -2.08384, -2.16584, -0.129888, 0.469406, -0.542612, 0.336591, -2.08489, -2.16675, -0.128882, -0.000207328, 0.00194618, 0.000519485, 0.0063924, -0.00401655, 0.00458716
0.0370164, 1.69114, -1.22469, -1.53791, -0.900081, -1.1917, 1.22902, -1.30267, 0.00273783, 0.0044374, -0.0064786, 0.00246946, -0.0117607, 0.0320471, 0.00333484, 0.475838, 55.7892, 26.8934, 6.09711, 1.55932, 3.05942, -0.0292249, 0.000905876, -0.00158446, -0.000512117, -0.000452738, -0.00148358, 8.10093e-05, 0.00826915, -0.00445446, 0.0031168, 0.0181618, 0.0311663, -0.00974091, 0.471006, -0.543372, 0.335899, -2.08384, -2.16584, -0.129888, 0.46941, -0.542621, 0.336593, -2.08493, -2.16676, -0.128877, -0.0002235, 0.00209882, 0.000559916, 0.00463341, -0.00636228, 0.0022199
0.0380164, 1.69114, -1.22468, -1.53791, -0.900089, -1.1917, 1.22906, -1.30267, 0.00801371, 0.00562817, -0.00460984, -0.000159509, -0.00965886, 0.0367802, 0.00300021, 0.511544, 55.6781, 26.8934, 6.17248, 1.58313, 3.10245, -0.0420422, 0.000903897, -0.00157229, -0.000518835, -0.000481098, -0.00152069, 6.91721e-05, 0.00488182, -0.00942244, 0.00423557, 0.0229439, 0.0333152, -0.000293085, 0.471006, -0.54337, 0.335899, -2.08384, -2.16584, -0.129888, 0.469422, -0.542621, 0.336599, -2.08495, -2.16681, -0.128872, -0.000240248, 0.00225699, 0.000601779, 0.00949749, -0.00282898, 0.00374245
0.0390164, 1.69115, -1.22469, -1.53791, -0.90009, -1.19171, 1.22911, -1.30267, 0.00656739, 0.00213526, -0.00421932, 0.000696948, -0.00782, 0.0411772, 0.000768782, 0.626595, 55.7495, 26.933, 6.13678, 1.60144, 3.13083, -0.00267457, 0.000894735, -0.00156375, -0.000517506, -0.000516058, -0.00154402, 6.59364e-05, 0.00629305, -0.00957447, 0.00288997, 0.0283284, 0.0304381, 0.000643227, 0.471006, -0.543367, 0.3359, -2.08384, -2.16584, -0.129888, 0.469431, -0.542628, 0.336597, -2.08498, -2.16683, -0.128888, -0.000257569, 0.00242068, 0.000645063, 0.0096339, -0.00384517, 0.00223345
0.0400164, 1.69115, -1.22469, -1.53792, -0.90009, -1.19172, 1.22916, -1.30267, 0.00522463, 0.00229891, -0.00473968, 0.00220392, -0.0111456, 0.0444932, 0.00214061, 0.777352, 55.7138, 27.0084, 6.0614, 1.62067, 3.1528, -0.0420422, 0.000884399, -0.00155641, -0.000521257, -0.000548633, -0.00158228, 7.94818e-05, 0.00860621, -0.00863369, 0.00335855, 0.0301739, 0.0349051, -0.0047258, 0.471005, -0.543365, 0.3359, -2.08384, -2.16584, -0.129889, 0.469438, -0.542636, 0.336599, -2.08503, -2.16685, -0.128884, -0.00027546, 0.00258986, 0.000689759, 0.00877608, -0.00607024, 0.00241016
0.0410164, 1.69115, -1.22469, -1.53792, -0.900093, -1.19173, 1.22921, -1.30267, 0.00238342, 0.000727533, -0.00552489, 0.00237934, -0.00957307, 0.0421721, 0.00131723, 1.00349, 55.7495, 26.9687, 6.02173, 1.65729, 3.18118, -0.0356336, 0.000874237, -0.00154772, -0.000522804, -0.000588711, -0.00161347, 7.85889e-05, 0.00986222, -0.0066562, 0.00210904, 0.0286215, 0.0309373, -0.00667118, 0.471005, -0.543362, 0.335901, -2.08383, -2.16584, -0.129889, 0.469447, -0.542643, 0.3366, -2.08507, -2.16689, -0.128897, -0.000293917, 0.0027645, 0.00073586, 0.00678249, -0.00702414, 0.00108711
0.0420164, 1.69115, -1.22469, -1.53792, -0.900093, -1.19173, 1.22921, -1.30267, 0.00238342, 0.000727533, -0.00552489, 0.00237934, -0.00957307, 0.0421721, 0.00131723, 1.00349, 55.7495, 26.9687, 6.02173, 1.65729, 3.18118, -0.0356336, 0.000871385, -0.00154752, -0.000522511, -0.000589475, -0.00161447, 7.89198e-05, 0.0100481, -0.00666925, 0.00209056, 0.0286502, 0.0310225, -0.00665556, 0.471005, -0.54336, 0.335902, -2.08383, -2.16584, -0.129889, 0.469447, -0.542643, 0.3366, -2.08507, -2.16689, -0.128897, -0.000312938, 0.00294458, 0.000783355, 0.00678249, -0.00702414, 0.00108711
0.0430164, 1.69116, -1.2247, -1.53794, -0.900096, -1.19175, 1.22933, -1.30267, -7.51728e-05, -0.00224308, -0.0073515, 0.00308004, -0.00674037, 0.0480552, -7.02688e-05, 1.22962, 55.8606, 27.0798, 5.91064, 1.70581, 3.19583, -0.00999879, 0.000855998, -0.00152138, -0.000521301, -0.00065974, -0.00168789, 7.64333e-05, 0.0122558, -0.00627398, 0.000426797, 0.0339816, 0.0287243, -0.00816747, 0.471005, -0.543357, 0.335903, -2.08383, -2.16584, -0.129889, 0.469473, -0.542654, 0.336596, -2.08514, -2.16696, -0.128901, -0.000332518, 0.00313007, 0.000832236, 0.00638703, -0.0087783, -0.000837606
0.0440164, 1.69118, -1.2247, -1.53794, -0.900093, -1.19176, 1.22938, -1.30267, 0.00483487, -0.000647454, -0.00752239, 0.00547946, -0.00553738, 0.0493849, -0.000739034, 1.305, 55.8249, 27.0441, 5.76385, 1.72504, 3.22421, 0.0101428, 0.00084976, -0.00150428, -0.000524499, -0.000701263, -0.00172858, 6.74851e-05, 0.0107661, -0.00882618, 0.00147641, 0.0360955, 0.0300247, -0.00443717, 0.471004, -0.543354, 0.335903, -2.08383, -2.16584, -0.129889, 0.46949, -0.542657, 0.336599, -2.08517, -2.16701, -0.128907, -0.000352655, 0.00332096, 0.000882495, 0.00890043, -0.00717387, 0.000403332
0.0450164, 1.69119, -1.22469, -1.53795, -0.900099, -1.19178, 1.22944, -1.30267, 0.0071007, 0.00134114, -0.00955463, 0.00148668, -0.00901, 0.0497541, 0.0017178, 1.45576, 55.7495, 27.0798, 5.72418, 1.73053, 3.26724, -0.0484509, 0.000843159, -0.00148898, -0.000527275, -0.000733594, -0.00177521, 6.67408e-05, 0.00973805, -0.0102875, 0.00126241, 0.0309716, 0.0356733, -0.00332313, 0.471004, -0.54335, 0.335904, -2.08383, -2.16584, -0.12989, 0.469506, -0.54266, 0.336601, -2.08521, -2.16705, -0.128896, -0.000373345, 0.00351722, 0.000934121, 0.0102947, -0.00586993, 0.00035915
0.0460164, 1.69121, -1.2247, -1.53796, -0.900098, -1.19179, 1.2295, -1.30267, 0.014667, -0.00262523, -0.0102282, 0.00416315, -0.0117338, 0.0550847, 0.000226024, 1.49146, 55.9003, 27.0798, 5.57739, 1.74335, 3.30295, -0.0228162, 0.000836719, -0.00146849, -0.000521918, -0.000769496, -0.0018097, 5.26344e-05, 0.00899282, -0.0145714, -0.000879462, 0.0335562, 0.0367184, 0.00214991, 0.471004, -0.543347, 0.335905, -2.08383, -2.16583, -0.12989, 0.469526, -0.542661, 0.336595, -2.08523, -2.16709, -0.128903, -0.000394586, 0.00371881, 0.000987107, 0.0144478, -0.00442763, -0.00171628
0.0470164, 1.69122, -1.2247, -1.53797, -0.900101, -1.19181, 1.22957, -1.30267, 0.0139103, 1.84487e-05, -0.00852034, 0.00119553, -0.00909575, 0.05447, -6.39805e-05, 1.75727, 55.8249, 27.1195, 5.50201, 1.75525, 3.33865, -0.0164075, 0.000824969, -0.00145522, -0.000524646, -0.00080628, -0.00186283, 5.41049e-05, 0.00746595, -0.0152614, 0.000829451, 0.0346997, 0.0371141, 0.00597118, 0.471003, -0.543343, 0.335906, -2.08382, -2.16583, -0.12989, 0.469539, -0.542669, 0.336596, -2.08527, -2.16713, -0.12889, -0.000416373, 0.00392573, 0.00104144, 0.0151222, -0.00294815, 0.000241638
0.0480164, 1.69124, -1.2247, -1.53798, -0.900105, -1.19182, 1.22963, -1.30267, 0.0141547, 1.63226e-05, -0.00861118, 0.00131562, -0.0104512, 0.0592346, 0.000923804, 1.90803, 55.8249, 27.0798, 5.46234, 1.73053, 3.36062, -0.0420422, 0.000817718, -0.00143628, -0.000526009, -0.000846703, -0.00191004, 4.70854e-05, 0.00839387, -0.0160893, 0.00120031, 0.0381854, 0.0406811, 0.00464387, 0.471003, -0.543339, 0.335907, -2.08382, -2.16583, -0.129891, 0.469558, -0.542672, 0.336597, -2.08531, -2.16718, -0.128888, -0.000438704, 0.00413795, 0.00109712, 0.0159733, -0.00367521, 0.000494505
0.0490164, 1.69126, -1.22469, -1.53799, -0.900105, -1.19184, 1.2297, -1.30267, 0.0137326, 0.00177714, -0.00866815, 1.54069e-05, -0.0127766, 0.0644763, -0.00106679, 2.05878, 55.7495, 27.0441, 5.35126, 1.73694, 3.33865, 0.00373412, 0.000809324, -0.00141645, -0.000529649, -0.00088658, -0.0019686, 3.46975e-05, 0.00926747, -0.0168128, 0.00249783, 0.0412348, 0.0471415, 0.00654188, 0.471002, -0.543335, 0.335908, -2.08382, -2.16583, -0.129891, 0.469578, -0.542675, 0.3366, -2.08535, -2.16724, -0.128874, -0.000461575, 0.00435543, 0.00115413, 0.0167511, -0.00449029, 0.00167528
0.0500164, 1.69128, -1.2247, -1.538, -0.900108, -1.19187, 1.22978, -1.30266, 0.0171847, -0.000576217, -0.0120355, 0.000352436, -0.0144978, 0.0685577, 0.00123116, 2.20954, 55.8249, 27.0084, 5.31555, 1.74335, 3.30295, -0.0484509, 0.000800233, -0.00139431, -0.000528174, -0.000929381, -0.0020219, 3.31753e-05, 0.00975703, -0.0186944, 0.000126959, 0.0405099, 0.0486202, 0.00522216, 0.471002, -0.543331, 0.335909, -2.08382, -2.16583, -0.129891, 0.4696, -0.542679, 0.336597, -2.08539, -2.16729, -0.128868, -0.000484983, 0.00457817, 0.00121247, 0.0185388, -0.0043089, -0.000740179
0.0510164, 1.69129, -1.2247, -1.53801, -0.900111, -1.19188, 1.22985, -1.30267, 0.0180197, -0.00214568, -0.00913848, 0.000793187, -0.0194697, 0.0716187, -0.00134218, 2.43568, 55.9003, 27.0084, 5.27588, 1.72504, 3.26724, 0.0101428, 0.000790302, -0.00137406, -0.000525266, -0.000969592, -0.00207043, 1.95628e-05, 0.0105985, -0.0196178, 0.000499774, 0.043372, 0.0525506, 0.00801366, 0.471001, -0.543326, 0.335911, -2.08382, -2.16583, -0.129892, 0.46962, -0.542683, 0.336593, -2.08542, -2.16735, -0.128865, -0.000508925, 0.00480613, 0.00127212, 0.0194806, -0.00493129, -0.000470895
0.0520164, 1.69131, -1.2247, -1.53803, -0.900117, -1.19191, 1.22992, -1.30267, 0.01792, -0.000501164, -0.00917089, -0.0028554, -0.0240383, 0.0730285, -0.000652043, 2.66181, 55.8606, 26.9687, 5.27588, 1.73053, 3.25259, 0.00373412, 0.000779836, -0.00135486, -0.000526053, -0.00100528, -0.00213175, 1.37992e-05, 0.0107004, -0.0201017, 0.00105469, 0.0408963, 0.0590572, 0.00886643, 0.471001, -0.543321, 0.335912, -2.08381, -2.16583, -0.129892, 0.469639, -0.542688, 0.336593, -2.08547, -2.1674, -0.128843, -0.000533398, 0.00503929, 0.00133308, 0.0199631, -0.00486432, 0.000107549
0.0530164, 1.69133, -1.22471, -1.53804, -0.900116, -1.19193, 1.23, -1.30266, 0.0172387, -0.00209639, -0.0133312, -0.000607275, -0.0228275, 0.0693654, 0.00150212, 2.81654, 55.936, 26.9687, 5.2005, 1.73053, 3.23886, -0.0484509, 0.000766779, -0.00133518, -0.000520887, -0.00104007, -0.00218583, 1.68791e-05, 0.0123172, -0.017999, -0.00135525, 0.0357254, 0.0548301, 0.0025212, 0.471, -0.543316, 0.335913, -2.08381, -2.16583, -0.129892, 0.469658, -0.542694, 0.336587, -2.08551, -2.16744, -0.128827, -0.000558399, 0.00527762, 0.00139533, 0.0178089, -0.00593713, -0.00239742
0.0540164, 1.69136, -1.22471, -1.53806, -0.900117, -1.19196, 1.23007, -1.30267, 0.0197728, -0.0022321, -0.0131361, 8.01846e-05, -0.0261786, 0.0703488, -0.000928334, 2.96729, 55.9717, 26.9687, 5.16479, 1.71863, 3.25259, 0.00373412, 0.000757427, -0.00131274, -0.000517497, -0.0010729, -0.00224049, 1.0113e-06, 0.0123833, -0.019124, -0.00133909, 0.0351532, 0.058046, 0.0058502, 0.471, -0.543311, 0.335915, -2.08381, -2.16583, -0.129893, 0.46968, -0.542696, 0.336583, -2.08554, -2.1675, -0.12881, -0.000583923, 0.00552111, 0.00145888, 0.0189098, -0.00571532, -0.00236214
0.0550164, 1.69138, -1.22471, -1.53808, -0.90012, -1.19199, 1.23014, -1.30266, 0.0222292, -0.00148753, -0.0143493, -0.000209181, -0.0294135, 0.0708072, 0.00158743, 3.11805, 55.9717, 26.8934, 5.16479, 1.72504, 3.26724, -0.0557752, 0.000746724, -0.00128974, -0.000517739, -0.0011081, -0.00231, -1.63066e-06, 0.0123316, -0.0200779, -0.00148387, 0.0325757, 0.0619584, 0.00435771, 0.470999, -0.543305, 0.335916, -2.08381, -2.16583, -0.129893, 0.469703, -0.542701, 0.336582, -2.08559, -2.16756, -0.128779, -0.000609969, 0.00576973, 0.0015237, 0.0198294, -0.00535438, -0.00246107
0.0560164, 1.69141, -1.22471, -1.53809, -0.900116, -1.19202, 1.23022, -1.30266, 0.0212451, -0.0018265, -0.0132868, 0.00142681, -0.0305074, 0.0712101, -0.000160712, 3.22913, 56.0074, 26.8577, 5.08942, 1.70032, 3.27456, -0.0228162, 0.000735112, -0.00126743, -0.000515618, -0.00114365, -0.00236982, -1.09956e-05, 0.0135838, -0.0193212, -0.00101474, 0.0342876, 0.0625977, 0.0038785, 0.470999, -0.5433, 0.335918, -2.0838, -2.16583, -0.129894, 0.469725, -0.542705, 0.336579, -2.08563, -2.16761, -0.12876, -0.000636533, 0.00602345, 0.0015898, 0.0191088, -0.00643997, -0.00210335
0.0570164, 1.69144, -1.22472, -1.53812, -0.900114, -1.19205, 1.2303, -1.30266, 0.0228852, -0.00214538, -0.017214, 0.00163869, -0.0322411, 0.0726093, 0.000606213, 3.34419, 56.0471, 26.8934, 5.05371, 1.69391, 3.26724, -0.0420422, 0.000720365, -0.00124529, -0.000509666, -0.00117556, -0.00243479, -1.11777e-05, 0.0145238, -0.0195892, -0.00255163, 0.0311305, 0.0648008, 0.00210575, 0.470998, -0.543294, 0.335919, -2.0838, -2.16582, -0.129894, 0.469747, -0.542712, 0.336572, -2.08567, -2.16766, -0.12873, -0.000663611, 0.00628226, 0.00165716, 0.0193275, -0.00686158, -0.0037076
0.0580164, 1.69147, -1.22472, -1.53813, -0.900115, -1.19208, 1.23037, -1.30266, 0.0224136, -0.00226525, -0.0165554, 0.000146441, -0.0327398, 0.0732503, -6.96171e-05, 3.41956, 56.0828, 26.7823, 5.08942, 1.66919, 3.26724, -0.0292249, 0.000708809, -0.00122087, -0.000508203, -0.00121373, -0.00250139, -2.26598e-05, 0.0146011, -0.0198559, -0.00253963, 0.0314274, 0.0656078, 0.00380086, 0.470997, -0.543287, 0.335921, -2.0838, -2.16582, -0.129894, 0.469771, -0.542716, 0.33657, -2.08571, -2.16772, -0.128706, -0.000691201, 0.00654612, 0.00172578, 0.0195695, -0.00666491, -0.00364724
0.0590164, 1.69149, -1.22471, -1.53815, -0.900111, -1.19211, 1.23046, -1.30266, 0.0243216, 0.000253243, -0.0200791, 0.000849745, -0.0339188, 0.071321, -0.000283051, 3.53065, 56.0074, 26.822, 5.05371, 1.66369, 3.20956, -0.0228162, 0.000694892, -0.00119662, -0.00051048, -0.00125473, -0.00258096, -2.72001e-05, 0.0147662, -0.0196382, -0.00250805, 0.0264181, 0.0684825, 0.00317451, 0.470997, -0.543281, 0.335923, -2.0838, -2.16582, -0.129895, 0.469795, -0.542722, 0.336571, -2.08577, -2.16779, -0.128672, -0.0007193, 0.00681502, 0.00179564, 0.0193311, -0.0065728, -0.00356534
0.0600164, 1.69152, -1.22472, -1.53817, -0.900109, -1.19215, 1.23054, -1.30266, 0.0255435, -0.00159428, -0.020598, 0.000504171, -0.0344292, 0.0726005, 0.000523915, 3.60603, 56.0828, 26.7823, 5.05371, 1.65088, 3.19583, -0.0420422, 0.000678674, -0.00117495, -0.000504411, -0.00128792, -0.00264613, -2.33442e-05, 0.0149219, -0.0205397, -0.00380216, 0.0263803, 0.0679241, 0.00351568, 0.470996, -0.543274, 0.335924, -2.08379, -2.16582, -0.129895, 0.469816, -0.54273, 0.336563, -2.08582, -2.16783, -0.128642, -0.000747904, 0.00708893, 0.00186675, 0.0201616, -0.00621643, -0.00482349
0.0610164, 1.69155, -1.22473, -1.53819, -0.900103, -1.19218, 1.23062, -1.30266, 0.0273914, -0.002826, -0.0210987, 0.00121739, -0.0357786, 0.0735254, -0.00134574, 3.6814, 56.1581, 26.7466, 5.01404, 1.66369, 3.18851, 0.00373412, 0.00066032, -0.00115383, -0.000498492, -0.00132255, -0.00271458, -2.50982e-05, 0.0151849, -0.0213887, -0.00464505, 0.0261152, 0.0684207, 0.00594304, 0.470995, -0.543267, 0.335926, -2.08379, -2.16582, -0.129896, 0.469837, -0.542739, 0.336556, -2.08587, -2.16789, -0.128612, -0.00077701, 0.00736784, 0.00193908, 0.0209593, -0.00603256, -0.00564995
0.0620164, 1.69158, -1.22472, -1.53822, -0.9001, -1.19222, 1.2307, -1.30265, 0.0282339, -0.000955906, -0.0262417, 0.00471129, -0.0364332, 0.0750192, 0.00154455, 3.6457, 56.1185, 26.7823, 4.97833, 1.66919, 3.15921, -0.0621838, 0.000644767, -0.00112938, -0.000497508, -0.00135517, -0.00279701, -2.03839e-05, 0.017319, -0.0203619, -0.00482184, 0.0243553, 0.071749, -0.00186978, 0.470994, -0.543259, 0.335928, -2.08379, -2.16582, -0.129897, 0.469861, -0.542746, 0.336554, -2.08593, -2.16794, -0.128565, -0.000806615, 0.0076517, 0.00201263, 0.0199742, -0.00787033, -0.00605137
0.0630164, 1.6916, -1.22471, -1.53824, -0.900101, -1.19226, 1.23079, -1.30266, 0.0268527, 0.00196124, -0.0260114, 0.0048073, -0.0371837, 0.0750528, 0.00330221, 3.6814, 56.0074, 26.7823, 5.05371, 1.6756, 3.1528, 0.00373412, 0.000627532, -0.00110779, -0.000499761, -0.0013902, -0.00288435, -2.7631e-05, 0.0180824, -0.0194944, -0.00296393, 0.0247899, 0.0753618, -0.00523487, 0.470993, -0.543252, 0.33593, -2.08378, -2.16582, -0.129897, 0.469883, -0.542755, 0.336555, -2.08598, -2.16801, -0.128516, -0.000836715, 0.00794051, 0.00208739, 0.0191722, -0.00865667, -0.00423451
0.0640164, 1.69163, -1.22472, -1.53826, -0.900094, -1.1923, 1.23087, -1.30266, 0.0266123, -0.000455705, -0.0271763, 0.00540858, -0.0373151, 0.0789927, 0.00259445, 3.6814, 56.0828, 26.7069, 4.97833, 1.6756, 3.17386, 0.00373412, 0.000607175, -0.00108776, -0.000498234, -0.00143, -0.00296076, -2.22085e-05, 0.01958, -0.0197903, -0.00437839, 0.0273058, 0.075169, -0.00582156, 0.470993, -0.543244, 0.335932, -2.08378, -2.16582, -0.129898, 0.469903, -0.542766, 0.336551, -2.08604, -2.16806, -0.128483, -0.000867309, 0.00823424, 0.00216336, 0.0194395, -0.00961154, -0.00579672
0.0650164, 1.69165, -1.22472, -1.53827, -0.900096, -1.19234, 1.23096, -1.30266, 0.0266521, 0.000531445, -0.0251068, 0.00217283, -0.0326595, 0.0828385, 0.00324507, 3.6457, 56.0471, 26.6355, 5.05371, 1.66919, 3.17386, -0.0292249, 0.000590648, -0.00106401, -0.000497823, -0.00146891, -0.00304128, -2.37318e-05, 0.0178596, -0.02213, -0.00320669, 0.0332155, 0.0745329, -0.00102833, 0.470992, -0.543236, 0.335935, -2.08378, -2.16581, -0.129898, 0.469926, -0.542773, 0.33655, -2.0861, -2.16812, -0.128445, -0.000898392, 0.00853286, 0.00224052, 0.021726, -0.00769907, -0.00436621
0.0660164, 1.69168, -1.22471, -1.5383, -0.900091, -1.19239, 1.23104, -1.30265, 0.0281509, 0.000354319, -0.0279056, 0.00262434, -0.0290208, 0.0801579, 0.00309651, 3.57032, 56.0471, 26.7466, 5.01404, 1.66369, 3.19583, -0.0484509, 0.00057026, -0.0010425, -0.000494659, -0.00149717, -0.00312626, -1.36368e-05, 0.0172432, -0.0223229, -0.00458634, 0.0301559, 0.0703848, 0.000107272, 0.470991, -0.543227, 0.335937, -2.08377, -2.16581, -0.129899, 0.469947, -0.542783, 0.336545, -2.08617, -2.16817, -0.12839, -0.000929962, 0.00883635, 0.00231887, 0.0218152, -0.00656668, -0.00556037
0.0670164, 1.69171, -1.22471, -1.53832, -0.90009, -1.19243, 1.23113, -1.30265, 0.0312429, 0.00199947, -0.0221803, 0.00193539, -0.0321597, 0.0825987, 0.00151805, 3.49494, 55.9717, 26.6712, 5.01404, 1.6875, 3.22421, -0.0292249, 0.000552263, -0.00101855, -0.000496429, -0.00153517, -0.00321574, -1.7447e-05, 0.0155007, -0.0253029, -0.00165943, 0.035206, 0.075731, 0.00705539, 0.47099, -0.543218, 0.335939, -2.08377, -2.16581, -0.1299, 0.469971, -0.542791, 0.336546, -2.08622, -2.16823, -0.128342, -0.000962015, 0.00914469, 0.0023984, 0.0248027, -0.00486667, -0.00241026
0.0680164, 1.69173, -1.22471, -1.53834, -0.900087, -1.19248, 1.23122, -1.30265, 0.029572, 0.00133299, -0.0229232, 0.00455939, -0.0383388, 0.0847148, 0.000661656, 3.49494, 55.9717, 26.6712, 5.01404, 1.6875, 3.23886, -0.0164075, 0.00052794, -0.00100121, -0.000495074, -0.0015713, -0.00330078, -8.33684e-06, 0.0190059, -0.0233725, -0.00169866, 0.0350203, 0.0810996, 0.00158534, 0.470989, -0.543209, 0.335941, -2.08376, -2.16581, -0.1299, 0.469988, -0.542805, 0.336543, -2.08629, -2.16828, -0.128296, -0.000994548, 0.00945786, 0.0024791, 0.0229662, -0.00808685, -0.00285436
0.0690164, 1.69175, -1.2247, -1.53836, -0.90009, -1.19253, 1.2313, -1.30265, 0.030139, 0.00255911, -0.026599, 0.00474489, -0.043078, 0.0874392, 0.00172115, 3.41956, 55.9003, 26.6712, 5.08942, 1.69391, 3.23153, -0.0484509, 0.000507649, -0.000979396, -0.000497484, -0.00160632, -0.00339611, -4.01186e-06, 0.0210072, -0.0229675, -0.00207072, 0.0321296, 0.0879455, -0.00241504, 0.470988, -0.5432, 0.335944, -2.08376, -2.16581, -0.129901, 0.47001, -0.542815, 0.336544, -2.08636, -2.16835, -0.128238, -0.00102756, 0.00977584, 0.00256097, 0.022587, -0.00970384, -0.0034385
0.0700164, 1.69177, -1.2247, -1.53838, -0.900084, -1.19258, 1.23139, -1.30265, 0.0261993, 0.0026341, -0.023061, 0.00453108, -0.0467603, 0.0890996, 3.05834e-05, 3.37989, 55.8606, 26.6712, 5.05371, 1.71222, 3.23153, -0.0164075, 0.000481619, -0.000961568, -0.000500179, -0.00164728, -0.00349215, 5.00931e-06, 0.0231811, -0.0213353, -0.000473885, 0.0355135, 0.0916893, -0.00392264, 0.470987, -0.54319, 0.335947, -2.08375, -2.1658, -0.129902, 0.470028, -0.542831, 0.336544, -2.08644, -2.1684, -0.128186, -0.00106104, 0.0100986, 0.00264398, 0.0210589, -0.0118399, -0.00206717
0.0710164, 1.6918, -1.2247, -1.53839, -0.900081, -1.19263, 1.23149, -1.30265, 0.0268202, 0.00581252, -0.0195363, 0.00258495, -0.0494519, 0.0954484, 0.00102228, 3.19343, 55.8249, 26.6355, 5.08942, 1.71863, 3.22421, -0.0420422, 0.000460273, -0.000936541, -0.000503618, -0.00169109, -0.00359252, 1.10391e-05, 0.022813, -0.0235606, 0.00287471, 0.0421645, 0.100317, -0.00181179, 0.470986, -0.54318, 0.335949, -2.08375, -2.1658, -0.129903, 0.470052, -0.542841, 0.336546, -2.08651, -2.16847, -0.128133, -0.001095, 0.0104261, 0.00272814, 0.0233553, -0.0115735, 0.00131328
0.0720164, 1.69182, -1.2247, -1.53841, -0.900083, -1.19269, 1.23158, -1.30265, 0.0245144, 0.00330823, -0.0195913, 0.000259655, -0.0566706, 0.0901009, 0.00146685, 3.11805, 55.8606, 26.7069, 5.16479, 1.74335, 3.23153, -0.0621838, 0.000434337, -0.000916815, -0.000500578, -0.00172434, -0.00368724, 2.20329e-05, 0.0246154, -0.0210558, 0.000681248, 0.0332052, 0.101392, -0.00486705, 0.470985, -0.543169, 0.335952, -2.08374, -2.1658, -0.129903, 0.470072, -0.542855, 0.336541, -2.08659, -2.16852, -0.128073, -0.00112942, 0.0107583, 0.00281344, 0.0208045, -0.0127854, -0.000971685
0.0730164, 1.69185, -1.22469, -1.53843, -0.900072, -1.19275, 1.23167, -1.30265, 0.0276342, 0.00324204, -0.0218497, 0.00530302, -0.0566749, 0.0900491, -0.00167136, 2.96729, 55.8249, 26.7466, 5.08942, 1.74884, 3.25259, 0.0101428, 0.000406909, -0.000896861, -0.000501921, -0.001764, -0.00378715, 2.79238e-05, 0.0255454, -0.0212963, 0.000345854, 0.0331503, 0.101273, -0.00411357, 0.470984, -0.543159, 0.335955, -2.08374, -2.1658, -0.129904, 0.470092, -0.542871, 0.336541, -2.08666, -2.16859, -0.128016, -0.00116431, 0.0110953, 0.00289987, 0.021031, -0.013305, -0.00136825
0.0740164, 1.69187, -1.2247, -1.53845, -0.900073, -1.19281, 1.23176, -1.30264, 0.0283453, 0.00147714, -0.0225012, 0.00529732, -0.0574333, 0.0893275, 0.00158666, 2.89191, 55.8606, 26.7466, 5.16479, 1.77356, 3.2883, -0.0621838, 0.000381393, -0.000877508, -0.000500466, -0.00179641, -0.00388162, 4.20525e-05, 0.0259595, -0.0214212, -0.00105447, 0.031408, 0.100007, -0.00716638, 0.470983, -0.543147, 0.335958, -2.08373, -2.1658, -0.129905, 0.470111, -0.542884, 0.336537, -2.08673, -2.16863, -0.127956, -0.00119966, 0.0114369, 0.00298742, 0.0210845, -0.0131513, -0.00273164
0.0750164, 1.69189, -1.22469, -1.53846, -0.900075, -1.19287, 1.23184, -1.30265, 0.0263765, 0.00276844, -0.0199577, 0.00234898, -0.0619735, 0.089706, -0.00136704, 2.77686, 55.7892, 26.7466, 5.24017, 1.77356, 3.31759, 0.00373412, 0.000356115, -0.000857683, -0.00050313, -0.00182985, -0.00398541, 4.05307e-05, 0.0265976, -0.0209812, 0.000304875, 0.0309103, 0.105406, -0.00385345, 0.470981, -0.543136, 0.335961, -2.08373, -2.16579, -0.129906, 0.47013, -0.542897, 0.336539, -2.0868, -2.1687, -0.127888, -0.00123547, 0.0117833, 0.00307608, 0.0206813, -0.0136623, -0.00138673
0.0760164, 1.69192, -1.22469, -1.53849, -0.900075, -1.19293, 1.23194, -1.30265, 0.0227089, 0.00193056, -0.0197068, 0.00332808, -0.0659674, 0.090435, 8.44333e-05, 2.62611, 55.7892, 26.822, 5.31555, 1.79187, 3.33133, -0.0228162, 0.000328825, -0.000836322, -0.000501389, -0.00186161, -0.00408994, 5.07281e-05, 0.0297738, -0.0184701, 0.000267947, 0.0309264, 0.108167, -0.0109457, 0.47098, -0.543124, 0.335964, -2.08372, -2.16579, -0.129907, 0.470151, -0.542911, 0.336535, -2.08687, -2.16876, -0.127817, -0.00127174, 0.0121342, 0.00316585, 0.0182495, -0.016544, -0.001751
0.0770164, 1.69194, -1.22469, -1.5385, -0.900068, -1.19299, 1.23202, -1.30265, 0.0242662, 0.00227876, -0.021781, 0.0100469, -0.068124, 0.0911087, 0.00473501, 2.55073, 55.7495, 26.8577, 5.27588, 1.78638, 3.34598, -0.0228162, 0.000298405, -0.000819844, -0.00050409, -0.00189502, -0.00419674, 6.77818e-05, 0.0323381, -0.0173741, 0.00062222, 0.0317505, 0.110382, -0.0216255, 0.470979, -0.543112, 0.335967, -2.08372, -2.16579, -0.129908, 0.470168, -0.542929, 0.336536, -2.08696, -2.16882, -0.127745, -0.00130846, 0.0124898, 0.00325671, 0.0172228, -0.0188193, -0.00167564
0.0780164, 1.69197, -1.22468, -1.53852, -0.90007, -1.19306, 1.23211, -1.30265, 0.0228799, 0.00483808, -0.0153074, 0.00820588, -0.0697422, 0.0909342, 0.00355279, 2.32459, 55.7495, 26.822, 5.38696, 1.77997, 3.37436, -0.0228162, 0.000274283, -0.00079508, -0.00050673, -0.00192975, -0.00430735, 6.63891e-05, 0.0314804, -0.0179098, 0.00419289, 0.0361194, 0.114045, -0.0176311, 0.470978, -0.5431, 0.33597, -2.08371, -2.16579, -0.129909, 0.470192, -0.542939, 0.336537, -2.08703, -2.16889, -0.127672, -0.00134563, 0.01285, 0.00334867, 0.0178192, -0.0181403, 0.00205882
0.0790164, 1.69199, -1.22469, -1.53854, -0.900074, -1.19314, 1.2322, -1.30265, 0.0194845, 0.00260579, -0.0203708, 0.00376447, -0.0717679, 0.0915404, 0.00361505, 2.32459, 55.7892, 26.933, 5.50201, 1.79187, 3.38901, -0.0484509, 0.000241591, -0.000779785, -0.000502499, -0.00195045, -0.0044152, 8.51793e-05, 0.0337844, -0.0160562, 0.000668704, 0.0295641, 0.114579, -0.0201925, 0.470976, -0.543087, 0.335973, -2.08371, -2.16578, -0.129909, 0.470207, -0.542958, 0.336531, -2.08711, -2.16894, -0.127585, -0.00138324, 0.0132147, 0.0034417, 0.0158854, -0.0195833, -0.00162999
0.0800164, 1.69202, -1.22468, -1.53856, -0.900073, -1.19321, 1.23229, -1.30265, 0.0224963, 0.00196852, -0.0198445, 0.00241329, -0.072291, 0.0875895, 0.000700068, 2.09846, 55.7892, 27.0084, 5.53772, 1.77997, 3.38901, 0.00373412, 0.000213373, -0.000758197, -0.000501503, -0.00197333, -0.00452818, 8.96929e-05, 0.0320682, -0.0173989, -0.000248925, 0.0252503, 0.112775, -0.0129957, 0.470975, -0.543074, 0.335977, -2.0837, -2.16578, -0.12991, 0.470228, -0.542971, 0.336528, -2.08718, -2.169, -0.127496, -0.0014213, 0.013584, 0.0035358, 0.0170938, -0.0173233, -0.00221621
0.0810164, 1.69204, -1.22468, -1.53857, -0.90007, -1.19328, 1.23237, -1.30264, 0.0242969, 0.00386284, -0.0159556, 0.00216301, -0.0734906, 0.0833774, 0.00232925, 2.02308, 55.8249, 26.933, 5.53772, 1.78638, 3.41739, -0.0420422, 0.000183624, -0.000739681, -0.000504085, -0.0020061, -0.00463613, 0.000106259, 0.0303824, -0.0182363, 0.00170813, 0.024267, 0.113564, -0.0111554, 0.470973, -0.54306, 0.33598, -2.08369, -2.16578, -0.129911, 0.470246, -0.542987, 0.336529, -2.08726, -2.16906, -0.127422, -0.0014598, 0.0139578, 0.00363097, 0.0179021, -0.0155523, 4.76613e-05
0.0820164, 1.69207, -1.22469, -1.53858, -0.900077, -1.19336, 1.23245, -1.30265, 0.0202221, 0.000374575, -0.0159101, 0.00236357, -0.0738939, 0.0806952, -0.000254616, 1.90803, 55.936, 26.9687, 5.6488, 1.78638, 3.43936, 0.0101428, 0.000155617, -0.000719036, -0.000500538, -0.00202248, -0.00474563, 0.000103894, 0.0327705, -0.0154658, -0.00035385, 0.0222764, 0.109142, -0.0127909, 0.470972, -0.543046, 0.335984, -2.08369, -2.16578, -0.129913, 0.470266, -0.542999, 0.336524, -2.08732, -2.16912, -0.12733, -0.00149874, 0.0143362, 0.00372719, 0.0151071, -0.0173273, -0.00217953
0.0830164, 1.69209, -1.22469, -1.5386, -0.900072, -1.19344, 1.23253, -1.30265, 0.0194148, 0.00192467, -0.013583, 0.00298134, -0.0743117, 0.0788251, 0.00161968, 1.83265, 56.0074, 27.0441, 5.6131, 1.76166, 3.46042, -0.0356336, 0.000123194, -0.000701104, -0.000498726, -0.00204487, -0.0048561, 0.000120447, 0.0329596, -0.0148925, 0.00131263, 0.0231123, 0.110061, -0.0150121, 0.47097, -0.543032, 0.335988, -2.08368, -2.16577, -0.129914, 0.470284, -0.543016, 0.336521, -2.0874, -2.16917, -0.127242, -0.00153811, 0.014719, 0.00382447, 0.0145623, -0.0174113, -0.000449053
0.0840164, 1.69212, -1.22468, -1.53861, -0.900073, -1.19352, 1.23262, -1.30264, 0.0219587, 0.00343123, -0.0113724, 0.00158014, -0.0794042, 0.0776655, 0.001625, 1.75727, 55.936, 26.9687, 5.6488, 1.76166, 3.47507, -0.0484509, 9.4225e-05, -0.000679918, -0.000504166, -0.00207207, -0.0049802, 0.000129132, 0.0320901, -0.0162375, 0.00252038, 0.0208094, 0.115404, -0.0119001, 0.470969, -0.543017, 0.335992, -2.08367, -2.16577, -0.129915, 0.470305, -0.54303, 0.336525, -2.08748, -2.16924, -0.127147, -0.00157792, 0.0151063, 0.00392278, 0.0158784, -0.0162966, 0.000935943
0.0850164, 1.69215, -1.22469, -1.53863, -0.900078, -1.19361, 1.2327, -1.30265, 0.0248092, -0.000787925, -0.0135831, 0.000446264, -0.0825414, 0.0776159, -0.000796569, 1.64619, 56.0828, 27.0441, 5.68848, 1.74335, 3.46774, 0.00373412, 6.33158e-05, -0.000659024, -0.000496695, -0.00208276, -0.00509169, 0.000129529, 0.0323713, -0.0174457, -0.00108825, 0.0161094, 0.114271, -0.00766774, 0.470967, -0.543002, 0.335996, -2.08367, -2.16577, -0.129916, 0.470325, -0.543043, 0.336516, -2.08753, -2.16931, -0.127046, -0.00161815, 0.015498, 0.00402212, 0.0169243, -0.0155769, -0.00260833
0.0860164, 1.69218, -1.22469, -1.53864, -0.900079, -1.1937, 1.23278, -1.30264, 0.0240185, -0.0010918, -0.016246, 0.00053815, -0.0851297, 0.0777293, 0.00144139, 1.53114, 56.1185, 27.0441, 5.68848, 1.73053, 3.44668, -0.0484509, 3.32728e-05, -0.000637127, -0.000495076, -0.0020989, -0.00521019, 0.000140356, 0.0342676, -0.0162751, -0.00217814, 0.0128923, 0.116483, -0.0128631, 0.470966, -0.542986, 0.336, -2.08366, -2.16576, -0.129917, 0.470346, -0.543056, 0.336513, -2.08761, -2.16937, -0.126944, -0.00165881, 0.0158942, 0.00412249, 0.0157431, -0.0169328, -0.00384356
0.0870164, 1.69222, -1.22469, -1.53866, -0.900081, -1.19379, 1.23286, -1.30265, 0.0263182, -0.00228958, -0.0176739, -0.00572814, -0.0867958, 0.0780255, -0.000942111, 1.41608, 56.1938, 27.1552, 5.68848, 1.70581, 3.42471, 0.00373412, 2.89254e-06, -0.000614563, -0.000490253, -0.00210714, -0.00532995, 0.00013863, 0.0325695, -0.0186358, -0.00439065, 0.00776618, 0.117708, -0.00389789, 0.470964, -0.542971, 0.336004, -2.08365, -2.16576, -0.129918, 0.470368, -0.543068, 0.336507, -2.08766, -2.16943, -0.126833, -0.0016999, 0.0162947, 0.00422387, 0.0179187, -0.0144182, -0.00573467
0.0880164, 1.69225, -1.22468, -1.53867, -0.900084, -1.19389, 1.23294, -1.30264, 0.0254668, 0.00038799, -0.0161462, -0.0050409, -0.0886307, 0.0788379, 0.00108965, 1.41608, 56.1185, 27.1552, 5.72418, 1.71222, 3.38901, -0.0420422, -2.75202e-05, -0.000592674, -0.00049429, -0.00212096, -0.00546498, 0.000148371, 0.0334386, -0.0181932, -0.00209357, 0.0097171, 0.122295, -0.00724908, 0.470962, -0.542954, 0.336008, -2.08364, -2.16576, -0.129919, 0.470389, -0.543082, 0.33651, -2.08774, -2.1695, -0.126711, -0.0017414, 0.0166996, 0.00432627, 0.0175495, -0.0152432, -0.00348604
0.0890164, 1.69229, -1.22469, -1.53868, -0.900084, -1.19399, 1.23301, -1.30265, 0.0289669, -0.000556003, -0.0143652, -0.00281558, -0.090518, 0.0733161, -0.00020627, 1.38038, 56.1581, 27.1195, 5.68848, 1.71863, 3.38168, -0.0164075, -5.84105e-05, -0.00057121, -0.000492493, -0.00212514, -0.00559066, 0.000150263, 0.0324817, -0.0187982, -0.0024152, 0.00611266, 0.120167, -0.00416915, 0.470961, -0.542938, 0.336012, -2.08364, -2.16575, -0.129921, 0.47041, -0.543094, 0.336507, -2.0878, -2.16957, -0.126589, -0.00178332, 0.0171089, 0.00442966, 0.0180659, -0.0138148, -0.00357014
0.0900164, 1.69233, -1.22469, -1.53869, -0.90009, -1.19409, 1.23308, -1.30265, 0.0317579, 0.00205209, -0.013886, -0.00292991, -0.0918965, 0.0693333, -0.00158303, 1.34071, 56.1938, 27.1195, 5.72418, 1.73053, 3.37436, 0.0229602, -8.62474e-05, -0.000547755, -0.000488887, -0.00212157, -0.00571383, 0.000142923, 0.03114, -0.0195739, -0.00126269, 0.00224197, 0.122193, -0.000171369, 0.470959, -0.54292, 0.336017, -2.08363, -2.16575, -0.129922, 0.470433, -0.543103, 0.336503, -2.08785, -2.16964, -0.126462, -0.00182565, 0.0175225, 0.00453405, 0.0187921, -0.0122224, -0.00214309
0.0910164, 1.69236, -1.2247, -1.53871, -0.900093, -1.19419, 1.23314, -1.30264, 0.0318923, -0.000902219, -0.0152095, -0.00618529, -0.0969791, 0.0655798, 0.000886839, 1.38038, 56.3049, 27.1909, 5.76385, 1.72504, 3.38168, -0.0292249, -0.00011847, -0.000528099, -0.000480156, -0.0021143, -0.0058298, 0.000157282, 0.0317205, -0.0189715, -0.00429517, -0.00627183, 0.122138, -0.00190198, 0.470957, -0.542903, 0.336021, -2.08362, -2.16575, -0.129923, 0.470451, -0.543115, 0.336493, -2.08791, -2.16969, -0.126336, -0.0018684, 0.0179404, 0.00463942, 0.0180586, -0.0119349, -0.00510422
0.0920164, 1.69241, -1.22469, -1.53872, -0.900095, -1.1943, 1.23321, -1.30264, 0.0372914, 0.000572673, -0.0144299, -0.00661137, -0.101032, 0.0637797, 0.000835643, 1.34071, 56.2653, 27.1909, 5.72418, 1.73053, 3.36062, -0.0356336, -0.000145381, -0.000501733, -0.000479581, -0.00210975, -0.00596258, 0.000153553, 0.0299355, -0.0214539, -0.00368719, -0.00986152, 0.126394, 0.00289588, 0.470955, -0.542885, 0.336026, -2.08361, -2.16574, -0.129924, 0.470477, -0.543123, 0.336492, -2.08796, -2.16976, -0.126198, -0.00191155, 0.0183626, 0.00474577, 0.0204528, -0.00974232, -0.00419564
0.0930164, 1.69245, -1.22471, -1.53874, -0.900094, -1.19441, 1.23327, -1.30264, 0.0379404, -0.00463053, -0.0142396, -0.00411312, -0.104698, 0.0627367, -0.000149688, 1.45576, 56.4874, 27.3417, 5.68848, 1.73694, 3.33865, -0.0164075, -0.000181177, -0.000482272, -0.000466151, -0.00209784, -0.00607866, 0.000161516, 0.0319038, -0.0208137, -0.00649039, -0.0115821, 0.123703, 0.00133252, 0.470953, -0.542867, 0.336031, -2.0836, -2.16574, -0.129926, 0.470495, -0.543137, 0.336477, -2.08802, -2.16981, -0.126067, -0.00195511, 0.0187891, 0.00485308, 0.0197388, -0.0108531, -0.00714295
0.0940164, 1.69249, -1.22471, -1.53874, -0.900099, -1.19452, 1.23333, -1.30264, 0.0371215, -0.00294857, -0.0109753, -0.00707391, -0.107127, 0.0565149, 0.000853614, 1.49146, 56.4874, 27.2306, 5.72418, 1.74335, 3.33133, -0.0420422, -0.000207678, -0.00045705, -0.000466369, -0.00209547, -0.0062054, 0.000152906, 0.0308227, -0.0201807, -0.00530061, -0.0163167, 0.124524, 0.0028755, 0.470951, -0.542848, 0.336035, -2.08359, -2.16574, -0.129927, 0.470519, -0.543143, 0.336477, -2.08806, -2.16989, -0.125938, -0.00199908, 0.0192197, 0.00496136, 0.0190671, -0.0095643, -0.00567305
0.0950164, 1.69255, -1.22471, -1.53875, -0.900102, -1.19463, 1.23339, -1.30265, 0.0421099, -0.00186188, -0.0131473, -0.00527771, -0.109596, 0.0527274, -0.000886009, 1.41608, 56.4874, 27.306, 5.72418, 1.75525, 3.30295, -0.00267457, -0.000232687, -0.000429405, -0.000462261, -0.00207488, -0.00633528, 0.000136966, 0.0300291, -0.0212388, -0.00581476, -0.0223944, 0.12611, 0.00612272, 0.470949, -0.542829, 0.33604, -2.08358, -2.16573, -0.129929, 0.470545, -0.543147, 0.336474, -2.08809, -2.16996, -0.125786, -0.00204344, 0.0196547, 0.0050706, 0.0200324, -0.00822319, -0.00598052
0.0960164, 1.69259, -1.22471, -1.53877, -0.9001, -1.19474, 1.23344, -1.30264, 0.0424615, -0.00376183, -0.0145383, -0.00525315, -0.110593, 0.0546433, 0.00110698, 1.49146, 56.5985, 27.3774, 5.6488, 1.76166, 3.27456, -0.0484509, -0.000265749, -0.000409016, -0.000454146, -0.00205867, -0.0064558, 0.000150082, 0.0312001, -0.0214892, -0.00730518, -0.0225203, 0.1263, 0.00353686, 0.470947, -0.542809, 0.336045, -2.08357, -2.16573, -0.12993, 0.470565, -0.543158, 0.336465, -2.08815, -2.17001, -0.125645, -0.0020882, 0.0200938, 0.00518077, 0.0202256, -0.00870001, -0.00753187
0.0970164, 1.69264, -1.22472, -1.53877, -0.900104, -1.19485, 1.2335, -1.30264, 0.0405435, -0.0032847, -0.0129943, -0.00500249, -0.107228, 0.0516509, -0.00119312, 1.53114, 56.6342, 27.3417, 5.68848, 1.77356, 3.23886, 0.00373412, -0.000293669, -0.000384079, -0.000450953, -0.002044, -0.0065836, 0.000137779, 0.0312388, -0.0204816, -0.00664707, -0.0216733, 0.122581, 0.0056163, 0.470945, -0.542789, 0.336051, -2.08357, -2.16572, -0.129932, 0.470588, -0.543164, 0.336462, -2.08818, -2.17008, -0.125502, -0.00213335, 0.0205371, 0.00529189, 0.0191994, -0.00843745, -0.00674677
0.0980164, 1.69269, -1.22472, -1.53878, -0.900104, -1.19497, 1.23355, -1.30264, 0.0422156, -0.00307401, -0.0118668, -0.00283626, -0.108749, 0.0492295, 0.00113862, 1.57081, 56.6739, 27.306, 5.6488, 1.77356, 3.20224, -0.0484509, -0.000322597, -0.000359858, -0.000447047, -0.0020248, -0.00671147, 0.000139145, 0.0313913, -0.0205472, -0.00615989, -0.0226128, 0.122848, 0.00310938, 0.470943, -0.542768, 0.336056, -2.08356, -2.16572, -0.129933, 0.470611, -0.54317, 0.336458, -2.08823, -2.17014, -0.125352, -0.0021789, 0.0209845, 0.00540394, 0.0192426, -0.00821281, -0.00617973
0.0990166, 1.69274, -1.22473, -1.5388, -0.900102, -1.19509, 1.23359, -1.30264, 0.0438126, -0.00452214, -0.0115036, -0.00137758, -0.110452, 0.0466018, -0.00117275, 1.60651, 56.781, 27.417, 5.6131, 1.78638, 3.18851, 0.00373412, -0.000355356, -0.000338321, -0.000436644, -0.00199618, -0.00683466, 0.000135813, 0.0317055, -0.0205672, -0.00703288, -0.0249652, 0.121627, 0.00539101, 0.470941, -0.542747, 0.336061, -2.08355, -2.16572, -0.129935, 0.470631, -0.543179, 0.336447, -2.08827, -2.1702, -0.125197, -0.00222483, 0.0214361, 0.00551691, 0.0191962, -0.00793593, -0.00697855
0.100017, 1.69279, -1.22473, -1.5388, -0.9001, -1.1952, 1.23363, -1.30264, 0.0446407, -0.00299012, -0.0124202, -0.00032464, -0.111057, 0.0442306, 0.00416062, 1.64619, 56.781, 27.4528, 5.57739, 1.79187, 3.18851, -0.00267457, -0.000384064, -0.000316309, -0.000432969, -0.00196807, -0.00695855, 0.000136404, 0.0320368, -0.0201372, -0.00660089, -0.0274981, 0.122694, -0.000674425, 0.470939, -0.542726, 0.336067, -2.08354, -2.16571, -0.129936, 0.470652, -0.543185, 0.336444, -2.0883, -2.17026, -0.125041, -0.00227115, 0.0218918, 0.0056308, 0.0187479, -0.00789128, -0.00647694
0.101017, 1.69284, -1.22473, -1.53881, -0.9001, -1.19532, 1.23367, -1.30263, 0.0493077, -0.00373817, -0.00993869, -0.00039753, -0.112762, 0.0374489, 0.005133, 1.64619, 56.8564, 27.4885, 5.57739, 1.81659, 3.19583, -0.0557752, -0.00041201, -0.000292217, -0.000425345, -0.00193596, -0.00707893, 0.000132423, 0.0295977, -0.0218265, -0.00705753, -0.0327269, 0.120202, 0.00369119, 0.470936, -0.542704, 0.336072, -2.08353, -2.16571, -0.129938, 0.470675, -0.543188, 0.336437, -2.08833, -2.17031, -0.124885, -0.00231785, 0.0223516, 0.00574559, 0.0202844, -0.00488379, -0.00648545
0.102017, 1.69289, -1.22474, -1.53882, -0.900105, -1.19544, 1.23371, -1.30264, 0.0537918, -0.00331347, -0.00724328, -0.00207128, -0.113534, 0.0372722, 0.00151237, 1.60651, 56.8921, 27.4885, 5.6488, 1.8349, 3.20224, 0.00373412, -0.000438904, -0.000267225, -0.000418238, -0.00190431, -0.00719993, 0.00011306, 0.0271099, -0.0251001, -0.00637503, -0.0322409, 0.121506, 0.0142825, 0.470934, -0.542682, 0.336078, -2.08351, -2.1657, -0.12994, 0.470698, -0.54319, 0.336431, -2.08835, -2.17038, -0.124731, -0.00236493, 0.0228154, 0.00586128, 0.0234424, -0.00193477, -0.00540875
0.103017, 1.69294, -1.22474, -1.53882, -0.900105, -1.19556, 1.23374, -1.30264, 0.0481276, -0.0031266, -0.00847119, -0.00148273, -0.114652, 0.03769, 0.00343311, 1.68189, 56.9318, 27.4885, 5.6488, 1.86603, 3.19583, -0.0557752, -0.00047205, -0.000248673, -0.000413972, -0.00187154, -0.0073292, 0.00012169, 0.0307904, -0.0215494, -0.00631788, -0.0322159, 0.122913, 0.00533244, 0.470932, -0.542659, 0.336084, -2.0835, -2.1657, -0.129941, 0.470715, -0.543199, 0.336427, -2.0884, -2.17043, -0.124564, -0.00241239, 0.0232833, 0.00597787, 0.0199828, -0.00525457, -0.00570065
0.104017, 1.69299, -1.22474, -1.53883, -0.900108, -1.19568, 1.23378, -1.30264, 0.0497585, -0.00374704, -0.00941033, -0.00282812, -0.113946, 0.0334004, 0.000996292, 1.64619, 57.0032, 27.4885, 5.72418, 1.85321, 3.18118, -0.0164075, -0.000499191, -0.000224889, -0.000407452, -0.00184075, -0.00744399, 0.000108991, 0.0298225, -0.0219418, -0.00771116, -0.0372895, 0.120062, 0.0103881, 0.470929, -0.542636, 0.33609, -2.08349, -2.16569, -0.129943, 0.470737, -0.5432, 0.336422, -2.08841, -2.17049, -0.124416, -0.00246022, 0.0237552, 0.00609534, 0.0202416, -0.00359603, -0.00682067
0.105017, 1.69304, -1.22474, -1.53884, -0.900112, -1.1958, 1.23381, -1.30263, 0.0517831, -0.0033274, -0.00792333, -0.00287074, -0.114777, 0.0347867, 0.00150048, 1.57081, 57.0389, 27.5281, 5.76385, 1.88434, 3.17386, -0.0356336, -0.00052822, -0.00020258, -0.000401079, -0.00180197, -0.00756752, 0.000103766, 0.0293531, -0.0235353, -0.00696358, -0.0353638, 0.122051, 0.0124011, 0.470927, -0.542612, 0.336096, -2.08348, -2.16569, -0.129945, 0.470758, -0.543203, 0.336416, -2.08844, -2.17055, -0.124249, -0.00250842, 0.0242312, 0.00621369, 0.0217951, -0.0027064, -0.00593994
0.106017, 1.69309, -1.22474, -1.53884, -0.900113, -1.19591, 1.23384, -1.30264, 0.0489873, -0.00221388, -0.00888139, -0.00279202, -0.117363, 0.0317765, 0.000144042, 1.53114, 57.0389, 27.5281, 5.79956, 1.85962, 3.14548, -0.00999879, -0.00055836, -0.000182076, -0.000398124, -0.00177565, -0.00768467, 9.62883e-05, 0.0314084, -0.0209497, -0.00679256, -0.0393747, 0.12401, 0.00962393, 0.470924, -0.542588, 0.336102, -2.08347, -2.16568, -0.129946, 0.470777, -0.543208, 0.336414, -2.08847, -2.17061, -0.124104, -0.00255699, 0.0247111, 0.00633291, 0.0192442, -0.00438776, -0.00589341
0.107017, 1.69314, -1.22475, -1.53884, -0.900115, -1.19603, 1.23386, -1.30263, 0.0479033, -0.000969072, -0.00741695, -0.00189358, -0.122267, 0.0283834, 0.00135269, 1.45576, 57.15, 27.5638, 5.79956, 1.87793, 3.14548, -0.0420422, -0.000588901, -0.000161497, -0.00039079, -0.00173765, -0.007801, 9.39095e-05, 0.0328482, -0.019235, -0.00569264, -0.0425262, 0.127628, 0.00564105, 0.470922, -0.542563, 0.336109, -2.08346, -2.16568, -0.129948, 0.470796, -0.543211, 0.336408, -2.08849, -2.17066, -0.123945, -0.00260593, 0.0251949, 0.006453, 0.0175744, -0.00556499, -0.00485957
0.108017, 1.69318, -1.22476, -1.53885, -0.900118, -1.19615, 1.23389, -1.30263, 0.0460573, -0.00214832, -0.00636826, -0.00212178, -0.124394, 0.0264261, 0.00170018, 1.41608, 57.2253, 27.6035, 5.83527, 1.87244, 3.13083, -0.0621838, -0.000620935, -0.000143209, -0.000382727, -0.00169826, -0.0079143, 9.58002e-05, 0.0342159, -0.0178915, -0.00615955, -0.0441276, 0.127371, 0.00352391, 0.470919, -0.542538, 0.336115, -2.08345, -2.16567, -0.12995, 0.470812, -0.543216, 0.336401, -2.08852, -2.1707, -0.123788, -0.00265523, 0.0256827, 0.00657393, 0.0162154, -0.00641037, -0.00537199
0.109017, 1.69323, -1.22475, -1.53883, -0.900121, -1.19626, 1.23391, -1.30264, 0.0472392, 0.000526752, -0.00109073, -0.00236067, -0.121353, 0.0246459, -0.00150601, 1.26533, 57.15, 27.4528, 5.87494, 1.86603, 3.1235, 0.0101428, -0.000649064, -0.00012278, -0.000386008, -0.00166966, -0.00803759, 7.51832e-05, 0.0319758, -0.019539, -0.00301203, -0.0396198, 0.126618, 0.0116455, 0.470916, -0.542512, 0.336122, -2.08343, -2.16567, -0.129952, 0.470831, -0.543217, 0.336406, -2.08853, -2.17077, -0.123635, -0.00270489, 0.0261745, 0.00669572, 0.0178453, -0.00412488, -0.00184454
0.110017, 1.69327, -1.22476, -1.53884, -0.900124, -1.19639, 1.23393, -1.30263, 0.0505429, -0.000430057, -0.00276917, -0.00335062, -0.118457, 0.0183917, 0.00119561, 1.15424, 57.1896, 27.5281, 5.95032, 1.84772, 3.1235, -0.0484509, -0.000682777, -0.000106593, -0.000379827, -0.00162688, -0.0081552, 8.35864e-05, 0.0299441, -0.0205566, -0.00508362, -0.0461148, 0.120741, 0.0132777, 0.470914, -0.542486, 0.336128, -2.08342, -2.16566, -0.129954, 0.470846, -0.543223, 0.3364, -2.08857, -2.17081, -0.123469, -0.00275491, 0.0266701, 0.00681835, 0.0186635, -0.0012621, -0.00348269
0.111017, 1.69332, -1.22476, -1.53884, -0.900126, -1.19651, 1.23394, -1.30263, 0.0521527, -0.00184704, -0.0020552, -0.00307916, -0.122024, 0.0134607, -0.0011136, 0.928108, 57.261, 27.5281, 5.98602, 1.84131, 3.13083, 0.00373412, -0.000715024, -8.89315e-05, -0.00037265, -0.00158248, -0.00826818, 7.44822e-05, 0.0300042, -0.0202832, -0.00618576, -0.0515792, 0.120047, 0.0161472, 0.470911, -0.542459, 0.336135, -2.08341, -2.16566, -0.129956, 0.470861, -0.543226, 0.336395, -2.08858, -2.17086, -0.123307, -0.00280528, 0.0271696, 0.00694181, 0.0183021, -0.000662957, -0.00444893
0.112017, 1.69336, -1.22476, -1.53883, -0.900133, -1.19663, 1.23395, -1.30263, 0.0493424, -0.00198401, -0.000598925, -0.00465888, -0.123366, 0.00980567, 0.00073224, 0.737679, 57.2968, 27.4885, 6.09711, 1.81018, 3.13815, -0.0356336, -0.0007463, -7.23667e-05, -0.000369263, -0.00153646, -0.00838621, 7.21994e-05, 0.0309, -0.0185326, -0.00618543, -0.0543286, 0.119415, 0.0131958, 0.470908, -0.542432, 0.336142, -2.0834, -2.16565, -0.129958, 0.470876, -0.543229, 0.336393, -2.0886, -2.17091, -0.123138, -0.00285601, 0.0276729, 0.00706609, 0.0165352, -0.00111571, -0.00441092
0.113017, 1.69339, -1.22476, -1.53884, -0.900136, -1.19676, 1.23397, -1.30263, 0.0450168, -0.000425526, -0.00144491, -0.00403968, -0.125753, 0.0126058, 0.00148394, 0.626595, 57.261, 27.5281, 6.13678, 1.80469, 3.1235, -0.0621838, -0.000786637, -6.45846e-05, -0.000366183, -0.00148577, -0.0085123, 8.85903e-05, 0.0343207, -0.0160631, -0.00503879, -0.0525573, 0.124439, 0.00645543, 0.470905, -0.542404, 0.336149, -2.08338, -2.16565, -0.12996, 0.470882, -0.54324, 0.33639, -2.08864, -2.17093, -0.122954, -0.00290708, 0.0281801, 0.00719119, 0.0141823, -0.00426343, -0.00361121
0.114017, 1.69343, -1.22476, -1.53884, -0.900144, -1.19688, 1.23397, -1.30263, 0.0445082, -0.000237237, -0.00105148, -0.00529588, -0.127297, 0.0101959, -0.000696802, 0.400459, 57.261, 27.5281, 6.24786, 1.79828, 3.10245, -0.0164075, -0.000821793, -5.15401e-05, -0.000361347, -0.00143357, -0.0086324, 8.34097e-05, 0.0346556, -0.0155452, -0.00518892, -0.0554321, 0.12503, 0.00894301, 0.470902, -0.542376, 0.336156, -2.08337, -2.16564, -0.129962, 0.470894, -0.543245, 0.336387, -2.08865, -2.17098, -0.122777, -0.0029585, 0.0286911, 0.00731711, 0.0136203, -0.004081, -0.00367038
0.115017, 1.69347, -1.22476, -1.53884, -0.900151, -1.19701, 1.23398, -1.30263, 0.0442483, -0.00272178, -0.000767144, -0.00529705, -0.12446, 0.00782756, 0.000729255, 0.170357, 57.3721, 27.5281, 6.32324, 1.81018, 3.09512, -0.0484509, -0.000860037, -4.05795e-05, -0.000352576, -0.00137764, -0.00874928, 9.06518e-05, 0.0346739, -0.0154166, -0.00679259, -0.055982, 0.119291, 0.00842191, 0.470899, -0.542347, 0.336164, -2.08336, -2.16563, -0.129964, 0.470903, -0.543252, 0.336379, -2.08868, -2.17101, -0.122597, -0.00301027, 0.0292059, 0.00744383, 0.0133824, -0.00334191, -0.00512648
0.116017, 1.6935, -1.22476, -1.53884, -0.90016, -1.19714, 1.23399, -1.30263, 0.0401586, -2.51551e-05, -0.000561046, -0.00613224, -0.125588, 0.011534, -0.000932738, 0.0949785, 57.2968, 27.5281, 6.43433, 1.78638, 3.06674, -0.00999879, -0.000900813, -3.43515e-05, -0.000352741, -0.00132714, -0.00887806, 9.78953e-05, 0.037084, -0.0138779, -0.00473971, -0.0525522, 0.124936, 0.00651111, 0.470896, -0.542318, 0.336171, -2.08334, -2.16563, -0.129966, 0.470907, -0.543263, 0.33638, -2.08871, -2.17105, -0.122411, -0.00306237, 0.0297245, 0.00757134, 0.0119549, -0.0055823, -0.00330075
0.117017, 1.69353, -1.22476, -1.53883, -0.900168, -1.19727, 1.234, -1.30263, 0.0393489, -0.000925195, 0.000516777, -0.00668843, -0.127512, 0.0145205, 9.41861e-05, -0.206535, 57.3364, 27.4885, 6.54541, 1.78638, 3.03012, -0.0292249, -0.000940346, -2.37124e-05, -0.000347861, -0.00127532, -0.00900233, 0.000104823, 0.0383664, -0.0141183, -0.00469296, -0.0500128, 0.127312, 0.00511961, 0.470893, -0.542288, 0.336179, -2.08333, -2.16562, -0.129968, 0.470916, -0.543271, 0.336377, -2.08874, -2.17109, -0.122229, -0.00311481, 0.0302468, 0.00769965, 0.0121903, -0.00632308, -0.00333369
0.118017, 1.69356, -1.22476, -1.53884, -0.900178, -1.19741, 1.23401, -1.30263, 0.0400781, -0.000602101, -0.000611411, -0.00705877, -0.128363, 0.0117332, -0.000646335, -0.43267, 57.3364, 27.5281, 6.65649, 1.77997, 3.00174, -0.00999879, -0.000982798, -1.62895e-05, -0.00034338, -0.00121617, -0.00913408, 0.000113357, 0.0385583, -0.0138369, -0.00527959, -0.0539703, 0.12735, 0.00611254, 0.47089, -0.542258, 0.336186, -2.08331, -2.16562, -0.129971, 0.470922, -0.543282, 0.336373, -2.08877, -2.17112, -0.12203, -0.00316759, 0.0307728, 0.00782873, 0.011842, -0.00590729, -0.00380566
0.119017, 1.69359, -1.22476, -1.53883, -0.900189, -1.19755, 1.23401, -1.30263, 0.0394259, -0.0012256, -0.000428539, -0.00739813, -0.12573, 0.0144466, -0.000191318, -0.619133, 57.3721, 27.5281, 6.77154, 1.78638, 2.97336, -0.0164075, -0.00102647, -1.07561e-05, -0.000338038, -0.00115893, -0.00925959, 0.000129062, 0.0390737, -0.0144182, -0.00539734, -0.0502297, 0.126178, 0.00634265, 0.470887, -0.542227, 0.336194, -2.0833, -2.16561, -0.129973, 0.470925, -0.543293, 0.336369, -2.08881, -2.17115, -0.12184, -0.0032207, 0.0313025, 0.00795859, 0.0123837, -0.00584404, -0.00389052
0.120017, 1.69362, -1.22476, -1.53883, -0.9002, -1.19768, 1.23402, -1.30263, 0.0409578, 2.64201e-05, 0.00146185, -0.00753131, -0.126528, 0.0108676, 0.00082355, -0.884941, 57.3364, 27.4528, 6.88263, 1.76166, 2.96603, -0.0420422, -0.00106721, -1.62098e-06, -0.000335094, -0.00110482, -0.00938684, 0.000134579, 0.0381724, -0.0149102, -0.00444804, -0.0521283, 0.126513, 0.00760966, 0.470884, -0.542196, 0.336202, -2.08328, -2.1656, -0.129975, 0.470933, -0.543301, 0.336367, -2.08883, -2.17119, -0.121652, -0.00327414, 0.031836, 0.00808922, 0.012824, -0.00454701, -0.00269789
0.121017, 1.69365, -1.22476, -1.53883, -0.900208, -1.19782, 1.23402, -1.30263, 0.0347031, 2.38133e-05, 0.00096279, -0.00678468, -0.128334, 0.0085116, -0.00185722, -1.11108, 57.3364, 27.4528, 6.95801, 1.74884, 2.95138, 0.0229602, -0.0011115, 4.09609e-06, -0.0003317, -0.00104689, -0.00951604, 0.000142286, 0.0419511, -0.010542, -0.00443875, -0.0540558, 0.12688, 0.002653, 0.470881, -0.542164, 0.33621, -2.08327, -2.1656, -0.129978, 0.470937, -0.543313, 0.336365, -2.08886, -2.17122, -0.121458, -0.00332791, 0.0323731, 0.00822061, 0.00854371, -0.00792083, -0.00301304
0.122017, 1.69368, -1.22476, -1.53883, -0.900216, -1.19795, 1.23402, -1.30262, 0.0322253, -0.000814692, 0.000633029, -0.00535877, -0.129312, 0.00672601, 0.00140764, -1.30151, 57.3721, 27.4528, 6.99371, 1.74335, 2.93765, -0.0484509, -0.00115794, 8.65629e-06, -0.000327306, -0.00099125, -0.00964346, 0.000166659, 0.0441933, -0.00838636, -0.00491743, -0.0552454, 0.12606, -0.00473959, 0.470877, -0.542132, 0.336219, -2.08325, -2.16559, -0.12998, 0.470939, -0.543325, 0.336361, -2.08891, -2.17124, -0.121266, -0.00338201, 0.0329138, 0.00835276, 0.00639987, -0.00960801, -0.00363749
0.123017, 1.6937, -1.22475, -1.53883, -0.90023, -1.19809, 1.23403, -1.30263, 0.0303302, 0.00205881, 0.000415396, -0.00617129, -0.130194, 0.00570505, -0.00170573, -1.48797, 57.261, 27.4528, 7.1048, 1.74335, 2.91568, 0.0229602, -0.00120268, 1.45328e-05, -0.000327041, -0.000934865, -0.00978064, 0.000169978, 0.045194, -0.00716268, -0.00344531, -0.0564877, 0.129449, -0.00319082, 0.470874, -0.542099, 0.336227, -2.08324, -2.16558, -0.129982, 0.470943, -0.543336, 0.336362, -2.08893, -2.17129, -0.121066, -0.00343642, 0.0334582, 0.00848565, 0.00521309, -0.0103289, -0.00217024
0.124017, 1.69373, -1.22474, -1.53883, -0.900236, -1.19822, 1.23403, -1.30263, 0.0291753, 0.00524429, -0.000563254, -0.00721397, -0.134767, 0.00515995, 8.40769e-05, -1.6784, 57.2253, 27.4885, 7.1048, 1.74335, 2.8873, -0.00999879, -0.00124933, 1.83142e-05, -0.000324851, -0.000878326, -0.0099082, 0.000190149, 0.0467091, -0.00593832, -0.00208115, -0.0598678, 0.136503, -0.00720979, 0.47087, -0.542066, 0.336235, -2.08322, -2.16557, -0.129985, 0.470945, -0.543348, 0.336361, -2.08897, -2.17131, -0.120874, -0.00349116, 0.0340062, 0.00861928, 0.00403988, -0.0115374, -0.000888945
0.125017, 1.69375, -1.22474, -1.53882, -0.900247, -1.19835, 1.23403, -1.30263, 0.028248, 0.00291576, -0.000379228, -0.00908806, -0.134996, 0.0047202, -0.000452181, -1.86486, 57.261, 27.4885, 7.14447, 1.76166, 2.85892, 0.00373412, -0.00129589, 2.34931e-05, -0.000318527, -0.000820593, -0.010031, 0.000200719, 0.0473184, -0.00584364, -0.00367908, -0.0610275, 0.13456, -0.00584897, 0.470867, -0.542032, 0.336244, -2.0832, -2.16557, -0.129987, 0.470949, -0.543359, 0.336356, -2.089, -2.17134, -0.120686, -0.00354621, 0.0345577, 0.00875364, 0.00385394, -0.0113442, -0.00242491
0.126017, 1.69378, -1.22474, -1.53883, -0.900259, -1.19848, 1.23404, -1.30263, 0.0297339, 0.00297015, -0.00118363, -0.010506, -0.129652, 0.00413241, -0.00125059, -2.01562, 57.2253, 27.5281, 7.18018, 1.76807, 2.83694, 0.0293689, -0.00134199, 2.93285e-05, -0.000315885, -0.000767112, -0.0101582, 0.000209048, 0.0458517, -0.0073856, -0.00431181, -0.0605337, 0.130446, -0.000899736, 0.470863, -0.541997, 0.336253, -2.08319, -2.16556, -0.12999, 0.470952, -0.543369, 0.336355, -2.08903, -2.17137, -0.120499, -0.00360158, 0.0351128, 0.00888872, 0.00526287, -0.00917999, -0.00273386
0.127017, 1.6938, -1.22473, -1.53883, -0.900276, -1.19861, 1.23404, -1.30263, 0.0301457, 0.00212342, -0.000791184, -0.0124446, -0.126142, 0.00342632, -0.000596149, -2.13067, 57.2253, 27.5281, 7.25555, 1.78638, 2.82229, 0.0229602, -0.00138781, 3.4685e-05, -0.000312109, -0.000708471, -0.0102849, 0.000218661, 0.0448992, -0.00844023, -0.00507451, -0.0601006, 0.126817, 0.00196936, 0.47086, -0.541962, 0.336262, -2.08317, -2.16555, -0.129992, 0.470956, -0.543379, 0.336353, -2.08906, -2.1714, -0.120306, -0.00365725, 0.0356715, 0.00902453, 0.00619849, -0.00751973, -0.00323563
0.128017, 1.69383, -1.22473, -1.53883, -0.900283, -1.19874, 1.23404, -1.30263, 0.0274507, 0.0015231, 0.0018238, -0.0112272, -0.128651, 0.00316075, -0.000159908, -2.24175, 57.2253, 27.5638, 7.21588, 1.81659, 2.80124, 0.0165515, -0.00143744, 3.79557e-05, -0.000309738, -0.000654711, -0.0104129, 0.00023677, 0.0470181, -0.00682936, -0.00424961, -0.0581576, 0.128069, -0.00172389, 0.470856, -0.541926, 0.336271, -2.08315, -2.16554, -0.129995, 0.470957, -0.543391, 0.336351, -2.08909, -2.17143, -0.120117, -0.00371324, 0.0362337, 0.00916105, 0.00464007, -0.00924268, -0.00256621
0.129017, 1.69385, -1.22473, -1.53883, -0.9003, -1.19886, 1.23405, -1.30262, 0.0247722, 0.000260798, -0.00028288, -0.0154835, -0.12965, 0.00299345, 0.0018263, -2.3211, 57.261, 27.6392, 7.25555, 1.81659, 2.77926, -0.0356336, -0.00148467, 4.3868e-05, -0.000301563, -0.000592167, -0.010535, 0.000251464, 0.0482725, -0.00582647, -0.00624545, -0.0621977, 0.128272, -0.00389611, 0.470852, -0.54189, 0.33628, -2.08314, -2.16554, -0.129998, 0.470961, -0.5434, 0.336345, -2.08912, -2.17145, -0.119925, -0.00376953, 0.0367994, 0.00929827, 0.00355441, -0.00964802, -0.004565
0.130017, 1.69388, -1.22472, -1.53882, -0.900316, -1.19898, 1.23405, -1.30263, 0.0267244, 0.00106955, 0.00260824, -0.0145886, -0.13105, 0.00228735, -0.00118987, -2.43218, 57.2253, 27.5281, 7.25555, 1.84131, 2.77286, 0.0293689, -0.00152704, 5.41705e-05, -0.000304044, -0.000549822, -0.01066, 0.000242945, 0.0477745, -0.00696752, -0.00482548, -0.0606275, 0.129955, 0.00121316, 0.470849, -0.541853, 0.336289, -2.08312, -2.16553, -0.13, 0.470969, -0.543405, 0.33635, -2.08914, -2.17151, -0.119754, -0.00382613, 0.0373685, 0.00943618, 0.0046715, -0.00875937, -0.00298313
0.131017, 1.6939, -1.22472, -1.53882, -0.900331, -1.19911, 1.23406, -1.30263, 0.0225168, 0.000758377, 0.000124364, -0.0139947, -0.126897, 0.00664565, 0.000902244, -2.43218, 57.2253, 27.6035, 7.25555, 1.85962, 2.76553, -0.0164075, -0.001576, 5.96603e-05, -0.000298847, -0.000493444, -0.0107857, 0.000258685, 0.0505919, -0.00533978, -0.00524456, -0.0560616, 0.128673, -0.00528813, 0.470845, -0.541816, 0.336299, -2.0831, -2.16552, -0.130003, 0.470972, -0.543415, 0.336346, -2.08917, -2.17153, -0.119565, -0.00388303, 0.0379411, 0.00957479, 0.00307499, -0.01097, -0.00364823
0.132017, 1.69393, -1.22472, -1.53883, -0.900342, -1.19923, 1.23406, -1.30263, 0.0235738, -0.000295623, -0.000640726, -0.0149575, -0.123829, 0.00540427, -0.000381796, -2.47185, 57.261, 27.6392, 7.18018, 1.87244, 2.75088, 0.0101428, -0.00162359, 6.69352e-05, -0.00029409, -0.000441439, -0.0109046, 0.000264108, 0.0499544, -0.0061914, -0.00648575, -0.0569719, 0.124956, -0.001397, 0.470841, -0.541778, 0.336308, -2.08308, -2.16551, -0.130006, 0.470977, -0.543423, 0.336344, -2.08919, -2.17156, -0.119388, -0.00394022, 0.0385172, 0.00971408, 0.00380011, -0.00953757, -0.00466189
0.133017, 1.69396, -1.22471, -1.53882, -0.900362, -1.19935, 1.23406, -1.30263, 0.0285656, -0.00193481, 0.000491754, -0.0144845, -0.12146, 0.0041976, -1.71322e-05, -2.54723, 57.3364, 27.6035, 7.18018, 1.87244, 2.74356, 0.00373412, -0.0016653, 8.01532e-05, -0.000288622, -0.000388533, -0.0110213, 0.0002566, 0.047795, -0.00920505, -0.00740337, -0.0564686, 0.121115, 0.00416039, 0.470837, -0.541739, 0.336318, -2.08306, -2.1655, -0.130009, 0.470987, -0.543425, 0.336341, -2.08919, -2.17161, -0.119214, -0.00399771, 0.0390967, 0.00985405, 0.00664124, -0.0065603, -0.00518436
0.134017, 1.69399, -1.2247, -1.53883, -0.900376, -1.19947, 1.23406, -1.30263, 0.0273173, 0.00216293, -0.00220785, -0.0146276, -0.115513, 0.00276974, -0.000248751, -2.54723, 57.1896, 27.7146, 7.06909, 1.89624, 2.75088, 0.0101428, -0.00171314, 8.70383e-05, -0.000289419, -0.000330061, -0.0111572, 0.000264566, 0.047755, -0.00843127, -0.00608167, -0.0567124, 0.120067, 0.00394404, 0.470833, -0.5417, 0.336328, -2.08305, -2.1655, -0.130011, 0.470992, -0.543432, 0.336344, -2.08922, -2.17165, -0.119013, -0.0040555, 0.0396796, 0.00999469, 0.00585774, -0.00617377, -0.0037097
0.135017, 1.69402, -1.2247, -1.53883, -0.900395, -1.19958, 1.23407, -1.30263, 0.0247414, 0.00108774, -0.00318807, -0.0156779, -0.115616, 0.00280834, -0.000165812, -2.47185, 57.3364, 27.79, 6.99371, 1.90906, 2.72983, 0.0101428, -0.00176175, 9.67478e-05, -0.000279615, -0.000281513, -0.0112704, 0.000266873, 0.0495266, -0.0071005, -0.00711151, -0.0576595, 0.119481, 0.00180368, 0.470829, -0.541661, 0.336338, -2.08303, -2.16549, -0.130014, 0.470999, -0.543439, 0.336336, -2.08924, -2.17168, -0.118846, -0.00411357, 0.0402659, 0.010136, 0.00449669, -0.00723172, -0.00482137
0.136017, 1.69405, -1.2247, -1.53883, -0.900415, -1.1997, 1.23408, -1.30263, 0.0292806, 0.000991347, 0.00113803, -0.0197416, -0.114379, 0.00150007, -0.000347883, -2.39648, 57.3364, 27.79, 6.91833, 1.89624, 2.74356, 0.0165515, -0.00180527, 0.000109577, -0.000277139, -0.000234007, -0.0113899, 0.000259523, 0.0456278, -0.0112671, -0.00660543, -0.0569172, 0.118234, 0.0125628, 0.470825, -0.54162, 0.336348, -2.08301, -2.16548, -0.130017, 0.471009, -0.543441, 0.336337, -2.08925, -2.17173, -0.118676, -0.00417194, 0.0408555, 0.0102779, 0.00847794, -0.00269973, -0.00370044
0.137017, 1.69408, -1.22469, -1.53883, -0.90044, -1.19981, 1.23408, -1.30263, 0.032686, 2.53201e-05, 0.000218958, -0.0205301, -0.11481, 0.0011024, 0.000480167, -2.3568, 57.3721, 27.8257, 6.88263, 1.91546, 2.74356, -0.00267457, -0.00184837, 0.000124102, -0.000270732, -0.000180218, -0.0115089, 0.000250844, 0.0448164, -0.0131322, -0.00786749, -0.0591005, 0.11797, 0.0152745, 0.470821, -0.541579, 0.336358, -2.08299, -2.16547, -0.13002, 0.471021, -0.543441, 0.336334, -2.08925, -2.17178, -0.118499, -0.00423059, 0.0414484, 0.0104206, 0.0102067, -0.00103362, -0.00473535
0.138017, 1.69411, -1.22468, -1.53883, -0.90047, -1.19993, 1.23409, -1.30263, 0.0281302, 0.00016661, -0.00139565, -0.0210953, -0.114885, 0.00159159, -0.000866674, -2.24175, 57.3721, 27.9011, 6.84296, 1.92737, 2.7225, 0.0293689, -0.00189215, 0.000137196, -0.000265924, -0.000122349, -0.0116339, 0.000236839, 0.0476811, -0.0105314, -0.00819282, -0.0595724, 0.118741, 0.0118686, 0.470816, -0.541538, 0.336369, -2.08297, -2.16546, -0.130023, 0.471031, -0.543441, 0.336332, -2.08925, -2.17183, -0.118312, -0.00428952, 0.0420447, 0.0105638, 0.00764141, -0.00332168, -0.00528107
0.139017, 1.69414, -1.22468, -1.53883, -0.900494, -1.20004, 1.23409, -1.30263, 0.0242337, 0.000801633, 0.000999016, -0.0229186, -0.110889, 0.000847363, 0.00111765, -2.091, 57.4832, 27.8257, 6.73187, 1.94568, 2.72983, -0.0164075, -0.0019383, 0.000148532, -0.00026099, -7.5011e-05, -0.011749, 0.000235319, 0.0480616, -0.00951347, -0.0071378, -0.0563439, 0.115918, 0.0101458, 0.470812, -0.541496, 0.336379, -2.08295, -2.16545, -0.130026, 0.47104, -0.543444, 0.33633, -2.08926, -2.17187, -0.118145, -0.00434873, 0.0426443, 0.0107077, 0.00661811, -0.00330239, -0.00412458
0.140017, 1.69417, -1.22468, -1.53884, -0.900526, -1.20015, 1.23409, -1.30263, 0.0264496, -0.00171508, -0.00440624, -0.0261199, -0.112316, 0.00527016, -0.000950319, -2.01562, 57.5943, 28.0478, 6.69617, 1.9704, 2.72983, 0.0293689, -0.00198289, 0.000163125, -0.000246771, -1.06361e-05, -0.0118598, 0.000217409, 0.0488576, -0.0112609, -0.0107433, -0.0598374, 0.117794, 0.0142702, 0.470808, -0.541453, 0.33639, -2.08293, -2.16544, -0.130029, 0.471051, -0.543442, 0.336319, -2.08924, -2.17192, -0.117966, -0.00440822, 0.0432472, 0.0108522, 0.00820014, -0.00285544, -0.0077183
0.141017, 1.69419, -1.22467, -1.53884, -0.90056, -1.20025, 1.2341, -1.30263, 0.0273393, 0.00233218, -0.00377202, -0.0282045, -0.10811, 0.00342571, 0.00082452, -1.78948, 57.5943, 28.0875, 6.65649, 1.9823, 2.74356, -0.00999879, -0.00202695, 0.000175854, -0.000242663, 4.18393e-05, -0.0119782, 0.000208292, 0.0469204, -0.0124416, -0.00868983, -0.0595568, 0.117946, 0.0168775, 0.470803, -0.54141, 0.336401, -2.08291, -2.16543, -0.130032, 0.471061, -0.543441, 0.336319, -2.08924, -2.17196, -0.117791, -0.00446799, 0.0438533, 0.0109973, 0.00932533, -0.000605613, -0.00528089
0.142017, 1.69422, -1.22467, -1.53883, -0.900595, -1.20036, 1.2341, -1.30263, 0.0264405, 0.00246149, 0.00237051, -0.0323119, -0.10525, 0.0031081, -0.000433661, -1.60302, 57.7054, 28.0121, 6.58508, 2.00061, 2.72983, 0.0165515, -0.00206998, 0.000191736, -0.000236499, 8.62745e-05, -0.012089, 0.000185818, 0.0448291, -0.0142419, -0.00704307, -0.0547918, 0.115812, 0.0247895, 0.470799, -0.541366, 0.336412, -2.08288, -2.16542, -0.130036, 0.471074, -0.543438, 0.336316, -2.08923, -2.17202, -0.117635, -0.00452802, 0.0444627, 0.0111431, 0.0110485, 0.00188806, -0.00323931
0.143017, 1.69424, -1.22466, -1.53884, -0.900628, -1.20046, 1.23411, -1.30263, 0.0265879, 0.00140727, -0.000711205, -0.0313261, -0.102396, 0.00207146, 0.000931598, -1.45226, 57.7411, 28.1232, 6.47003, 1.99512, 2.73623, -0.0164075, -0.00211521, 0.000205042, -0.000229413, 0.000139521, -0.012202, 0.000176272, 0.0457622, -0.0137518, -0.00876888, -0.0565685, 0.112349, 0.0222483, 0.470794, -0.541322, 0.336423, -2.08286, -2.16541, -0.130039, 0.471084, -0.543437, 0.336313, -2.08923, -2.17207, -0.117465, -0.00458833, 0.0450753, 0.0112895, 0.010469, 0.00182664, -0.00492825
0.144017, 1.69427, -1.22466, -1.53884, -0.900669, -1.20056, 1.23411, -1.30263, 0.0258437, 0.0037233, 0.00209004, -0.035695, -0.104675, 0.00516121, 0.000621067, -1.26183, 57.7768, 28.1589, 6.43433, 1.98871, 2.76553, -0.0164075, -0.0021581, 0.000219011, -0.000222929, 0.000197289, -0.0123151, 0.000155769, 0.0453884, -0.0151134, -0.006745, -0.0541074, 0.118551, 0.0262628, 0.47079, -0.541277, 0.336434, -2.08284, -2.1654, -0.130042, 0.471094, -0.543432, 0.336311, -2.08921, -2.17212, -0.117291, -0.00464891, 0.0456911, 0.0114364, 0.0118292, 0.00255488, -0.00276761
0.145017, 1.6943, -1.22466, -1.53883, -0.900705, -1.20065, 1.23411, -1.30263, 0.027781, 0.00285936, 0.00499806, -0.0329727, -0.096453, 0.00423589, -0.00151873, -1.18645, 57.9236, 28.1589, 6.28357, 1.96399, 2.75821, 0.0357776, -0.00219761, 0.000239983, -0.000214256, 0.000239848, -0.0124145, 0.000119574, 0.043721, -0.0169153, -0.00609475, -0.0474992, 0.110432, 0.0321236, 0.470785, -0.541231, 0.336446, -2.08282, -2.16539, -0.130045, 0.471112, -0.543424, 0.336307, -2.08918, -2.17219, -0.117149, -0.00470975, 0.04631, 0.011584, 0.013532, 0.00479377, -0.00177428
0.146017, 1.69432, -1.22465, -1.53883, -0.90075, -1.20075, 1.23412, -1.30263, 0.0279668, 0.00897887, 0.00559403, -0.0367004, -0.0916905, 0.00453922, 0.00115765, -1.0357, 57.9236, 28.0875, 6.24786, 1.97681, 2.7225, -0.0228162, -0.00223946, 0.000256611, -0.000210269, 0.000282666, -0.012524, 9.91162e-05, 0.0415447, -0.01848, -0.00283712, -0.0456078, 0.113391, 0.0347161, 0.47078, -0.541185, 0.336457, -2.0828, -2.16538, -0.130049, 0.471125, -0.543417, 0.336307, -2.08917, -2.17225, -0.116996, -0.00477085, 0.0469322, 0.0117321, 0.0150751, 0.00712499, 0.00188053
0.147017, 1.69434, -1.22465, -1.53882, -0.900794, -1.20084, 1.23412, -1.30263, 0.0244669, 0.00529153, 0.00650576, -0.0419488, -0.0921067, 0.00332079, -0.00116101, -0.884941, 57.999, 28.1232, 6.17248, 1.96399, 2.7225, 0.0293689, -0.00228155, 0.000273008, -0.000203595, 0.000327309, -0.0126259, 6.63616e-05, 0.0423099, -0.0176915, -0.00538612, -0.0482078, 0.110078, 0.0385902, 0.470776, -0.541138, 0.336469, -2.08277, -2.16537, -0.130052, 0.471138, -0.54341, 0.336305, -2.08914, -2.17231, -0.116849, -0.00483222, 0.0475574, 0.0118809, 0.0141601, 0.00735724, -0.00058344
0.148017, 1.69436, -1.22464, -1.53882, -0.900845, -1.20092, 1.23412, -1.30262, 0.020253, 0.00667711, 0.00576913, -0.0466417, -0.0929468, 0.00324865, 0.000921413, -0.694511, 58.0347, 28.0875, 6.13678, 1.9704, 2.70053, -0.0164075, -0.00232554, 0.000285506, -0.000198682, 0.000372648, -0.0127288, 5.03211e-05, 0.0436196, -0.0161542, -0.00531105, -0.0506177, 0.112775, 0.0358552, 0.470771, -0.54109, 0.336481, -2.08275, -2.16536, -0.130056, 0.471147, -0.543405, 0.336305, -2.08913, -2.17236, -0.1167, -0.00489384, 0.0481858, 0.0120302, 0.0126132, 0.00661816, -0.000518153
0.149017, 1.69438, -1.22463, -1.53882, -0.900904, -1.20101, 1.23412, -1.30262, 0.0217133, 0.00448267, 0.00568227, -0.0536549, -0.088312, 0.0031114, 0.00010565, -0.658806, 58.0704, 28.1589, 6.24786, 1.9704, 2.67947, -0.00267457, -0.00236338, 0.000306582, -0.000190095, 0.000422818, -0.0128318, 7.98181e-06, 0.0408346, -0.0191134, -0.00775931, -0.0522416, 0.107722, 0.0458613, 0.470766, -0.541042, 0.336493, -2.08273, -2.16535, -0.130059, 0.471164, -0.543392, 0.336302, -2.08908, -2.17243, -0.116547, -0.00495572, 0.0488173, 0.01218, 0.0153163, 0.0105001, -0.00244274
0.150017, 1.69439, -1.22463, -1.53881, -0.900951, -1.20109, 1.23412, -1.30263, 0.0196742, 0.00159076, 0.00521399, -0.0523188, -0.0851142, 0.0019273, 7.04334e-05, -0.508049, 58.2925, 28.1232, 6.09711, 1.9704, 2.6868, -0.00267457, -0.0024102, 0.000318028, -0.000180569, 0.000460433, -0.0129183, -1.69364e-05, 0.0424147, -0.0178224, -0.00949388, -0.0513661, 0.101812, 0.0436514, 0.470761, -0.540993, 0.336505, -2.0827, -2.16534, -0.130063, 0.471172, -0.543387, 0.336297, -2.08906, -2.17248, -0.116423, -0.00501785, 0.0494519, 0.0123305, 0.013958, 0.00979066, -0.00421271
0.151017, 1.6944, -1.22463, -1.5388, -0.901014, -1.20117, 1.23413, -1.30262, 0.0160099, 0.000975129, 0.00521476, -0.0538906, -0.0880073, 0.0021919, 0.000318223, -0.392998, 58.3282, 28.1986, 6.17248, 1.97681, 2.66482, -0.00999879, -0.00245401, 0.000332903, -0.000172487, 0.000505636, -0.0130197, -4.65513e-05, 0.0448948, -0.0158908, -0.00989563, -0.0525809, 0.104063, 0.0402652, 0.470756, -0.540944, 0.336517, -2.08268, -2.16533, -0.130066, 0.471183, -0.543379, 0.336294, -2.08903, -2.17254, -0.116276, -0.00508023, 0.0500896, 0.0124815, 0.0120411, 0.00796309, -0.00478712
0.152017, 1.69441, -1.22461, -1.53879, -0.901064, -1.20125, 1.23413, -1.30263, 0.0118989, 0.00510313, 0.0104146, -0.0543562, -0.0847223, 0.00258235, -0.00124591, -0.357292, 58.2925, 28.1986, 6.09711, 1.9704, 2.63644, 0.0293689, -0.00249739, 0.000347508, -0.000174179, 0.000533118, -0.0131203, -8.26271e-05, 0.0451477, -0.0150048, -0.0054892, -0.045279, 0.105573, 0.0417366, 0.470751, -0.540894, 0.33653, -2.08266, -2.16532, -0.13007, 0.471194, -0.543371, 0.336301, -2.089, -2.17262, -0.116151, -0.00514285, 0.0507303, 0.012633, 0.0112652, 0.00763579, -0.000298563
0.153017, 1.69441, -1.22461, -1.53878, -0.901125, -1.20132, 1.23413, -1.30262, 0.00855023, 0.000644818, 0.0102219, -0.0596307, -0.0787917, 0.00150274, 0.00181425, -0.317619, 58.4393, 28.2343, 6.09711, 1.99512, 2.64377, -0.0420422, -0.00254276, 0.000359771, -0.000164899, 0.000573131, -0.013207, -0.000103196, 0.0449216, -0.0148676, -0.00890021, -0.0458373, 0.0964473, 0.0420077, 0.470746, -0.540843, 0.336542, -2.08263, -2.16531, -0.130073, 0.471203, -0.543363, 0.336297, -2.08898, -2.17266, -0.116024, -0.00520573, 0.051374, 0.0127851, 0.0109316, 0.00902561, -0.00347555
0.154017, 1.69441, -1.2246, -1.53876, -0.901196, -1.20139, 1.23414, -1.30263, 0.00778741, 0.00716068, 0.010799, -0.063125, -0.0779761, 0.00212623, -0.001198, -0.357292, 58.4393, 28.2343, 6.20819, 2.00061, 2.61447, 0.0229602, -0.00258358, 0.000376443, -0.000163595, 0.000603702, -0.0133051, -0.000152308, 0.0440411, -0.0154504, -0.00529619, -0.0452622, 0.103163, 0.0478177, 0.470741, -0.540792, 0.336555, -2.08261, -2.1653, -0.130077, 0.471216, -0.543352, 0.336302, -2.08894, -2.17275, -0.115899, -0.00526884, 0.0520207, 0.0129378, 0.0115518, 0.0100077, 0.000353576
0.155017, 1.69441, -1.2246, -1.53875, -0.90126, -1.20145, 1.23414, -1.30262, 0.00513302, 0.00624115, 0.010552, -0.0629387, -0.0730099, 0.00144698, 0.00184619, -0.317619, 58.5504, 28.274, 6.20819, 2.01984, 2.61447, -0.0484509, -0.00262974, 0.000387098, -0.000157607, 0.000632139, -0.0133855, -0.000175049, 0.0450347, -0.0143658, -0.00587886, -0.0431898, 0.0980945, 0.0435917, 0.470735, -0.54074, 0.336568, -2.08258, -2.16528, -0.130081, 0.471222, -0.543344, 0.336301, -2.08891, -2.17279, -0.115792, -0.0053322, 0.0526704, 0.0130909, 0.0104197, 0.00972256, -0.000191351
0.156017, 1.6944, -1.22459, -1.53873, -0.901328, -1.20152, 1.23415, -1.30262, 0.00407408, 0.00892826, 0.010374, -0.0668376, -0.0731081, 0.00203794, 0.000993435, -0.317619, 58.5147, 28.3097, 6.24786, 2.00702, 2.58609, -0.0420422, -0.0026755, 0.000398713, -0.000157691, 0.000655826, -0.0134793, -0.000209111, 0.0448775, -0.014703, -0.0048396, -0.0441882, 0.101811, 0.0467095, 0.47073, -0.540687, 0.336581, -2.08255, -2.16527, -0.130085, 0.47123, -0.543336, 0.336307, -2.08889, -2.17286, -0.115677, -0.0053958, 0.0533231, 0.0132446, 0.0107257, 0.0103837, 0.00100133
0.157017, 1.69439, -1.22458, -1.53871, -0.901392, -1.20158, 1.23415, -1.30262, 0.000984998, 0.00918201, 0.011948, -0.0679316, -0.0649323, 0.00164649, -0.00103313, -0.357292, 58.5504, 28.274, 6.20819, 2.02533, 2.57876, 0.00373412, -0.00272211, 0.000409091, -0.000158095, 0.000675833, -0.0135657, -0.000245583, 0.0445897, -0.0143742, -0.0042254, -0.0392524, 0.0954009, 0.0501677, 0.470725, -0.540634, 0.336594, -2.08253, -2.16526, -0.130089, 0.471237, -0.543328, 0.336313, -2.08885, -2.17293, -0.115575, -0.00545963, 0.0539787, 0.0133988, 0.010346, 0.011215, 0.00181587
0.158017, 1.69438, -1.22457, -1.53869, -0.901472, -1.20163, 1.23416, -1.30262, -0.0014555, 0.00849529, 0.0103735, -0.073095, -0.0581651, 0.00189, 0.00100667, -0.392998, 58.6258, 28.3454, 6.35895, 2.02533, 2.55771, -0.0420422, -0.0027651, 0.000423155, -0.000153579, 0.000699496, -0.0136457, -0.000285058, 0.0439031, -0.0147451, -0.00582208, -0.0392461, 0.0901185, 0.0518176, 0.470719, -0.54058, 0.336608, -2.0825, -2.16525, -0.130092, 0.471247, -0.543315, 0.336314, -2.08881, -2.173, -0.115475, -0.00552369, 0.0546373, 0.0135535, 0.0105687, 0.0128144, 0.000488983
0.159017, 1.69437, -1.22456, -1.53868, -0.901537, -1.20168, 1.23416, -1.30262, -0.00655672, 0.00758578, 0.0125251, -0.0684064, -0.0580093, 0.00181187, -0.00149903, -0.43267, 58.5861, 28.4208, 6.28357, 2.02533, 2.54306, 0.0165515, -0.00281347, 0.00043249, -0.000156221, 0.000714561, -0.0137331, -0.000317349, 0.0478448, -0.0112649, -0.00472588, -0.0343284, 0.0886714, 0.0463224, 0.470714, -0.540525, 0.336621, -2.08248, -2.16524, -0.130096, 0.471253, -0.543308, 0.336323, -2.08879, -2.17306, -0.115377, -0.00558799, 0.0552987, 0.0137087, 0.00721156, 0.00927174, 0.00121677
0.160017, 1.69435, -1.22456, -1.53865, -0.901612, -1.20173, 1.23417, -1.30262, -0.00901119, 0.00540666, 0.013655, -0.0709941, -0.0534632, 0.00202871, -0.000524634, -0.392998, 58.7329, 28.3851, 6.32324, 2.03815, 2.52109, 0.00373412, -0.00286076, 0.0004434, -0.000152501, 0.000722605, -0.0138024, -0.000353288, 0.0479485, -0.0112988, -0.00588033, -0.0319238, 0.0833052, 0.0473456, 0.470708, -0.54047, 0.336635, -2.08245, -2.16522, -0.1301, 0.47126, -0.543299, 0.336325, -2.08876, -2.17313, -0.115305, -0.00565251, 0.0559631, 0.0138645, 0.00714202, 0.0100145, 0.000214336
0.161017, 1.69434, -1.22454, -1.53863, -0.90169, -1.20177, 1.23417, -1.30261, -0.00712231, 0.00845787, 0.016649, -0.0728126, -0.0450034, 0.00159508, 0.00158302, -0.508049, 58.6972, 28.3851, 6.35895, 2.04364, 2.51468, -0.0484509, -0.00290297, 0.000458359, -0.00015441, 0.000731497, -0.0138788, -0.000395014, 0.04461, -0.0141521, -0.00348585, -0.0264655, 0.0795622, 0.0529473, 0.470702, -0.540414, 0.336649, -2.08242, -2.16521, -0.130104, 0.47127, -0.543284, 0.336333, -2.08872, -2.1732, -0.115226, -0.00571726, 0.0566303, 0.0140207, 0.0098952, 0.0137243, 0.00316683
0.162017, 1.69432, -1.22453, -1.5386, -0.901765, -1.20182, 1.23418, -1.30262, -0.00870947, 0.0056798, 0.0211429, -0.0724308, -0.0437003, 0.00133859, -0.000877431, -0.508049, 58.7329, 28.4208, 6.32324, 2.06195, 2.50735, 0.00373412, -0.00295076, 0.000467579, -0.000156472, 0.000737952, -0.013954, -0.000437415, 0.0451595, -0.0141581, -0.00346692, -0.021834, 0.0755683, 0.0561938, 0.470697, -0.540357, 0.336663, -2.08239, -2.1652, -0.130108, 0.471276, -0.543274, 0.336342, -2.08868, -2.17327, -0.115151, -0.00578224, 0.0573004, 0.0141774, 0.00985696, 0.0138497, 0.00325488
0.163017, 1.69429, -1.22453, -1.53858, -0.901845, -1.20185, 1.23419, -1.30261, -0.0176354, 0.00582506, 0.0237351, -0.0760965, -0.0383278, 0.000895349, 0.00134783, -0.43267, 58.8083, 28.4961, 6.32324, 2.08667, 2.50735, -0.0484509, -0.00300292, 0.000471973, -0.000154362, 0.000745712, -0.0140208, -0.000461637, 0.0470722, -0.0109827, -0.00260389, -0.0176707, 0.0713157, 0.0514439, 0.470691, -0.5403, 0.336677, -2.08237, -2.16519, -0.130113, 0.471276, -0.543268, 0.336345, -2.08866, -2.17332, -0.115081, -0.00584743, 0.0579733, 0.0143346, 0.00672173, 0.0123697, 0.00406209
0.164017, 1.69427, -1.22451, -1.53856, -0.901919, -1.20189, 1.23419, -1.30261, -0.0150455, 0.0108546, 0.0217647, -0.0773666, -0.0384525, 0.000599114, -0.000288244, -0.619133, 58.8083, 28.6072, 6.24786, 2.09949, 2.50735, -0.0164075, -0.0030486, 0.000485419, -0.000156519, 0.000749287, -0.0140937, -0.000504866, 0.0461561, -0.0122556, -0.000726744, -0.0201281, 0.0769615, 0.0557319, 0.470685, -0.540242, 0.336692, -2.08234, -2.16517, -0.130117, 0.471286, -0.543255, 0.336354, -2.08862, -2.17339, -0.115011, -0.00591285, 0.058649, 0.0144922, 0.0079643, 0.0137116, 0.00617542
0.165017, 1.69424, -1.22451, -1.53853, -0.902004, -1.20192, 1.2342, -1.30261, -0.0201322, 0.00904279, 0.0220945, -0.0809668, -0.0347585, 0.00510361, 0.000519914, -0.658806, 58.9194, 28.6429, 6.28357, 2.1297, 2.50735, -0.0356336, -0.00309632, 0.000495225, -0.000155171, 0.000750171, -0.0141547, -0.00054507, 0.0478874, -0.0115786, -0.00156524, -0.0151432, 0.0748494, 0.0545635, 0.470679, -0.540183, 0.336706, -2.08231, -2.16516, -0.130121, 0.471291, -0.543243, 0.336359, -2.08858, -2.17346, -0.114957, -0.00597848, 0.0593275, 0.0146504, 0.00725411, 0.0127836, 0.00525468
0.166017, 1.69422, -1.22449, -1.5385, -0.902091, -1.20193, 1.23421, -1.30261, -0.0221968, 0.0110127, 0.0222573, -0.0825391, -0.0303788, 0.0040668, -0.000128108, -0.76989, 58.8837, 28.6826, 6.28357, 2.12421, 2.50003, -0.0228162, -0.00313883, 0.000509797, -0.000160722, 0.000742918, -0.0142202, -0.000596636, 0.0478413, -0.011107, -0.000610025, -0.0139859, 0.0731289, 0.0561025, 0.470673, -0.540124, 0.336721, -2.08228, -2.16515, -0.130125, 0.471301, -0.543226, 0.336372, -2.08853, -2.17354, -0.114908, -0.00604433, 0.0600088, 0.0148089, 0.00675139, 0.013343, 0.00637678
0.167017, 1.69419, -1.22448, -1.53847, -0.902173, -1.20195, 1.23422, -1.30261, -0.0216209, 0.0133478, 0.0256703, -0.0831236, -0.0275914, 0.00354857, -8.54056e-05, -0.845268, 58.9551, 28.7183, 6.24786, 2.1297, 2.48538, -0.0228162, -0.00318724, 0.000519011, -0.000162619, 0.00073451, -0.0142766, -0.00063746, 0.0465653, -0.0123785, 0.00176042, -0.0101617, 0.0731172, 0.0597136, 0.470667, -0.540064, 0.336735, -2.08225, -2.16513, -0.130129, 0.471306, -0.543213, 0.336381, -2.08849, -2.1736, -0.114868, -0.00611038, 0.0606929, 0.014968, 0.00799731, 0.0149717, 0.00903476
0.168017, 1.69415, -1.22446, -1.53845, -0.902258, -1.20197, 1.23422, -1.3026, -0.0292737, 0.0132811, 0.0239783, -0.0834308, -0.0262233, 0.00727828, 0.00140113, -0.845268, 58.9551, 28.7937, 6.20819, 2.15442, 2.48538, -0.0621838, -0.00323825, 0.00052423, -0.000166709, 0.000729695, -0.0143383, -0.000669491, 0.0510623, -0.0087282, 0.00176613, -0.0066078, 0.0740329, 0.0506642, 0.470661, -0.540003, 0.33675, -2.08222, -2.16512, -0.130134, 0.471308, -0.543203, 0.336392, -2.08846, -2.17366, -0.114819, -0.00617665, 0.0613797, 0.0151275, 0.00444847, 0.011068, 0.00860816
0.169017, 1.69412, -1.22445, -1.53841, -0.902344, -1.20198, 1.23423, -1.30261, -0.0299748, 0.0132799, 0.0238225, -0.0838587, -0.0252462, 0.0107207, -0.00150732, -0.920646, 58.9551, 28.8294, 6.17248, 2.17914, 2.47165, 0.00373412, -0.00328544, 0.000534994, -0.00017268, 0.000714318, -0.0143971, -0.000720938, 0.0521474, -0.00918439, 0.00194513, -0.0032609, 0.0753204, 0.0535874, 0.470655, -0.539942, 0.336766, -2.08219, -2.1651, -0.130138, 0.471314, -0.543189, 0.336405, -2.08841, -2.17374, -0.114786, -0.00624313, 0.0620692, 0.0152874, 0.00488372, 0.0106779, 0.00875935
0.170017, 1.69408, -1.22444, -1.53838, -0.90244, -1.20199, 1.23424, -1.3026, -0.0336556, 0.0130923, 0.0243909, -0.0882079, -0.0192099, 0.00823623, 0.000690539, -0.996025, 59.1019, 28.8294, 6.17248, 2.19104, 2.46432, -0.0420422, -0.00333165, 0.000547041, -0.000173507, 0.000696473, -0.0144436, -0.000766739, 0.0516547, -0.00846131, 0.00133708, -0.00346762, 0.0695543, 0.0538973, 0.470649, -0.53988, 0.336781, -2.08216, -2.16509, -0.130143, 0.471322, -0.543172, 0.336414, -2.08837, -2.17381, -0.114768, -0.00630981, 0.0627614, 0.0154478, 0.00405488, 0.0119211, 0.00841764
0.171017, 1.69404, -1.22442, -1.53834, -0.902538, -1.20199, 1.23425, -1.3026, -0.03092, 0.0133804, 0.0279264, -0.0911533, -0.0144977, 0.00583294, -0.00147242, -1.0357, 59.1019, 28.8294, 6.17248, 2.19745, 2.47165, 0.0101428, -0.00337659, 0.000557909, -0.000179247, 0.000681224, -0.0144947, -0.000827195, 0.0483235, -0.0114075, 0.00192729, -0.00190735, 0.0652706, 0.0646465, 0.470642, -0.539817, 0.336796, -2.08213, -2.16508, -0.130147, 0.471328, -0.543154, 0.336427, -2.08831, -2.17389, -0.114743, -0.00637669, 0.0634563, 0.0156086, 0.00683223, 0.0159348, 0.00958953
0.172017, 1.69401, -1.22441, -1.53831, -0.902636, -1.20199, 1.23426, -1.3026, -0.0333689, 0.0115589, 0.0325747, -0.0935526, -0.0107554, 0.00461994, -0.000981614, -1.15075, 59.1772, 28.8691, 6.17248, 2.19745, 2.46432, 0.0101428, -0.00342169, 0.00057138, -0.000180785, 0.000665427, -0.0145416, -0.000882884, 0.0477518, -0.0116615, 0.0021299, 0.00208609, 0.0599877, 0.0673957, 0.470636, -0.539753, 0.336812, -2.0821, -2.16506, -0.130152, 0.471337, -0.543135, 0.336437, -2.08825, -2.17397, -0.114724, -0.00644377, 0.0641539, 0.0157699, 0.00700605, 0.0171759, 0.0100309
0.173017, 1.69397, -1.22439, -1.53828, -0.902734, -1.20199, 1.23427, -1.30259, -0.0404345, 0.0161689, 0.032301, -0.0935657, -0.00934431, 0.00396753, 0.00104101, -1.18645, 59.1415, 28.9405, 6.09711, 2.23407, 2.44967, -0.0356336, -0.00347032, 0.000580783, -0.000187905, 0.000648214, -0.0145997, -0.000924255, 0.0508783, -0.00763955, 0.00500933, 0.00354786, 0.063269, 0.0587104, 0.470629, -0.539689, 0.336828, -2.08207, -2.16505, -0.130156, 0.471342, -0.54312, 0.336452, -2.08821, -2.17404, -0.114693, -0.00651106, 0.0648541, 0.0159315, 0.00314276, 0.0141765, 0.0126693
0.174017, 1.69392, -1.22438, -1.53824, -0.902843, -1.20199, 1.23427, -1.30259, -0.043356, 0.0145327, 0.030674, -0.098624, 0.0028533, 0.00625991, -0.00147613, -1.18645, 59.1772, 28.9405, 6.09711, 2.22858, 2.48538, 0.0229602, -0.00351608, 0.000591558, -0.000191007, 0.000635201, -0.0146474, -0.000990549, 0.0497188, -0.0087098, 0.00303931, 0.00782477, 0.0535997, 0.0661708, 0.470623, -0.539624, 0.336844, -2.08204, -2.16503, -0.130161, 0.471348, -0.5431, 0.336463, -2.08814, -2.17413, -0.11467, -0.00657853, 0.0655569, 0.0160936, 0.00402916, 0.0163744, 0.0110334
0.175017, 1.69388, -1.22437, -1.53821, -0.902946, -1.20198, 1.23428, -1.30258, -0.0444484, 0.0165721, 0.0284679, -0.102979, 0.00179249, 0.00475723, 0.00142341, -1.22613, 59.213, 28.9802, 5.98602, 2.24048, 2.48538, -0.0420422, -0.00356354, 0.000601854, -0.000194435, 0.000617238, -0.0146917, -0.00103722, 0.0499566, -0.00829441, 0.002729, 0.00255521, 0.0566351, 0.0646155, 0.470616, -0.539559, 0.33686, -2.082, -2.16502, -0.130166, 0.471353, -0.543081, 0.336475, -2.08809, -2.1742, -0.114655, -0.0066462, 0.0662624, 0.0162561, 0.00354404, 0.0168763, 0.0108638
0.176017, 1.69383, -1.22434, -1.53818, -0.903057, -1.20198, 1.23428, -1.30258, -0.0435255, 0.0164822, 0.0291649, -0.104674, 0.00168067, 0.00783436, -4.95422e-07, -1.22613, 59.1772, 29.0555, 5.95032, 2.23407, 2.50003, -0.0164075, -0.00361022, 0.000612574, -0.000200314, 0.000604358, -0.0147464, -0.0011002, 0.0499669, -0.00990967, 0.00286522, 0.00499308, 0.0586687, 0.0688163, 0.47061, -0.539493, 0.336876, -2.08197, -2.165, -0.13017, 0.471359, -0.543062, 0.336489, -2.08803, -2.17429, -0.114625, -0.00671407, 0.0669704, 0.016419, 0.00509509, 0.0176203, 0.0111075
0.177017, 1.69378, -1.22433, -1.53814, -0.903169, -1.20198, 1.23429, -1.30258, -0.0439421, 0.0156062, 0.0308402, -0.110753, 0.00130669, 0.00621994, -0.000983674, -1.15075, 59.1772, 29.0912, 5.87494, 2.23407, 2.4927, 0.0101428, -0.0036603, 0.000620671, -0.000204382, 0.000591276, -0.0147991, -0.001156, 0.0487164, -0.0110548, 0.00192555, 0.00215587, 0.058105, 0.075462, 0.470603, -0.539426, 0.336892, -2.08194, -2.16499, -0.130175, 0.471363, -0.543044, 0.336501, -2.08797, -2.17436, -0.114596, -0.00678212, 0.0676811, 0.0165822, 0.00609071, 0.019759, 0.0105019
0.178017, 1.69374, -1.22431, -1.53811, -0.903288, -1.20198, 1.2343, -1.30258, -0.0446648, 0.0148981, 0.0310487, -0.113022, 0.000773446, 0.00496222, 0.000327561, -1.18645, 59.1772, 29.1666, 5.79956, 2.24048, 2.48538, -0.0164075, -0.00370597, 0.000633551, -0.000207391, 0.000583166, -0.0148526, -0.00121734, 0.0490963, -0.010959, 0.00114554, 0.000146573, 0.0577635, 0.075414, 0.470596, -0.539358, 0.336909, -2.0819, -2.16497, -0.13018, 0.471371, -0.543022, 0.336513, -2.0879, -2.17445, -0.114562, -0.00685036, 0.0683942, 0.0167459, 0.00591169, 0.0202148, 0.00983748
0.179017, 1.69369, -1.2243, -1.53807, -0.903409, -1.20198, 1.2343, -1.30258, -0.0478538, 0.0134714, 0.0348008, -0.113961, 0.000179582, 0.00422501, -0.000527611, -1.11108, 59.213, 29.0912, 5.68848, 2.25238, 2.47165, 0.00373412, -0.00375227, 0.000646387, -0.000211887, 0.000566794, -0.0149043, -0.00128887, 0.0503628, -0.00990374, 0.00156267, 0.00258647, 0.056588, 0.0756205, 0.470589, -0.53929, 0.336926, -2.08187, -2.16495, -0.130185, 0.471378, -0.542999, 0.336526, -2.08783, -2.17454, -0.11454, -0.00691878, 0.06911, 0.01691, 0.00485119, 0.0195721, 0.0102462
0.180017, 1.69364, -1.22428, -1.53804, -0.903528, -1.20198, 1.23431, -1.30257, -0.0437291, 0.0133514, 0.0338123, -0.120124, -0.000276427, 0.00339412, -0.00106382, -1.0357, 59.213, 29.1666, 5.53772, 2.2652, 2.46432, 0.0229602, -0.00380169, 0.00065714, -0.00021315, 0.000561669, -0.0149593, -0.00135175, 0.0476542, -0.0132708, -5.83778e-05, -0.00258967, 0.0575622, 0.0850716, 0.470582, -0.53922, 0.336943, -2.08184, -2.16494, -0.13019, 0.471384, -0.542978, 0.336536, -2.08776, -2.17463, -0.114502, -0.00698738, 0.0698282, 0.0170744, 0.0079868, 0.023356, 0.00912817
0.181017, 1.69359, -1.22426, -1.538, -0.90367, -1.20198, 1.23432, -1.30257, -0.0467373, 0.0158345, 0.0332899, -0.12583, -0.00104088, 0.00742938, 0.00421958, -0.960319, 59.1019, 29.238, 5.57739, 2.28992, 2.457, 0.0165515, -0.00384379, 0.000673522, -0.000217021, 0.000563582, -0.0150252, -0.00143214, 0.0484709, -0.0134156, 0.000894821, -0.0017243, 0.0634942, 0.0813548, 0.470575, -0.539151, 0.33696, -2.0818, -2.16492, -0.130195, 0.471395, -0.54295, 0.33655, -2.08767, -2.17474, -0.114446, -0.00705617, 0.0705489, 0.0172392, 0.00812813, 0.0231287, 0.0100996
0.182017, 1.69354, -1.22424, -1.53796, -0.903809, -1.20198, 1.23432, -1.30256, -0.0478082, 0.0147568, 0.0338382, -0.131904, -0.0017687, 0.00629385, 0.00442471, -0.809562, 59.1019, 29.2777, 5.46234, 2.32013, 2.43594, -0.0164075, -0.00389042, 0.000686336, -0.000219712, 0.000557526, -0.0150837, -0.00150154, 0.0479009, -0.0140447, -0.00048389, -0.00520025, 0.0633201, 0.0855121, 0.470568, -0.53908, 0.336977, -2.08177, -2.16491, -0.1302, 0.471403, -0.542925, 0.336562, -2.0876, -2.17483, -0.114405, -0.00712513, 0.0712721, 0.0174044, 0.00861548, 0.0246555, 0.0089719
0.183017, 1.69348, -1.22422, -1.53793, -0.903948, -1.20198, 1.23433, -1.30256, -0.049996, 0.01002, 0.0364486, -0.134416, -0.00182416, 0.00461668, 0.00273439, -0.583427, 59.1415, 29.3531, 5.35126, 2.33844, 2.43594, -0.00267457, -0.00394011, 0.000696385, -0.000219042, 0.000555557, -0.015138, -0.00157466, 0.0486222, -0.0136553, -0.00277701, -0.00550088, 0.058195, 0.0886139, 0.470561, -0.539009, 0.336994, -2.08173, -2.16489, -0.130205, 0.471407, -0.542903, 0.33657, -2.08751, -2.17492, -0.114365, -0.00719427, 0.0719978, 0.0175699, 0.00809794, 0.0250102, 0.00677123
0.184017, 1.69343, -1.2242, -1.53788, -0.904105, -1.20198, 1.23433, -1.30256, -0.0512212, 0.0107967, 0.0410372, -0.141951, -0.00278494, 0.00315601, 0.00204284, -0.508049, 59.1415, 29.3134, 5.35126, 2.38147, 2.44235, -0.00267457, -0.00397851, 0.000716275, -0.00022046, 0.000559386, -0.0151967, -0.00167609, 0.0466747, -0.0151127, -0.00185598, -0.00634506, 0.0597695, 0.0966125, 0.470554, -0.538937, 0.337012, -2.0817, -2.16487, -0.13021, 0.471422, -0.542868, 0.336583, -2.0874, -2.17505, -0.114317, -0.00726359, 0.0727259, 0.0177358, 0.0094484, 0.0275782, 0.00810448
