alisrour97/Franka_experiments/Real_Robot_scripts/servo-franka/Data_video/log_dyn_PI3_ki_0.csv
Time,q1,q2,q3,q4,q5,q6,q7,dq1,dq2,dq3,dq4,dq5,dq6,dq7,t1,t2,t3,t4,t5,t6,t7,ex1,ex2,ex3,ex4,ex5,ex6,ev1,ev2,ev3,ev4,ev5,ev6,xd,yd,zd,uxd,uyd,uzd,x,y,z,ux,uy,uz,vxd,vyd,vzd,vx,vy,vz
9.76563e-07, 0.107473, -0.774204, -0.916236, -1.45653, -0.62543, 1.07001, -0.256736, 0.000225385, -0.00206364, -0.00146269, 0.00503101, -0.00031909, 0.00294078, -0.000879832, 0.21003, 16.525, 21.5336, 17.9315, 1.41192, 4.1846, -0.172963, 0.000783459, -0.00169173, 0.000124443, 0.000183912, -0.000362255, 0.000343781, 0.00179524, -0.0012179, 0.00129329, 0.00438003, -0.00650856, -0.00274264, -0.011112, -0.444721, 0.635038, -3.13187, -0.0555627, -0.107532, -0.0103775, -0.443001, 0.634971, -3.13169, -0.0554742, -0.106929, 0, 0, 0, -0.00183493, -0.00129137, 0.00115937
0.0121807, 0.107475, -0.774213, -0.916253, -1.45647, -0.625437, 1.07001, -0.256741, 0.00106729, -4.40985e-05, -0.00211889, 0.00724255, -0.00730173, 0.000220558, -0.0033737, 0.21003, 16.4893, 21.7597, 17.8918, 1.43573, 4.19925, -0.120778, 0.000763385, -0.00168375, 0.000112027, 0.000159523, -0.000321949, 0.000380723, 0.00313731, -0.00176229, 0.00159499, 0.00602625, 0.000767123, -0.00438414, -0.011112, -0.444721, 0.635038, -3.13187, -0.0555627, -0.107532, -0.0104033, -0.44301, 0.634989, -3.13172, -0.0554016, -0.107015, 1.73063e-06, -1.42215e-06, -3.96181e-06, -0.0031725, -0.00188662, 0.00136084
0.0131807, 0.107475, -0.774213, -0.916253, -1.45647, -0.625437, 1.07001, -0.256741, 0.00106729, -4.40985e-05, -0.00211889, 0.00724255, -0.00730173, 0.000220558, -0.0033737, 0.21003, 16.4893, 21.7597, 17.8918, 1.43573, 4.19925, -0.120778, 0.000763382, -0.00168375, 0.000112017, 0.000159503, -0.000321971, 0.00038073, 0.00314152, -0.00175778, 0.00160713, 0.00605042, 0.000783652, -0.00434062, -0.011112, -0.444721, 0.635038, -3.13187, -0.0555628, -0.107532, -0.0104033, -0.44301, 0.634989, -3.13172, -0.0554016, -0.107015, 6.91577e-06, -5.6745e-06, -1.58141e-05, -0.0031725, -0.00188662, 0.00136084
0.0141807, 0.107475, -0.774213, -0.916253, -1.45647, -0.625437, 1.07001, -0.256741, 0.00106729, -4.40985e-05, -0.00211889, 0.00724255, -0.00730173, 0.000220558, -0.0033737, 0.21003, 16.4893, 21.7597, 17.8918, 1.43573, 4.19925, -0.120778, 0.000763373, -0.00168376, 0.000111992, 0.000159449, -0.000322029, 0.00038075, 0.00314852, -0.00175029, 0.00162731, 0.00609056, 0.000811114, -0.00426832, -0.011112, -0.444721, 0.635038, -3.13187, -0.0555628, -0.107532, -0.0104033, -0.44301, 0.634989, -3.13172, -0.0554016, -0.107015, 1.55453e-05, -1.2736e-05, -3.55071e-05, -0.0031725, -0.00188662, 0.00136084
0.0151807, 0.107475, -0.774213, -0.916253, -1.45647, -0.625437, 1.07001, -0.256741, 0.00106729, -4.40985e-05, -0.00211889, 0.00724255, -0.00730173, 0.000220558, -0.0033737, 0.21003, 16.4893, 21.7597, 17.8918, 1.43573, 4.19925, -0.120778, 0.000763356, -0.00168378, 0.000111942, 0.000159343, -0.000322143, 0.000380788, 0.00315832, -0.00173985, 0.00165547, 0.00614655, 0.000849438, -0.00416741, -0.011112, -0.444721, 0.635038, -3.13187, -0.0555628, -0.107532, -0.0104033, -0.44301, 0.634989, -3.13172, -0.0554016, -0.107015, 2.7609e-05, -2.25855e-05, -6.29913e-05, -0.0031725, -0.00188662, 0.00136084
0.0161807, 0.107475, -0.774213, -0.916253, -1.45647, -0.625437, 1.07001, -0.256741, 0.00106729, -4.40985e-05, -0.00211889, 0.00724255, -0.00730173, 0.000220558, -0.0033737, 0.21003, 16.4893, 21.7597, 17.8918, 1.43573, 4.19925, -0.120778, 0.000763328, -0.00168381, 0.000111861, 0.000159169, -0.00032233, 0.000380851, 0.00317089, -0.00172647, 0.00169156, 0.00621828, 0.000898552, -0.00403807, -0.0111119, -0.444721, 0.635038, -3.13187, -0.0555629, -0.107532, -0.0104033, -0.44301, 0.634989, -3.13172, -0.0554016, -0.107015, 4.30968e-05, -3.5202e-05, -9.82172e-05, -0.0031725, -0.00188662, 0.00136084
0.0171807, 0.107475, -0.774213, -0.916253, -1.45647, -0.625437, 1.07001, -0.256741, 0.00106729, -4.40985e-05, -0.00211889, 0.00724255, -0.00730173, 0.000220558, -0.0033737, 0.21003, 16.4893, 21.7597, 17.8918, 1.43573, 4.19925, -0.120778, 0.000763285, -0.00168386, 0.00011174, 0.000158911, -0.000322608, 0.000380944, 0.00318625, -0.00171018, 0.00173554, 0.00630562, 0.000958387, -0.00388049, -0.0111119, -0.444721, 0.635038, -3.13187, -0.0555631, -0.107533, -0.0104033, -0.44301, 0.634989, -3.13172, -0.0554016, -0.107015, 6.19987e-05, -5.05647e-05, -0.000141136, -0.0031725, -0.00188662, 0.00136084
0.0181809, 0.107475, -0.774213, -0.916253, -1.45647, -0.625437, 1.07001, -0.256741, 0.00106729, -4.40985e-05, -0.00211889, 0.00724255, -0.00730173, 0.000220558, -0.0033737, 0.21003, 16.4893, 21.7597, 17.8918, 1.43573, 4.19925, -0.120778, 0.000763226, -0.00168392, 0.000111571, 0.00015855, -0.000322996, 0.000381074, 0.00320438, -0.00169099, 0.00178735, 0.00640846, 0.00102887, -0.00369486, -0.0111118, -0.444721, 0.635037, -3.13187, -0.0555633, -0.107533, -0.0104033, -0.44301, 0.634989, -3.13172, -0.0554016, -0.107015, 8.43044e-05, -6.86525e-05, -0.000191697, -0.0031725, -0.00188662, 0.00136084
0.0191812, 0.107475, -0.774213, -0.916253, -1.45647, -0.625437, 1.07001, -0.256741, 0.00106729, -4.40985e-05, -0.00211889, 0.00724255, -0.00730173, 0.000220558, -0.0033737, 0.21003, 16.4893, 21.7597, 17.8918, 1.43573, 4.19925, -0.120778, 0.000763148, -0.001684, 0.000111346, 0.000158072, -0.00032351, 0.000381246, 0.00322527, -0.00166894, 0.00184695, 0.00652669, 0.00110994, -0.00348134, -0.0111117, -0.444721, 0.635037, -3.13187, -0.0555636, -0.107534, -0.0104033, -0.44301, 0.634989, -3.13172, -0.0554016, -0.107015, 0.000110004, -8.94448e-05, -0.000249853, -0.0031725, -0.00188662, 0.00136084
0.0201814, 0.107475, -0.774213, -0.916253, -1.45647, -0.625437, 1.07001, -0.256741, 0.00106729, -4.40985e-05, -0.00211889, 0.00724255, -0.00730173, 0.000220558, -0.0033737, 0.21003, 16.4893, 21.7597, 17.8918, 1.43573, 4.19925, -0.120778, 0.000763047, -0.00168411, 0.000111059, 0.00015746, -0.00032417, 0.000381467, 0.00324893, -0.00164403, 0.00191429, 0.00666018, 0.00120151, -0.00324013, -0.0111116, -0.444721, 0.635037, -3.13187, -0.055564, -0.107535, -0.0104033, -0.44301, 0.634989, -3.13172, -0.0554016, -0.107015, 0.000139087, -0.000112921, -0.000315553, -0.0031725, -0.00188662, 0.00136084
0.0211819, 0.107475, -0.774213, -0.916253, -1.45647, -0.625437, 1.07001, -0.256741, 0.00106729, -4.40985e-05, -0.00211889, 0.00724255, -0.00730173, 0.000220558, -0.0033737, 0.21003, 16.4893, 21.7597, 17.8918, 1.43573, 4.19925, -0.120778, 0.000762922, -0.00168424, 0.0001107, 0.000156697, -0.000324992, 0.000381742, 0.00327534, -0.0016163, 0.00198931, 0.00680882, 0.00130352, -0.0029714, -0.0111114, -0.444721, 0.635037, -3.13186, -0.0555644, -0.107536, -0.0104033, -0.44301, 0.634989, -3.13172, -0.0554016, -0.107015, 0.000171544, -0.000139059, -0.00038875, -0.0031725, -0.00188662, 0.00136084
0.0221841, 0.107475, -0.774213, -0.916253, -1.45647, -0.625437, 1.07001, -0.256741, 0.00106729, -4.40985e-05, -0.00211889, 0.00724255, -0.00730173, 0.000220558, -0.0033737, 0.21003, 16.4893, 21.7597, 17.8918, 1.43573, 4.19925, -0.120778, 0.000762768, -0.0016844, 0.000110264, 0.000155768, -0.000325994, 0.000382078, 0.0033045, -0.00158576, 0.00207197, 0.0069725, 0.00141591, -0.00267533, -0.0111112, -0.444721, 0.635036, -3.13186, -0.055565, -0.107538, -0.0104033, -0.44301, 0.634989, -3.13172, -0.0554016, -0.107015, 0.000207364, -0.00016784, -0.000469394, -0.0031725, -0.00188662, 0.00136084
0.0231843, 0.107475, -0.774213, -0.916253, -1.45647, -0.625437, 1.07001, -0.256741, 0.00106729, -4.40985e-05, -0.00211889, 0.00724255, -0.00730173, 0.000220558, -0.0033737, 0.21003, 16.4893, 21.7597, 17.8918, 1.43573, 4.19925, -0.120778, 0.000762584, -0.0016846, 0.000109741, 0.000154656, -0.000327193, 0.000382479, 0.0033364, -0.00155243, 0.00216222, 0.0071511, 0.00153859, -0.0023521, -0.011111, -0.444722, 0.635036, -3.13186, -0.0555656, -0.10754, -0.0104033, -0.44301, 0.634989, -3.13172, -0.0554016, -0.107015, 0.000246538, -0.000199242, -0.000557437, -0.0031725, -0.00188662, 0.00136084
0.0241843, 0.107484, -0.774213, -0.916279, -1.45646, -0.625452, 1.07002, -0.256737, 0.000412902, 0.000596675, -0.00104124, -0.000114708, -0.00505697, 0.00114085, 0.00117079, 0.134651, 16.4536, 21.9819, 17.8561, 1.55292, 4.10586, -0.166554, 0.000752976, -0.00167413, 0.000110631, 0.000142497, -0.000323247, 0.000414878, 0.00105174, -0.000730301, 0.00044788, 0.00382613, 0.00488596, -0.00152386, -0.0111107, -0.444722, 0.635035, -3.13186, -0.0555664, -0.107542, -0.0104122, -0.443021, 0.634987, -3.13173, -0.0553516, -0.107024, 0.000289055, -0.000233245, -0.00065283, -0.000764138, -0.00100392, -0.000282782
0.0251843, 0.107487, -0.774216, -0.91628, -1.45645, -0.625458, 1.07002, -0.256736, 0.00120305, -0.000437456, -0.000693597, 0.000873852, -0.00478855, 0.000761323, 0.00101267, 0.0949785, 16.4893, 21.9819, 17.8204, 1.58313, 4.10586, -0.172963, 0.000751269, -0.00167315, 0.000110184, 0.000138751, -0.000326012, 0.000417851, 0.00113666, -0.000629288, 0.000858024, 0.00423579, 0.0033306, -0.000313297, -0.0111104, -0.444722, 0.635034, -3.13186, -0.0555673, -0.107544, -0.0104136, -0.443023, 0.634986, -3.13173, -0.0553478, -0.107022, 0.000334905, -0.000269828, -0.000755525, -0.000834632, -0.000946072, 1.84762e-05
0.0261843, 0.107487, -0.774213, -0.916284, -1.45645, -0.625455, 1.07003, -0.256744, 0.000801854, 0.00137878, -0.00263239, -0.000614897, -0.00205972, 0.00155928, -0.00221101, 0.0949785, 16.4178, 21.9422, 17.7451, 1.54651, 4.07748, -0.0951428, 0.000751336, -0.00167244, 0.000109973, 0.000137725, -0.000326453, 0.000411755, 0.000495383, -0.000653521, 0.000114355, 0.0020133, 0.0038816, 0.00350964, -0.0111101, -0.444722, 0.635033, -3.13186, -0.0555684, -0.107547, -0.0104131, -0.443024, 0.634986, -3.13173, -0.0553582, -0.107024, 0.000384079, -0.000308971, -0.000865474, -9.43311e-05, -0.000980475, -0.000789463
0.0271843, 0.107485, -0.77421, -0.916292, -1.45647, -0.62546, 1.07003, -0.256744, 0.000534436, 0.00528087, -0.00252488, -0.00454593, 0.000290134, 0.00239628, 0.00786174, 0.0949785, 16.2314, 21.8311, 17.7808, 1.49707, 4.04086, -0.0951428, 0.000750751, -0.00167164, 0.000114673, 0.000144332, -0.000343823, 0.000415746, -0.00193258, -0.000135042, -0.000707821, 0.000109645, 0.00828946, -0.00317637, -0.0111097, -0.444723, 0.635033, -3.13186, -0.0555696, -0.10755, -0.0104129, -0.443025, 0.63498, -3.13173, -0.0553536, -0.107, 0.000436566, -0.000350653, -0.000982628, 0.00241665, -0.000411525, -0.00155681
0.0281843, 0.107497, -0.774212, -0.916302, -1.45647, -0.625471, 1.07003, -0.256738, 0.00471788, 0.00519101, -0.00896038, -0.00385045, -0.00377316, 0.00292027, 0.00696662, -0.0914839, 16.16, 21.72, 17.6697, 1.47876, 4.00516, -0.120778, 0.000750607, -0.00166877, 0.000118189, 0.000147263, -0.000355547, 0.000421009, -0.000752311, -0.00204939, -0.00228317, -0.0014554, 0.0110551, -0.00485848, -0.0111092, -0.444723, 0.635032, -3.13185, -0.0555709, -0.107554, -0.0104123, -0.443028, 0.634976, -3.13172, -0.0553469, -0.106985, 0.000492356, -0.000394854, -0.00110694, 0.00147184, -0.00239677, -0.00334564
0.0291843, 0.107502, -0.77422, -0.916311, -1.45648, -0.625483, 1.07003, -0.256741, 0.00490842, 0.00438868, -0.00845296, -0.00228406, -0.0066621, 0.00221835, 0.00400573, -0.166862, 16.1203, 21.6446, 17.634, 1.46045, 3.99783, -0.0878186, 0.000746663, -0.0016665, 0.000123142, 0.00015242, -0.000366327, 0.000421818, 0.000258987, -0.00222403, -0.00162342, 0.000613549, 0.0119378, -0.00302869, -0.0111087, -0.444723, 0.63503, -3.13185, -0.0555724, -0.107558, -0.0104153, -0.443031, 0.634969, -3.13171, -0.0553474, -0.106972, 0.000551439, -0.000441554, -0.00123836, 0.000483725, -0.00265925, -0.00288945
0.0301843, 0.107505, -0.774221, -0.916326, -1.45648, -0.625493, 1.07002, -0.25674, 0.00420024, 0.00459622, -0.0098782, -0.000173704, -0.00853014, 0.000122747, 0.00810274, -0.206535, 16.0489, 21.6446, 17.5586, 1.43024, 4.03445, -0.0951428, 0.00074057, -0.00166311, 0.000127401, 0.000157972, -0.000380315, 0.000436669, 0.00204439, -0.00238837, -0.00139867, 0.000231239, 0.0134959, -0.0103899, -0.0111081, -0.444724, 0.635029, -3.13185, -0.0555741, -0.107563, -0.0104204, -0.443035, 0.634963, -3.13171, -0.0553263, -0.106954, 0.000613805, -0.000490732, -0.00137684, -0.00124349, -0.0029374, -0.00292744
0.0311843, 0.10751, -0.774228, -0.91633, -1.45649, -0.625509, 1.07003, -0.256736, 0.00677265, 0.00222893, -0.00811137, -0.00218972, -0.0114601, 8.19662e-05, 0.00730971, -0.242241, 16.0846, 21.5336, 17.634, 1.44214, 4.03445, -0.127186, 0.000738338, -0.00166076, 0.000130118, 0.000153283, -0.00039375, 0.000442028, 0.00127469, -0.00231324, -0.00152993, 0.00145545, 0.0148262, -0.00551895, -0.0111074, -0.444724, 0.635028, -3.13184, -0.055576, -0.107568, -0.0104217, -0.443038, 0.634959, -3.13171, -0.0553197, -0.106939, 0.000679445, -0.000542368, -0.00152234, -0.000404146, -0.00288575, -0.00315053
0.0321843, 0.107512, -0.774234, -0.916338, -1.4565, -0.625527, 1.07003, -0.256742, 0.00477651, 0.00065073, -0.00875513, -0.00252803, -0.00984491, 0.00059728, 0.00324382, -0.242241, 16.1203, 21.4979, 17.6697, 1.47327, 4.0198, -0.0685925, 0.00073283, -0.00165747, 0.000132648, 0.000148506, -0.000407976, 0.000445195, 0.00245801, -0.00225089, -0.00161262, 0.000910411, 0.012218, -0.00242374, -0.0111067, -0.444725, 0.635026, -3.13184, -0.055578, -0.107574, -0.0104262, -0.443042, 0.634954, -3.13171, -0.0553167, -0.106922, 0.000748347, -0.000596442, -0.0016748, -0.00151158, -0.00291843, -0.00346644
0.0331843, 0.107516, -0.77424, -0.916345, -1.4565, -0.625545, 1.07004, -0.256737, 0.00430842, -0.00132942, -0.00912356, -0.00186011, -0.0121625, 0.00172069, 0.00426358, -0.281914, 16.1957, 21.4582, 17.6697, 1.47876, 3.9841, -0.114369, 0.000727245, -0.00165386, 0.000133883, 0.000140062, -0.000419814, 0.000460233, 0.00391856, -0.00280408, -0.00131044, 0.00325139, 0.0112333, -0.00505845, -0.0111059, -0.444726, 0.635024, -3.13184, -0.0555803, -0.10758, -0.0104307, -0.443046, 0.634951, -3.13172, -0.0552954, -0.10691, 0.000820503, -0.000652933, -0.00183418, -0.00289655, -0.00358174, -0.00342818
0.0341843, 0.107521, -0.774239, -0.916352, -1.45652, -0.625567, 1.07004, -0.256737, 0.00385454, 0.000876956, -0.00714145, -0.00489762, -0.013449, 0.00196099, 0.0031466, -0.317619, 16.1203, 21.4582, 17.8204, 1.47876, 3.96213, -0.114369, 0.000725275, -0.00165019, 0.000137267, 0.000132994, -0.000446562, 0.000466976, 0.00246687, -0.00229922, -0.00138541, 0.00413923, 0.0164038, -0.0013351, -0.0111051, -0.444726, 0.635022, -3.13183, -0.0555828, -0.107587, -0.0104315, -0.44305, 0.634945, -3.13172, -0.0552873, -0.106876, 0.000895902, -0.000711822, -0.00200043, -0.00138667, -0.00308437, -0.00356634
0.0351843, 0.107527, -0.774246, -0.916361, -1.45652, -0.625588, 1.07004, -0.256741, 0.003608, -0.0011786, -0.00872449, -0.00805707, -0.0138904, 0.0010361, 0.00110519, -0.357292, 16.1957, 21.4582, 17.8918, 1.46045, 3.96945, -0.0814099, 0.000719093, -0.00164681, 0.000139717, 0.000128509, -0.000464495, 0.000473414, 0.00330253, -0.00226579, -0.00277138, 0.000964313, 0.0175244, 0.00130391, -0.0111041, -0.444727, 0.63502, -3.13183, -0.0555855, -0.107594, -0.0104364, -0.443055, 0.634941, -3.13172, -0.0552799, -0.106855, 0.000974534, -0.000773089, -0.00217351, -0.00204748, -0.00312967, -0.00517934
0.0361843, 0.107528, -0.774249, -0.916376, -1.45653, -0.625612, 1.07004, -0.256738, 0.00248804, -0.00162095, -0.00843939, -0.00746028, -0.018248, 0.000690765, 0.00189125, -0.357292, 16.2314, 21.5336, 17.9672, 1.43024, 3.96945, -0.10796, 0.00071005, -0.00164244, 0.000143969, 0.000126831, -0.000489975, 0.000495767, 0.00492127, -0.00259555, -0.00233625, 0.00351869, 0.0204002, -0.00211943, -0.0111031, -0.444728, 0.635018, -3.13182, -0.0555884, -0.107602, -0.010444, -0.44306, 0.634933, -3.13172, -0.0552481, -0.106823, 0.00105639, -0.000836713, -0.00235336, -0.00359753, -0.00358355, -0.00503846
0.0371843, 0.107534, -0.774249, -0.916376, -1.45653, -0.625636, 1.07004, -0.256738, 0.00348397, -0.00108064, -0.00767711, -0.00521777, -0.0214342, 0.000460534, 0.000405831, -0.43267, 16.2314, 21.4582, 17.9672, 1.39911, 3.96945, -0.0814099, 0.000706928, -0.00164042, 0.000141843, 0.000111284, -0.000514682, 0.00050376, 0.00525661, -0.00285353, -0.00127425, 0.00682085, 0.0222391, -0.0010569, -0.011102, -0.444729, 0.635016, -3.13182, -0.0555915, -0.107611, -0.0104461, -0.443063, 0.634933, -3.13173, -0.0552384, -0.106794, 0.00114146, -0.000902674, -0.00253994, -0.00391031, -0.0039283, -0.00419026
0.0381843, 0.107534, -0.774247, -0.916381, -1.45653, -0.62566, 1.07004, -0.256737, 0.00236917, 0.000114793, -0.00503061, -0.00458972, -0.0191905, -0.000235494, 0.000129449, -0.43267, 16.1957, 21.4225, 18.0069, 1.35608, 3.9841, -0.0750012, 0.000701197, -0.00163827, 0.000142384, 0.000102821, -0.000545715, 0.000519108, 0.00437114, -0.00186868, -0.000114712, 0.0078411, 0.021814, 0.0015841, -0.0111008, -0.44473, 0.635013, -3.13181, -0.0555949, -0.10762, -0.0104505, -0.443067, 0.634929, -3.13174, -0.0552178, -0.106755, 0.00122973, -0.000970953, -0.00273321, -0.00305378, -0.00299125, -0.0031598
0.0391843, 0.107531, -0.774244, -0.916388, -1.45653, -0.625685, 1.07004, -0.256736, 0.000686322, 0.00183977, -0.00307934, -0.0031972, -0.0208478, -0.000936876, 0.000633208, -0.392998, 16.1203, 21.3868, 18.0069, 1.28833, 4.00516, -0.0878186, 0.000692596, -0.00163646, 0.000141899, 9.49908e-05, -0.000577527, 0.000542162, 0.00472506, -0.00148178, 0.00112354, 0.0106502, 0.0244146, 0.000107607, -0.0110996, -0.444731, 0.63501, -3.1318, -0.0555986, -0.10763, -0.0104578, -0.44307, 0.634926, -3.13174, -0.0551855, -0.106716, 0.00132119, -0.00104153, -0.00293311, -0.0034138, -0.00269837, -0.00214638
0.0401843, 0.107536, -0.774248, -0.916392, -1.45654, -0.625713, 1.07004, -0.256737, 0.0054066, -0.000536727, -0.00388323, -0.00793498, -0.0189453, 0.00015532, -0.000981781, -0.468376, 16.1957, 21.3114, 18.118, 1.2453, 3.9841, -0.0484509, 0.000687917, -0.00163303, 0.000142347, 7.99171e-05, -0.000605375, 0.000550764, 0.00222774, -0.0014234, -0.000472556, 0.00750597, 0.0234925, 0.00992754, -0.0110982, -0.444732, 0.635007, -3.1318, -0.0556025, -0.107641, -0.0104609, -0.443074, 0.634923, -3.13175, -0.0551757, -0.106684, 0.00141584, -0.00111438, -0.0031396, -0.000722041, -0.00261117, -0.00377309
0.0411843, 0.107544, -0.774242, -0.916407, -1.45655, -0.625744, 1.07004, -0.256734, 0.00565057, 0.00224064, -0.00804736, -0.00738901, -0.0227605, -0.00067634, 0.000844149, -0.543754, 16.0846, 21.3868, 18.1934, 1.2215, 4.00516, -0.0878186, 0.000682487, -0.00162858, 0.000145676, 7.45644e-05, -0.00064884, 0.000570338, 0.0036428, -0.00241389, -0.00124973, 0.00670007, 0.0297056, 0.00384144, -0.0110967, -0.444733, 0.635004, -3.13179, -0.0556067, -0.107652, -0.0104645, -0.44308, 0.634916, -3.13175, -0.0551495, -0.106628, 0.00151366, -0.0011895, -0.00335263, -0.00194642, -0.00371919, -0.00486497
0.0421843, 0.107544, -0.77424, -0.916413, -1.45656, -0.625779, 1.07004, -0.256732, 0.00631008, 0.00149376, -0.00747542, -0.00601306, -0.0212929, -0.000722155, 0.000593221, -0.508049, 16.0846, 21.3114, 18.2291, 1.20868, 4.01248, -0.0878186, 0.000673906, -0.00162507, 0.000145591, 5.90405e-05, -0.000689249, 0.000594298, 0.00348143, -0.00216386, -0.000493802, 0.00749125, 0.0272589, 0.00599005, -0.0110952, -0.444734, 0.635, -3.13178, -0.0556111, -0.107664, -0.0104714, -0.443085, 0.634912, -3.13176, -0.0551164, -0.106577, 0.00161465, -0.00126685, -0.00357216, -0.00174525, -0.00354756, -0.00431776
0.0431843, 0.107545, -0.774237, -0.916424, -1.45656, -0.625815, 1.07004, -0.256739, 0.00462971, 0.00183106, -0.00969329, -0.00596082, -0.0259908, -0.00129523, -0.0012771, -0.508049, 16.0489, 21.3471, 18.3044, 1.22699, 4.03445, -0.0420422, 0.000664758, -0.00162119, 0.000147548, 4.83854e-05, -0.000735776, 0.00061022, 0.00591115, -0.00289293, -0.000863295, 0.00826161, 0.0318148, 0.00304287, -0.0110935, -0.444735, 0.634997, -3.13177, -0.0556159, -0.107677, -0.0104785, -0.443091, 0.634905, -3.13176, -0.0550963, -0.106518, 0.00171879, -0.00134642, -0.00379814, -0.00401219, -0.00443805, -0.00508411
0.0441843, 0.107555, -0.774239, -0.916435, -1.45656, -0.625856, 1.07004, -0.256732, 0.00516695, 0.000385486, -0.0103547, -0.0023523, -0.0283138, -0.00137211, 0.000861153, -0.583427, 16.0846, 21.3471, 18.2291, 1.22699, 4.04819, -0.0878186, 0.000655633, -0.00161525, 0.000146961, 2.87095e-05, -0.000772761, 0.000638836, 0.00762813, -0.00345517, 0.000211196, 0.0111358, 0.030178, -0.00117647, -0.0110917, -0.444737, 0.634993, -3.13176, -0.0556209, -0.107691, -0.0104857, -0.443098, 0.634901, -3.13178, -0.0550563, -0.106475, 0.00182607, -0.00142819, -0.00403052, -0.00567029, -0.00515151, -0.00436629
0.0451843, 0.107558, -0.774235, -0.91644, -1.45657, -0.625891, 1.07004, -0.256733, 0.00685711, 0.00109221, -0.00929954, -0.00478967, -0.0287025, -0.000134846, 0.000112233, -0.583427, 16.0489, 21.2757, 18.2291, 1.19037, 4.02713, -0.0750012, 0.000650301, -0.00161158, 0.000145679, 7.99796e-06, -0.000816182, 0.00065535, 0.00585681, -0.00330838, 9.74783e-05, 0.0121118, 0.0324356, 0.00400303, -0.0110899, -0.444738, 0.634989, -3.13175, -0.0556263, -0.107706, -0.0104891, -0.443104, 0.634898, -3.13179, -0.0550355, -0.106423, 0.00193648, -0.00151214, -0.00426926, -0.00379129, -0.00502543, -0.00459578
0.0461843, 0.107562, -0.774234, -0.91646, -1.45657, -0.625932, 1.07004, -0.256734, 0.0050144, 0.000728139, -0.00972964, -0.00269718, -0.0307858, 0.000723907, -0.00039026, -0.583427, 16.0489, 21.3868, 18.1934, 1.19037, 4.00516, -0.0621838, 0.000636516, -0.00160417, 0.000147129, -8.51007e-06, -0.000859445, 0.000688455, 0.00776474, -0.00378321, 0.000983003, 0.0152558, 0.0322039, 0.00116533, -0.0110879, -0.44474, 0.634984, -3.13174, -0.0556319, -0.107721, -0.0105005, -0.443113, 0.634891, -3.1318, -0.0549893, -0.106371, 0.00205002, -0.00159825, -0.00451432, -0.00562369, -0.00566098, -0.0040918
0.0471843, 0.107564, -0.774236, -0.916465, -1.45658, -0.625972, 1.07004, -0.25673, 0.00274716, -0.000349792, -0.00776206, -0.00205258, -0.0395565, 0.000482606, 0.000967757, -0.543754, 16.0846, 21.2757, 18.1934, 1.16015, 4.00516, -0.0951428, 0.000627209, -0.00160071, 0.000145588, -2.94785e-05, -0.000901666, 0.000712836, 0.010435, -0.00427043, 0.00200685, 0.0211411, 0.03772, -0.00457318, -0.0110858, -0.444741, 0.63498, -3.13173, -0.0556379, -0.107738, -0.0105076, -0.443118, 0.634888, -3.13181, -0.0549569, -0.106323, 0.00216668, -0.00168649, -0.00476563, -0.00822204, -0.00633915, -0.00350871
0.0481843, 0.107574, -0.774231, -0.916475, -1.45659, -0.626016, 1.07005, -0.256737, 0.00384386, 0.00462715, -0.00813116, -0.00239445, -0.0426631, 0.000593006, -0.00155346, -0.619133, 16.0092, 21.236, 18.2291, 1.14093, 3.99783, -0.0356336, 0.000621497, -0.00159528, 0.000145741, -5.15325e-05, -0.000955905, 0.000725154, 0.00917918, -0.00451853, 0.00222379, 0.0229809, 0.0455866, -0.00161539, -0.0110835, -0.444743, 0.634975, -3.13172, -0.0556442, -0.107755, -0.0105109, -0.443126, 0.634882, -3.13183, -0.0549435, -0.106256, 0.00228643, -0.00177687, -0.00502317, -0.00685626, -0.00663518, -0.0034651
0.0491843, 0.107577, -0.774226, -0.916488, -1.45659, -0.626061, 1.07005, -0.256733, 0.00191424, 0.00501329, -0.00944316, 2.37989e-05, -0.0446007, 0.00012407, 0.000189131, -0.583427, 15.9378, 21.236, 18.1537, 1.12262, 4.00516, -0.0685925, 0.000610079, -0.00158904, 0.000144045, -7.69022e-05, -0.0010069, 0.000760704, 0.0113686, -0.00490048, 0.00289096, 0.0246232, 0.0465154, -0.00748681, -0.0110812, -0.444745, 0.634969, -3.13171, -0.0556509, -0.107773, -0.0105199, -0.443134, 0.634878, -3.13185, -0.0548943, -0.106196, 0.00240928, -0.00186934, -0.00528689, -0.00894836, -0.00719237, -0.00321656
0.0501843, 0.107583, -0.774223, -0.916506, -1.45658, -0.626108, 1.07006, -0.256731, 0.00459339, 0.00437098, -0.0120682, 0.00250697, -0.0421889, 8.27142e-05, 0.000603854, -0.583427, 15.9021, 21.3114, 18.0426, 1.11713, 4.00516, -0.0814099, 0.000596238, -0.00158101, 0.00014222, -0.000103529, -0.00105395, 0.000798474, 0.0113773, -0.00526323, 0.00306952, 0.0235191, 0.0429634, -0.0063542, -0.0110787, -0.444747, 0.634964, -3.1317, -0.0556578, -0.107792, -0.010531, -0.443145, 0.634873, -3.13186, -0.0548418, -0.106143, 0.00253522, -0.00196389, -0.00555673, -0.00883041, -0.00765139, -0.00331137
0.0511843, 0.107587, -0.774224, -0.916508, -1.45659, -0.626154, 1.07005, -0.256736, 0.00343214, 0.00222395, -0.00545414, 0.000755581, -0.0456509, 5.51432e-05, -0.00129056, -0.583427, 15.9378, 21.1606, 18.0783, 1.12262, 4.00516, -0.0356336, 0.000587784, -0.00157825, 0.000139805, -0.000128023, -0.0011075, 0.000812868, 0.01084, -0.00417817, 0.00465553, 0.0288015, 0.0446719, -0.000329668, -0.0110761, -0.444749, 0.634958, -3.13168, -0.0556652, -0.107812, -0.0105369, -0.44315, 0.634869, -3.13188, -0.0548262, -0.106081, 0.00266423, -0.00206051, -0.00583265, -0.00831334, -0.00665874, -0.00196142
0.0521843, 0.10759, -0.774222, -0.916523, -1.45659, -0.626201, 1.07006, -0.256729, 0.00163748, 0.00242673, -0.00843466, 0.00127855, -0.047631, 0.00030803, 0.00158274, -0.543754, 15.9021, 21.2003, 18.0426, 1.12903, 3.99783, -0.101552, 0.000573502, -0.00157145, 0.00013831, -0.000153906, -0.0011585, 0.00085594, 0.0131079, -0.00490237, 0.0043416, 0.0289621, 0.0464234, -0.00744661, -0.0110734, -0.444751, 0.634952, -3.13167, -0.0556729, -0.107834, -0.0105483, -0.443159, 0.634864, -3.13189, -0.0547663, -0.106023, 0.0027963, -0.00215917, -0.00611461, -0.0103949, -0.0075584, -0.00271761
0.0531843, 0.107601, -0.774216, -0.916538, -1.4566, -0.626244, 1.07006, -0.256731, 0.00539615, 0.0026275, -0.00965004, -2.8138e-05, -0.0486736, 0.00071398, -0.000638971, -0.583427, 15.8624, 21.2003, 18.0783, 1.11713, 3.9841, -0.0557752, 0.000566172, -0.00156505, 0.000136932, -0.00017913, -0.00121269, 0.000878011, 0.0117794, -0.00523666, 0.00382311, 0.0285898, 0.0485401, -0.0011725, -0.0110705, -0.444753, 0.634946, -3.13166, -0.0556809, -0.107856, -0.0105526, -0.443168, 0.634859, -3.13191, -0.0547394, -0.105962, 0.00293143, -0.00225986, -0.00640257, -0.00888778, -0.00794189, -0.00343365
0.0541843, 0.107605, -0.774215, -0.916551, -1.4566, -0.626295, 1.07007, -0.256729, 0.00308949, 0.00181292, -0.00953811, -0.000980745, -0.0501359, 0.000475987, -0.000187657, -0.543754, 15.8624, 21.1606, 18.118, 1.12903, 3.9841, -0.0621838, 0.000553397, -0.00155859, 0.000135195, -0.000208303, -0.00126993, 0.000912295, 0.0132375, -0.0051269, 0.00388627, 0.029257, 0.0499646, -0.00297263, -0.0110675, -0.444756, 0.63494, -3.13164, -0.0556894, -0.107879, -0.0105623, -0.443177, 0.634853, -3.13193, -0.0546938, -0.105897, 0.00306961, -0.00236255, -0.00669647, -0.0102116, -0.00798696, -0.00376461
0.0551843, 0.10761, -0.774212, -0.916562, -1.4566, -0.626345, 1.07007, -0.256726, 0.00237472, 0.00125454, -0.012734, -0.00375054, -0.0509359, 0.00553504, 0.000825054, -0.543754, 15.8624, 21.1249, 18.118, 1.13544, 3.97677, -0.0878186, 0.000541083, -0.00155234, 0.000131205, -0.000241689, -0.00132422, 0.00094817, 0.0139121, -0.00646615, 0.00288693, 0.0309737, 0.0498273, -0.00498799, -0.0110644, -0.444758, 0.634933, -3.13162, -0.0556982, -0.107903, -0.0105714, -0.443186, 0.634849, -3.13195, -0.054646, -0.105838, 0.00321082, -0.00246723, -0.00699628, -0.0106264, -0.00944508, -0.0051167
0.0561843, 0.107617, -0.774206, -0.916572, -1.4566, -0.626392, 1.07008, -0.256732, 0.00411417, 0.0056335, -0.0110266, -0.0027754, -0.0515372, 0.00813863, -0.0013822, -0.508049, 15.791, 21.0496, 18.118, 1.12903, 3.99783, -0.0356336, 0.000531344, -0.00154718, 0.000126585, -0.000273487, -0.00138217, 0.00097076, 0.0114257, -0.00657334, 0.00432343, 0.0359438, 0.0530603, 0.000582433, -0.0110611, -0.444761, 0.634926, -3.13161, -0.0557074, -0.107928, -0.010578, -0.443195, 0.634846, -3.13197, -0.0546192, -0.105774, 0.00335505, -0.00257388, -0.00730195, -0.00809803, -0.00958401, -0.00381887
0.0571843, 0.107619, -0.774201, -0.916591, -1.45661, -0.626438, 1.07008, -0.256727, 0.00355939, 0.00496722, -0.0126171, -0.00289177, -0.0511758, 0.0050512, 0.00522843, -0.392998, 15.7513, 21.0892, 18.1537, 1.11072, 4.02713, -0.0750012, 0.000516571, -0.00154108, 0.000124744, -0.000297963, -0.0014414, 0.00101422, 0.0127392, -0.00615519, 0.0038767, 0.0326382, 0.0542552, -0.00641733, -0.0110577, -0.444763, 0.634918, -3.13159, -0.055717, -0.107955, -0.0105892, -0.443204, 0.634839, -3.13198, -0.0545607, -0.105709, 0.0035023, -0.00268248, -0.00761342, -0.00924465, -0.00931723, -0.00466423
0.0581843, 0.107634, -0.774193, -0.916601, -1.45661, -0.626489, 1.07008, -0.256727, 0.00785784, 0.00748424, -0.00996926, -0.00301058, -0.0516083, 0.00390035, 0.00411424, -0.468376, 15.7156, 20.9742, 18.1934, 1.11072, 4.02713, -0.0814099, 0.000510511, -0.00153601, 0.000121159, -0.000328963, -0.00150886, 0.00103572, 0.00952992, -0.00541558, 0.00478242, 0.0340027, 0.0580965, 0.00201417, -0.0110541, -0.444766, 0.63491, -3.13157, -0.055727, -0.107982, -0.0105918, -0.443212, 0.634835, -3.13199, -0.0545366, -0.105633, 0.00365255, -0.002793, -0.00793067, -0.00598349, -0.00858362, -0.00385209
0.0591843, 0.107634, -0.774193, -0.916601, -1.45661, -0.626489, 1.07008, -0.256727, 0.00785784, 0.00748424, -0.00996926, -0.00301058, -0.0516083, 0.00390035, 0.00411424, -0.468376, 15.7156, 20.9742, 18.1934, 1.11072, 4.02713, -0.0814099, 0.000507459, -0.00153904, 0.000112893, -0.000346286, -0.00152777, 0.00104206, 0.0096564, -0.0052955, 0.00511443, 0.0346443, 0.0585451, 0.00319886, -0.0110504, -0.444769, 0.634902, -3.13155, -0.0557374, -0.108011, -0.0105918, -0.443212, 0.634835, -3.13199, -0.0545366, -0.105633, 0.0038058, -0.00290544, -0.00825364, -0.00598349, -0.00858362, -0.00385209
0.0601843, 0.107656, -0.774174, -0.916631, -1.45661, -0.626588, 1.07008, -0.256723, 0.00998548, 0.00735485, -0.0108923, -0.00116214, -0.048571, 0.00168932, 0.00256074, -0.468376, 15.5688, 20.9385, 18.1537, 1.09241, 4.04819, -0.0814099, 0.000491383, -0.00152386, 0.000112461, -0.000392902, -0.00163979, 0.00110009, 0.00920605, -0.00477633, 0.00548961, 0.0323252, 0.0565373, 0.00788466, -0.0110465, -0.444772, 0.634894, -3.13154, -0.0557483, -0.10804, -0.0106034, -0.44323, 0.634825, -3.13203, -0.0544562, -0.10549, 0.00396204, -0.00301977, -0.00858229, -0.00542269, -0.00816673, -0.0037723
0.0611843, 0.107665, -0.774175, -0.916647, -1.45661, -0.626639, 1.07009, -0.25673, 0.00981866, 0.00337619, -0.0137411, -0.000840029, -0.0450693, 0.00135103, 0.00041416, -0.43267, 15.6442, 20.9028, 18.1537, 1.07959, 4.04819, -0.0420422, 0.000477971, -0.00151665, 0.000107832, -0.0004296, -0.00169527, 0.00112694, 0.0109552, -0.00484506, 0.00494782, 0.0292054, 0.0504716, 0.0104427, -0.0110424, -0.444775, 0.634885, -3.13152, -0.0557596, -0.108071, -0.0106128, -0.443241, 0.63482, -3.13205, -0.0544247, -0.105436, 0.00412125, -0.00313597, -0.00891658, -0.00696766, -0.00840868, -0.00476859
0.0621843, 0.107677, -0.77417, -0.916666, -1.45661, -0.626691, 1.07009, -0.256726, 0.0128083, 0.00469957, -0.0144845, -0.00293549, -0.0469403, 0.000526757, 0.00209532, -0.392998, 15.6799, 20.9385, 18.118, 1.07959, 4.06283, -0.0878186, 0.000464545, -0.00150981, 0.000103395, -0.000461515, -0.00176069, 0.00116764, 0.00962435, -0.00484655, 0.00433385, 0.0282395, 0.055514, 0.0126016, -0.0110382, -0.444778, 0.634876, -3.13149, -0.0557713, -0.108103, -0.0106221, -0.443252, 0.634815, -3.13206, -0.0543723, -0.105367, 0.00428343, -0.00325403, -0.00925645, -0.00543643, -0.00847591, -0.00562937
0.0631843, 0.10769, -0.774168, -0.916682, -1.45661, -0.626742, 1.0701, -0.256722, 0.0129161, 0.00268959, -0.0163758, -0.00132917, -0.0488328, 0.000748895, 0.001761, -0.392998, 15.7156, 20.9028, 18.0783, 1.09241, 4.05551, -0.0951428, 0.000452901, -0.00150323, 9.79701e-05, -0.000497725, -0.00182158, 0.00120218, 0.0116147, -0.00548713, 0.00458361, 0.0294741, 0.0543522, 0.0111405, -0.0110339, -0.444781, 0.634867, -3.13147, -0.0557834, -0.108137, -0.0106295, -0.443262, 0.63481, -3.13208, -0.0543298, -0.105307, 0.00444857, -0.00337392, -0.00960188, -0.00724987, -0.00930864, -0.00586765
0.0641843, 0.107703, -0.774162, -0.916693, -1.45661, -0.626794, 1.07011, -0.256729, 0.0128751, 0.00434771, -0.0138527, -0.00111126, -0.0457769, 0.000322838, -0.00143513, -0.392998, 15.7513, 20.8274, 18.0783, 1.09241, 4.06283, -0.0228162, 0.000443657, -0.00149731, 9.10362e-05, -0.000539144, -0.00188663, 0.001223, 0.00994699, -0.00441807, 0.0057533, 0.0303241, 0.0541348, 0.0188553, -0.0110293, -0.444785, 0.634857, -3.13145, -0.055796, -0.108171, -0.0106344, -0.443272, 0.634806, -3.13211, -0.0543088, -0.105242, 0.00461665, -0.00349563, -0.0099528, -0.00553802, -0.00831381, -0.00492983
0.0651843, 0.107718, -0.774157, -0.916709, -1.45661, -0.626849, 1.07011, -0.256725, 0.0128849, 0.00337684, -0.0128891, -0.00310751, -0.0472269, 0.00482579, 0.000316176, -0.392998, 15.7513, 20.7917, 18.0426, 1.086, 4.07016, -0.0557752, 0.000431751, -0.00149102, 8.45983e-05, -0.000576932, -0.00195512, 0.00125953, 0.00946133, -0.00498138, 0.00614581, 0.0350016, 0.0537464, 0.0194903, -0.0110246, -0.444788, 0.634847, -3.13143, -0.055809, -0.108207, -0.0106418, -0.443282, 0.634802, -3.13213, -0.0542641, -0.105173, 0.00478767, -0.00361914, -0.0103092, -0.00488971, -0.00898685, -0.00486512
0.0661843, 0.10773, -0.774149, -0.916723, -1.45661, -0.626901, 1.07011, -0.25672, 0.0102406, 0.00653264, -0.0152081, -0.00245107, -0.0493184, 0.00367144, 0.00170802, -0.281914, 15.7156, 20.752, 18.0426, 1.0979, 4.07016, -0.0951428, 0.000422228, -0.001485, 7.79324e-05, -0.000617982, -0.00202575, 0.0012945, 0.0112276, -0.00522555, 0.00615616, 0.0349245, 0.0592242, 0.0136763, -0.0110198, -0.444792, 0.634836, -3.1314, -0.0558225, -0.108244, -0.0106467, -0.443292, 0.634797, -3.13215, -0.0542221, -0.105102, 0.00496161, -0.00374443, -0.010671, -0.00646871, -0.00941886, -0.00534072
0.0671843, 0.10775, -0.774146, -0.916742, -1.4566, -0.626949, 1.07012, -0.256726, 0.0118859, 0.00311822, -0.0156697, 0.000679864, -0.0490199, 0.0072752, -0.000798634, -0.317619, 15.791, 20.7917, 17.9315, 1.06769, 4.07748, -0.0420422, 0.000411159, -0.00147805, 7.01362e-05, -0.000657356, -0.00208498, 0.00131883, 0.0120448, -0.00611217, 0.00749744, 0.0397181, 0.0522797, 0.0173628, -0.0110147, -0.444796, 0.634825, -3.13138, -0.0558365, -0.108282, -0.010653, -0.443304, 0.634794, -3.13217, -0.0541972, -0.105049, 0.00513848, -0.00387148, -0.0110382, -0.00716734, -0.0104732, -0.00443268
0.0681843, 0.107761, -0.774139, -0.916758, -1.4566, -0.626997, 1.07012, -0.25672, 0.0127955, 0.00554063, -0.0171172, 0.00116785, -0.0495167, 0.00550215, 0.0014563, -0.206535, 15.791, 20.752, 17.8918, 1.05578, 4.07748, -0.0951428, 0.000399411, -0.00147258, 6.18619e-05, -0.000698145, -0.0021511, 0.00135884, 0.0119076, -0.00598934, 0.00752495, 0.0385963, 0.0562361, 0.0157857, -0.0110095, -0.4448, 0.634814, -3.13135, -0.055851, -0.108322, -0.0106599, -0.443313, 0.63479, -3.13219, -0.0541483, -0.104988, 0.00531825, -0.00400028, -0.0114107, -0.00685711, -0.010475, -0.0047679
0.0691843, 0.10778, -0.77413, -0.916777, -1.4566, -0.627051, 1.07013, -0.256726, 0.0161346, 0.00517344, -0.0169891, -0.000309509, -0.0469929, 0.00310596, 0.000241406, -0.206535, 15.7513, 20.7917, 17.9315, 1.0741, 4.10586, -0.0750012, 0.0003902, -0.00146658, 5.64812e-05, -0.000733228, -0.00223022, 0.00138271, 0.0101074, -0.00510633, 0.00717284, 0.0351598, 0.0566676, 0.023783, -0.0110041, -0.444804, 0.634803, -3.13133, -0.0558659, -0.108363, -0.0106638, -0.443324, 0.634783, -3.1322, -0.0541253, -0.104907, 0.00550092, -0.0041308, -0.0117885, -0.00488722, -0.00965649, -0.00536689
0.0701843, 0.107791, -0.774126, -0.916793, -1.4566, -0.627103, 1.07013, -0.256729, 0.0126636, 0.00209947, -0.0190365, 0.00143686, -0.0471764, 0.00138624, -0.000538746, -0.0914839, 15.8267, 20.7917, 17.8561, 1.04297, 4.13424, -0.0557752, 0.000375483, -0.00146053, 4.69974e-05, -0.000777986, -0.00229592, 0.00141796, 0.0139695, -0.00515236, 0.0073581, 0.0341742, 0.0540738, 0.0199636, -0.0109985, -0.444808, 0.634791, -3.1313, -0.0558813, -0.108405, -0.0106733, -0.443335, 0.634779, -3.13222, -0.0540846, -0.104849, 0.00568647, -0.00426302, -0.0121715, -0.00856335, -0.00997327, -0.0058334
0.0711843, 0.10781, -0.774117, -0.916806, -1.4566, -0.627156, 1.07013, -0.256723, 0.0153699, 0.00254518, -0.0156955, 3.2653e-05, -0.0486149, 0.000114164, 0.000836926, -0.0557783, 15.791, 20.7163, 17.8918, 1.04297, 4.16354, -0.0878186, 0.000367645, -0.00145578, 3.80942e-05, -0.000821198, -0.00237471, 0.0014507, 0.0118447, -0.00427051, 0.00810326, 0.0357063, 0.0575645, 0.0252839, -0.0109927, -0.444812, 0.634778, -3.13127, -0.0558972, -0.108449, -0.0106758, -0.443344, 0.634775, -3.13224, -0.0540485, -0.104772, 0.00587491, -0.00439694, -0.0125597, -0.00633981, -0.00915793, -0.00532566
0.0721843, 0.107829, -0.77411, -0.916823, -1.45659, -0.627207, 1.07014, -0.256727, 0.0171437, 0.00514728, -0.0190382, 0.0025527, -0.0494149, 4.5055e-05, -0.0011305, -0.0161054, 15.791, 20.752, 17.7808, 1.02466, 4.16995, -0.0420422, 0.000356473, -0.00144972, 2.72321e-05, -0.000867636, -0.00244297, 0.00147922, 0.0121917, -0.00499579, 0.00836339, 0.0360873, 0.0598712, 0.0262367, -0.0109867, -0.444817, 0.634765, -3.13124, -0.0559137, -0.108494, -0.0106815, -0.443355, 0.634773, -3.13226, -0.0540193, -0.104713, 0.00606621, -0.00453252, -0.0129531, -0.00648645, -0.0100333, -0.00548897
0.0731843, 0.107851, -0.774106, -0.916844, -1.45658, -0.627256, 1.07014, -0.25672, 0.0163135, 0.003039, -0.0222977, 0.00341439, -0.0501037, 0.000184765, 0.00145561, -0.0161054, 15.8267, 20.8274, 17.7054, 1.01825, 4.16995, -0.101552, 0.000345518, -0.00144327, 1.80836e-05, -0.00090994, -0.00250975, 0.00151641, 0.0147092, -0.00566055, 0.00806942, 0.0355773, 0.0583557, 0.0210325, -0.0109806, -0.444821, 0.634752, -3.13121, -0.0559306, -0.108541, -0.0106867, -0.443367, 0.634768, -3.13228, -0.0539772, -0.104657, 0.00626038, -0.00466976, -0.0133516, -0.00875814, -0.0109216, -0.00636038
0.0741843, 0.107868, -0.774103, -0.91686, -1.45658, -0.627308, 1.07015, -0.25672, 0.0191754, 0.00370286, -0.0189055, 0.00223828, -0.0512516, 0.000747849, 0.000736969, 0.0949785, 15.9021, 20.7917, 17.7054, 1.01825, 4.15622, -0.0951428, 0.000333417, -0.00143836, 8.01739e-06, -0.000954726, -0.00258161, 0.0015475, 0.0122356, -0.00507725, 0.00907887, 0.0387576, 0.0607915, 0.0287219, -0.0109742, -0.444826, 0.634739, -3.13118, -0.055948, -0.108588, -0.010693, -0.443377, 0.634764, -3.1323, -0.0539451, -0.104595, 0.00645739, -0.00480863, -0.0137552, -0.00618592, -0.0103997, -0.00558198
0.0751843, 0.107891, -0.774105, -0.916879, -1.45658, -0.62736, 1.07015, -0.256726, 0.0178616, 0.00362401, -0.0190099, 0.00229892, -0.0515674, 0.00525681, -0.00123508, 0.0949785, 16.0092, 20.8631, 17.6697, 1.01825, 4.15622, -0.0484509, 0.000321077, -0.00143238, -6.0908e-07, -0.000997087, -0.00264981, 0.00157083, 0.0126354, -0.00577249, 0.00992242, 0.0436443, 0.059206, 0.0306258, -0.0109676, -0.444831, 0.634725, -3.13115, -0.055966, -0.108638, -0.0106991, -0.443388, 0.634757, -3.13231, -0.0539256, -0.10454, 0.00665724, -0.00494912, -0.0141638, -0.00641811, -0.0112574, -0.00518215
0.0761843, 0.107914, -0.774097, -0.9169, -1.45658, -0.627412, 1.07015, -0.256716, 0.0168464, 0.003895, -0.0182129, 0.00151125, -0.0515979, 0.00395908, 0.00138287, 0.0949785, 15.9735, 20.9028, 17.6697, 1.01276, 4.15622, -0.10796, 0.000311441, -0.00142653, -1.00727e-05, -0.00104134, -0.00272895, 0.0016107, 0.0128928, -0.00515138, 0.0102623, 0.0435197, 0.0611951, 0.0295065, -0.0109609, -0.444836, 0.63471, -3.13111, -0.0559845, -0.108688, -0.0107024, -0.443399, 0.634752, -3.13233, -0.0538809, -0.104469, 0.00685993, -0.0050912, -0.0145774, -0.00651814, -0.0107915, -0.00527097
0.0771843, 0.107928, -0.774094, -0.91691, -1.45657, -0.627464, 1.07015, -0.25672, 0.0163253, 0.00453528, -0.0172403, 0.00275471, -0.0475979, 0.00192914, 0.000177582, 0.21003, 16.0489, 20.7917, 17.5943, 1.00635, 4.1846, -0.0878186, 0.000297942, -0.00142363, -2.34591e-05, -0.00108982, -0.00280364, 0.00163981, 0.0124749, -0.00403212, 0.0112082, 0.0422225, 0.0595484, 0.0337431, -0.0109539, -0.444841, 0.634696, -3.13108, -0.0560035, -0.108741, -0.0107098, -0.443408, 0.63475, -3.13235, -0.0538533, -0.104407, 0.00706543, -0.00523486, -0.0149959, -0.006002, -0.00981121, -0.00470979
0.0781843, 0.107955, -0.774089, -0.916934, -1.45657, -0.627517, 1.07016, -0.25672, 0.0166296, 0.0036539, -0.0210503, 0.00182446, -0.0488149, 0.00638395, -0.000592448, 0.170357, 16.0489, 20.8631, 17.5943, 1.00635, 4.17727, -0.0685925, 0.000287976, -0.00141718, -3.20219e-05, -0.00113241, -0.00288294, 0.00166853, 0.013581, -0.00553142, 0.0106279, 0.0443721, 0.0587199, 0.0333716, -0.0109468, -0.444846, 0.63468, -3.13105, -0.0560231, -0.108794, -0.0107129, -0.44342, 0.634742, -3.13236, -0.0538271, -0.104339, 0.00727374, -0.00538009, -0.0154193, -0.00680255, -0.011489, -0.00579994
0.0791843, 0.107975, -0.774088, -0.916954, -1.45657, -0.627565, 1.07016, -0.256715, 0.014018, 0.00123828, -0.0219425, 0.00204251, -0.0495218, 0.00455737, 0.00106403, 0.245735, 16.1203, 20.8631, 17.5586, 0.988036, 4.1846, -0.10796, 0.000275042, -0.00141315, -4.28653e-05, -0.00117478, -0.00295546, 0.00170474, 0.0163097, -0.00529174, 0.0107122, 0.0434964, 0.0582419, 0.0295504, -0.0109394, -0.444852, 0.634665, -3.13101, -0.0560432, -0.10885, -0.0107191, -0.44343, 0.634736, -3.13237, -0.0537898, -0.104283, 0.00748486, -0.00552686, -0.0158476, -0.00932649, -0.0114943, -0.00633298
0.0801843, 0.107996, -0.774087, -0.916973, -1.45656, -0.627612, 1.07016, -0.256722, 0.0160902, 0.00252005, -0.0195075, 0.00404617, -0.0455163, 0.00373901, -0.00173136, 0.285408, 16.1957, 20.8631, 17.4435, 0.975218, 4.17727, -0.0420422, 0.000261219, -0.00140881, -5.58731e-05, -0.00122154, -0.0030247, 0.0017311, 0.0141155, -0.00420596, 0.0123715, 0.0445078, 0.0560958, 0.0387436, -0.0109318, -0.444858, 0.634649, -3.13097, -0.0560639, -0.108906, -0.010726, -0.443441, 0.634732, -3.13239, -0.0537681, -0.104234, 0.00769877, -0.00567515, -0.0162807, -0.00707954, -0.010496, -0.00495137
0.0811843, 0.108023, -0.774078, -0.916989, -1.45657, -0.627662, 1.07016, -0.256718, 0.0196102, 0.00396781, -0.0192635, 0.00176436, -0.0425469, 0.00254354, 6.69887e-05, 0.245735, 16.1203, 20.7917, 17.4832, 0.963317, 4.1846, -0.0750012, 0.000255681, -0.00140528, -6.70386e-05, -0.00126755, -0.0031121, 0.00175524, 0.0112922, -0.00336264, 0.0120351, 0.0417733, 0.0579965, 0.0448415, -0.010924, -0.444863, 0.634632, -3.13094, -0.0560851, -0.108965, -0.0107244, -0.44345, 0.634727, -3.1324, -0.0537507, -0.104158, 0.00791545, -0.00582496, -0.0167186, -0.00405554, -0.00970032, -0.00552301
0.0821843, 0.108049, -0.774072, -0.917013, -1.45657, -0.627711, 1.07016, -0.256712, 0.0209973, 0.00303861, -0.0216578, 0.000337218, -0.0459462, 0.00166602, 0.00197783, 0.245735, 16.1203, 20.8274, 17.5189, 0.969725, 4.19192, -0.127186, 0.000244907, -0.00140072, -7.61529e-05, -0.00130723, -0.00319782, 0.00179032, 0.0123786, -0.00386048, 0.0112237, 0.0408828, 0.0617496, 0.043217, -0.010916, -0.444869, 0.634615, -3.1309, -0.0561069, -0.109025, -0.0107276, -0.443461, 0.634718, -3.13241, -0.0537169, -0.104086, 0.00813491, -0.00597625, -0.0171612, -0.00484528, -0.0103805, -0.00685482
0.0831843, 0.108076, -0.774071, -0.917035, -1.45657, -0.627758, 1.07016, -0.256717, 0.022304, 0.00139277, -0.0248882, 0.00105718, -0.042767, 0.00129187, -0.00132601, 0.245735, 16.16, 20.7917, 17.4832, 0.956908, 4.19192, -0.0557752, 0.000233985, -0.00139668, -8.77542e-05, -0.0013506, -0.00327459, 0.00181213, 0.0130928, -0.00400576, 0.0108494, 0.0381256, 0.0582002, 0.0481626, -0.0109077, -0.444875, 0.634598, -3.13086, -0.0561293, -0.109086, -0.0107309, -0.443472, 0.634712, -3.13242, -0.0537042, -0.10403, 0.00835714, -0.00612902, -0.0176085, -0.00530424, -0.0107009, -0.00772706
0.0841843, 0.108102, -0.774068, -0.917063, -1.45656, -0.627804, 1.07016, -0.256708, 0.0222081, 0.00346519, -0.0266281, 0.00163067, -0.041272, 0.00072588, 0.00176107, 0.285408, 16.1957, 20.8631, 17.4435, 0.963317, 4.19925, -0.127186, 0.000220668, -0.00139203, -9.82036e-05, -0.00138991, -0.00335388, 0.0018542, 0.0131379, -0.00388953, 0.0110247, 0.0372171, 0.0597511, 0.0457306, -0.0108992, -0.444881, 0.63458, -3.13082, -0.0561522, -0.109149, -0.0107363, -0.443483, 0.634703, -3.13242, -0.0536608, -0.103971, 0.00858211, -0.00628324, -0.0180604, -0.0051409, -0.0107428, -0.00800712
0.0851843, 0.108135, -0.774066, -0.917088, -1.45656, -0.627853, 1.07016, -0.256708, 0.0208227, 0.00590038, -0.0262381, 0.00192072, -0.0404275, 0.00112838, 0.000936855, 0.245735, 16.1957, 20.8631, 17.4078, 0.981627, 4.1846, -0.120778, 0.000211004, -0.00138715, -0.000109881, -0.00143499, -0.00343446, 0.00187832, 0.0129245, -0.00354996, 0.0118627, 0.0387691, 0.0617557, 0.0473964, -0.0108905, -0.444888, 0.634562, -3.13078, -0.0561758, -0.109214, -0.0107379, -0.443495, 0.634696, -3.13243, -0.0536456, -0.103912, 0.00880983, -0.00643891, -0.018517, -0.00477123, -0.0105603, -0.00761123
0.0861843, 0.108164, -0.774065, -0.917106, -1.45656, -0.627899, 1.07016, -0.256714, 0.0209712, 0.00368323, -0.0211156, 0.0021145, -0.0350751, 0.000557426, -0.00154544, 0.285408, 16.2314, 20.7917, 17.3721, 0.993529, 4.19192, -0.0621838, 0.000201051, -0.00138463, -0.000123778, -0.00148195, -0.00351298, 0.00189495, 0.0111261, -0.00174051, 0.0137112, 0.040052, 0.0560565, 0.0580871, -0.0108816, -0.444894, 0.634543, -3.13073, -0.0561999, -0.10928, -0.0107398, -0.443505, 0.63469, -3.13244, -0.0536426, -0.103858, 0.00904028, -0.00659599, -0.0189781, -0.00294231, -0.00886378, -0.00609045
0.0871843, 0.108196, -0.774065, -0.917128, -1.45656, -0.627944, 1.07016, -0.256709, 0.0220936, 0.00205892, -0.0204743, -0.000261673, -0.035837, 0.000971484, 0.000902577, 0.285408, 16.2671, 20.7163, 17.4435, 1.00635, 4.17727, -0.114369, 0.000193173, -0.00138163, -0.000134998, -0.00152504, -0.00359615, 0.00191957, 0.0107236, -0.00152714, 0.0135906, 0.0405537, 0.0569758, 0.0598127, -0.0108725, -0.444901, 0.634524, -3.13069, -0.0562246, -0.109348, -0.0107392, -0.443515, 0.634682, -3.13245, -0.0536279, -0.103798, 0.00927346, -0.00675447, -0.0194438, -0.0023077, -0.00879428, -0.00664739
0.0881843, 0.108227, -0.774069, -0.917156, -1.45656, -0.627989, 1.07016, -0.256714, 0.0249486, -6.16363e-05, -0.0219175, 0.000660092, -0.0361923, 0.00014812, -0.00133099, 0.325081, 16.3425, 20.7163, 17.4078, 1.02466, 4.19192, -0.0621838, 0.00017977, -0.00137768, -0.000146042, -0.0015649, -0.00367431, 0.00194136, 0.0111166, -0.00170471, 0.0137072, 0.0401428, 0.0556846, 0.0648769, -0.0108631, -0.444908, 0.634504, -3.13064, -0.0562499, -0.109417, -0.0107439, -0.443526, 0.634672, -3.13245, -0.0536183, -0.103748, 0.00950935, -0.00691434, -0.0199139, -0.00246584, -0.00914747, -0.00703056
0.0891843, 0.108262, -0.774059, -0.91718, -1.45657, -0.628028, 1.07016, -0.256714, 0.0283556, 0.00196889, -0.0187727, -0.000395664, -0.0399811, 0.000402263, -0.000649917, 0.325081, 16.2671, 20.6766, 17.4435, 1.01825, 4.1846, -0.0685925, 0.000175677, -0.00137545, -0.000158384, -0.00160689, -0.0037641, 0.00195838, 0.00867541, -0.0013817, 0.0147645, 0.0443277, 0.0616753, 0.0704503, -0.0108534, -0.444915, 0.634484, -3.1306, -0.0562758, -0.109488, -0.0107391, -0.443536, 0.634664, -3.13245, -0.0536167, -0.103681, 0.00974794, -0.00707558, -0.0203885, 0.000120483, -0.00891018, -0.00627787
0.0901843, 0.108294, -0.774061, -0.917211, -1.45656, -0.628069, 1.07016, -0.256709, 0.0289622, 0.000569627, -0.0222483, 0.000571061, -0.0439277, 2.10948e-05, 0.00126218, 0.400459, 16.3068, 20.752, 17.4078, 1.03107, 4.19192, -0.114369, 0.000163124, -0.00137105, -0.000170581, -0.00164928, -0.0038406, 0.00199203, 0.0111681, -0.00236569, 0.0144649, 0.0448287, 0.0636606, 0.0658647, -0.0108436, -0.444922, 0.634463, -3.13055, -0.0563023, -0.109561, -0.0107425, -0.443548, 0.634655, -3.13245, -0.0535898, -0.103636, 0.00998923, -0.00723817, -0.0208674, -0.00206734, -0.0101427, -0.00723809
0.0911843, 0.108329, -0.774068, -0.917244, -1.45656, -0.628107, 1.07016, -0.256714, 0.0337806, 0.00100509, -0.0247582, 0.00121564, -0.0416164, 3.22033e-05, -0.000853937, 0.436165, 16.4178, 20.8274, 17.3721, 1.03107, 4.19192, -0.0685925, 0.000149308, -0.00136722, -0.000182015, -0.00168607, -0.00391312, 0.00201307, 0.00959757, -0.00257166, 0.0143129, 0.0431902, 0.0627406, 0.0734258, -0.0108335, -0.444929, 0.634442, -3.1305, -0.0563295, -0.109636, -0.0107469, -0.443559, 0.634644, -3.13244, -0.0535833, -0.1036, 0.0102332, -0.00740209, -0.0213508, -0.00024019, -0.0104558, -0.00776519
0.0921843, 0.108365, -0.774066, -0.917267, -1.45656, -0.628145, 1.07016, -0.256704, 0.0340712, 0.00103124, -0.0220252, -2.50054e-05, -0.0399471, -0.000507461, 0.00160087, 0.475838, 16.4178, 20.7163, 17.4078, 1.02466, 4.20657, -0.127186, 0.000142694, -0.00136622, -0.000195711, -0.00172797, -0.00399852, 0.00203849, 0.00825783, -0.00150679, 0.0151565, 0.0439955, 0.0631331, 0.0765658, -0.0108231, -0.444937, 0.634421, -3.13045, -0.0563573, -0.109712, -0.0107441, -0.443568, 0.634636, -3.13244, -0.0535705, -0.103545, 0.0104799, -0.00756732, -0.0218384, 0.00124392, -0.00951842, -0.00731006
0.0931843, 0.108403, -0.774059, -0.917296, -1.45656, -0.628181, 1.07016, -0.256706, 0.0341276, 0.00272161, -0.0229054, 0.000818387, -0.0388821, -0.000565462, 0.00106726, 0.511544, 16.3425, 20.7163, 17.3721, 1.03107, 4.21298, -0.127186, 0.000135912, -0.00136392, -0.00020911, -0.00176872, -0.00408523, 0.00205558, 0.00818169, -0.00138077, 0.015726, 0.0444498, 0.0642176, 0.0783632, -0.0108125, -0.444944, 0.634399, -3.1304, -0.0563857, -0.10979, -0.0107411, -0.443579, 0.634627, -3.13244, -0.0535713, -0.103489, 0.0107292, -0.00773386, -0.0223304, 0.0015241, -0.00956287, -0.00722823
0.0941843, 0.108439, -0.774062, -0.917324, -1.45656, -0.628215, 1.07016, -0.256708, 0.0342749, 0.00118235, -0.022674, 0.000545471, -0.0378724, -0.000640589, -0.000746541, 0.551216, 16.3782, 20.6766, 17.3721, 1.03107, 4.2203, -0.0878186, 0.000126555, -0.00136212, -0.000222723, -0.00180934, -0.0041641, 0.0020728, 0.00847287, -0.00104688, 0.0161503, 0.0447705, 0.0628154, 0.0829456, -0.0108016, -0.444952, 0.634376, -3.13035, -0.0564147, -0.10987, -0.0107405, -0.443589, 0.634617, -3.13243, -0.0535725, -0.103448, 0.0109812, -0.00790168, -0.0228265, 0.00144327, -0.00941261, -0.00731962
0.0951843, 0.108478, -0.774062, -0.917361, -1.45657, -0.628248, 1.07016, -0.256703, 0.0352549, 0.000940607, -0.0274623, -0.000471661, -0.0374725, -0.000692587, 0.000960378, 0.551216, 16.3782, 20.7163, 17.4078, 1.03107, 4.22763, -0.127186, 0.000116586, -0.00135906, -0.000233913, -0.00184442, -0.00424783, 0.00210021, 0.00958411, -0.00170387, 0.0149513, 0.0417728, 0.0638836, 0.0811197, -0.0107905, -0.44496, 0.634353, -3.1303, -0.0564444, -0.109952, -0.01074, -0.4436, 0.634605, -3.13242, -0.0535588, -0.103401, 0.0112358, -0.00807076, -0.0233269, 0.000697096, -0.0102667, -0.0090997
0.0961843, 0.108515, -0.774059, -0.917393, -1.45656, -0.628282, 1.07016, -0.25671, 0.0312103, 0.00157657, -0.0268278, 0.00052071, -0.0379439, -0.00127122, -0.00176724, 0.626595, 16.3425, 20.7163, 17.3721, 1.06128, 4.2496, -0.0621838, 0.000106658, -0.00135701, -0.000248322, -0.00188489, -0.00433249, 0.0021167, 0.0115468, -0.00128344, 0.0160531, 0.0437392, 0.0651677, 0.0814055, -0.0107792, -0.444968, 0.634329, -3.13025, -0.0564747, -0.110035, -0.0107396, -0.443611, 0.634595, -3.13241, -0.0535625, -0.103354, 0.011493, -0.00824109, -0.0238314, -0.00109534, -0.0100992, -0.00864075
0.0971843, 0.108559, -0.774062, -0.917424, -1.45657, -0.628315, 1.07015, -0.256711, 0.0363148, -0.000626483, -0.0268719, -0.000488129, -0.033131, -0.00135288, -0.00168678, 0.626595, 16.4178, 20.6052, 17.4078, 1.06769, 4.26333, -0.0484509, 9.99541e-05, -0.00135551, -0.000261272, -0.00192332, -0.0044163, 0.00212723, 0.0090471, -0.000666443, 0.0160046, 0.04142, 0.0607681, 0.0910789, -0.0107676, -0.444977, 0.634305, -3.13019, -0.0565057, -0.11012, -0.0107355, -0.443621, 0.634583, -3.1324, -0.0535761, -0.10331, 0.0117529, -0.00841265, -0.0243401, 0.00163658, -0.00956539, -0.00901778
0.0981843, 0.108599, -0.774061, -0.917461, -1.45657, -0.628349, 1.07015, -0.256703, 0.0359568, 0.000574646, -0.0295497, 0.00050976, -0.0347059, -0.00117077, 0.00155425, 0.6623, 16.3782, 20.6052, 17.3721, 1.0979, 4.27066, -0.120778, 8.95278e-05, -0.00135282, -0.000275509, -0.00196416, -0.00450165, 0.00215937, 0.0104177, -0.00123461, 0.0161509, 0.0422109, 0.0632492, 0.086051, -0.0107557, -0.444985, 0.634281, -3.13014, -0.0565373, -0.110207, -0.010735, -0.443633, 0.634572, -3.1324, -0.0535568, -0.103266, 0.0120154, -0.00858543, -0.0248528, 0.000542321, -0.0103575, -0.00948626
0.0991843, 0.108643, -0.774064, -0.9175, -1.45657, -0.628379, 1.07015, -0.256702, 0.0367076, -0.000496711, -0.0308477, -0.00275148, -0.0391977, -0.0015925, 0.000324092, 0.6623, 16.4178, 20.5655, 17.3721, 1.10431, 4.29263, -0.101552, 7.97315e-05, -0.00135049, -0.000287735, -0.00199826, -0.00458464, 0.00217921, 0.0112997, -0.00157566, 0.0152246, 0.0420406, 0.0687072, 0.088457, -0.0107435, -0.444994, 0.634256, -3.13008, -0.0565696, -0.110296, -0.0107334, -0.443644, 0.634559, -3.13238, -0.0535575, -0.103227, 0.0122806, -0.0087594, -0.0253696, 4.88962e-06, -0.0108953, -0.0109926
0.100184, 0.108685, -0.774057, -0.917539, -1.45656, -0.628408, 1.07015, -0.256703, 0.0360781, 0.00146826, -0.0349707, 0.00059931, -0.0340884, -0.00211146, 0.000453422, 0.701973, 16.3425, 20.5298, 17.2571, 1.11072, 4.32101, -0.10796, 6.98706e-05, -0.00134821, -0.000303835, -0.00203901, -0.00467318, 0.0022041, 0.0122802, -0.00165152, 0.0156551, 0.0397265, 0.0657864, 0.0871933, -0.0107311, -0.445003, 0.63423, -3.13002, -0.0566025, -0.110386, -0.0107319, -0.443656, 0.634548, -3.13237, -0.0535507, -0.103181, 0.0125483, -0.00893455, -0.0258904, -0.000733124, -0.0111869, -0.0111545
0.101184, 0.108727, -0.774056, -0.917582, -1.45657, -0.628441, 1.07014, -0.256702, 0.0369959, 0.00184117, -0.0381581, -0.000721701, -0.0344209, -0.00218651, 6.49244e-05, 0.701973, 16.3068, 20.4941, 17.2968, 1.11713, 4.34207, -0.101552, 5.86569e-05, -0.001346, -0.000315023, -0.00207, -0.00476862, 0.00223001, 0.0128128, -0.00203575, 0.0148674, 0.0379863, 0.0681947, 0.0885112, -0.0107184, -0.445012, 0.634204, -3.12996, -0.0566361, -0.110479, -0.0107312, -0.443668, 0.634533, -3.13235, -0.0535435, -0.103126, 0.0128186, -0.00911087, -0.0264151, -0.000925223, -0.0117592, -0.0125065
0.102184, 0.108771, -0.774061, -0.917627, -1.45657, -0.628469, 1.07014, -0.256706, 0.0372853, -0.000422647, -0.0404775, -0.000626051, -0.034196, -0.00199944, -0.000465342, 0.701973, 16.3782, 20.4545, 17.2968, 1.10431, 4.35672, -0.0878186, 4.65141e-05, -0.00134284, -0.00032737, -0.0021053, -0.00485103, 0.00224916, 0.0143042, -0.00236373, 0.0147063, 0.0374315, 0.0664574, 0.0895647, -0.0107055, -0.445021, 0.634177, -3.1299, -0.0566704, -0.110573, -0.0107311, -0.443681, 0.634518, -3.13233, -0.0535472, -0.103093, 0.0130915, -0.00928833, -0.0269437, -0.00211644, -0.0123173, -0.0133049
0.103184, 0.108813, -0.774057, -0.917671, -1.45657, -0.6285, 1.07014, -0.256705, 0.039745, 0.000568707, -0.0414104, 0.0020724, -0.0304782, -0.00187492, -0.000784945, 0.737679, 16.3425, 20.3791, 17.1857, 1.11713, 4.37137, -0.0750012, 3.38082e-05, -0.00134026, -0.000342569, -0.00214372, -0.00494365, 0.00228055, 0.0132631, -0.00215859, 0.0157816, 0.0377249, 0.0636118, 0.0939742, -0.0106922, -0.44503, 0.63415, -3.12984, -0.0567054, -0.110669, -0.0107316, -0.443693, 0.634505, -3.13231, -0.0535326, -0.103046, 0.0133669, -0.00946692, -0.0274763, -0.000887151, -0.012266, -0.0126907
0.104184, 0.10886, -0.774054, -0.91772, -1.45657, -0.628531, 1.07014, -0.2567, 0.0434969, 0.0012258, -0.0407838, 0.000464868, -0.032209, -0.00124952, 0.000697407, 0.701973, 16.3068, 20.3791, 17.2214, 1.13544, 4.37137, -0.10796, 2.38723e-05, -0.00133693, -0.000354091, -0.00217738, -0.00504178, 0.00230863, 0.0113742, -0.00214017, 0.0159868, 0.0393673, 0.067055, 0.0986725, -0.0106787, -0.44504, 0.634122, -3.12978, -0.056741, -0.110767, -0.0107287, -0.443707, 0.634488, -3.13229, -0.053524, -0.102993, 0.0136449, -0.00964662, -0.0280126, 0.00125779, -0.012363, -0.0128895
0.105184, 0.108902, -0.774056, -0.917762, -1.45657, -0.628558, 1.07014, -0.256706, 0.0411374, -9.43936e-06, -0.0398101, 0.00284723, -0.0326461, -0.000290154, -0.00146784, 0.737679, 16.3425, 20.2323, 17.1103, 1.12262, 4.35672, -0.0557752, 1.04074e-05, -0.00133502, -0.000371048, -0.00221963, -0.00512649, 0.00233073, 0.0131897, -0.00208927, 0.0176602, 0.0434505, 0.0648129, 0.0997759, -0.0106649, -0.44505, 0.634094, -3.12971, -0.0567774, -0.110867, -0.0107296, -0.443719, 0.634476, -3.13227, -0.0535249, -0.102963, 0.0139255, -0.00982742, -0.0285528, -0.000392226, -0.0125772, -0.0118898
0.106184, 0.108949, -0.774053, -0.917813, -1.45657, -0.628588, 1.07014, -0.256704, 0.0432544, 0.00083536, -0.0428784, 0.00278032, -0.0290883, 7.80738e-05, -0.000503843, 0.737679, 16.3068, 20.2323, 17.0706, 1.12903, 4.34939, -0.0685925, -2.04607e-06, -0.00133124, -0.000384482, -0.00225632, -0.00522199, 0.00236137, 0.0124716, -0.00217994, 0.0173235, 0.0411359, 0.063734, 0.10232, -0.0106509, -0.44506, 0.634065, -3.12965, -0.0568144, -0.110969, -0.0107288, -0.443733, 0.634459, -3.13225, -0.0535136, -0.102917, 0.0142086, -0.0100093, -0.0290967, 0.000632772, -0.0128217, -0.0127204
0.107184, 0.108999, -0.774051, -0.917864, -1.45657, -0.628613, 1.07014, -0.256703, 0.0461162, 0.00148975, -0.0463468, 0.00181916, -0.0305127, 0.000323498, 0.000138823, 0.701973, 16.2671, 20.1569, 17.0706, 1.12903, 4.34207, -0.0814099, -1.10117e-05, -0.00132776, -0.000398262, -0.00229488, -0.00531577, 0.00238474, 0.0124183, -0.00286156, 0.0165694, 0.0401039, 0.0669134, 0.103708, -0.0106365, -0.44507, 0.634036, -3.12958, -0.0568522, -0.111073, -0.0107243, -0.443748, 0.634443, -3.13223, -0.0535142, -0.102876, 0.0144943, -0.0101922, -0.0296444, 0.00104882, -0.0136771, -0.0140232
0.108184, 0.109045, -0.774051, -0.917917, -1.45657, -0.628638, 1.07014, -0.25671, 0.0430833, 6.8769e-05, -0.0490931, 0.00285742, -0.0274046, -5.54654e-05, -0.00231495, 0.737679, 16.3068, 20.0815, 16.9992, 1.12903, 4.34939, -0.0164075, -2.60594e-05, -0.00132487, -0.000412605, -0.00232899, -0.00540683, 0.00240944, 0.0149624, -0.00278239, 0.0166807, 0.0383551, 0.0635347, 0.104024, -0.0106219, -0.44508, 0.634006, -3.12951, -0.0568906, -0.111178, -0.0107256, -0.443761, 0.634426, -3.1322, -0.0535136, -0.102842, 0.0147825, -0.0103762, -0.0301957, -0.00121075, -0.013876, -0.0146448
0.109184, 0.109098, -0.774048, -0.917968, -1.45657, -0.628666, 1.07014, -0.256703, 0.0466828, 0.000976581, -0.0544368, 0.000602027, -0.0295156, 0.000471752, 0.00062684, 0.6623, 16.2671, 20.0101, 16.9238, 1.13544, 4.33566, -0.0750012, -3.60332e-05, -0.00132149, -0.000428633, -0.00237084, -0.0055038, 0.00244011, 0.014952, -0.00388857, 0.0150193, 0.0359229, 0.0682884, 0.102782, -0.010607, -0.44509, 0.633975, -3.12945, -0.0569298, -0.111286, -0.0107217, -0.443776, 0.634411, -3.13218, -0.0535041, -0.1028, 0.0150731, -0.0105613, -0.0307507, -0.000752453, -0.0151493, -0.0168668
0.110184, 0.109143, -0.774048, -0.91802, -1.45657, -0.62869, 1.07014, -0.256703, 0.0466638, 0.00065309, -0.0518902, -0.000702275, -0.0261222, 0.000585845, 0.000417893, 0.701973, 16.2671, 19.9347, 16.9595, 1.12262, 4.32834, -0.0750012, -4.87039e-05, -0.00131862, -0.000443663, -0.00241106, -0.00559769, 0.00246832, 0.0135334, -0.00275349, 0.0159142, 0.0364813, 0.0668506, 0.109255, -0.0105917, -0.445101, 0.633944, -3.12938, -0.0569696, -0.111396, -0.0107201, -0.44379, 0.634394, -3.13216, -0.0534993, -0.102765, 0.0153663, -0.0107473, -0.0313093, 0.000848876, -0.0141612, -0.0164236
0.111184, 0.109196, -0.774043, -0.918077, -1.45657, -0.628717, 1.07014, -0.256705, 0.045356, 0.00127214, -0.0568755, -0.00066949, -0.0237985, 0.000119354, -0.000196122, 0.6623, 16.2314, 19.8951, 16.9595, 1.11713, 4.33566, -0.0621838, -6.00447e-05, -0.00131566, -0.000457514, -0.0024452, -0.00570285, 0.00249382, 0.0153787, -0.00311633, 0.0151105, 0.0330521, 0.0669294, 0.107922, -0.0105762, -0.445112, 0.633913, -3.1293, -0.0570102, -0.111507, -0.0107169, -0.443804, 0.634376, -3.13213, -0.0534997, -0.102714, 0.015662, -0.0109343, -0.0318714, -0.000625443, -0.0147698, -0.0179233
0.112184, 0.109247, -0.774037, -0.918127, -1.45657, -0.628747, 1.07014, -0.256705, 0.0467018, 0.00168446, -0.0553162, 0.000237911, -0.0229542, 0.000622147, -0.000130748, 0.6623, 16.1957, 19.7483, 16.9238, 1.13544, 4.32101, -0.0621838, -7.08657e-05, -0.00131305, -0.000474898, -0.00249102, -0.00580898, 0.00252084, 0.0143728, -0.00268686, 0.0164303, 0.0356458, 0.0665848, 0.112397, -0.0105604, -0.445123, 0.63388, -3.12923, -0.0570515, -0.111621, -0.0107131, -0.443819, 0.63436, -3.13211, -0.053498, -0.102664, 0.0159602, -0.0111224, -0.0324371, 0.000564915, -0.0145085, -0.0170986
0.113184, 0.109292, -0.774036, -0.918185, -1.45657, -0.628769, 1.07014, -0.256708, 0.048811, 0.00112383, -0.0577726, 0.00180861, -0.0216947, 0.000686064, -0.00107051, 0.737679, 16.1957, 19.7483, 16.8484, 1.13544, 4.31369, -0.0356336, -8.72184e-05, -0.00130988, -0.000491231, -0.00253014, -0.00590468, 0.00255427, 0.0147257, -0.00298881, 0.0167178, 0.0353278, 0.0649424, 0.115454, -0.0105443, -0.445134, 0.633848, -3.12916, -0.0570936, -0.111737, -0.0107144, -0.443834, 0.634343, -3.13208, -0.0534873, -0.102633, 0.0162609, -0.0113113, -0.0330063, 0.000503382, -0.0150167, -0.0174103
0.114184, 0.109348, -0.774029, -0.918242, -1.45657, -0.628796, 1.07014, -0.256708, 0.0470611, 0.00158508, -0.0553054, -0.00108387, -0.0252028, 0.000999935, 0.000269671, 0.701973, 16.16, 19.7086, 16.8127, 1.14093, 4.29904, -0.0621838, -9.74105e-05, -0.00130647, -0.000507651, -0.00257246, -0.00601292, 0.00258083, 0.0148709, -0.00252507, 0.0172305, 0.0383822, 0.0704588, 0.116146, -0.0105279, -0.445146, 0.633814, -3.12908, -0.0571363, -0.111854, -0.0107092, -0.443849, 0.634325, -3.13205, -0.0534879, -0.102583, 0.016564, -0.0115013, -0.033579, 0.000607208, -0.0147559, -0.0174793
0.115184, 0.109392, -0.774026, -0.918305, -1.45658, -0.628821, 1.07014, -0.256706, 0.0485815, 0.0010572, -0.057404, -0.00271004, -0.0233354, -0.00402849, 0.000179781, 0.813057, 16.16, 19.7086, 16.8842, 1.14093, 4.29904, -0.0621838, -0.000113971, -0.00130346, -0.000520956, -0.00260647, -0.00612317, 0.00262106, 0.0151223, -0.00154818, 0.016222, 0.0318983, 0.0730231, 0.119978, -0.0105112, -0.445157, 0.633781, -3.12901, -0.0571798, -0.111974, -0.0107099, -0.443865, 0.634303, -3.13202, -0.0534684, -0.102532, 0.0168696, -0.0116921, -0.034155, 0.000696941, -0.0139698, -0.0190722
0.116184, 0.109448, -0.774025, -0.918364, -1.45657, -0.628846, 1.07014, -0.256708, 0.0500137, -0.000130053, -0.0580925, -0.00177999, -0.0220596, -0.00283955, -0.00086349, 0.777352, 16.1957, 19.6729, 16.7374, 1.14734, 4.29263, -0.0356336, -0.000128241, -0.00129993, -0.00054017, -0.00265224, -0.00622163, 0.00265044, 0.0151449, -0.00166387, 0.0169225, 0.0333458, 0.0705233, 0.124189, -0.0104942, -0.445169, 0.633746, -3.12893, -0.0572241, -0.112096, -0.0107085, -0.443881, 0.634287, -3.132, -0.053466, -0.102503, 0.0171776, -0.0118839, -0.0347344, 0.000935541, -0.0142876, -0.018957
0.117184, 0.1095, -0.774015, -0.918431, -1.45658, -0.628868, 1.07014, -0.256705, 0.0501343, 0.00380988, -0.0595566, -0.00471445, -0.0211286, -0.00164393, 0.000407684, 0.777352, 16.16, 19.6729, 16.7374, 1.15375, 4.27798, -0.0621838, -0.000141629, -0.00129614, -0.000554964, -0.00268821, -0.00633467, 0.00268936, 0.0137085, -0.0015818, 0.0164597, 0.0327775, 0.075941, 0.126003, -0.0104768, -0.445181, 0.633711, -3.12885, -0.0572691, -0.112219, -0.0107055, -0.443897, 0.634266, -3.13196, -0.05345, -0.102452, 0.017488, -0.0120766, -0.0353172, 0.00270663, -0.0143427, -0.0198989
0.118184, 0.109553, -0.774013, -0.918494, -1.45658, -0.62889, 1.07014, -0.256706, 0.0493123, 0.00112478, -0.0596243, -0.0037319, -0.0200818, -0.00104476, -0.000236837, 0.813057, 16.2314, 19.6372, 16.7374, 1.14734, 4.27066, -0.0484509, -0.000155911, -0.00129334, -0.000571326, -0.00272733, -0.00644144, 0.00271953, 0.0151051, -0.00146962, 0.0173232, 0.0343027, 0.0723475, 0.127928, -0.0104592, -0.445193, 0.633676, -3.12877, -0.0573148, -0.112345, -0.0107032, -0.443913, 0.634246, -3.13193, -0.0534482, -0.102413, 0.0178009, -0.0122702, -0.0359033, 0.00156036, -0.0144864, -0.0197245
0.119184, 0.109604, -0.774007, -0.918555, -1.45658, -0.628916, 1.07014, -0.256708, 0.0465558, 0.00327033, -0.0597048, -0.00200161, -0.0203524, -0.00113283, -0.000869968, 0.813057, 16.2671, 19.5975, 16.6977, 1.17206, 4.27798, -0.0292249, -0.000171497, -0.00129079, -0.000589511, -0.00277077, -0.00655619, 0.00275475, 0.0163813, -0.00126907, 0.0185979, 0.0367247, 0.0744176, 0.126882, -0.0104412, -0.445205, 0.633639, -3.12869, -0.0573613, -0.112473, -0.0107021, -0.443929, 0.634227, -3.1319, -0.0534391, -0.102364, 0.0181163, -0.0124646, -0.0364926, 0.000503729, -0.0145433, -0.0191341
0.120184, 0.109654, -0.774001, -0.918621, -1.45658, -0.628936, 1.07014, -0.256705, 0.0491788, 0.00480885, -0.0607384, -0.000830464, -0.0190953, -0.00115028, 0.000403365, 0.888436, 16.3068, 19.5975, 16.662, 1.16015, 4.28531, -0.0557752, -0.000187928, -0.00128896, -0.000606638, -0.00280642, -0.00666929, 0.00279621, 0.0153505, -0.00121564, 0.0192461, 0.0371995, 0.0751422, 0.129605, -0.0104229, -0.445218, 0.633603, -3.12861, -0.0574085, -0.112603, -0.0107015, -0.443944, 0.634206, -3.13186, -0.0534215, -0.102319, 0.018434, -0.0126599, -0.0370852, 0.00179908, -0.0146574, -0.019007
0.121184, 0.109705, -0.773988, -0.918691, -1.45658, -0.628959, 1.07014, -0.256708, 0.0510006, 0.00780991, -0.0623461, -0.00291991, -0.0187247, -0.000317165, -0.000714434, 0.963814, 16.2671, 19.6372, 16.6223, 1.16015, 4.27066, -0.0292249, -0.000203212, -0.00128495, -0.00062436, -0.00284981, -0.00678834, 0.0028351, 0.0138259, -0.00127368, 0.0188946, 0.0367716, 0.0797217, 0.13474, -0.0104044, -0.445231, 0.633565, -3.12852, -0.0574565, -0.112735, -0.0106993, -0.443961, 0.634185, -3.13183, -0.0534083, -0.102267, 0.0187541, -0.012856, -0.0376809, 0.00366479, -0.014854, -0.0198455
0.122184, 0.109757, -0.773982, -0.918753, -1.45659, -0.628986, 1.07014, -0.256708, 0.0503273, 0.00638051, -0.0647715, -0.00238677, -0.0195236, -0.000281077, -0.00023893, 1.00349, 16.3782, 19.5975, 16.6223, 1.19037, 4.27066, -0.0356336, -0.000218295, -0.00128342, -0.000642547, -0.00289248, -0.00691158, 0.00287099, 0.0158736, -0.00166912, 0.0189624, 0.0369612, 0.0794817, 0.133284, -0.0103854, -0.445244, 0.633527, -3.12844, -0.0575053, -0.11287, -0.0106968, -0.443977, 0.634164, -3.13179, -0.0534007, -0.102211, 0.0190766, -0.013053, -0.0382798, 0.0019546, -0.0155232, -0.0205298
0.123184, 0.10981, -0.773969, -0.918827, -1.45659, -0.629005, 1.07014, -0.256705, 0.0497727, 0.00902286, -0.0700008, -0.00316169, -0.0188691, -0.00023961, 0.000824057, 1.03919, 16.3425, 19.7086, 16.5509, 1.18396, 4.27066, -0.0621838, -0.00023472, -0.00128018, -0.000659687, -0.00292989, -0.00703529, 0.0029179, 0.0169835, -0.00227293, 0.0179857, 0.0342719, 0.0831851, 0.13059, -0.0103662, -0.445257, 0.633489, -3.12835, -0.0575548, -0.113006, -0.0106951, -0.443994, 0.634141, -3.13175, -0.0533769, -0.102156, 0.0194015, -0.0132507, -0.0388819, 0.00126445, -0.016355, -0.0221936
0.124184, 0.109866, -0.773962, -0.918899, -1.45659, -0.629026, 1.07014, -0.256715, 0.0529506, 0.00818851, -0.0698173, -0.000834712, -0.0187322, 7.23587e-05, -0.00165468, 1.03919, 16.4178, 19.784, 16.4755, 1.19037, 4.26333, -0.00267457, -0.000250402, -0.00127641, -0.000677979, -0.00297297, -0.00715186, 0.0029467, 0.0164671, -0.0023061, 0.0192698, 0.0367505, 0.0814461, 0.137468, -0.0103466, -0.44527, 0.633449, -3.12826, -0.0576051, -0.113144, -0.0106925, -0.444012, 0.634119, -3.13171, -0.0533818, -0.102115, 0.0197288, -0.0134493, -0.039487, 0.00201376, -0.0165855, -0.0214828
0.125184, 0.109913, -0.773947, -0.918959, -1.4566, -0.629052, 1.07014, -0.256707, 0.0528831, 0.012533, -0.0661289, -0.00485298, -0.0153539, 0.000527489, 0.000592304, 1.15424, 16.4178, 19.7086, 16.5112, 1.22699, 4.2496, -0.0484509, -0.00026422, -0.0012763, -0.000698307, -0.00302131, -0.00728899, 0.002992, 0.0127184, -0.000725603, 0.0199132, 0.0372704, 0.0862882, 0.143859, -0.0103267, -0.445284, 0.63341, -3.12817, -0.0576562, -0.113285, -0.0106879, -0.444027, 0.634099, -3.13168, -0.0533618, -0.102043, 0.0200585, -0.0136486, -0.0400951, 0.00597309, -0.0150789, -0.0211643
0.126184, 0.109965, -0.773934, -0.919035, -1.4566, -0.629074, 1.07014, -0.256707, 0.0516745, 0.0126348, -0.0711698, -0.00682067, -0.0163276, -0.000450267, 0.000394869, 1.18995, 16.4178, 19.8237, 16.5112, 1.23981, 4.27066, -0.0484509, -0.000281764, -0.00127379, -0.000714807, -0.00305665, -0.00742295, 0.00303811, 0.0150163, -0.00125621, 0.0184751, 0.0337429, 0.0899829, 0.141783, -0.0103065, -0.445298, 0.633369, -3.12808, -0.0577081, -0.113428, -0.0106864, -0.444044, 0.634074, -3.13164, -0.0533418, -0.101979, 0.0203905, -0.0138487, -0.0407063, 0.00413666, -0.0158775, -0.023383
0.127184, 0.110014, -0.773921, -0.919105, -1.45661, -0.629091, 1.07014, -0.256714, 0.0500897, 0.0150687, -0.0697076, -0.00750957, -0.0166415, 0.000463191, -0.00116091, 1.26533, 16.4536, 19.8594, 16.4755, 1.2453, 4.2496, -0.00999879, -0.00029805, -0.00127228, -0.000735019, -0.0031012, -0.0075495, 0.00307372, 0.0146068, -0.000812587, 0.0195359, 0.0366716, 0.0934216, 0.145316, -0.010286, -0.445311, 0.633328, -3.12799, -0.0577607, -0.113573, -0.0106836, -0.44406, 0.634052, -3.1316, -0.0533384, -0.101928, 0.0207248, -0.0140495, -0.0413204, 0.00478443, -0.0156353, -0.0229068
0.128184, 0.110069, -0.773908, -0.919172, -1.45661, -0.62911, 1.07014, -0.256707, 0.0537442, 0.0137441, -0.0668584, -0.00483114, -0.0170861, 0.000567668, 0.000921483, 1.26533, 16.4893, 19.8237, 16.4359, 1.25171, 4.24228, -0.0557752, -0.000311246, -0.00127162, -0.000755931, -0.00314744, -0.00768134, 0.0031167, 0.0133832, -0.00040018, 0.0216436, 0.0411133, 0.0914022, 0.149724, -0.0102651, -0.445326, 0.633287, -3.1279, -0.0578142, -0.11372, -0.0106774, -0.444076, 0.63403, -3.13156, -0.0533245, -0.101872, 0.0210615, -0.0142511, -0.0419374, 0.00617093, -0.0154085, -0.0213304
0.129184, 0.11012, -0.77389, -0.91925, -1.45661, -0.62913, 1.07014, -0.256708, 0.0490454, 0.013573, -0.0711057, -0.00527789, -0.0172866, -0.000410743, -0.000131663, 1.305, 16.4893, 19.9347, 16.3644, 1.25812, 4.26333, -0.0356336, -0.000329208, -0.00126954, -0.000775559, -0.00318811, -0.00781951, 0.00316465, 0.0172205, -0.000689952, 0.0210056, 0.0388356, 0.0931963, 0.145249, -0.0102438, -0.44534, 0.633244, -3.1278, -0.0578684, -0.113869, -0.0106756, -0.444093, 0.634006, -3.13152, -0.0533039, -0.101807, 0.0214005, -0.0144534, -0.0425574, 0.00274061, -0.0160349, -0.0228707
0.130184, 0.110174, -0.773876, -0.919323, -1.45663, -0.629148, 1.07014, -0.256709, 0.0529689, 0.0125704, -0.0719402, -0.00990131, -0.0223145, -9.53259e-06, -0.000562494, 1.305, 16.525, 19.9347, 16.4755, 1.27643, 4.25601, -0.0228162, -0.000342016, -0.00126907, -0.000792981, -0.00322698, -0.00796166, 0.00319832, 0.0163333, -0.00111773, 0.0198826, 0.0391097, 0.0997641, 0.1512, -0.0102223, -0.445355, 0.633201, -3.12771, -0.0579234, -0.114021, -0.0106681, -0.444109, 0.63398, -3.13147, -0.0533063, -0.101739, 0.0217418, -0.0146563, -0.0431802, 0.0040618, -0.0166212, -0.024555
0.131184, 0.110227, -0.77386, -0.919392, -1.45663, -0.629166, 1.07014, -0.256708, 0.0555046, 0.0148333, -0.0709009, -0.00477578, -0.0166251, -0.000282851, 0.00108307, 1.305, 16.5646, 19.8594, 16.3644, 1.27643, 4.26333, -0.0621838, -0.000358138, -0.00126874, -0.000816278, -0.00327591, -0.0080977, 0.00324298, 0.0144477, -0.000323903, 0.0223594, 0.0410607, 0.0953595, 0.155253, -0.0102004, -0.445369, 0.633158, -3.12761, -0.0579792, -0.114174, -0.0106641, -0.444125, 0.633959, -3.13143, -0.0532921, -0.101682, 0.0220854, -0.01486, -0.0438058, 0.0060732, -0.0159965, -0.0225667
0.132184, 0.110281, -0.773846, -0.919474, -1.45664, -0.629186, 1.07013, -0.256714, 0.0521937, 0.013623, -0.0738926, -0.00691448, -0.0171456, -0.000735023, -0.000973377, 1.26533, 16.6003, 19.9347, 16.3644, 1.28833, 4.27798, -0.0164075, -0.00037696, -0.00126731, -0.000834077, -0.00331137, -0.00824323, 0.00328441, 0.0172445, -0.00045784, 0.0215329, 0.0390797, 0.0971659, 0.154873, -0.0101781, -0.445384, 0.633114, -3.12751, -0.0580358, -0.11433, -0.010662, -0.444142, 0.633931, -3.13138, -0.0532843, -0.101613, 0.0224314, -0.0150643, -0.0444342, 0.00369485, -0.0164291, -0.0242271
0.133184, 0.110334, -0.77383, -0.919553, -1.45665, -0.629205, 1.07013, -0.25671, 0.051663, 0.0165921, -0.0772531, -0.00841163, -0.0217721, -0.000764224, 0.000809144, 1.26533, 16.6003, 19.9347, 16.3644, 1.28833, 4.28531, -0.0557752, -0.000394397, -0.00126632, -0.000853645, -0.00335217, -0.00838984, 0.00333468, 0.0185575, -0.00122704, 0.0209127, 0.039546, 0.105657, 0.150845, -0.0101555, -0.445399, 0.633069, -3.12741, -0.0580933, -0.114488, -0.0106583, -0.44416, 0.633904, -3.13133, -0.0532634, -0.101544, 0.0227796, -0.0152693, -0.0450654, 0.0028065, -0.0174455, -0.0255829
0.134184, 0.110383, -0.773814, -0.919631, -1.45666, -0.629221, 1.07013, -0.256707, 0.053481, 0.0156693, -0.0758084, -0.00546161, -0.0206736, 3.08464e-05, 0.000539429, 1.305, 16.6003, 19.8951, 16.3248, 1.28833, 4.27066, -0.0557752, -0.000413307, -0.00126538, -0.000874437, -0.00339615, -0.00853334, 0.00338773, 0.0181688, -0.000987511, 0.0228552, 0.043317, 0.102425, 0.155366, -0.0101325, -0.445415, 0.633024, -3.12731, -0.0581515, -0.114649, -0.0106558, -0.444177, 0.633878, -3.13128, -0.0532389, -0.101482, 0.0231301, -0.0154749, -0.0456993, 0.00339173, -0.0174254, -0.0242509
0.135184, 0.110435, -0.773798, -0.919712, -1.45668, -0.62924, 1.07013, -0.256711, 0.0539073, 0.0180325, -0.0781079, -0.00917935, -0.0202656, -0.000252357, -0.0013358, 1.26533, 16.6003, 19.8594, 16.4001, 1.30115, 4.27798, -0.00999879, -0.000431173, -0.00126475, -0.000893199, -0.00343628, -0.00868661, 0.00343047, 0.0174842, -0.000835336, 0.0217759, 0.0406569, 0.108047, 0.160332, -0.0101092, -0.44543, 0.632978, -3.12721, -0.0582105, -0.114811, -0.0106518, -0.444194, 0.63385, -3.13123, -0.0532315, -0.101407, 0.0234829, -0.0156811, -0.0463358, 0.00449778, -0.0174432, -0.0259141
0.136184, 0.110488, -0.773779, -0.919791, -1.45668, -0.629254, 1.07013, -0.256704, 0.0560947, 0.0135786, -0.0787882, -0.00632253, -0.0146595, 0.000101788, 0.0012796, 1.26533, 16.6003, 19.784, 16.2494, 1.28833, 4.27066, -0.0685925, -0.000450054, -0.00126388, -0.000917269, -0.00348513, -0.00882922, 0.00348854, 0.0178381, -0.000496044, 0.0229036, 0.0403534, 0.098266, 0.162956, -0.0100856, -0.445446, 0.632931, -3.1271, -0.0582704, -0.114976, -0.0106488, -0.444212, 0.633826, -3.13118, -0.0532006, -0.101352, 0.0238379, -0.015888, -0.046975, 0.00440276, -0.0173417, -0.0254535
0.137184, 0.110542, -0.77376, -0.919877, -1.45669, -0.629274, 1.07013, -0.256706, 0.0522881, 0.0173541, -0.0805099, -0.00920302, -0.0158355, 6.69284e-05, 0.000107085, 1.22962, 16.5646, 19.7483, 16.2891, 1.30115, 4.27066, -0.0484509, -0.000468636, -0.0012631, -0.000935805, -0.00352264, -0.00898976, 0.00353639, 0.0188718, -0.000358952, 0.022464, 0.0398611, 0.105769, 0.162261, -0.0100616, -0.445462, 0.632884, -3.127, -0.0583311, -0.115144, -0.0106448, -0.44423, 0.633796, -3.13113, -0.0531871, -0.10127, 0.0241952, -0.0160954, -0.0476168, 0.00375468, -0.0174473, -0.0266107
0.138184, 0.110604, -0.773744, -0.919967, -1.45671, -0.629288, 1.07013, -0.256711, 0.0577619, 0.0160587, -0.084021, -0.00875767, -0.0156931, 0.000586456, -0.00135276, 1.11457, 16.5646, 19.6729, 16.3644, 1.28833, 4.25601, -0.00999879, -0.000484809, -0.00126076, -0.000953772, -0.00356103, -0.00914192, 0.00357601, 0.0182898, -0.00108828, 0.0220959, 0.0389448, 0.104941, 0.168706, -0.0100372, -0.445478, 0.632836, -3.12689, -0.0583926, -0.115313, -0.0106379, -0.444249, 0.633765, -3.13107, -0.0531871, -0.101204, 0.0245547, -0.0163034, -0.0482612, 0.00474648, -0.0183607, -0.0275893
0.139184, 0.110656, -0.773725, -0.920059, -1.45672, -0.629303, 1.07014, -0.256707, 0.0555499, 0.0161035, -0.0859377, -0.00800224, -0.016395, 0.00144161, 0.0012683, 1.11457, 16.525, 19.5618, 16.2891, 1.29474, 4.22763, -0.0685925, -0.000507063, -0.00125799, -0.000974347, -0.00360479, -0.00929471, 0.00363903, 0.0203809, -0.00144372, 0.0226066, 0.0405518, 0.105571, 0.16406, -0.0100124, -0.445495, 0.632787, -3.12678, -0.0584549, -0.115485, -0.0106369, -0.44427, 0.633735, -3.13102, -0.0531513, -0.101139, 0.0249165, -0.016512, -0.0489081, 0.002998, -0.0190114, -0.0278877
0.140184, 0.110712, -0.773712, -0.920155, -1.45673, -0.629321, 1.07014, -0.256703, 0.0560326, 0.014137, -0.0913835, -0.00986526, -0.016597, 0.000418145, 0.00155761, 1.03919, 16.5646, 19.4864, 16.3248, 1.29474, 4.24228, -0.0878186, -0.00053011, -0.00125553, -0.00099158, -0.00363917, -0.00945241, 0.00369946, 0.0225963, -0.00204193, 0.0209942, 0.0362259, 0.106662, 0.163332, -0.00998734, -0.445511, 0.632738, -3.12667, -0.058518, -0.115659, -0.0106361, -0.44429, 0.633701, -3.13095, -0.0531209, -0.101068, 0.0252805, -0.0167211, -0.0495576, 0.0012933, -0.0198812, -0.0303183
0.141184, 0.110766, -0.773693, -0.920264, -1.45675, -0.629334, 1.07013, -0.256711, 0.0542562, 0.0146573, -0.0980521, -0.00957119, -0.0124397, 0.000549736, -0.00184381, 1.03919, 16.525, 19.5261, 16.2891, 1.29474, 4.23495, -0.00999879, -0.000557076, -0.00125164, -0.00100703, -0.00366568, -0.00961208, 0.00376032, 0.0249218, -0.00260261, 0.019957, 0.0317121, 0.104991, 0.164097, -0.00996188, -0.445528, 0.632688, -3.12656, -0.058582, -0.115835, -0.0106387, -0.444312, 0.633665, -3.13088, -0.053091, -0.100996, 0.0256467, -0.0169307, -0.0502094, -0.000562312, -0.0207259, -0.0321863
0.142184, 0.110827, -0.773669, -0.920366, -1.45676, -0.629346, 1.07014, -0.256707, 0.0580034, 0.0174498, -0.0994178, -0.0105204, -0.00888359, 9.50026e-05, 0.000940932, 0.963814, 16.3782, 19.4111, 16.2891, 1.28284, 4.24228, -0.0685925, -0.000575377, -0.00124892, -0.00102383, -0.00369823, -0.00977998, 0.00381703, 0.0223229, -0.00212432, 0.0198934, 0.0295078, 0.106947, 0.168574, -0.00993605, -0.445545, 0.632638, -3.12645, -0.0586468, -0.116014, -0.0106324, -0.444333, 0.63363, -3.13081, -0.0530683, -0.100914, 0.0260151, -0.0171409, -0.0508638, 0.00238071, -0.0203643, -0.032709
0.143184, 0.110882, -0.773657, -0.920472, -1.45677, -0.629358, 1.07014, -0.256712, 0.0568504, 0.0149447, -0.0985182, -0.00914713, -0.0103353, 0.00114824, -0.00154285, 0.928108, 16.4178, 19.3397, 16.2137, 1.26453, 4.21298, -0.00999879, -0.000603432, -0.00124512, -0.0010425, -0.00373313, -0.00993232, 0.00388011, 0.0240684, -0.00217691, 0.0212904, 0.0335043, 0.105006, 0.171606, -0.00990985, -0.445562, 0.632586, -3.12633, -0.0587125, -0.116195, -0.0106356, -0.444355, 0.633595, -3.13074, -0.0530363, -0.100859, 0.0263857, -0.0173516, -0.0515205, 0.00090851, -0.0207146, -0.0321063
0.144184, 0.110938, -0.773636, -0.920581, -1.45679, -0.629373, 1.07014, -0.256709, 0.0571373, 0.0159794, -0.10075, -0.0125211, -0.00803352, 0.00181653, -0.000316491, 0.963814, 16.3425, 19.2643, 16.178, 1.27002, 4.1846, -0.0292249, -0.000628961, -0.00124107, -0.0010598, -0.00376769, -0.0101002, 0.00395068, 0.0234452, -0.00200851, 0.020394, 0.0310177, 0.107192, 0.1742, -0.00988328, -0.44558, 0.632535, -3.12622, -0.058779, -0.116378, -0.0106357, -0.444378, 0.633558, -3.13067, -0.0529937, -0.100781, 0.0267585, -0.0175627, -0.0521796, 0.00196021, -0.0207251, -0.0336143
0.145184, 0.111, -0.773617, -0.920693, -1.45681, -0.629383, 1.07014, -0.256705, 0.0592977, 0.0156714, -0.104286, -0.0158611, -0.00998979, 0.00175346, 0.00100971, 0.928108, 16.3068, 19.2643, 16.178, 1.25812, 4.16995, -0.0621838, -0.000652288, -0.00123722, -0.00107517, -0.00379524, -0.0102661, 0.00401484, 0.0237458, -0.00252607, 0.0189774, 0.0287356, 0.111692, 0.17552, -0.00985633, -0.445598, 0.632482, -3.1261, -0.0588463, -0.116563, -0.0106332, -0.444401, 0.633519, -3.13059, -0.0529622, -0.100709, 0.0271335, -0.0177744, -0.052841, 0.00215843, -0.0214482, -0.0357199
0.146184, 0.111059, -0.773594, -0.920805, -1.45682, -0.629393, 1.07015, -0.256706, 0.0570465, 0.0163835, -0.104788, -0.013401, -0.00755271, 0.00167753, 0.000164513, 0.928108, 16.2314, 19.1889, 16.1026, 1.25812, 4.15622, -0.0484509, -0.000676454, -0.0012332, -0.00109375, -0.00383135, -0.0104338, 0.00407977, 0.025042, -0.00216258, 0.0203667, 0.0300729, 0.109934, 0.176061, -0.00982901, -0.445615, 0.632429, -3.12598, -0.0589145, -0.116751, -0.0106314, -0.444424, 0.633483, -3.13052, -0.05293, -0.100636, 0.0275107, -0.0179865, -0.0535047, 0.00112495, -0.0213682, -0.0350945
0.147184, 0.111119, -0.773577, -0.920917, -1.45684, -0.629401, 1.07015, -0.256703, 0.0584134, 0.0160494, -0.108918, -0.017407, -0.00502661, 0.0019321, 0.00133038, 0.928108, 16.1957, 19.1532, 16.1383, 1.23981, 4.13424, -0.0814099, -0.000700797, -0.00122982, -0.0011097, -0.00386055, -0.0106007, 0.00414508, 0.0248477, -0.00228029, 0.0186253, 0.0253793, 0.111313, 0.178803, -0.00980131, -0.445634, 0.632375, -3.12586, -0.0589835, -0.116942, -0.0106292, -0.444447, 0.633443, -3.13045, -0.0528984, -0.100567, 0.02789, -0.018199, -0.0541706, 0.00182991, -0.0216694, -0.0374872
0.148184, 0.111172, -0.773559, -0.92103, -1.45686, -0.629412, 1.07015, -0.256708, 0.0548678, 0.0179561, -0.109426, -0.0174251, -0.00453147, 0.00179666, -0.000808502, 1.00349, 16.1957, 19.1135, 16.0629, 1.25812, 4.12051, -0.0356336, -0.000730277, -0.00122648, -0.00112833, -0.0038954, -0.0107698, 0.00421342, 0.0262375, -0.00191327, 0.0193452, 0.0263136, 0.113859, 0.17969, -0.00977323, -0.445652, 0.63232, -3.12574, -0.0590534, -0.117134, -0.0106319, -0.44447, 0.633405, -3.13037, -0.0528627, -0.100497, 0.0282715, -0.018412, -0.0548388, 0.000756788, -0.021581, -0.0375412
0.149184, 0.111231, -0.77354, -0.921147, -1.45688, -0.629418, 1.07016, -0.256702, 0.0568518, 0.0225282, -0.110788, -0.0191784, -0.00316029, 0.00279144, 0.00139378, 1.00349, 16.1957, 19.1135, 16.0629, 1.25171, 4.07748, -0.0878186, -0.000755521, -0.0012228, -0.00114451, -0.00392468, -0.0109398, 0.00428399, 0.0240014, -0.00180318, 0.0193081, 0.026158, 0.11905, 0.182412, -0.00974476, -0.44567, 0.632265, -3.12562, -0.0591241, -0.117329, -0.0106299, -0.444493, 0.633364, -3.13029, -0.0528248, -0.100428, 0.0286551, -0.0186253, -0.0555092, 0.00336517, -0.0216038, -0.038083
0.150184, 0.111284, -0.773518, -0.921266, -1.4569, -0.629423, 1.07016, -0.256706, 0.0499162, 0.0248066, -0.112541, -0.0199652, -0.00238937, 0.0021322, -0.000528876, 1.11457, 16.1203, 19.1532, 16.0272, 1.25171, 4.07016, -0.0484509, -0.000784021, -0.00122017, -0.00116107, -0.00395155, -0.0111164, 0.00435305, 0.0270304, -0.00139928, 0.0195261, 0.0255557, 0.12255, 0.179286, -0.00971592, -0.445689, 0.632209, -3.12549, -0.0591957, -0.117527, -0.0106308, -0.444516, 0.633323, -3.1302, -0.0527902, -0.100351, 0.0290408, -0.0188391, -0.0561817, 0.000698805, -0.0215336, -0.0387651
0.151184, 0.111347, -0.7735, -0.921383, -1.45692, -0.629431, 1.07016, -0.256703, 0.0505048, 0.024679, -0.113485, -0.0194477, -0.00616026, 0.00223525, 0.00063076, 1.11457, 16.1203, 19.1889, 15.9518, 1.25171, 4.04819, -0.0750012, -0.000810531, -0.00121669, -0.0011795, -0.00398425, -0.0112896, 0.00442286, 0.0282772, -0.00183394, 0.0201155, 0.0281917, 0.125895, 0.178382, -0.00968668, -0.445708, 0.632153, -3.12537, -0.0592682, -0.117726, -0.0106294, -0.44454, 0.633282, -3.13012, -0.0527551, -0.100281, 0.0294287, -0.0190533, -0.0568564, -0.000185283, -0.0222409, -0.0389553
0.152184, 0.111405, -0.773481, -0.921503, -1.45695, -0.629433, 1.07016, -0.256702, 0.0519462, 0.0223474, -0.114185, -0.0211901, -0.00439135, 0.00281259, 0.000895225, 1.18995, 16.0846, 19.2246, 15.9518, 1.2453, 4.01248, -0.0878186, -0.000836491, -0.00121421, -0.00119558, -0.00401085, -0.0114658, 0.00449009, 0.028134, -0.0016143, 0.0200009, 0.0274439, 0.124082, 0.183241, -0.00965706, -0.445727, 0.632096, -3.12524, -0.0593415, -0.117929, -0.010627, -0.444563, 0.633239, -3.13004, -0.0527252, -0.100209, 0.0298187, -0.0192678, -0.0575331, 0.000345359, -0.0222325, -0.0397371
0.153184, 0.111464, -0.773458, -0.921619, -1.45697, -0.629438, 1.07017, -0.256707, 0.0540445, 0.0236244, -0.112972, -0.0214658, -0.00355632, 0.00214632, -0.0010986, 1.22962, 16.0489, 19.1889, 15.9161, 1.25171, 4.00516, -0.0420422, -0.000860735, -0.00121248, -0.00121409, -0.00404376, -0.0116484, 0.00454935, 0.026605, -0.000930295, 0.0208816, 0.028306, 0.126173, 0.191257, -0.00962704, -0.445747, 0.632038, -3.12511, -0.0594156, -0.118133, -0.0106227, -0.444586, 0.633198, -3.12995, -0.0527083, -0.10013, 0.0302108, -0.0194827, -0.0582119, 0.00216624, -0.0217237, -0.0394179
0.154184, 0.11153, -0.773444, -0.921746, -1.45699, -0.629437, 1.07017, -0.256701, 0.0574375, 0.0180326, -0.117732, -0.0227948, -0.0017489, 0.0027533, 0.00123429, 1.18995, 16.16, 19.2643, 15.8011, 1.22699, 3.96945, -0.0951428, -0.000889054, -0.00120832, -0.0012316, -0.00407116, -0.0118143, 0.00462314, 0.0279817, -0.00164778, 0.0195703, 0.0248093, 0.121005, 0.192734, -0.00959664, -0.445766, 0.631979, -3.12498, -0.0594907, -0.11834, -0.0106218, -0.444611, 0.633155, -3.12986, -0.0526699, -0.100079, 0.0306049, -0.019698, -0.0588927, 0.00131268, -0.0226913, -0.0415234
0.155184, 0.111584, -0.773421, -0.921872, -1.45702, -0.629439, 1.07017, -0.256707, 0.0568985, 0.0208117, -0.122864, -0.0277306, -0.00186081, 0.00183553, -0.00114383, 1.26533, 16.1203, 19.2643, 15.8408, 1.23981, 3.96945, -0.0420422, -0.000917903, -0.00120662, -0.00124613, -0.0040916, -0.0120047, 0.00469048, 0.028483, -0.00185976, 0.0173634, 0.0194731, 0.12874, 0.195597, -0.00956583, -0.445786, 0.63192, -3.12485, -0.0595666, -0.11855, -0.010621, -0.444634, 0.633108, -3.12977, -0.0526429, -0.0999921, 0.0310012, -0.0199136, -0.0595756, 0.00138207, -0.0231073, -0.0444516
0.156184, 0.111642, -0.773397, -0.922002, -1.45705, -0.629439, 1.07018, -0.256705, 0.0577585, 0.0226457, -0.124234, -0.0262224, -0.00140566, 0.00227484, -0.000253928, 1.305, 16.0846, 19.3, 15.8011, 1.23981, 3.94107, -0.0557752, -0.000946652, -0.00120379, -0.0012619, -0.00411516, -0.0121925, 0.00476666, 0.0285016, -0.00197696, 0.0182296, 0.020946, 0.130065, 0.196452, -0.00953463, -0.445806, 0.63186, -3.12472, -0.0596434, -0.118761, -0.0106198, -0.444658, 0.633061, -3.12967, -0.052603, -0.0999114, 0.0313996, -0.0201295, -0.0602603, 0.001699, -0.0234579, -0.0442801
0.157184, 0.111702, -0.77338, -0.922138, -1.45708, -0.62944, 1.07018, -0.2567, 0.0552342, 0.0182523, -0.12711, -0.0261846, -0.0012644, 0.00151656, 0.00152614, 1.34071, 16.16, 19.4111, 15.8011, 1.2453, 3.94107, -0.101552, -0.000978347, -0.00120061, -0.00127512, -0.00413121, -0.0123792, 0.00484717, 0.0322823, -0.00215988, 0.0180029, 0.0194983, 0.127012, 0.192525, -0.00950303, -0.445826, 0.6318, -3.12458, -0.059721, -0.118976, -0.0106209, -0.444683, 0.633012, -3.12957, -0.0525576, -0.0998344, 0.0318, -0.0203457, -0.060947, -0.00164538, -0.0239992, -0.0454881
0.158184, 0.111766, -0.773355, -0.922265, -1.45711, -0.62944, 1.07018, -0.256706, 0.0552444, 0.0177964, -0.129626, -0.0249082, -0.00117317, 0.00101104, -0.000949265, 1.305, 16.1203, 19.4111, 15.7654, 1.25171, 3.94107, -0.0484509, -0.00100392, -0.00119852, -0.00129242, -0.00415796, -0.0125723, 0.00490899, 0.0338709, -0.00238061, 0.0183427, 0.0193151, 0.127012, 0.194986, -0.00947103, -0.445847, 0.631738, -3.12445, -0.0597996, -0.119192, -0.0106158, -0.444707, 0.632965, -3.12947, -0.0525417, -0.0997507, 0.0322025, -0.0205621, -0.0616356, -0.00284491, -0.0245052, -0.0459672
0.159184, 0.111821, -0.773336, -0.922398, -1.45714, -0.62944, 1.07018, -0.256697, 0.0515991, 0.0178393, -0.129226, -0.0269315, -0.000851776, 0.00094529, 0.0015712, 1.41608, 16.1957, 19.4507, 15.7297, 1.25171, 3.93374, -0.10796, -0.00103737, -0.00119674, -0.00130871, -0.00417887, -0.012763, 0.00499908, 0.0352112, -0.00177904, 0.0186725, 0.0197693, 0.129083, 0.192835, -0.00943863, -0.445867, 0.631676, -3.12431, -0.059879, -0.119411, -0.0106182, -0.444732, 0.632917, -3.12937, -0.0524831, -0.0996726, 0.032607, -0.0207789, -0.062326, -0.00382617, -0.0241806, -0.0464292
0.160184, 0.111885, -0.773315, -0.922531, -1.45718, -0.629437, 1.07018, -0.256699, 0.0543076, 0.0166248, -0.132154, -0.0289549, -0.000620096, 0.00141009, -0.000173234, 1.41608, 16.1957, 19.4864, 15.69, 1.25171, 3.91269, -0.0750012, -0.00106497, -0.00119443, -0.00132468, -0.00420192, -0.0129543, 0.00506575, 0.0351641, -0.00213142, 0.0178542, 0.0180079, 0.129935, 0.198721, -0.00940582, -0.445888, 0.631614, -3.12417, -0.0599593, -0.119633, -0.0106142, -0.444756, 0.632868, -3.12927, -0.0524617, -0.0995963, 0.0330136, -0.0209959, -0.0630183, -0.00329872, -0.024739, -0.0479439
0.161184, 0.111946, -0.773298, -0.922665, -1.45721, -0.629438, 1.07018, -0.256703, 0.0569984, 0.0161439, -0.131361, -0.0302059, -0.000927299, 0.000940056, -0.00157355, 1.41608, 16.3068, 19.5261, 15.6543, 1.26453, 3.91269, -0.0356336, -0.0010966, -0.00119251, -0.00134092, -0.00422412, -0.0131469, 0.00513589, 0.0340585, -0.00168573, 0.0182692, 0.0185689, 0.131729, 0.206429, -0.0093726, -0.445909, 0.63155, -3.12403, -0.0600404, -0.119857, -0.0106139, -0.444781, 0.632819, -3.12916, -0.0524358, -0.0995203, 0.0334222, -0.0212132, -0.0637123, -0.00183949, -0.0244799, -0.0481391
0.162184, 0.112007, -0.77328, -0.922805, -1.45725, -0.629438, 1.07018, -0.256697, 0.0584735, 0.0178787, -0.131368, -0.0323547, -0.000851038, 0.000897971, 0.000883746, 1.41608, 16.3425, 19.5975, 15.6543, 1.27002, 3.90536, -0.0878186, -0.00112939, -0.00118989, -0.00135481, -0.00424139, -0.0133462, 0.00521985, 0.0327775, -0.00128981, 0.0183437, 0.0185925, 0.135829, 0.209092, -0.00933897, -0.445931, 0.631486, -3.12389, -0.0601225, -0.120083, -0.0106142, -0.444807, 0.632766, -3.12905, -0.0523898, -0.099436, 0.0338328, -0.0214307, -0.0644081, -0.000175837, -0.0242586, -0.0486623
0.163184, 0.11207, -0.773259, -0.922941, -1.45729, -0.629436, 1.07019, -0.256701, 0.05936, 0.0222588, -0.134713, -0.034647, 8.87687e-05, 0.000869914, -0.000597631, 1.45576, 16.3782, 19.6729, 15.69, 1.25171, 3.89804, -0.0557752, -0.00115805, -0.00118838, -0.0013701, -0.00426284, -0.0135489, 0.00528738, 0.0318434, -0.00135692, 0.0175531, 0.0162317, 0.142152, 0.213036, -0.00930493, -0.445952, 0.631421, -3.12375, -0.0602054, -0.120312, -0.01061, -0.444831, 0.632714, -3.12895, -0.0523701, -0.0993494, 0.0342455, -0.0216484, -0.0651057, 0.00122848, -0.0244991, -0.0500821
0.164184, 0.112134, -0.773241, -0.923071, -1.45732, -0.629436, 1.07019, -0.256697, 0.0595319, 0.0205803, -0.131074, -0.0362188, -0.000194711, 0.000579942, 0.000788374, 1.49146, 16.4893, 19.6372, 15.6146, 1.25812, 3.89804, -0.0878186, -0.00118794, -0.00118787, -0.0013888, -0.00429033, -0.0137487, 0.00536117, 0.0312058, -0.000328689, 0.018731, 0.018699, 0.142701, 0.217818, -0.00927048, -0.445974, 0.631356, -3.1236, -0.0602893, -0.120544, -0.010607, -0.444855, 0.632665, -3.12884, -0.0523412, -0.0992699, 0.0346601, -0.0218663, -0.0658049, 0.00214572, -0.023689, -0.0495491
0.165184, 0.112196, -0.773213, -0.92321, -1.45736, -0.629438, 1.07019, -0.256696, 0.0627157, 0.0238177, -0.136858, -0.0358227, -0.000820374, 0.000929163, 0.00079685, 1.53114, 16.4178, 19.7086, 15.5789, 1.27643, 3.88339, -0.0951428, -0.0012174, -0.00118636, -0.00140468, -0.0043129, -0.0139659, 0.00543888, 0.0312172, -0.00136312, 0.0180021, 0.0170616, 0.147269, 0.218595, -0.00923561, -0.445996, 0.63129, -3.12346, -0.060374, -0.120777, -0.010603, -0.44488, 0.632612, -3.12874, -0.0523077, -0.0991653, 0.0350768, -0.0220844, -0.0665058, 0.00264525, -0.0249331, -0.0509968
0.166184, 0.112264, -0.773191, -0.923348, -1.4574, -0.629438, 1.07019, -0.256703, 0.0665428, 0.0202126, -0.136165, -0.0385392, -0.000556214, 0.000619442, -0.00167281, 1.53114, 16.4536, 19.6729, 15.5432, 1.27643, 3.88339, -0.0356336, -0.0012455, -0.00118557, -0.00142063, -0.00433332, -0.0141789, 0.0055012, 0.0301654, -0.000913142, 0.0178054, 0.0162991, 0.146428, 0.229499, -0.00920033, -0.446018, 0.631223, -3.12331, -0.0604596, -0.121014, -0.0105971, -0.444905, 0.632559, -3.12862, -0.052299, -0.0990701, 0.0354954, -0.0223027, -0.0672083, 0.004107, -0.0246625, -0.0518129
0.167184, 0.112331, -0.77317, -0.923496, -1.45745, -0.629438, 1.0702, -0.256695, 0.0639452, 0.0206436, -0.138272, -0.0402223, -0.000377783, 0.00119285, 0.00156356, 1.60651, 16.4893, 19.7483, 15.5035, 1.27643, 3.86233, -0.10796, -0.0012771, -0.00118239, -0.00143365, -0.00435103, -0.0143924, 0.00558608, 0.0317855, -0.000963056, 0.0175854, 0.0159185, 0.148598, 0.225568, -0.00916462, -0.446041, 0.631155, -3.12316, -0.0605461, -0.121253, -0.0105941, -0.444932, 0.632502, -3.12851, -0.0522565, -0.0989761, 0.0359161, -0.0225212, -0.0679124, 0.00293033, -0.0249929, -0.0528682
0.168184, 0.112401, -0.773151, -0.923644, -1.4575, -0.629438, 1.0702, -0.256698, 0.0638596, 0.0201451, -0.142098, -0.0420336, -0.000257086, 0.0010665, 5.90264e-05, 1.60651, 16.5646, 19.784, 15.4678, 1.27643, 3.85501, -0.0814099, -0.00130799, -0.00117997, -0.00144699, -0.00436658, -0.014608, 0.00565653, 0.0331953, -0.0013068, 0.016665, 0.0134973, 0.15044, 0.227614, -0.00912849, -0.446063, 0.631087, -3.12301, -0.0606336, -0.121494, -0.0105899, -0.444959, 0.632444, -3.12839, -0.0522373, -0.0988812, 0.0363387, -0.0227398, -0.068618, 0.00203102, -0.0255971, -0.0546117
0.169184, 0.112473, -0.773133, -0.923794, -1.45755, -0.62944, 1.0702, -0.2567, 0.0659943, 0.0199483, -0.142782, -0.0477628, -0.000853482, 0.000711002, -0.00165607, 1.64619, 16.636, 19.8594, 15.5035, 1.29474, 3.85501, -0.0356336, -0.00133804, -0.00117744, -0.00145791, -0.00437952, -0.0148306, 0.0057251, 0.0318727, -0.000903439, 0.0153421, 0.0108864, 0.155684, 0.236144, -0.00909194, -0.446086, 0.631018, -3.12286, -0.0607219, -0.121738, -0.0105843, -0.444986, 0.632384, -3.12827, -0.0522223, -0.0987778, 0.0367632, -0.0229586, -0.0693252, 0.0038577, -0.0253436, -0.0565343
0.170184, 0.112544, -0.773115, -0.923942, -1.4576, -0.629436, 1.0702, -0.256696, 0.0659071, 0.0197885, -0.145507, -0.0458446, -0.000334571, 0.000474001, 0.000828733, 1.75727, 16.7114, 19.8951, 15.3925, 1.28833, 3.85501, -0.0878186, -0.00136995, -0.00117597, -0.00147237, -0.00439482, -0.015045, 0.00580226, 0.0335238, -0.00118538, 0.0158815, 0.0110509, 0.155136, 0.233332, -0.00905497, -0.446109, 0.630949, -3.12271, -0.0608111, -0.121984, -0.0105805, -0.445012, 0.632326, -3.12814, -0.0521947, -0.0986899, 0.0371897, -0.0231774, -0.0700339, 0.00260678, -0.0259207, -0.0568442
0.171184, 0.112621, -0.77309, -0.924084, -1.45766, -0.629441, 1.07021, -0.256703, 0.0689515, 0.0191989, -0.141826, -0.0506466, -0.000937331, 0.000587268, -0.00161765, 1.75727, 16.6718, 19.8237, 15.4282, 1.30755, 3.84768, -0.0292249, -0.00139318, -0.00117536, -0.00148596, -0.00441522, -0.0152816, 0.00585442, 0.0306407, -0.000116429, 0.0160662, 0.0120799, 0.158981, 0.246373, -0.00901756, -0.446132, 0.630878, -3.12255, -0.0609012, -0.122233, -0.0105676, -0.445038, 0.632267, -3.12803, -0.0522068, -0.0985704, 0.0376182, -0.0233964, -0.0707441, 0.00584873, -0.0249686, -0.0571346
0.172184, 0.112701, -0.773073, -0.924239, -1.45771, -0.629439, 1.07021, -0.256699, 0.0727233, 0.0150749, -0.146391, -0.0527074, -0.000829993, 0.00066278, 0.000379629, 1.79694, 16.7828, 19.9347, 15.2814, 1.31305, 3.84036, -0.0685925, -0.00142239, -0.00117232, -0.00149861, -0.00443004, -0.0155021, 0.00592608, 0.0316163, -0.000814538, 0.0146207, 0.00870008, 0.157365, 0.248368, -0.00897973, -0.446156, 0.630807, -3.12239, -0.0609922, -0.122484, -0.01056, -0.445066, 0.632206, -3.1279, -0.0521898, -0.0984782, 0.0380486, -0.0236155, -0.0714557, 0.0054455, -0.025901, -0.0593794
0.173184, 0.112775, -0.773053, -0.924388, -1.45777, -0.629439, 1.07022, -0.256698, 0.0747888, 0.016958, -0.14732, -0.0562289, -0.000791929, 0.00538616, -0.000492899, 1.90803, 16.8225, 19.9347, 15.3171, 1.31946, 3.83304, -0.0484509, -0.00144998, -0.00117209, -0.00150929, -0.00444074, -0.0157396, 0.00599162, 0.0295705, -0.00139235, 0.0144312, 0.0114532, 0.160237, 0.255018, -0.00894147, -0.44618, 0.630735, -3.12224, -0.0610841, -0.122738, -0.0105503, -0.445091, 0.632143, -3.12777, -0.0521836, -0.0983616, 0.0384809, -0.0238347, -0.0721687, 0.00795167, -0.0266194, -0.0601342
0.174184, 0.112859, -0.773035, -0.924542, -1.45783, -0.629437, 1.07022, -0.256696, 0.0788781, 0.0144121, -0.148977, -0.0559356, -8.80738e-05, 0.00903575, 0.000180027, 1.90803, 16.8939, 19.9705, 15.2417, 1.30755, 3.82663, -0.0621838, -0.00147566, -0.00116961, -0.00152074, -0.00445517, -0.0159693, 0.00605403, 0.0289687, -0.00222651, 0.0148831, 0.0141822, 0.156303, 0.259985, -0.00890277, -0.446204, 0.630663, -3.12208, -0.061177, -0.122995, -0.0105383, -0.445119, 0.632079, -3.12764, -0.0521829, -0.09826, 0.0389151, -0.0240539, -0.0728831, 0.00898131, -0.0276608, -0.0603686
0.175184, 0.112944, -0.77301, -0.924693, -1.45789, -0.629439, 1.07023, -0.256693, 0.0803594, 0.0151513, -0.149323, -0.053676, -0.000737582, 0.00648006, 0.000832095, 1.9477, 16.8582, 19.9705, 15.0552, 1.32587, 3.83304, -0.0814099, -0.00150001, -0.0011681, -0.00153545, -0.0044756, -0.016209, 0.00611782, 0.0294322, -0.00180188, 0.0159837, 0.0145331, 0.158414, 0.261652, -0.00886363, -0.446228, 0.630589, -3.12192, -0.0612707, -0.123253, -0.0105248, -0.445146, 0.632019, -3.12752, -0.052181, -0.0981458, 0.0393512, -0.0242732, -0.0735988, 0.00885061, -0.0274976, -0.0600231
0.176184, 0.113023, -0.772988, -0.924846, -1.45796, -0.629437, 1.07023, -0.256699, 0.0799002, 0.0177981, -0.150584, -0.055937, -0.000933055, 0.00484022, -0.00137805, 2.05878, 16.8582, 20.0101, 15.0552, 1.33777, 3.83304, -0.0292249, -0.0015253, -0.00116774, -0.00154602, -0.00448655, -0.0164539, 0.00617285, 0.0293693, -0.00129814, 0.0156543, 0.012607, 0.164592, 0.266068, -0.00882406, -0.446252, 0.630515, -3.12175, -0.0613653, -0.123515, -0.0105116, -0.445173, 0.631953, -3.12739, -0.0521941, -0.0980255, 0.0397893, -0.0244926, -0.0743159, 0.00935513, -0.0272093, -0.0610616
0.177184, 0.113112, -0.772976, -0.925002, -1.45803, -0.629441, 1.07024, -0.256691, 0.0825989, 0.0170926, -0.151569, -0.0612763, -0.00106324, 0.00855314, 0.00176007, 2.05878, 16.9693, 19.9347, 15.0949, 1.34967, 3.82663, -0.101552, -0.00155019, -0.00116499, -0.00155563, -0.00450263, -0.0166934, 0.00623539, 0.0276192, -0.00168786, 0.0146897, 0.0132916, 0.166718, 0.270174, -0.00878406, -0.446277, 0.630441, -3.12159, -0.0614609, -0.123779, -0.0104973, -0.445201, 0.631886, -3.12726, -0.0521962, -0.0979164, 0.0402292, -0.0247119, -0.0750342, 0.0116278, -0.0277367, -0.0626138
0.178184, 0.113112, -0.772976, -0.925002, -1.45803, -0.629441, 1.07024, -0.256691, 0.0825989, 0.0170926, -0.151569, -0.0612763, -0.00106324, 0.00855314, 0.00176007, 2.05878, 16.9693, 19.9347, 15.0949, 1.34967, 3.82663, -0.101552, -0.00158317, -0.00119291, -0.00163361, -0.00465455, -0.0168702, 0.00629546, 0.0279909, -0.00143595, 0.0154428, 0.0145492, 0.167742, 0.272793, -0.00874361, -0.446302, 0.630365, -3.12142, -0.0615574, -0.124045, -0.0104973, -0.445201, 0.631886, -3.12726, -0.0521962, -0.0979164, 0.040671, -0.0249313, -0.0757538, 0.0116278, -0.0277367, -0.0626138
0.179184, 0.11329, -0.772944, -0.925337, -1.45817, -0.629437, 1.07027, -0.256695, 0.0878641, 0.01076, -0.158072, -0.0630195, -0.000619904, 0.0134876, 0.000217111, 2.09846, 17.0804, 20.0101, 15.0195, 1.34967, 3.81198, -0.0621838, -0.0016065, -0.001157, -0.00157315, -0.00452218, -0.0171727, 0.00635845, 0.0290998, -0.00345072, 0.0138484, 0.0138584, 0.161185, 0.278416, -0.00870271, -0.446327, 0.630289, -3.12126, -0.0616548, -0.124315, -0.0104738, -0.445262, 0.631747, -3.12698, -0.0522072, -0.0977049, 0.0411146, -0.0251507, -0.0764746, 0.0111719, -0.029986, -0.0650493
0.180184, 0.113382, -0.77293, -0.925501, -1.45824, -0.629438, 1.07028, -0.256692, 0.0869181, 0.0106553, -0.16034, -0.0643764, -0.000650794, 0.0106079, 0.00109418, 2.13416, 17.1161, 20.0458, 14.9799, 1.35608, 3.79733, -0.0878186, -0.00163299, -0.001153, -0.00158346, -0.00453862, -0.0174147, 0.00642107, 0.0307031, -0.00299766, 0.0133288, 0.010494, 0.16457, 0.278134, -0.00866138, -0.446352, 0.630212, -3.12109, -0.0617531, -0.124586, -0.0104598, -0.445293, 0.631678, -3.12685, -0.0522122, -0.0975997, 0.0415602, -0.0253701, -0.0771966, 0.0100419, -0.029809, -0.0664163
