alisrour97/Franka_experiments/Real_Robot_scripts/servo-franka/Data_video/log_dyn_PI1_k_ki_0.csv
Time,q1,q2,q3,q4,q5,q6,q7,dq1,dq2,dq3,dq4,dq5,dq6,dq7,t1,t2,t3,t4,t5,t6,t7,ex1,ex2,ex3,ex4,ex5,ex6,ev1,ev2,ev3,ev4,ev5,ev6,xd,yd,zd,uxd,uyd,uzd,x,y,z,ux,uy,uz,vxd,vyd,vzd,vx,vy,vz
4.88281e-07, 1.6915, -1.22454, -1.53804, -0.89997, -1.19186, 1.22875, -1.3027, -0.00530013, -0.00163923, 0.000676574, 0.00569952, 0.000868083, -6.2019e-05, -0.00109861, 0.0196001, 56.0828, 27.7503, 6.28357, 2.16083, 2.75821, -0.0750012, 0.00103639, -0.00150061, -0.000530291, -3.1876e-05, -0.00163624, -9.8491e-05, 0.0038802, 0.00401166, 0.000344109, 0.00433715, -0.0030792, -0.00847561, 0.471008, -0.543389, 0.335894, -2.08385, -2.16584, -0.129887, 0.469499, -0.542501, 0.336624, -2.08458, -2.1669, -0.128256, 0, 0, 0, -0.00385532, -0.00404775, -0.000141525
0.0121152, 1.69148, -1.22456, -1.53804, -0.899924, -1.19186, 1.22875, -1.3027, -0.00383505, -0.00287552, 0.00566289, 0.00428468, 0.000440862, -0.00247067, 0.001767, -0.317619, 56.1938, 27.6749, 6.35895, 2.13611, 2.75088, -0.127186, 0.0010076, -0.00152558, -0.000526108, -5.43637e-05, -0.00161768, -2.15572e-05, 0.00173097, 0.00246771, 0.000895124, 0.00539605, -0.00529997, -0.00638383, 0.471008, -0.543389, 0.335894, -2.08385, -2.16584, -0.129887, 0.469467, -0.542538, 0.336616, -2.08469, -2.1668, -0.128308, 3.52292e-06, 9.08712e-06, 4.70091e-06, -0.0023668, -0.00193851, 0.000694288
0.0131152, 1.69148, -1.22456, -1.53804, -0.899924, -1.19186, 1.22875, -1.3027, -0.00383505, -0.00287552, 0.00566289, 0.00428468, 0.000440862, -0.00247067, 0.001767, -0.317619, 56.1938, 27.6749, 6.35895, 2.13611, 2.75088, -0.127186, 0.00100757, -0.00152559, -0.0005261, -5.43746e-05, -0.00161767, -2.15451e-05, 0.00175961, 0.00247892, 0.000885046, 0.00538352, -0.00528081, -0.00640752, 0.471008, -0.543389, 0.335894, -2.08385, -2.16584, -0.129887, 0.469467, -0.542538, 0.336616, -2.08469, -2.1668, -0.128308, 1.40551e-05, 3.62649e-05, 1.87583e-05, -0.0023668, -0.00193851, 0.000694288
0.0141152, 1.69148, -1.22456, -1.53804, -0.899924, -1.19186, 1.22875, -1.3027, -0.00383505, -0.00287552, 0.00566289, 0.00428468, 0.000440862, -0.00247067, 0.001767, -0.317619, 56.1938, 27.6749, 6.35895, 2.13611, 2.75088, -0.127186, 0.00100751, -0.00152561, -0.000526079, -5.44041e-05, -0.00161766, -2.15121e-05, 0.00180717, 0.00249752, 0.000868311, 0.00536272, -0.005249, -0.00644687, 0.471008, -0.543389, 0.335894, -2.08385, -2.16584, -0.129887, 0.469467, -0.542538, 0.336616, -2.08469, -2.1668, -0.128308, 3.15416e-05, 8.14084e-05, 4.21042e-05, -0.0023668, -0.00193851, 0.000694288
0.0151152, 1.69148, -1.22456, -1.53804, -0.899924, -1.19186, 1.22875, -1.3027, -0.00383505, -0.00287552, 0.00566289, 0.00428468, 0.000440862, -0.00247067, 0.001767, -0.317619, 56.1938, 27.6749, 6.35895, 2.13611, 2.75088, -0.127186, 0.0010074, -0.00152566, -0.000526037, -5.44615e-05, -0.00161763, -2.1448e-05, 0.00187353, 0.00252348, 0.000844968, 0.00533373, -0.00520462, -0.00650173, 0.471008, -0.543389, 0.335894, -2.08385, -2.16584, -0.129887, 0.469467, -0.542538, 0.336616, -2.08469, -2.1668, -0.128308, 5.59279e-05, 0.000144393, 7.4671e-05, -0.0023668, -0.00193851, 0.000694288
0.0161152, 1.69148, -1.22456, -1.53804, -0.899924, -1.19186, 1.22875, -1.3027, -0.00383505, -0.00287552, 0.00566289, 0.00428468, 0.000440862, -0.00247067, 0.001767, -0.317619, 56.1938, 27.6749, 6.35895, 2.13611, 2.75088, -0.127186, 0.0010072, -0.00152573, -0.000525969, -5.45558e-05, -0.00161758, -2.13426e-05, 0.00195856, 0.00255671, 0.000815066, 0.00529662, -0.00514779, -0.00657199, 0.471008, -0.543389, 0.335894, -2.08385, -2.16584, -0.129886, 0.469467, -0.542538, 0.336616, -2.08469, -2.1668, -0.128308, 8.71593e-05, 0.000225094, 0.000116391, -0.0023668, -0.00193851, 0.000694288
0.0171152, 1.69148, -1.22456, -1.53804, -0.899924, -1.19186, 1.22875, -1.3027, -0.00383505, -0.00287552, 0.00566289, 0.00428468, 0.000440862, -0.00247067, 0.001767, -0.317619, 56.1938, 27.6749, 6.35895, 2.13611, 2.75088, -0.127186, 0.00100691, -0.00152585, -0.000525868, -5.46962e-05, -0.00161751, -2.11859e-05, 0.00206213, 0.00259717, 0.000778655, 0.00525148, -0.00507858, -0.00665751, 0.471008, -0.543389, 0.335894, -2.08385, -2.16584, -0.129886, 0.469467, -0.542538, 0.336616, -2.08469, -2.1668, -0.128308, 0.000125182, 0.000323387, 0.000167197, -0.0023668, -0.00193851, 0.000694288
0.0181157, 1.69148, -1.22456, -1.53804, -0.899924, -1.19186, 1.22875, -1.3027, -0.00383505, -0.00287552, 0.00566289, 0.00428468, 0.000440862, -0.00247067, 0.001767, -0.317619, 56.1938, 27.6749, 6.35895, 2.13611, 2.75088, -0.127186, 0.00100651, -0.001526, -0.000525727, -5.48917e-05, -0.00161742, -2.09678e-05, 0.00218409, 0.00264481, 0.000735783, 0.00519838, -0.00499709, -0.00675818, 0.471008, -0.543388, 0.335894, -2.08385, -2.16584, -0.129886, 0.469467, -0.542538, 0.336616, -2.08469, -2.1668, -0.128308, 0.00016994, 0.000439148, 0.000227022, -0.0023668, -0.00193851, 0.000694288
0.0191157, 1.69148, -1.22456, -1.53804, -0.899924, -1.19186, 1.22875, -1.3027, -0.00383505, -0.00287552, 0.00566289, 0.00428468, 0.000440862, -0.00247067, 0.001767, -0.317619, 56.1938, 27.6749, 6.35895, 2.13611, 2.75088, -0.127186, 0.00100598, -0.00152621, -0.00052554, -5.51512e-05, -0.00161729, -2.06783e-05, 0.00232433, 0.00269956, 0.000686501, 0.00513739, -0.00490343, -0.00687387, 0.471009, -0.543388, 0.335895, -2.08385, -2.16584, -0.129886, 0.469467, -0.542538, 0.336616, -2.08469, -2.1668, -0.128308, 0.000221382, 0.000572255, 0.000295798, -0.0023668, -0.00193851, 0.000694288
0.0201157, 1.69148, -1.22456, -1.53804, -0.899924, -1.19186, 1.22875, -1.3027, -0.00383505, -0.00287552, 0.00566289, 0.00428468, 0.000440862, -0.00247067, 0.001767, -0.317619, 56.1938, 27.6749, 6.35895, 2.13611, 2.75088, -0.127186, 0.0010053, -0.00152647, -0.000525301, -5.54837e-05, -0.00161713, -2.03076e-05, 0.00248272, 0.00276136, 0.000630857, 0.00506859, -0.00479768, -0.00700446, 0.471009, -0.543387, 0.335895, -2.08384, -2.16584, -0.129885, 0.469467, -0.542538, 0.336616, -2.08469, -2.1668, -0.128308, 0.000279451, 0.000722584, 0.000373459, -0.0023668, -0.00193851, 0.000694288
0.0211157, 1.69144, -1.22456, -1.53804, -0.899924, -1.19185, 1.22875, -1.3027, -0.00543437, 0.000691535, 0.000655665, -0.00194347, -2.16138e-05, -0.001707, -0.0017363, -0.734184, 56.1581, 27.6392, 6.39465, 2.10498, 2.74356, -0.0621838, 0.000989824, -0.0015459, -0.000527039, -6.81101e-05, -0.00160871, 5.63445e-06, 0.00239864, 0.003193, 0.000173915, -0.00135956, 0.000453979, -0.00240835, 0.471009, -0.543386, 0.335895, -2.08384, -2.16584, -0.129884, 0.469449, -0.542554, 0.336616, -2.08472, -2.16677, -0.128327, 0.000344096, 0.000890012, 0.000459939, -0.00275273, -0.00163541, 0.000355629
0.0221157, 1.69143, -1.22457, -1.53803, -0.899924, -1.19185, 1.22875, -1.3027, -0.00657618, -0.00121933, 0.00222912, -0.00145769, 0.0011043, -0.00129599, 0.0010126, -0.76989, 56.2296, 27.5638, 6.39465, 2.07477, 2.74356, -0.120778, 0.000988407, -0.00154688, -0.000524962, -7.58941e-05, -0.00159798, 1.20691e-05, 0.00291831, 0.00350476, -0.000294986, 0.00106316, -0.00221781, -0.00569959, 0.47101, -0.543385, 0.335896, -2.08384, -2.16584, -0.129884, 0.469448, -0.542554, 0.336614, -2.08472, -2.16676, -0.128345, 0.000415261, 0.00107442, 0.00055517, -0.00299126, -0.00190463, -8.33986e-05
0.0231157, 1.69143, -1.22457, -1.53804, -0.899924, -1.19185, 1.22875, -1.3027, -0.00728211, -0.0013861, -0.00249982, -0.00109332, 0.00121071, -0.00152502, -0.0020037, -0.809562, 56.1185, 27.6035, 6.39465, 2.06195, 2.75821, -0.0484509, 0.000983934, -0.00155056, -0.000519714, -6.4816e-05, -0.00159752, 1.191e-05, 0.0045108, 0.00492239, -0.00207508, -0.00304342, -0.00219043, -0.00611555, 0.47101, -0.543384, 0.335896, -2.08384, -2.16585, -0.129883, 0.469445, -0.542556, 0.336609, -2.08472, -2.16676, -0.128333, 0.000492895, 0.00127568, 0.000659086, -0.00433674, -0.00305956, -0.00194161
0.0241157, 1.69143, -1.22457, -1.53804, -0.899928, -1.19185, 1.22875, -1.3027, -0.00568648, -0.000214916, -0.00287437, -0.000820029, -0.000687061, 0.00201258, -0.0013358, -0.809562, 55.936, 27.3774, 6.39465, 1.97681, 2.80124, -0.0484509, 0.000983586, -0.00154993, -0.000517901, -6.80252e-05, -0.00159343, 8.37264e-06, 0.00482205, 0.00383163, -0.00133432, -0.00129699, 0.00248125, -0.00647155, 0.471011, -0.543383, 0.335897, -2.08384, -2.16585, -0.129882, 0.469446, -0.542555, 0.336608, -2.08471, -2.16676, -0.12834, 0.000576942, 0.00149367, 0.000771622, -0.00312547, -0.00321823, -0.0011788
0.0251157, 1.69143, -1.22457, -1.53805, -0.899934, -1.19185, 1.22875, -1.3027, -0.00617803, 0.00374226, -0.00705275, -0.00371215, 0.00190113, -0.000705866, 9.28051e-05, -0.734184, 55.7495, 27.306, 6.39465, 1.90265, 2.86532, -0.0750012, 0.000978641, -0.00155514, -0.000513169, -5.46138e-05, -0.00159523, 2.24003e-05, 0.00412914, 0.00456922, -0.00119544, -0.00718288, 0.00363472, -0.00727482, 0.471011, -0.543381, 0.335898, -2.08384, -2.16585, -0.129881, 0.469442, -0.542558, 0.336603, -2.08472, -2.16674, -0.12832, 0.00066735, 0.00172827, 0.000892711, -0.00379145, -0.00235112, -0.00079081
0.0261157, 1.69143, -1.22458, -1.53806, -0.89994, -1.19186, 1.22875, -1.3027, -0.00148931, 0.0012097, -0.00526418, -0.00594587, -0.000987171, -0.00181977, -0.00115884, -0.734184, 55.7892, 27.1552, 6.39465, 1.82941, 2.90835, -0.0420422, 0.000977582, -0.00155361, -0.000505449, -4.44742e-05, -0.00159283, 1.56351e-05, 0.00197497, 0.00171113, -0.00279645, -0.0100473, 0.00332364, 0.000279692, 0.471012, -0.543379, 0.335899, -2.08384, -2.16585, -0.129879, 0.469444, -0.542556, 0.336597, -2.0847, -2.16674, -0.128311, 0.000764066, 0.00197936, 0.00102229, -0.000975174, 0.000390002, -0.00199393
0.0271157, 1.69143, -1.22458, -1.53807, -0.899942, -1.19186, 1.22876, -1.30269, 0.000187391, 0.000138868, -0.00454025, -0.00672373, -0.00477495, -0.00102981, 0.000210786, -0.658806, 55.936, 27.1552, 6.35895, 1.79828, 2.90835, -0.0685925, 0.000969387, -0.00155681, -0.000497214, -3.6044e-05, -0.0015979, 3.26929e-05, 0.00206497, 0.000841702, -0.00339316, -0.0113308, 0.00600856, 0.000111314, 0.471013, -0.543377, 0.3359, -2.08384, -2.16585, -0.129878, 0.469441, -0.542561, 0.336588, -2.08472, -2.16673, -0.128293, 0.000867038, 0.00224682, 0.00116028, -2.22263e-05, 0.000696021, -0.0024853
0.0281157, 1.69143, -1.22458, -1.53808, -0.899947, -1.19187, 1.22876, -1.3027, 0.00171433, 0.001691, -0.00605481, -0.00821438, -0.00334937, -0.000277739, -0.00108018, -0.583427, 56.0074, 27.1195, 6.35895, 1.77997, 2.90103, -0.0356336, 0.000965438, -0.00155787, -0.00049421, -2.84663e-05, -0.00160741, 3.22779e-05, 0.00120771, -0.00023556, -0.00334536, -0.0122828, 0.00723374, 0.00369097, 0.471014, -0.543375, 0.335901, -2.08384, -2.16585, -0.129876, 0.469441, -0.542562, 0.336586, -2.08472, -2.16673, -0.128273, 0.000976211, 0.00253053, 0.00130664, 0.00113388, 0.00186277, -0.00219117
0.0291157, 1.69143, -1.22459, -1.53809, -0.899949, -1.19188, 1.22877, -1.30269, -0.00114669, 0.000240636, -0.0065443, -0.00850784, -0.00775825, 0.00565689, 0.000737941, -0.468376, 56.1938, 27.1909, 6.32324, 1.78638, 2.87265, -0.0750012, 0.000956564, -0.00155982, -0.000486292, -2.23882e-05, -0.00161706, 4.64566e-05, 0.00443769, 0.000897795, -0.00384644, -0.00955846, 0.0125152, -0.00264195, 0.471015, -0.543372, 0.335903, -2.08383, -2.16585, -0.129874, 0.46944, -0.542567, 0.336578, -2.08473, -2.16672, -0.128253, 0.00109153, 0.00283037, 0.00146128, 0.000214746, -0.00099541, -0.00299841
0.0301157, 1.69143, -1.22459, -1.53809, -0.899957, -1.1919, 1.22878, -1.3027, -0.00222644, -0.00194376, -0.00499086, -0.0103495, -0.0104872, 0.00529043, -0.00167818, -0.392998, 56.3049, 27.1909, 6.35895, 1.77997, 2.84427, -0.0164075, 0.000952286, -0.00155741, -0.000481928, -1.84344e-05, -0.00163269, 3.81717e-05, 0.00509114, 0.00128308, -0.00492595, -0.0108278, 0.0126423, -8.3105e-05, 0.471016, -0.543369, 0.335904, -2.08383, -2.16585, -0.129871, 0.469444, -0.542567, 0.336575, -2.08473, -2.16674, -0.128231, 0.00121295, 0.00314621, 0.00162416, -6.42194e-05, -0.0011743, -0.00399127
0.0311157, 1.69144, -1.22459, -1.53809, -0.899961, -1.19191, 1.22879, -1.3027, 0.000264999, -0.00259557, -0.00296302, -0.00692434, -0.00802934, 0.0073454, -0.000169351, -0.317619, 56.3763, 27.1552, 6.32324, 1.77997, 2.87997, -0.0420422, 0.000948515, -0.00155523, -0.000478818, -1.42305e-05, -0.00164637, 3.90498e-05, 0.00471511, -0.000234548, -0.00418666, -0.0050816, 0.0108722, -0.000598523, 0.471017, -0.543366, 0.335906, -2.08383, -2.16586, -0.129869, 0.469447, -0.542567, 0.336573, -2.08473, -2.16675, -0.12821, 0.00134042, 0.00347794, 0.00179519, 0.00159215, -0.000523025, -0.00307763
0.0321157, 1.69144, -1.2246, -1.53811, -0.89996, -1.19193, 1.22879, -1.30269, 7.83537e-05, -0.00238037, -0.00585507, -0.0034979, -0.0105415, 0.00866633, 0.0011078, -0.166862, 56.416, 27.306, 6.24786, 1.77356, 2.923, -0.0750012, 0.000937456, -0.0015597, -0.000472375, -4.83508e-06, -0.00166008, 5.74952e-05, 0.00739732, 0.00133129, -0.00460916, -0.00610709, 0.0139206, -0.00759802, 0.471019, -0.543362, 0.335908, -2.08383, -2.16586, -0.129866, 0.469444, -0.542573, 0.336567, -2.08475, -2.16673, -0.128181, 0.00147388, 0.00382545, 0.00197432, 0.000242496, -0.00282256, -0.00368473
0.0331157, 1.69145, -1.22459, -1.53811, -0.899967, -1.19195, 1.2288, -1.3027, 0.00192448, 0.00122006, -0.00813087, -0.00592492, -0.0120102, 0.00452985, -0.00119425, -0.0914839, 56.3049, 27.3417, 6.24786, 1.75525, 2.98068, -0.0228162, 0.000934942, -0.00155622, -0.000473503, 2.93703e-06, -0.00168756, 4.67163e-05, 0.0062321, 0.00128888, -0.00423482, -0.0136811, 0.0173354, -0.00331844, 0.47102, -0.543358, 0.33591, -2.08382, -2.16586, -0.129863, 0.46945, -0.542572, 0.336569, -2.08474, -2.16676, -0.128143, 0.00161328, 0.0041886, 0.00216148, 0.000396088, -0.00136495, -0.00294838
0.0341157, 1.69145, -1.22459, -1.53812, -0.899971, -1.19197, 1.22881, -1.30269, 0.0047383, 0.00189779, -0.00671511, -0.0036438, -0.0128889, 0.00663761, 0.00559994, 0.059273, 56.2653, 27.3774, 6.20819, 1.73053, 3.03012, -0.0685925, 0.000929881, -0.00155507, -0.000471372, 1.09077e-05, -0.00170695, 5.21055e-05, 0.00608967, -0.000148352, -0.00311946, -0.0104774, 0.0198307, -0.0092784, 0.471022, -0.543354, 0.335912, -2.08382, -2.16586, -0.12986, 0.469452, -0.542572, 0.336569, -2.08475, -2.16676, -0.12811, 0.00175856, 0.00456728, 0.0023566, 0.00201194, -0.000958493, -0.00167313
0.0351157, 1.69145, -1.22459, -1.53812, -0.899971, -1.19197, 1.22881, -1.30269, 0.0047383, 0.00189779, -0.00671511, -0.0036438, -0.0128889, 0.00663761, 0.00559994, 0.059273, 56.2653, 27.3774, 6.20819, 1.73053, 3.03012, -0.0685925, 0.000924867, -0.00155702, -0.000469609, 8.45939e-06, -0.00170577, 5.48208e-05, 0.00650483, 1.25965e-05, -0.00326475, -0.0106546, 0.0201066, -0.00961784, 0.471024, -0.543349, 0.335915, -2.08382, -2.16586, -0.129856, 0.469452, -0.542572, 0.336569, -2.08475, -2.16676, -0.12811, 0.00190969, 0.00496137, 0.00255964, 0.00201194, -0.000958493, -0.00167313
0.0361157, 1.69146, -1.22459, -1.53811, -0.899982, -1.19199, 1.22881, -1.30269, 0.00606769, 0.00276615, -0.00315079, -0.0028956, -0.0147451, 0.00318717, 0.00266695, 0.245735, 56.3406, 27.306, 6.20819, 1.73694, 3.0878, -0.0292249, 0.000921077, -0.00155442, -0.000464632, 1.47346e-05, -0.0017183, 4.63554e-05, 0.00574848, -0.000169389, -0.00191246, -0.0113664, 0.0208158, -0.0053013, 0.471026, -0.543344, 0.335917, -2.08381, -2.16587, -0.129852, 0.469457, -0.54257, 0.336566, -2.08474, -2.16678, -0.128087, 0.0020666, 0.00537076, 0.00277051, 0.00237239, -3.08211e-06, -1.50884e-05
0.0371157, 1.69147, -1.2246, -1.53812, -0.899994, -1.19202, 1.22884, -1.30269, 0.00598881, -0.00226495, -0.00349867, -0.00978317, -0.0145274, 0.00880441, 0.00337606, 0.737679, 56.5231, 27.417, 6.0614, 1.66369, 3.14548, -0.0750012, 0.000910913, -0.00154869, -0.000450556, 2.8729e-05, -0.00174894, 5.10599e-05, 0.00528533, -0.00257321, -0.00560497, -0.0105636, 0.0193255, -0.000429769, 0.471028, -0.543338, 0.33592, -2.08381, -2.16587, -0.129848, 0.469465, -0.542572, 0.336553, -2.08475, -2.16679, -0.128036, 0.00222924, 0.00579533, 0.00298915, 0.0047858, 0.00154542, -0.00344312
0.0381157, 1.69149, -1.2246, -1.53813, -0.900004, -1.19204, 1.22885, -1.30269, 0.00528141, -0.000477756, -0.00550339, -0.0129159, -0.0148757, 0.0108543, 8.4668e-06, 0.888436, 56.4874, 27.417, 6.02173, 1.63898, 3.16653, -0.00999879, 0.000908537, -0.00154091, -0.000447461, 3.23764e-05, -0.0017726, 3.21704e-05, 0.00566359, -0.00264785, -0.00564572, -0.0121293, 0.0230963, 0.00348954, 0.47103, -0.543332, 0.335923, -2.0838, -2.16587, -0.129843, 0.469475, -0.542567, 0.336553, -2.08474, -2.16683, -0.128005, 0.00239756, 0.00623496, 0.00321551, 0.00504074, 0.00162095, -0.00331795
0.0391157, 1.6915, -1.22461, -1.53813, -0.900008, -1.19206, 1.22886, -1.30269, 0.00740609, -0.00453245, -0.00486528, -0.010517, -0.0202946, 0.0122851, 0.00206237, 1.18995, 56.6739, 27.4528, 5.91064, 1.62616, 3.18851, -0.0621838, 0.000899351, -0.00153755, -0.000435545, 3.3833e-05, -0.00178158, 3.75003e-05, 0.00738616, -0.0029561, -0.00761745, -0.012576, 0.0243311, -0.00039482, 0.471033, -0.543326, 0.335927, -2.0838, -2.16588, -0.129838, 0.469481, -0.542568, 0.336543, -2.08474, -2.16683, -0.127989, 0.00257152, 0.00668953, 0.00344951, 0.00551297, 0.000690999, -0.00530748
0.0401157, 1.69151, -1.22462, -1.53814, -0.900011, -1.19209, 1.22888, -1.30269, 0.00980044, -0.00374604, -0.00656861, -0.00796439, -0.0201967, 0.0176532, -0.00046491, 1.45576, 56.7096, 27.4528, 5.76385, 1.62616, 3.22421, -0.00999879, 0.000890367, -0.00153386, -0.00042991, 3.74141e-05, -0.00180674, 3.22859e-05, 0.00839245, -0.00421706, -0.0072294, -0.00865321, 0.0279754, 0.00106345, 0.471035, -0.543319, 0.33593, -2.08379, -2.16588, -0.129833, 0.469487, -0.542569, 0.336539, -2.08474, -2.16685, -0.127955, 0.00275106, 0.00715892, 0.0036911, 0.00700188, 0.000158869, -0.00487691
0.0411157, 1.69152, -1.22461, -1.53815, -0.900011, -1.19211, 1.22889, -1.30268, 0.00709101, -0.00241426, -0.00567195, -0.00616497, -0.0200871, 0.021902, 0.00169256, 1.79694, 56.7096, 27.4885, 5.6131, 1.62616, 3.25259, -0.0621838, 0.000878147, -0.00153393, -0.00042564, 4.01702e-05, -0.00183332, 5.00887e-05, 0.0107435, -0.00302018, -0.00554012, -0.00295394, 0.0313544, -0.00530974, 0.471038, -0.543312, 0.335934, -2.08379, -2.16589, -0.129827, 0.46949, -0.542573, 0.336537, -2.08477, -2.16685, -0.127917, 0.00293613, 0.00764302, 0.00394021, 0.00613683, -0.00198709, -0.00328849
0.0421157, 1.69154, -1.22462, -1.53816, -0.90002, -1.19213, 1.22891, -1.30269, 0.00873225, -0.00238239, -0.00736644, -0.00671509, -0.019789, 0.0208622, -0.00102339, 1.98341, 56.7453, 27.4885, 5.53772, 1.62616, 3.26724, -0.00267457, 0.000874177, -0.00152219, -0.0004173, 4.31864e-05, -0.00185854, 2.62746e-05, 0.0105607, -0.00340617, -0.00655994, -0.00593671, 0.0311837, -0.00163677, 0.471041, -0.543304, 0.335938, -2.08378, -2.16589, -0.129821, 0.469505, -0.542567, 0.336532, -2.08475, -2.16689, -0.127885, 0.00312667, 0.00814172, 0.00419678, 0.00666949, -0.00113511, -0.00402218
0.0431157, 1.69157, -1.22463, -1.53816, -0.900018, -1.19216, 1.22894, -1.30269, 0.0139648, -0.00497519, -0.00849346, -0.00753186, -0.0206265, 0.0246184, 0.00105238, 2.13416, 56.8921, 27.4885, 5.35126, 1.65729, 3.2883, -0.0484509, 0.000866816, -0.00151101, -0.000406275, 4.29341e-05, -0.00187943, 2.56418e-05, 0.00957506, -0.00675774, -0.00872782, -0.00568513, 0.0318049, 0.000954477, 0.471044, -0.543295, 0.335942, -2.08378, -2.16589, -0.129815, 0.469519, -0.542564, 0.336524, -2.08475, -2.16691, -0.127858, 0.00332265, 0.00865489, 0.00446074, 0.0100991, 0.000822023, -0.00584701
0.0441157, 1.69159, -1.22463, -1.53818, -0.900025, -1.19218, 1.22896, -1.30269, 0.013468, -0.00420975, -0.0149823, -0.00773783, -0.0215665, 0.0266905, 0.00123963, 2.32459, 56.9318, 27.6035, 5.27588, 1.69391, 3.324, -0.0621838, 0.000857691, -0.00150323, -0.000394216, 5.75538e-05, -0.00190954, 1.99253e-05, 0.0119735, -0.0054295, -0.0105907, -0.0101835, 0.0351534, -0.00344865, 0.471048, -0.543286, 0.335947, -2.08377, -2.1659, -0.129808, 0.46953, -0.542562, 0.336515, -2.08475, -2.16693, -0.127805, 0.003524, 0.00918243, 0.00473204, 0.00899248, -0.000786016, -0.0077473
0.0451157, 1.69161, -1.22463, -1.53819, -0.900022, -1.19221, 1.22897, -1.30269, 0.0154722, -0.00361542, -0.0100461, -0.00519152, -0.0258094, 0.0233988, -0.000846945, 2.55073, 56.9675, 27.5638, 5.08942, 1.70581, 3.36703, -0.0164075, 0.00084837, -0.00149526, -0.000386705, 5.87374e-05, -0.00193589, 1.11009e-05, 0.0118182, -0.00554155, -0.00873164, -0.00999656, 0.0374877, -0.00113168, 0.471051, -0.543277, 0.335952, -2.08376, -2.1659, -0.129801, 0.469542, -0.54256, 0.33651, -2.08474, -2.16696, -0.12777, 0.00373068, 0.00972421, 0.00501061, 0.00937272, -0.00037238, -0.00561229
0.0461157, 1.69164, -1.22464, -1.5382, -0.900024, -1.19223, 1.229, -1.30269, 0.0167985, -0.004061, -0.0114562, -0.0020922, -0.0237086, 0.0211946, 0.000909977, 2.77686, 57.0389, 27.6035, 4.97833, 1.70032, 3.40365, -0.0557752, 0.000839352, -0.00148542, -0.00037582, 6.11931e-05, -0.00196078, 1.15305e-05, 0.0124253, -0.00496122, -0.00953071, -0.0111769, 0.0344804, -0.00473387, 0.471055, -0.543267, 0.335957, -2.08375, -2.16591, -0.129793, 0.469555, -0.542557, 0.336503, -2.08475, -2.16698, -0.127735, 0.00394263, 0.0102801, 0.00529638, 0.00899798, -0.000316696, -0.00619224
0.0471157, 1.69166, -1.22464, -1.53822, -0.900024, -1.19226, 1.22902, -1.30269, 0.0151837, -0.00269254, -0.0123116, -0.00285811, -0.0224867, 0.0246339, -0.000601644, 3.11805, 57.0389, 27.6392, 4.86725, 1.70032, 3.43204, -0.0228162, 0.000826424, -0.00147951, -0.000368018, 6.06278e-05, -0.00199175, 1.08138e-05, 0.0136787, -0.00458615, -0.00895826, -0.00862173, 0.0370157, -0.00465621, 0.471059, -0.543256, 0.335962, -2.08375, -2.16592, -0.129785, 0.469565, -0.542558, 0.336499, -2.08476, -2.167, -0.127696, 0.00415982, 0.0108501, 0.00558931, 0.00890621, -0.00108756, -0.00551721
0.0481157, 1.69169, -1.22464, -1.53823, -0.900021, -1.19228, 1.22905, -1.30268, 0.0166664, -0.00271195, -0.0152422, -0.000260253, -0.0210334, 0.0226975, 0.000828914, 3.34419, 57.0786, 27.6392, 4.75616, 1.6875, 3.45309, -0.0557752, 0.000815273, -0.00146942, -0.000358342, 6.00465e-05, -0.00202179, 1.13737e-05, 0.01453, -0.00389552, -0.0101101, -0.011439, 0.0352622, -0.0083195, 0.471064, -0.543245, 0.335968, -2.08374, -2.16592, -0.129777, 0.46958, -0.542556, 0.336493, -2.08476, -2.16703, -0.127658, 0.00438218, 0.0114339, 0.00588931, 0.00842773, -0.00119529, -0.00646578
0.0491157, 1.69171, -1.22465, -1.53824, -0.900024, -1.19231, 1.22908, -1.30269, 0.0180551, -0.00347008, -0.0135899, 3.95419e-05, -0.0205918, 0.0271817, -0.00113583, 3.57032, 57.15, 27.6035, 4.71649, 1.6875, 3.43936, -0.00999879, 0.000804771, -0.00145771, -0.000348044, 5.49504e-05, -0.00205124, -2.32294e-06, 0.014737, -0.00553927, -0.00982521, -0.00629281, 0.036688, -0.00479305, 0.471068, -0.543234, 0.335974, -2.08373, -2.16593, -0.129768, 0.469596, -0.542552, 0.336487, -2.08476, -2.16707, -0.127626, 0.00460967, 0.0120315, 0.00619634, 0.0103146, -0.000778459, -0.00595919
0.0501157, 1.69174, -1.22465, -1.53826, -0.90002, -1.19234, 1.22911, -1.30268, 0.01915, -0.00323517, -0.0150236, -0.000995216, -0.02009, 0.0250664, 0.00118079, 3.79646, 57.1896, 27.6749, 4.60541, 1.6875, 3.44668, -0.0621838, 0.000790987, -0.00144746, -0.000336398, 5.50424e-05, -0.00208525, 2.67864e-06, 0.0145456, -0.00555042, -0.0108079, -0.0100595, 0.0361083, -0.00617186, 0.471073, -0.543221, 0.335981, -2.08372, -2.16594, -0.129759, 0.469611, -0.542551, 0.336479, -2.08477, -2.16709, -0.127581, 0.00484224, 0.0126428, 0.00651033, 0.0105159, 0.000173542, -0.00658611
0.0511157, 1.69176, -1.22464, -1.53828, -0.900028, -1.19236, 1.22914, -1.30268, 0.0182026, -0.000388862, -0.0133012, -0.00526715, -0.0238624, 0.0283163, -0.00066694, 4.09797, 57.1143, 27.6392, 4.64111, 1.66919, 3.44668, -0.0228162, 0.000778633, -0.00143797, -0.000330713, 5.03001e-05, -0.00212744, -4.63239e-06, 0.0148098, -0.00614046, -0.00901176, -0.0094131, 0.0443111, -0.00253567, 0.471078, -0.543208, 0.335987, -2.08371, -2.16594, -0.129749, 0.469626, -0.542549, 0.336478, -2.08478, -2.16713, -0.127535, 0.00507984, 0.0132677, 0.00683122, 0.0114173, 0.000285326, -0.00455053
0.0521157, 1.69179, -1.22465, -1.5383, -0.900022, -1.19239, 1.22918, -1.30269, 0.0192252, -0.00285419, -0.0129773, -0.00166645, -0.0231139, 0.0295882, -0.00118767, 4.3241, 57.2253, 27.6392, 4.53003, 1.68201, 3.47507, -0.00267457, 0.000761844, -0.00142887, -0.000317048, 4.46447e-05, -0.00215644, -3.33724e-06, 0.0162472, -0.00606979, -0.0100195, -0.00660719, 0.042009, -0.00424702, 0.471083, -0.543195, 0.335994, -2.0837, -2.16595, -0.129738, 0.46964, -0.54255, 0.336469, -2.08479, -2.16715, -0.127501, 0.00532241, 0.013906, 0.00715894, 0.0116044, -0.000343162, -0.00543871
0.0531157, 1.69183, -1.22465, -1.53832, -0.900025, -1.19242, 1.22921, -1.30268, 0.0235058, -0.00106494, -0.0145686, -0.00251129, -0.0217814, 0.0301396, 0.00117712, 4.39948, 57.1896, 27.7146, 4.56573, 1.6756, 3.5181, -0.0557752, 0.000752655, -0.00141309, -0.000305158, 4.88487e-05, -0.00219293, -1.18485e-05, 0.0147358, -0.0083352, -0.0100661, -0.00809372, 0.0437338, -0.00254909, 0.471088, -0.54318, 0.336002, -2.08369, -2.16596, -0.129728, 0.469661, -0.542542, 0.336462, -2.08478, -2.16719, -0.12745, 0.00556992, 0.0145576, 0.00749345, 0.0140586, 0.00190074, -0.00498424
0.0541157, 1.69186, -1.22465, -1.53833, -0.900021, -1.19244, 1.22924, -1.30268, 0.0267666, -0.0015432, -0.0138167, -0.000427591, -0.0219661, 0.0259564, -0.000909019, 4.58991, 57.2253, 27.7146, 4.49432, 1.70032, 3.56112, -0.00999879, 0.000736812, -0.00140294, -0.000294662, 4.41178e-05, -0.00222873, -1.73522e-05, 0.0140956, -0.00878519, -0.0105747, -0.0110032, 0.0416694, 0.000674114, 0.471094, -0.543166, 0.336009, -2.08368, -2.16597, -0.129716, 0.469677, -0.542541, 0.336457, -2.08479, -2.16722, -0.127408, 0.00582231, 0.0152225, 0.00783467, 0.014719, 0.0032944, -0.00505943
0.0551157, 1.6919, -1.22465, -1.53835, -0.900021, -1.19247, 1.22928, -1.30268, 0.0301996, 0.00157113, -0.0124384, -0.00143815, -0.0203715, 0.0291435, 0.000819383, 4.74067, 57.1143, 27.6749, 4.53003, 1.68201, 3.56112, -0.0484509, 0.000725092, -0.00138813, -0.000289194, 3.04906e-05, -0.00227016, -2.41829e-05, 0.0124137, -0.0116108, -0.00854641, -0.00733037, 0.0456174, 0.00379287, 0.4711, -0.54315, 0.336017, -2.08367, -2.16597, -0.129705, 0.469698, -0.542536, 0.336457, -2.0848, -2.16727, -0.12737, 0.00607953, 0.0159004, 0.00818254, 0.0178113, 0.00543684, -0.00253331
0.0561157, 1.69193, -1.22465, -1.53836, -0.900015, -1.19249, 1.22931, -1.30268, 0.0337629, 0.000213315, -0.0124792, 0.00140128, -0.0252226, 0.0312972, 0.00129317, 4.85175, 57.15, 27.6749, 4.41894, 1.69391, 3.56845, -0.0685925, 0.000707625, -0.001377, -0.000279353, 1.93257e-05, -0.0023087, -2.21695e-05, 0.0137219, -0.0125616, -0.00921112, -0.00736508, 0.0496442, 0.0021467, 0.471106, -0.543134, 0.336026, -2.08366, -2.16598, -0.129692, 0.469716, -0.542535, 0.336453, -2.08481, -2.1673, -0.127331, 0.00634154, 0.0165914, 0.00853701, 0.0190458, 0.0049777, -0.00306693
0.0571157, 1.69196, -1.22465, -1.53839, -0.900008, -1.19252, 1.22935, -1.30268, 0.0310873, 0.000143043, -0.0149728, 0.007902, -0.0291992, 0.0374305, -0.00106997, 5.04218, 57.15, 27.79, 4.37927, 1.71863, 3.57577, -0.0164075, 0.000686351, -0.00137092, -0.000268635, 1.57042e-05, -0.00234879, -1.91776e-05, 0.0195299, -0.00955979, -0.00880456, -0.00287534, 0.0558636, -0.00694525, 0.471113, -0.543117, 0.336034, -2.08364, -2.16599, -0.129679, 0.469729, -0.542537, 0.336447, -2.08483, -2.16733, -0.127281, 0.00660828, 0.0172953, 0.00889802, 0.016538, -0.000238178, -0.00311475
0.0581157, 1.692, -1.22465, -1.5384, -0.899999, -1.19255, 1.22939, -1.30268, 0.0350971, -0.00166725, -0.0131505, 0.00825057, -0.0268397, 0.0433868, 0.000982634, 5.11756, 57.2253, 27.7503, 4.26819, 1.72504, 3.54648, -0.0621838, 0.0006692, -0.00135569, -0.000256689, -5.87276e-06, -0.00238138, -1.93843e-05, 0.01855, -0.0131507, -0.00912216, 0.00407952, 0.0555435, -0.00424251, 0.471119, -0.543099, 0.336043, -2.08363, -2.166, -0.129666, 0.469751, -0.542534, 0.336442, -2.08484, -2.16737, -0.127258, 0.00687971, 0.0180119, 0.00926549, 0.0203491, 0.00164239, -0.0030175
0.0591157, 1.69204, -1.22465, -1.53842, -0.899994, -1.19258, 1.22944, -1.30268, 0.0347508, 0.000652206, -0.0169707, 0.00662368, -0.0260837, 0.047158, -0.00103994, 5.19294, 57.15, 27.79, 4.23248, 1.76166, 3.53274, -0.0164075, 0.000652109, -0.00134096, -0.000248656, -2.06204e-05, -0.00242847, -2.96594e-05, 0.0198069, -0.0130865, -0.00925561, 0.00352373, 0.0599875, -0.00337824, 0.471126, -0.543081, 0.336053, -2.08362, -2.16601, -0.129652, 0.469773, -0.54253, 0.33644, -2.08485, -2.16742, -0.127214, 0.00715578, 0.0187412, 0.00963939, 0.0206014, 0.00114878, -0.00296845
0.0601157, 1.69207, -1.22465, -1.53844, -0.899986, -1.1926, 1.22948, -1.30268, 0.0366774, -0.00132808, -0.0142744, 0.00639509, -0.0247077, 0.0504957, 0.00123978, 5.30799, 57.2253, 27.8614, 4.1571, 1.77997, 3.50345, -0.0685925, 0.00062935, -0.00132968, -0.000232435, -3.61539e-05, -0.00246235, -2.01709e-05, 0.0193643, -0.0151947, -0.00957376, 0.00853059, 0.0589567, -0.00238376, 0.471134, -0.543062, 0.336063, -2.0836, -2.16602, -0.129638, 0.469792, -0.542531, 0.33643, -2.08487, -2.16745, -0.127181, 0.00743644, 0.0194831, 0.0100196, 0.0229602, 0.00246341, -0.00289753
0.0611157, 1.69212, -1.22465, -1.53845, -0.899985, -1.19263, 1.22953, -1.30268, 0.0395445, 0.00708449, -0.0130583, 0.00746415, -0.0280982, 0.0524995, -0.000868678, 5.22865, 57.15, 27.7146, 4.1571, 1.79187, 3.48971, -0.0228162, 0.000619214, -0.00130646, -0.000228254, -5.9702e-05, -0.00251136, -4.94733e-05, 0.0190201, -0.0163048, -0.00430048, 0.0101984, 0.0715433, 0.000287993, 0.471141, -0.543042, 0.336073, -2.08359, -2.16603, -0.129623, 0.469823, -0.542519, 0.336434, -2.08486, -2.16753, -0.127146, 0.00772164, 0.0202374, 0.0104062, 0.024533, 0.00279215, 0.00271575
0.0621157, 1.69215, -1.22465, -1.53848, -0.899977, -1.19266, 1.22957, -1.30268, 0.0349892, 0.00347715, -0.0164869, 0.00794932, -0.0305337, 0.0485781, 0.000879109, 5.41908, 57.2253, 27.8614, 4.04602, 1.79828, 3.48971, -0.0621838, 0.000593038, -0.00129817, -0.000211992, -7.39858e-05, -0.00254751, -3.26973e-05, 0.0231315, -0.0118031, -0.00795179, 0.00295894, 0.0685798, -0.0094395, 0.471149, -0.543021, 0.336083, -2.08357, -2.16604, -0.129607, 0.469839, -0.542522, 0.336424, -2.08489, -2.16754, -0.127108, 0.00801134, 0.0210041, 0.0107989, 0.0203425, -0.000123512, -0.000998339
0.0631157, 1.69219, -1.22465, -1.53849, -0.899974, -1.19268, 1.22962, -1.30268, 0.0375577, 0.00187093, -0.0184369, 0.00558062, -0.0273373, 0.0461333, -0.000871865, 5.49445, 57.261, 27.8614, 4.04602, 1.79187, 3.48239, -0.0228162, 0.000572325, -0.0012829, -0.000199188, -9.7872e-05, -0.00258699, -4.21339e-05, 0.0217822, -0.0130595, -0.0105528, -0.00137879, 0.0641055, -0.00357783, 0.471157, -0.543, 0.336094, -2.08356, -2.16606, -0.129591, 0.469863, -0.542518, 0.336419, -2.0849, -2.1676, -0.127079, 0.00830549, 0.021783, 0.0111979, 0.0217486, 0.00243934, -0.00299645
0.0641157, 1.69223, -1.22465, -1.5385, -0.899969, -1.19271, 1.22967, -1.30268, 0.037076, 0.00320876, -0.0150047, 0.00796364, -0.0302972, 0.0478332, -0.00058115, 5.53413, 57.1896, 27.79, 4.00635, 1.80469, 3.50345, -0.0228162, 0.000554339, -0.00126576, -0.000193755, -0.000122705, -0.00263682, -5.18895e-05, 0.0234518, -0.0124942, -0.00833068, 0.00269854, 0.0688047, -0.00645702, 0.471166, -0.542978, 0.336106, -2.08354, -2.16607, -0.129574, 0.469889, -0.542512, 0.336422, -2.08491, -2.16766, -0.12704, 0.00860403, 0.0225739, 0.011603, 0.0216235, 0.00121707, -0.000639068
0.0651157, 1.69227, -1.22464, -1.53852, -0.89997, -1.19274, 1.22972, -1.30267, 0.0367131, 0.00412069, -0.0144522, 0.0057259, -0.0317412, 0.0447135, 0.00130806, 5.56983, 57.1143, 27.79, 4.00635, 1.79828, 3.5181, -0.0685925, 0.00053413, -0.00125022, -0.000185301, -0.000144768, -0.00268688, -5.56223e-05, 0.0235536, -0.0118148, -0.00845923, -0.0014789, 0.0700593, -0.00765954, 0.471175, -0.542955, 0.336118, -2.08352, -2.16608, -0.129557, 0.469913, -0.542507, 0.336421, -2.08493, -2.16771, -0.126997, 0.00890693, 0.0233769, 0.0120141, 0.0212471, 0.00191151, -0.000350075
0.0661157, 1.69231, -1.22465, -1.53854, -0.899966, -1.19277, 1.22977, -1.30268, 0.0421867, -0.000522843, -0.0179425, 0.00496509, -0.0300672, 0.0483737, -0.00082333, 5.6095, 57.261, 27.8257, 3.97064, 1.84131, 3.50345, -0.0228162, 0.000510486, -0.00123486, -0.000169025, -0.000167714, -0.00272505, -6.59353e-05, 0.0229751, -0.015058, -0.0127923, -0.00251649, 0.0668959, -0.00117644, 0.471184, -0.542931, 0.33613, -2.0835, -2.16609, -0.129539, 0.469938, -0.542504, 0.336413, -2.08493, -2.16777, -0.126967, 0.00921413, 0.0241918, 0.0124312, 0.0246153, 0.00409767, -0.0042202
0.0671157, 1.69235, -1.22463, -1.53855, -0.899958, -1.1928, 1.22982, -1.30267, 0.0422946, 0.00404311, -0.0196389, 0.00530775, -0.0279896, 0.05096, 0.00162129, 5.56983, 57.0786, 27.8257, 3.89526, 1.86603, 3.48971, -0.0814099, 0.000488007, -0.00121931, -0.000167331, -0.000197525, -0.00278751, -6.30779e-05, 0.0236729, -0.0150345, -0.0107427, -0.000606691, 0.0716784, -0.00470635, 0.471193, -0.542906, 0.336143, -2.08349, -2.16611, -0.12952, 0.469964, -0.5425, 0.33642, -2.08496, -2.16782, -0.126918, 0.0095256, 0.0250185, 0.0128543, 0.025003, 0.0039194, -0.00188085
0.0681157, 1.6924, -1.22464, -1.53857, -0.899952, -1.19283, 1.22988, -1.30268, 0.0444124, 0.00195227, -0.0155337, 0.00547758, -0.0261365, 0.0490467, -0.000614531, 5.56983, 57.1143, 27.8614, 3.81988, 1.88434, 3.45309, -0.0356336, 0.000463651, -0.00120231, -0.000155676, -0.000229313, -0.00283435, -7.42805e-05, 0.0224406, -0.0164666, -0.0110796, 0.00139674, 0.0674935, 0.00140032, 0.471203, -0.542881, 0.336156, -2.08347, -2.16612, -0.129501, 0.469991, -0.542497, 0.336418, -2.08497, -2.16789, -0.126887, 0.00984127, 0.0258569, 0.0132832, 0.0266924, 0.0060854, -0.00163694
0.0691157, 1.69244, -1.22464, -1.53858, -0.899957, -1.19286, 1.22994, -1.30267, 0.0458541, -0.00122788, -0.0136961, 0.00518334, -0.0262618, 0.0476273, 0.00033632, 5.56983, 57.2253, 27.8257, 3.89526, 1.93927, 3.41006, -0.0557752, 0.000442365, -0.00118174, -0.000141531, -0.000259771, -0.00287951, -8.70051e-05, 0.022404, -0.0171076, -0.0128486, 0.000718812, 0.064263, 0.00231397, 0.471213, -0.542854, 0.336169, -2.08345, -2.16613, -0.129481, 0.470022, -0.542488, 0.336413, -2.08498, -2.16795, -0.126857, 0.0101611, 0.0267069, 0.013718, 0.027587, 0.00727013, -0.00296281
0.0701157, 1.69248, -1.22463, -1.53859, -0.899954, -1.19289, 1.23, -1.30267, 0.0427209, 0.00183167, -0.0141869, 0.00465327, -0.0297077, 0.0506391, -0.000284396, 5.6095, 57.1143, 27.8614, 3.85956, 1.96399, 3.38168, -0.0420422, 0.0004164, -0.00116656, -0.000138001, -0.0002942, -0.00294439, -9.1485e-05, 0.0253497, -0.0151423, -0.0111797, 0.00141933, 0.072203, -0.00185877, 0.471223, -0.542827, 0.336183, -2.08343, -2.16615, -0.129461, 0.470048, -0.542486, 0.336419, -2.08501, -2.16802, -0.126809, 0.0104851, 0.0275683, 0.0141585, 0.0261154, 0.00488592, -0.00127149
0.0711157, 1.69253, -1.22463, -1.5386, -0.899946, -1.19293, 1.23005, -1.30267, 0.0471415, -0.00133849, -0.0105769, 0.00513729, -0.0325305, 0.0519526, 0.000319041, 5.49445, 57.2253, 27.8614, 3.78418, 1.99512, 3.38168, -0.0557752, 0.000392979, -0.00114541, -0.000122823, -0.0003227, -0.00298955, -0.000103182, 0.0246897, -0.0177796, -0.0121282, 0.00331413, 0.072465, 0.00159782, 0.471234, -0.542799, 0.336197, -2.08341, -2.16616, -0.12944, 0.47008, -0.542478, 0.336414, -2.08501, -2.16809, -0.126775, 0.0108131, 0.0284411, 0.0146048, 0.0290191, 0.00666513, -0.00173963
0.0721157, 1.69258, -1.22463, -1.53861, -0.899948, -1.19296, 1.23011, -1.30267, 0.0479164, -0.000863193, -0.00881856, 0.00589673, -0.03464, 0.0539516, 0.000687421, 5.49445, 57.2253, 27.9011, 3.81988, 2.02533, 3.3533, -0.0685925, 0.000367761, -0.00112655, -0.00011255, -0.000354933, -0.00304704, -0.000114159, 0.0257118, -0.0181184, -0.0113046, 0.00551129, 0.0761077, 0.000723906, 0.471245, -0.54277, 0.336212, -2.08339, -2.16618, -0.129418, 0.47011, -0.542471, 0.336415, -2.08502, -2.16816, -0.126732, 0.0111452, 0.0293251, 0.0150567, 0.0297566, 0.00642772, -0.000643353
0.0731157, 1.69263, -1.22462, -1.53862, -0.899943, -1.193, 1.23017, -1.30267, 0.0453659, 0.00120963, -0.00950369, 0.0051779, -0.0354772, 0.0544942, 0.00357537, 5.49445, 57.15, 27.9011, 3.78418, 2.03815, 3.3533, -0.0228162, 0.00034064, -0.00110775, -0.000107068, -0.000395365, -0.00311244, -0.000127472, 0.0277403, -0.0163354, -0.0105725, 0.00484049, 0.0797754, -0.00544819, 0.471256, -0.542741, 0.336228, -2.08336, -2.16619, -0.129396, 0.470141, -0.542467, 0.33642, -2.08504, -2.16824, -0.126689, 0.0114812, 0.0302203, 0.0155142, 0.0284122, 0.00513437, 0.000276631
0.0741157, 1.69267, -1.22462, -1.53864, -0.899945, -1.19304, 1.23024, -1.30267, 0.0434781, 0.00222504, -0.00965593, 0.00292536, -0.0408384, 0.0508061, 0.00471741, 5.49445, 57.2253, 28.0121, 3.81988, 2.05646, 3.33865, -0.0750012, 0.000311879, -0.00108882, -9.26167e-05, -0.000425206, -0.00317224, -0.000131479, 0.0294773, -0.0140932, -0.0108968, -0.00207441, 0.0841313, -0.00913151, 0.471268, -0.54271, 0.336243, -2.08334, -2.16621, -0.129373, 0.470172, -0.542461, 0.336416, -2.08506, -2.16831, -0.126639, 0.0118212, 0.0311266, 0.0159772, 0.0265642, 0.0042831, 0.000218352
0.0751157, 1.69273, -1.22462, -1.53865, -0.89994, -1.19308, 1.2303, -1.30267, 0.0447246, 0.000924224, -0.0108491, 0.00394496, -0.0404916, 0.0519701, 0.00246238, 5.38337, 57.261, 28.0478, 3.74451, 2.07477, 3.33865, -0.0484509, 0.000284223, -0.00106762, -8.0574e-05, -0.000462662, -0.0032296, -0.000143398, 0.0306156, -0.0142635, -0.0122381, -0.00215408, 0.0837862, -0.00773779, 0.47128, -0.542678, 0.33626, -2.08332, -2.16623, -0.129349, 0.470206, -0.542454, 0.336416, -2.08508, -2.16838, -0.1266, 0.012165, 0.0320437, 0.0164457, 0.0270707, 0.00428992, -0.000819244
0.0761157, 1.69278, -1.22462, -1.53865, -0.899945, -1.19313, 1.23037, -1.30267, 0.04603, 0.00396642, -0.00612838, 0.00104035, -0.040064, 0.0536799, 0.000680382, 5.38337, 57.261, 27.9725, 3.81988, 2.08667, 3.324, -0.0164075, 0.00025893, -0.0010436, -7.2309e-05, -0.000506362, -0.00329512, -0.00016802, 0.0289637, -0.0164085, -0.00943674, 0.00193499, 0.0879378, -0.000533378, 0.471292, -0.542646, 0.336276, -2.08329, -2.16625, -0.129324, 0.470243, -0.542445, 0.336419, -2.08508, -2.16848, -0.12656, 0.0125127, 0.0329717, 0.0169196, 0.0296033, 0.00650708, 0.00261162
0.0771157, 1.69283, -1.22462, -1.53866, -0.89995, -1.19317, 1.23043, -1.30266, 0.0452574, 0.00439909, -0.00942954, -0.000939464, -0.0399321, 0.0591213, 0.00303028, 5.45875, 57.3364, 28.0478, 3.89526, 2.10498, 3.324, -0.0814099, 0.000227699, -0.00102514, -5.97849e-05, -0.000540872, -0.00336133, -0.000171134, 0.0308935, -0.0164639, -0.0104471, 0.00266009, 0.091964, -0.0042404, 0.471305, -0.542612, 0.336293, -2.08327, -2.16626, -0.129299, 0.470275, -0.542439, 0.336419, -2.08511, -2.16855, -0.126506, 0.0128642, 0.0339105, 0.0173989, 0.0300435, 0.00569846, 0.00179237
0.0781157, 1.69289, -1.22461, -1.53867, -0.899947, -1.19322, 1.2305, -1.30267, 0.0482839, 0.00443207, -0.00784221, 0.00123459, -0.0405835, 0.0628836, -0.000769045, 5.38337, 57.2968, 28.0875, 3.81988, 2.14252, 3.33133, -0.00267457, 0.000200155, -0.00100069, -5.33472e-05, -0.000579361, -0.00343855, -0.00020063, 0.0313742, -0.0181893, -0.00973246, 0.00717792, 0.0948427, 0.000405045, 0.471318, -0.542578, 0.336311, -2.08324, -2.16628, -0.129273, 0.470313, -0.54243, 0.336425, -2.08511, -2.16866, -0.126448, 0.0132194, 0.0348598, 0.0178835, 0.0321658, 0.00613515, 0.0028555
0.0791157, 1.69294, -1.22461, -1.53868, -0.899945, -1.19327, 1.23057, -1.30266, 0.0486705, 0.00161997, -0.00959496, 0.00173152, -0.044865, 0.0665531, 0.00226124, 5.38337, 57.3721, 28.1232, 3.78418, 2.16724, 3.31759, -0.0750012, 0.000168274, -0.000979815, -4.21377e-05, -0.000616787, -0.00350929, -0.000202408, 0.0342218, -0.0178444, -0.011978, 0.00638237, 0.0981061, -0.00569975, 0.471331, -0.542543, 0.336329, -2.08322, -2.1663, -0.129247, 0.470348, -0.542424, 0.336427, -2.08514, -2.16874, -0.126391, 0.0135784, 0.0358197, 0.0183733, 0.0322019, 0.00461488, 0.000697037
0.0801157, 1.693, -1.2246, -1.53868, -0.899951, -1.19332, 1.23064, -1.30266, 0.0540372, 0.00373784, -0.00876809, -0.000553961, -0.0482573, 0.0640038, 0.00110415, 5.30799, 57.4078, 28.1986, 3.85956, 2.18555, 3.31759, -0.0621838, 0.000141477, -0.000952015, -3.01101e-05, -0.00065219, -0.00358359, -0.00022969, 0.0322076, -0.0202381, -0.0116154, 0.00116835, 0.102711, 0.00117509, 0.471345, -0.542506, 0.336348, -2.08319, -2.16632, -0.12922, 0.47039, -0.542411, 0.336428, -2.08514, -2.16884, -0.126331, 0.013941, 0.03679, 0.0188684, 0.0348957, 0.00761745, 0.00178928
0.0811157, 1.69306, -1.2246, -1.53869, -0.899958, -1.19338, 1.2307, -1.30267, 0.0518563, 0.00427266, -0.0080648, -0.00292656, -0.049739, 0.0622344, -0.000668427, 5.3437, 57.4832, 28.274, 3.97064, 2.17914, 3.31759, -0.0228162, 0.000110912, -0.000928694, -1.6825e-05, -0.000688906, -0.00365369, -0.000251463, 0.0334152, -0.0187768, -0.0117789, -0.00160945, 0.104355, 0.0018873, 0.471359, -0.542469, 0.336367, -2.08316, -2.16634, -0.129192, 0.470428, -0.542401, 0.336429, -2.08514, -2.16894, -0.126275, 0.0143072, 0.0377706, 0.0193685, 0.0338408, 0.00737068, 0.00198541
0.0821157, 1.69312, -1.2246, -1.5387, -0.899955, -1.19344, 1.23078, -1.30266, 0.0582534, 0.00088221, -0.00655387, -0.000156906, -0.0527218, 0.0614121, 0.000815235, 5.30799, 57.5943, 28.3097, 3.89526, 2.21576, 3.30295, -0.0557752, 7.62608e-05, -0.000905435, -5.13291e-06, -0.000731426, -0.00373179, -0.000259858, 0.0329461, -0.0211941, -0.0136156, -0.00275495, 0.103546, 0.00326216, 0.471373, -0.542431, 0.336386, -2.08313, -2.16636, -0.129163, 0.470467, -0.542394, 0.336431, -2.08517, -2.16903, -0.126215, 0.014677, 0.0387614, 0.0198738, 0.036541, 0.0092075, 0.000675846
0.0831157, 1.69318, -1.2246, -1.5387, -0.899959, -1.19349, 1.23085, -1.30266, 0.0599586, 0.00327772, -0.00638908, -0.00100945, -0.0541853, 0.0595118, -0.000647101, 5.26832, 57.63, 28.3851, 3.93494, 2.23407, 3.31759, -0.0228162, 4.46544e-05, -0.000880181, 4.27253e-06, -0.000770586, -0.00381452, -0.000284308, 0.0328146, -0.0214152, -0.012887, -0.00583118, 0.106996, 0.00587118, 0.471388, -0.542392, 0.336407, -2.0831, -2.16638, -0.129134, 0.470507, -0.542383, 0.336436, -2.08518, -2.16914, -0.126147, 0.0150503, 0.0397623, 0.0203841, 0.0371574, 0.0102358, 0.00191912
0.0841157, 1.69324, -1.22459, -1.5387, -0.899962, -1.19356, 1.23092, -1.30266, 0.0605329, 0.00593575, -0.00528705, -0.00466502, -0.0547437, 0.0638664, 0.00104925, 5.26832, 57.63, 28.4208, 3.97064, 2.24048, 3.31027, -0.0621838, 9.41995e-06, -0.000855777, 1.35015e-05, -0.00081516, -0.00390274, -0.000296908, 0.0326129, -0.0230302, -0.011453, -0.00336319, 0.113214, 0.00740986, 0.471403, -0.542351, 0.336427, -2.08308, -2.1664, -0.129103, 0.470548, -0.542376, 0.336442, -2.0852, -2.16924, -0.126078, 0.0154271, 0.0407732, 0.0208993, 0.0391927, 0.0112931, 0.00383222
0.0851157, 1.69332, -1.22459, -1.5387, -0.899961, -1.19363, 1.23099, -1.30266, 0.063718, 0.00609102, -0.00450425, -0.00252627, -0.0602535, 0.0665285, -0.000741626, 5.15327, 57.7054, 28.4565, 3.93494, 2.25238, 3.31759, -0.0228162, -2.15172e-05, -0.000825257, 2.40327e-05, -0.000854597, -0.00399121, -0.000328549, 0.0340898, -0.023934, -0.011083, -0.00281764, 0.119759, 0.00816478, 0.471419, -0.54231, 0.336448, -2.08304, -2.16642, -0.129072, 0.470595, -0.542362, 0.336447, -2.08521, -2.16936, -0.126005, 0.0158074, 0.041794, 0.0214195, 0.0405432, 0.010837, 0.00446114
0.0861157, 1.69338, -1.22459, -1.5387, -0.899961, -1.19369, 1.23107, -1.30266, 0.0622724, 0.00235919, -0.00311108, -0.000944774, -0.0639944, 0.0688183, 0.000230363, 5.19294, 57.8125, 28.4565, 3.89526, 2.25879, 3.31759, -0.0420422, -5.76015e-05, -0.000798825, 3.61836e-05, -0.000900241, -0.00407607, -0.000346105, 0.0373276, -0.0226701, -0.0126537, -0.00112111, 0.120672, 0.00301559, 0.471435, -0.542268, 0.33647, -2.08301, -2.16645, -0.129041, 0.470638, -0.542352, 0.33645, -2.08522, -2.16947, -0.125939, 0.016191, 0.0428246, 0.0219445, 0.0397255, 0.00886031, 0.00297196
0.0871157, 1.69345, -1.22458, -1.53871, -0.899968, -1.19377, 1.23114, -1.30266, 0.0644946, -0.000422536, -0.00308326, -0.0056414, -0.0672309, 0.0694889, -0.00102369, 5.22865, 57.9236, 28.4961, 3.97064, 2.27161, 3.34598, -0.00999879, -9.48217e-05, -0.000774402, 5.04361e-05, -0.000933068, -0.0041656, -0.000369267, 0.0370076, -0.024369, -0.0153635, -0.00526216, 0.122075, 0.00869878, 0.471451, -0.542224, 0.336492, -2.08298, -2.16647, -0.129008, 0.47068, -0.542343, 0.336452, -2.08523, -2.16958, -0.125855, 0.016578, 0.0438649, 0.0224743, 0.0416986, 0.010704, 0.000823501
0.0881157, 1.69352, -1.22458, -1.53871, -0.899965, -1.19384, 1.23121, -1.30267, 0.0647051, 0.00253311, -0.00295162, -0.00329071, -0.0737046, 0.0664277, -0.00165866, 5.19294, 57.9633, 28.5319, 3.93494, 2.2652, 3.33865, 0.0165515, -0.000132022, -0.000746167, 6.1766e-05, -0.000975165, -0.00426092, -0.000392662, 0.0393671, -0.022224, -0.0139086, -0.00992548, 0.129324, 0.00446001, 0.471468, -0.54218, 0.336515, -2.08295, -2.16649, -0.128975, 0.470726, -0.542332, 0.336456, -2.08524, -2.1697, -0.125774, 0.0169683, 0.0449148, 0.0230089, 0.0400867, 0.00911207, 0.00249475
0.0891157, 1.69359, -1.22458, -1.53872, -0.89997, -1.19392, 1.23129, -1.30266, 0.0669721, -0.000203449, -0.00553989, -0.00330277, -0.0747185, 0.0729936, 0.00130708, 5.19294, 58.0704, 28.6826, 3.97064, 2.28351, 3.3533, -0.0484509, -0.000172583, -0.000721704, 7.93715e-05, -0.00100034, -0.00435708, -0.000401971, 0.0411507, -0.0237606, -0.0163548, -0.00796938, 0.131639, 0.00134703, 0.471485, -0.542135, 0.336538, -2.08291, -2.16652, -0.128941, 0.470768, -0.542323, 0.336455, -2.08526, -2.16979, -0.125671, 0.0173618, 0.0459742, 0.0235482, 0.0419906, 0.00885085, 0.00029511
0.0901157, 1.69367, -1.22457, -1.53871, -0.899973, -1.19401, 1.23136, -1.30267, 0.0690842, 0.000324465, -0.00196427, -0.00324238, -0.0747265, 0.0784744, -0.00129473, 5.19294, 58.0704, 28.6072, 4.00635, 2.28351, 3.3533, 0.0101428, -0.000208242, -0.000691177, 8.67855e-05, -0.00104426, -0.00446141, -0.000436774, 0.0411206, -0.0261273, -0.0147786, -0.000780668, 0.135438, 0.00681994, 0.471503, -0.542088, 0.336562, -2.08288, -2.16654, -0.128906, 0.470817, -0.542309, 0.336465, -2.08527, -2.16993, -0.125583, 0.0177586, 0.047043, 0.0240921, 0.0448084, 0.00980651, 0.00232736
0.0911157, 1.69375, -1.22456, -1.53872, -0.899976, -1.19409, 1.23144, -1.30266, 0.0666545, 0.00280758, -0.00393366, -0.00231557, -0.075525, 0.0781169, 0.00131, 5.22865, 58.11, 28.7183, 4.00635, 2.30823, 3.34598, -0.0484509, -0.000250406, -0.000663574, 0.000101412, -0.00107859, -0.00456908, -0.000448461, 0.0439031, -0.0235814, -0.0141799, -0.00260396, 0.139102, -0.00113845, 0.471521, -0.542041, 0.336586, -2.08285, -2.16657, -0.128871, 0.470864, -0.5423, 0.336468, -2.08529, -2.17004, -0.125477, 0.0181585, 0.048121, 0.0246406, 0.0427902, 0.00793985, 0.00311408
0.0921157, 1.69382, -1.22457, -1.53872, -0.899976, -1.19418, 1.23152, -1.30266, 0.0679635, 0.00304988, -0.00347692, -0.00699471, -0.0753069, 0.0780818, 0.00440436, 5.26832, 58.2172, 28.754, 3.97064, 2.32013, 3.33133, -0.0164075, -0.000292861, -0.000636745, 0.000116978, -0.00111852, -0.00466563, -0.000471125, 0.0429066, -0.0250255, -0.0149906, -0.00497691, 0.14031, 0.000553816, 0.471539, -0.541992, 0.336611, -2.08281, -2.16659, -0.128834, 0.47091, -0.54229, 0.33647, -2.0853, -2.17016, -0.12539, 0.0185616, 0.0492083, 0.0251936, 0.04457, 0.0101963, 0.0029766
0.0931157, 1.69391, -1.22457, -1.53872, -0.89998, -1.19427, 1.23159, -1.30267, 0.0746484, 0.00222413, -0.00326042, -0.0060992, -0.0807285, 0.0769863, 0.00187283, 5.19294, 58.3679, 28.7937, 4.00635, 2.34485, 3.33865, 0.0229602, -0.000333678, -0.000605836, 0.000135252, -0.00114893, -0.00476944, -0.000501983, 0.0423401, -0.0273856, -0.0161122, -0.00938538, 0.14425, 0.00631007, 0.471558, -0.541942, 0.336637, -2.08277, -2.16662, -0.128797, 0.47096, -0.542276, 0.33647, -2.0853, -2.17029, -0.125284, 0.0189677, 0.0503046, 0.0257511, 0.0472717, 0.0121234, 0.00244168
0.0941157, 1.69399, -1.22456, -1.53872, -0.899982, -1.19437, 1.23167, -1.30266, 0.0788157, 0.00767608, -0.00218445, -0.00451677, -0.0841719, 0.0809094, 0.00276525, 5.15327, 58.4036, 28.7937, 4.00635, 2.35675, 3.33865, -0.00999879, -0.00037616, -0.000576367, 0.000148844, -0.00118369, -0.00488119, -0.000521821, 0.0424545, -0.0293497, -0.0125694, -0.00651116, 0.155114, 0.00652223, 0.471577, -0.541891, 0.336663, -2.08274, -2.16665, -0.128759, 0.47101, -0.542264, 0.336475, -2.08532, -2.17042, -0.125173, 0.0193769, 0.05141, 0.0263131, 0.0497779, 0.0126547, 0.00642363
0.0951157, 1.69407, -1.22456, -1.53873, -0.899983, -1.19446, 1.23174, -1.30266, 0.0810432, 0.00854136, -0.00322767, -0.00251393, -0.0876372, 0.0786094, 0.00254022, 5.15327, 58.4393, 28.8691, 3.97064, 2.38788, 3.36062, -0.0228162, -0.000422748, -0.000551032, 0.000164335, -0.00121191, -0.00499343, -0.000535293, 0.0438092, -0.0287008, -0.0128696, -0.0108087, 0.158403, 0.00460372, 0.471597, -0.541839, 0.33669, -2.0827, -2.16667, -0.128721, 0.471056, -0.542255, 0.336479, -2.08534, -2.17054, -0.125053, 0.0197891, 0.0525242, 0.0268794, 0.0495815, 0.0124511, 0.00650349
0.0961157, 1.69416, -1.22454, -1.53873, -0.899983, -1.19456, 1.23182, -1.30266, 0.0843986, 0.0107723, -0.00299309, -0.00109422, -0.0885163, 0.0777062, 0.00233469, 5.07789, 58.4036, 28.9048, 3.93494, 2.37598, 3.36703, -0.0356336, -0.000465279, -0.000521185, 0.000175307, -0.00124385, -0.00511082, -0.000558448, 0.0437319, -0.0295572, -0.0119351, -0.0119062, 0.161628, 0.00574127, 0.471617, -0.541786, 0.336717, -2.08266, -2.1667, -0.128681, 0.471107, -0.54224, 0.336488, -2.08536, -2.17067, -0.124932, 0.0202043, 0.0536472, 0.02745, 0.0508845, 0.0135437, 0.00798238
0.0971157, 1.69423, -1.22454, -1.53873, -0.899991, -1.19466, 1.23189, -1.30267, 0.0811102, 0.00973976, -0.00199997, -0.00259003, -0.0954267, 0.0772937, -0.000726164, 5.11756, 58.475, 28.9048, 4.00635, 2.39429, 3.36703, 0.0293689, -0.000513984, -0.00049581, 0.000192791, -0.00127136, -0.00522723, -0.000583923, 0.0471548, -0.0269397, -0.0126632, -0.0153792, 0.166802, 0.00412486, 0.471637, -0.541732, 0.336744, -2.08262, -2.16673, -0.128641, 0.471154, -0.542231, 0.33649, -2.08536, -2.1708, -0.124807, 0.0206224, 0.0547789, 0.0280249, 0.0487883, 0.0112988, 0.0073888
0.0981157, 1.69423, -1.22454, -1.53873, -0.899991, -1.19466, 1.23189, -1.30267, 0.0811102, 0.00973976, -0.00199997, -0.00259003, -0.0954267, 0.0772937, -0.000726164, 5.11756, 58.475, 28.9048, 4.00635, 2.39429, 3.36703, 0.0293689, -0.000572228, -0.000518075, 0.000213045, -0.00129959, -0.00521448, -0.00055329, 0.0483555, -0.0264883, -0.0130754, -0.0158504, 0.16758, 0.00318422, 0.471658, -0.541677, 0.336773, -2.08258, -2.16676, -0.128599, 0.471154, -0.542231, 0.33649, -2.08536, -2.1708, -0.124807, 0.0210433, 0.0559192, 0.028604, 0.0487883, 0.0112988, 0.0073888
0.0991157, 1.69423, -1.22454, -1.53873, -0.899991, -1.19466, 1.23189, -1.30267, 0.0811102, 0.00973976, -0.00199997, -0.00259003, -0.0954267, 0.0772937, -0.000726164, 5.11756, 58.475, 28.9048, 4.00635, 2.39429, 3.36703, 0.0293689, -0.000631674, -0.000540794, 0.000233717, -0.0013284, -0.00520149, -0.000522041, 0.049565, -0.0260337, -0.0134906, -0.0163243, 0.168364, 0.00223732, 0.471679, -0.54162, 0.336802, -2.08254, -2.16679, -0.128557, 0.471154, -0.542231, 0.33649, -2.08536, -2.1708, -0.124807, 0.0214671, 0.057068, 0.0291872, 0.0487883, 0.0112988, 0.0073888
0.100116, 1.69441, -1.22453, -1.53873, -0.9, -1.19487, 1.23204, -1.30266, 0.0844213, 0.00760999, -0.00145054, -0.00228113, -0.0981239, 0.0767462, 0.00117758, 4.9668, 58.6615, 28.9405, 4.04602, 2.39429, 3.36703, -0.0228162, -0.000665431, -0.000458641, 0.000247755, -0.00135694, -0.00544363, -0.000595345, 0.0499559, -0.0270992, -0.0151367, -0.0185718, 0.169008, 0.00180077, 0.471701, -0.541563, 0.336831, -2.08249, -2.16682, -0.128514, 0.471258, -0.542201, 0.336498, -2.08538, -2.17106, -0.124557, 0.0218936, 0.0582252, 0.0297746, 0.0502335, 0.0123682, 0.00625723
0.101116, 1.69459, -1.22452, -1.53874, -0.900015, -1.19509, 1.23218, -1.30266, 0.0900658, 0.00256686, -0.00302934, -0.00313817, -0.104958, 0.0683797, 0.00147962, 4.89143, 58.7726, 29.0555, 4.1571, 2.40619, 3.36062, -0.0292249, -0.000703775, -0.000381877, 0.000259842, -0.00137027, -0.00570486, -0.000673337, 0.0497044, -0.027519, -0.0202279, -0.032565, 0.166598, 0.00391752, 0.471723, -0.541504, 0.336861, -2.08245, -2.16685, -0.128471, 0.471358, -0.542175, 0.336507, -2.0854, -2.17132, -0.124271, 0.0223229, 0.0593907, 0.030366, 0.0508853, 0.0145816, 0.00184706
0.102116, 1.69468, -1.22451, -1.53874, -0.900022, -1.1952, 1.23225, -1.30267, 0.0909619, 0.00776235, -0.00109262, -0.00213723, -0.107347, 0.0649888, -0.00115409, 4.77637, 58.8083, 29.0159, 4.1571, 2.4126, 3.37436, 0.0293689, -0.000751738, -0.000352534, 0.000274843, -0.00139368, -0.00583052, -0.00070772, 0.050052, -0.0266889, -0.0171122, -0.0346334, 0.172669, 0.00563978, 0.471746, -0.541444, 0.336892, -2.08241, -2.16688, -0.128426, 0.471411, -0.542159, 0.336515, -2.08539, -2.17147, -0.124128, 0.022755, 0.0605644, 0.0309614, 0.0506177, 0.0148999, 0.00549092
0.103116, 1.69476, -1.2245, -1.53874, -0.900031, -1.19531, 1.23232, -1.30266, 0.0864485, 0.00848982, 0.00130136, -0.00538976, -0.103436, 0.0670825, 0.000948249, 4.77637, 58.844, 29.0555, 4.19281, 2.39429, 3.38901, -0.0164075, -0.000804704, -0.000328858, 0.000292041, -0.00141965, -0.00594881, -0.000721608, 0.0512068, -0.0256471, -0.0162938, -0.0301667, 0.172018, 0.00341522, 0.471769, -0.541383, 0.336923, -2.08236, -2.16691, -0.128381, 0.471459, -0.542146, 0.33652, -2.08541, -2.1716, -0.123993, 0.0231896, 0.0617462, 0.0315607, 0.0500861, 0.0147728, 0.00675186
0.104116, 1.69485, -1.22449, -1.53874, -0.900035, -1.19542, 1.23239, -1.30266, 0.0914965, 0.0098318, 0.00204154, -0.00304132, -0.106875, 0.0647573, 0.000411476, 4.701, 58.844, 29.0159, 4.1571, 2.4245, 3.38168, -0.00999879, -0.00085734, -0.000302555, 0.00030548, -0.00144629, -0.00607874, -0.000739905, 0.0510594, -0.0267788, -0.0158077, -0.0331605, 0.175732, 0.00509416, 0.471792, -0.54132, 0.336955, -2.08231, -2.16694, -0.128334, 0.47151, -0.542133, 0.33653, -2.08542, -2.17173, -0.123846, 0.0236269, 0.0629361, 0.0321639, 0.0516673, 0.016082, 0.00782289
0.105116, 1.69494, -1.22448, -1.53874, -0.900046, -1.19553, 1.23245, -1.30266, 0.0925889, 0.00663681, -0.00105298, -0.00623952, -0.1075, 0.0622761, -0.000933885, 4.58991, 58.8837, 29.1269, 4.19281, 2.40619, 3.39633, 0.0229602, -0.000908243, -0.000276225, 0.000324276, -0.00145964, -0.00620051, -0.000768404, 0.0516988, -0.0266292, -0.0199351, -0.0407562, 0.173173, 0.00770474, 0.471816, -0.541257, 0.336987, -2.08227, -2.16698, -0.128287, 0.471562, -0.542115, 0.336535, -2.08541, -2.17187, -0.123693, 0.0240668, 0.0641338, 0.032771, 0.0518292, 0.017276, 0.00425994
0.106116, 1.69503, -1.22447, -1.53873, -0.900061, -1.19565, 1.23252, -1.30266, 0.0887082, 0.00752125, 0.00203481, -0.006346, -0.104485, 0.0606155, 0.000336222, 4.55024, 58.9194, 29.0159, 4.26819, 2.4126, 3.40365, -0.00267457, -0.000960529, -0.000250273, 0.000340327, -0.00148453, -0.00632394, -0.000796255, 0.05316, -0.0245609, -0.0187149, -0.0379643, 0.171268, 0.00418572, 0.47184, -0.541192, 0.337021, -2.08222, -2.16701, -0.128239, 0.471613, -0.542099, 0.336544, -2.08541, -2.17201, -0.12355, 0.0245092, 0.0653394, 0.0333819, 0.0503068, 0.0167651, 0.0059138
0.107116, 1.69511, -1.22445, -1.53874, -0.900073, -1.19576, 1.23258, -1.30266, 0.0895403, 0.0081562, -0.00113816, -0.00454797, -0.106447, 0.0645008, -0.000480897, 4.47486, 58.9551, 29.1269, 4.26819, 2.40619, 3.40365, 0.0165515, -0.00101693, -0.000228052, 0.000360442, -0.0014977, -0.00644709, -0.000814634, 0.0559882, -0.024069, -0.0193459, -0.0379852, 0.176332, 0.00108769, 0.471865, -0.541126, 0.337054, -2.08217, -2.16705, -0.12819, 0.471661, -0.542084, 0.336548, -2.08541, -2.17214, -0.123393, 0.0249541, 0.0665526, 0.0339965, 0.050343, 0.0152628, 0.00548308
0.108116, 1.6952, -1.22444, -1.53874, -0.900088, -1.19587, 1.23265, -1.30266, 0.0906237, 0.00773885, -0.000680954, -0.00736097, -0.103149, 0.0625394, 0.0013801, 4.39948, 59.0305, 29.1269, 4.30786, 2.39429, 3.40365, -0.0292249, -0.00107198, -0.000203612, 0.000378799, -0.00152102, -0.00656794, -0.000837378, 0.055038, -0.0249272, -0.0204923, -0.0397736, 0.173322, 0.00309659, 0.47189, -0.541059, 0.337088, -2.08212, -2.16708, -0.12814, 0.471712, -0.542068, 0.336555, -2.08542, -2.17228, -0.123248, 0.0254015, 0.0677736, 0.0346148, 0.0515708, 0.0176346, 0.00508971
0.109116, 1.69529, -1.22443, -1.53874, -0.9001, -1.19598, 1.23271, -1.30267, 0.0916127, 0.0107645, 0.00180249, -0.0115365, -0.101481, 0.0630265, -0.00124612, 4.2884, 59.1019, 29.1666, 4.30786, 2.4126, 3.3533, 0.0293689, -0.00112784, -0.000177575, 0.000397556, -0.00154662, -0.0066907, -0.0008705, 0.0535542, -0.02659, -0.0188621, -0.0387732, 0.176279, 0.0110623, 0.471916, -0.54099, 0.337123, -2.08207, -2.16712, -0.128089, 0.471765, -0.542051, 0.336562, -2.08541, -2.17243, -0.123105, 0.0258513, 0.069002, 0.0352367, 0.0536882, 0.0201492, 0.00749926
0.110116, 1.69538, -1.22442, -1.53874, -0.900118, -1.19609, 1.23278, -1.30266, 0.0898565, 0.0106251, 0.000670725, -0.013313, -0.103921, 0.0624366, 0.000630283, 4.17335, 59.1415, 29.2023, 4.37927, 2.41809, 3.324, -0.00999879, -0.00118408, -0.000154332, 0.000414549, -0.00156417, -0.00681764, -0.000891725, 0.0557762, -0.0249386, -0.0199925, -0.0424857, 0.178865, 0.00665254, 0.471942, -0.540921, 0.337159, -2.08202, -2.16715, -0.128038, 0.471816, -0.542033, 0.336571, -2.08541, -2.17257, -0.122946, 0.0263034, 0.0702379, 0.0358623, 0.0525329, 0.0192953, 0.00671625
0.111116, 1.69547, -1.22441, -1.53874, -0.900138, -1.1962, 1.23284, -1.30267, 0.0892293, 0.008125, -0.000159857, -0.0146358, -0.106028, 0.0614058, -0.00127301, 4.02259, 59.2883, 29.238, 4.45465, 2.4126, 3.30295, 0.0357776, -0.00123848, -0.00012848, 0.00043868, -0.00157619, -0.00693118, -0.000930125, 0.0576893, -0.0238706, -0.0224435, -0.0463372, 0.178591, 0.00703028, 0.471968, -0.54085, 0.337195, -2.08197, -2.16719, -0.127985, 0.47187, -0.542011, 0.336574, -2.08538, -2.17271, -0.122795, 0.0267579, 0.0714811, 0.0364913, 0.0519019, 0.0189808, 0.00466249
0.112116, 1.69556, -1.22438, -1.53874, -0.900154, -1.19631, 1.2329, -1.30267, 0.0900532, 0.0145231, 0.00232642, -0.0169317, -0.103122, 0.0557524, -0.000847003, 3.94721, 59.213, 29.2777, 4.45465, 2.4126, 3.2883, 0.0357776, -0.00129569, -0.000105729, 0.000450039, -0.00159874, -0.00706531, -0.000952003, 0.0556576, -0.0239649, -0.0191128, -0.0488877, 0.180698, 0.0104567, 0.471995, -0.540778, 0.337232, -2.08192, -2.16723, -0.127932, 0.471921, -0.541993, 0.33659, -2.08538, -2.17286, -0.122633, 0.0272147, 0.0727316, 0.0371239, 0.0525032, 0.0217313, 0.00889541
0.113116, 1.69564, -1.22437, -1.53874, -0.900173, -1.19641, 1.23295, -1.30266, 0.0884545, 0.0108085, 0.00110992, -0.0165973, -0.100507, 0.0558363, 0.00184408, 3.83216, 59.3597, 29.3134, 4.49432, 2.39978, 3.2883, -0.0292249, -0.00135592, -8.59856e-05, 0.000472273, -0.00161206, -0.00718092, -0.000969766, 0.0578889, -0.0226654, -0.0220457, -0.0490714, 0.175749, 0.00523341, 0.472023, -0.540705, 0.337269, -2.08186, -2.16726, -0.127878, 0.47197, -0.541974, 0.336596, -2.08538, -2.17299, -0.122478, 0.0276737, 0.0739892, 0.0377598, 0.0516394, 0.0211808, 0.00633087
0.114116, 1.69573, -1.22435, -1.53874, -0.90019, -1.19653, 1.23301, -1.30267, 0.0871831, 0.0138199, 0.00103559, -0.0143865, -0.0990104, 0.0512456, -0.00117717, 3.72108, 59.3994, 29.3134, 4.45465, 2.40619, 3.2883, 0.0357776, -0.00141598, -6.63762e-05, 0.000488671, -0.00162602, -0.00730703, -0.000997344, 0.0593948, -0.0202194, -0.0207888, -0.0514496, 0.175883, 0.00443996, 0.472051, -0.54063, 0.337307, -2.08181, -2.1673, -0.127822, 0.472019, -0.541956, 0.336608, -2.08536, -2.17313, -0.122313, 0.028135, 0.0752539, 0.0383992, 0.0497628, 0.0206625, 0.00805523
0.115116, 1.69581, -1.22433, -1.53873, -0.900222, -1.19664, 1.23306, -1.30266, 0.0902453, 0.0153419, 0.0049066, -0.0203838, -0.102573, 0.0480501, 0.00186078, 3.57032, 59.4708, 29.2777, 4.60541, 2.40619, 3.28097, -0.0356336, -0.00147071, -4.24921e-05, 0.00050646, -0.00163662, -0.00743049, -0.00102839, 0.0569988, -0.0224488, -0.0202486, -0.0561605, 0.179965, 0.00929001, 0.472079, -0.540554, 0.337346, -2.08175, -2.16734, -0.127766, 0.472073, -0.54193, 0.33662, -2.08534, -2.17328, -0.122146, 0.0285984, 0.0765256, 0.0390419, 0.0523849, 0.0243126, 0.0095322
0.116116, 1.6959, -1.22431, -1.53873, -0.900244, -1.19674, 1.2331, -1.30266, 0.0905592, 0.0124534, 0.00286542, -0.0243656, -0.104724, 0.0456687, 0.00076633, 3.49494, 59.5819, 29.3134, 4.60541, 2.39429, 3.27456, -0.0228162, -0.00153137, -2.42262e-05, 0.000526647, -0.00164251, -0.00754964, -0.00105505, 0.0578997, -0.0220358, -0.0239085, -0.0637069, 0.179039, 0.0115022, 0.472108, -0.540477, 0.337386, -2.0817, -2.16738, -0.127709, 0.472121, -0.541909, 0.33663, -2.08532, -2.17342, -0.121978, 0.0290639, 0.0778042, 0.0396878, 0.0523359, 0.0252454, 0.00643789
0.117116, 1.69599, -1.22429, -1.53874, -0.900271, -1.19686, 1.23315, -1.30266, 0.091987, 0.011753, 0.00260965, -0.0243017, -0.107035, 0.0435845, -0.000472062, 3.37989, 59.7644, 29.4245, 4.60541, 2.40619, 3.27456, 0.00373412, -0.00159239, -3.9922e-06, 0.000551262, -0.00164231, -0.00767025, -0.00108768, 0.0589919, -0.0216474, -0.0251184, -0.0675746, 0.180132, 0.0121739, 0.472137, -0.540398, 0.337426, -2.08164, -2.16742, -0.127651, 0.472172, -0.541886, 0.336635, -2.08529, -2.17356, -0.1218, 0.0295316, 0.0790895, 0.040337, 0.0524126, 0.0256216, 0.00573591
0.118116, 1.69607, -1.22426, -1.53873, -0.900302, -1.19697, 1.23319, -1.30266, 0.0904362, 0.0197344, 0.00130135, -0.026106, -0.108542, 0.0434804, 0.000431574, 3.37989, 59.7287, 29.4642, 4.68079, 2.40619, 3.23886, -0.0164075, -0.00165455, 1.1711e-05, 0.000566061, -0.00164698, -0.00780211, -0.00111168, 0.0602982, -0.0201058, -0.0215233, -0.0699539, 0.190339, 0.00900891, 0.472167, -0.540319, 0.337466, -2.08158, -2.16746, -0.127592, 0.472219, -0.541865, 0.336651, -2.08528, -2.17371, -0.121615, 0.0300013, 0.0803815, 0.0409894, 0.0515287, 0.0250079, 0.00978522
0.119116, 1.69616, -1.22425, -1.53873, -0.900337, -1.19708, 1.23324, -1.30266, 0.0879222, 0.017036, 0.00425188, -0.0263946, -0.10971, 0.0479509, -0.00117012, 3.30451, 59.9152, 29.4642, 4.71649, 2.40619, 3.20224, 0.0229602, -0.00171427, 3.2959e-05, 0.00058829, -0.00165402, -0.0079206, -0.00115417, 0.0630266, -0.0195063, -0.0220385, -0.0645341, 0.191448, 0.00842204, 0.472197, -0.540238, 0.337508, -2.08152, -2.1675, -0.127533, 0.472272, -0.541839, 0.336661, -2.08524, -2.17386, -0.121447, 0.030473, 0.0816802, 0.0416449, 0.0514865, 0.0236665, 0.00952947
0.120116, 1.69616, -1.22425, -1.53873, -0.900337, -1.19708, 1.23324, -1.30266, 0.0879222, 0.017036, 0.00425188, -0.0263946, -0.10971, 0.0479509, -0.00117012, 3.30451, 59.9152, 29.4642, 4.71649, 2.40619, 3.20224, 0.0229602, -0.00180088, 2.78299e-08, 0.000618322, -0.00169584, -0.00790216, -0.00110912, 0.0643996, -0.0189961, -0.0225073, -0.0650541, 0.192327, 0.00736611, 0.472228, -0.540155, 0.33755, -2.08146, -2.16755, -0.127472, 0.472272, -0.541839, 0.336661, -2.08524, -2.17386, -0.121447, 0.0309467, 0.0829853, 0.0423035, 0.0514865, 0.0236665, 0.00952947
0.121116, 1.69616, -1.22425, -1.53873, -0.900337, -1.19708, 1.23324, -1.30266, 0.0879222, 0.017036, 0.00425188, -0.0263946, -0.10971, 0.0479509, -0.00117012, 3.30451, 59.9152, 29.4642, 4.71649, 2.40619, 3.20224, 0.0229602, -0.00188886, -3.34189e-05, 0.000648831, -0.00173831, -0.00788346, -0.00106337, 0.0657792, -0.0184836, -0.0229782, -0.0655758, 0.193211, 0.00630596, 0.472259, -0.540072, 0.337592, -2.0814, -2.16759, -0.12741, 0.472272, -0.541839, 0.336661, -2.08524, -2.17386, -0.121447, 0.0314223, 0.0842969, 0.0429652, 0.0514865, 0.0236665, 0.00952947
0.122116, 1.69616, -1.22425, -1.53873, -0.900337, -1.19708, 1.23324, -1.30266, 0.0879222, 0.017036, 0.00425188, -0.0263946, -0.10971, 0.0479509, -0.00117012, 3.30451, 59.9152, 29.4642, 4.71649, 2.40619, 3.20224, 0.0229602, -0.00197821, -6.73835e-05, 0.000679817, -0.00178145, -0.00786449, -0.00101693, 0.0671655, -0.017969, -0.0234513, -0.0660989, 0.194098, 0.00524165, 0.472291, -0.539987, 0.337635, -2.08134, -2.16763, -0.127348, 0.472272, -0.541839, 0.336661, -2.08524, -2.17386, -0.121447, 0.0318998, 0.0856148, 0.0436298, 0.0514865, 0.0236665, 0.00952947
0.123116, 1.69616, -1.22425, -1.53873, -0.900337, -1.19708, 1.23324, -1.30266, 0.0879222, 0.017036, 0.00425188, -0.0263946, -0.10971, 0.0479509, -0.00117012, 3.30451, 59.9152, 29.4642, 4.71649, 2.40619, 3.20224, 0.0229602, -0.00206895, -0.000101868, 0.000711284, -0.00182525, -0.00784525, -0.000969796, 0.0685582, -0.0174522, -0.0239265, -0.0666234, 0.194989, 0.00417329, 0.472323, -0.5399, 0.337679, -2.08127, -2.16768, -0.127284, 0.472272, -0.541839, 0.336661, -2.08524, -2.17386, -0.121447, 0.0323792, 0.0869389, 0.0442973, 0.0514865, 0.0236665, 0.00952947
0.124116, 1.6966, -1.22409, -1.53872, -0.900527, -1.19762, 1.23342, -1.30266, 0.0894361, 0.0304692, 0.00174393, -0.0378971, -0.108817, 0.0379619, 0.00151924, 2.96729, 60.4309, 29.7974, 4.64111, 2.44922, 3.10977, -0.00267457, -0.00201461, 0.000127042, 0.000679198, -0.00164414, -0.00854466, -0.0013443, 0.0638652, -0.0179351, -0.0199406, -0.0820865, 0.204836, 0.0108529, 0.472355, -0.539813, 0.337724, -2.08121, -2.16772, -0.127219, 0.472533, -0.541692, 0.336738, -2.08503, -2.17463, -0.120509, 0.0328604, 0.0882692, 0.0449678, 0.0524258, 0.0290414, 0.014846
0.125116, 1.69669, -1.22405, -1.53872, -0.90057, -1.19773, 1.23345, -1.30265, 0.0904548, 0.0303853, 0.00109817, -0.0361646, -0.110873, 0.0375339, 0.00314256, 3.003, 60.538, 29.9482, 4.56573, 2.48035, 3.11618, -0.0557752, -0.00207823, 0.000141099, 0.000697119, -0.00163238, -0.00867289, -0.00137362, 0.065832, -0.0171762, -0.020542, -0.0838325, 0.207046, 0.00665256, 0.472389, -0.539724, 0.337769, -2.08114, -2.16777, -0.127154, 0.472582, -0.541663, 0.336756, -2.085, -2.17478, -0.120303, 0.0333434, 0.0896055, 0.045641, 0.0522047, 0.0284957, 0.0146461
0.126116, 1.69677, -1.22401, -1.53872, -0.900623, -1.19783, 1.23348, -1.30265, 0.0867657, 0.03324, -0.000401004, -0.0408026, -0.112149, 0.032776, 0.000250638, 3.11805, 60.6491, 30.0236, 4.60541, 2.49866, 3.11618, -0.00267457, -0.00214056, 0.000154979, 0.000716322, -0.00161993, -0.00879536, -0.00141888, 0.0673079, -0.0142899, -0.0207482, -0.0918044, 0.209889, 0.00767958, 0.472422, -0.539634, 0.337815, -2.08108, -2.16781, -0.127088, 0.472631, -0.541631, 0.336773, -2.08494, -2.17494, -0.120103, 0.0338281, 0.0909478, 0.0463171, 0.0498577, 0.028288, 0.0149828
0.127116, 1.69686, -1.22397, -1.53872, -0.900671, -1.19793, 1.23351, -1.30265, 0.0887204, 0.0340989, 0.00551365, -0.0412924, -0.112414, 0.0344283, 0.00246285, 3.04267, 60.6848, 30.0593, 4.53003, 2.51056, 3.10245, -0.0621838, -0.00219827, 0.00017624, 0.000730003, -0.00161687, -0.00892459, -0.00146769, 0.0666025, -0.0162631, -0.018647, -0.0862777, 0.212393, 0.00948517, 0.472456, -0.539542, 0.337862, -2.08101, -2.16786, -0.12702, 0.472688, -0.541593, 0.336796, -2.08488, -2.17511, -0.119906, 0.0343145, 0.092296, 0.0469959, 0.05237, 0.0300969, 0.0177834
0.128116, 1.69695, -1.22393, -1.53871, -0.900725, -1.19803, 1.23353, -1.30265, 0.089111, 0.0351512, 0.00508693, -0.0492638, -0.112616, 0.0309882, 0.00194805, 3.15376, 60.8356, 30.1703, 4.49432, 2.52887, 3.0878, -0.0685925, -0.00226287, 0.000189312, 0.000752189, -0.00160355, -0.00904202, -0.00150725, 0.0651507, -0.0169937, -0.0200966, -0.0940003, 0.213566, 0.0159895, 0.472491, -0.539449, 0.337909, -2.08094, -2.16791, -0.126952, 0.472737, -0.54156, 0.336811, -2.08483, -2.17526, -0.119708, 0.0348026, 0.09365, 0.0476774, 0.0534798, 0.0331381, 0.0172349
0.129116, 1.69704, -1.22389, -1.53871, -0.900781, -1.19813, 1.23355, -1.30265, 0.09305, 0.0410335, 0.00253979, -0.0519352, -0.10813, 0.0321969, -0.000582492, 3.11805, 60.907, 30.2457, 4.45465, 2.53528, 3.09512, -0.0164075, -0.00232015, 0.000208691, 0.000768978, -0.00159143, -0.00916277, -0.00156749, 0.0632279, -0.0194373, -0.0184962, -0.0949819, 0.217786, 0.0238432, 0.472526, -0.539355, 0.337957, -2.08087, -2.16796, -0.126882, 0.472793, -0.541519, 0.336833, -2.08475, -2.17544, -0.119508, 0.0352924, 0.0950097, 0.0483616, 0.0563999, 0.0362579, 0.019719
0.130116, 1.69712, -1.22385, -1.5387, -0.900843, -1.19823, 1.23358, -1.30264, 0.0931936, 0.0404901, 0.00459362, -0.0548101, -0.105741, 0.0345716, 0.00134579, 3.19343, 61.0538, 30.2814, 4.45465, 2.5719, 3.06674, -0.0621838, -0.00238084, 0.000226931, 0.000788077, -0.00158361, -0.00928456, -0.00161523, 0.0631308, -0.0207026, -0.0187734, -0.0919536, 0.217496, 0.0252876, 0.472561, -0.539259, 0.338006, -2.0808, -2.168, -0.126812, 0.472849, -0.541479, 0.336853, -2.08469, -2.1756, -0.119311, 0.0357837, 0.096375, 0.0490484, 0.0581427, 0.0378172, 0.0201072
0.131116, 1.69721, -1.2238, -1.5387, -0.900901, -1.19833, 1.23359, -1.30264, 0.0921362, 0.0418422, 0.00428488, -0.0551843, -0.099351, 0.0300122, -0.000769212, 3.19343, 61.1292, 30.3925, 4.37927, 2.60852, 3.08047, -0.0164075, -0.00244013, 0.000243979, 0.000805037, -0.00156965, -0.00940298, -0.00167595, 0.0631262, -0.0194613, -0.0189907, -0.0936624, 0.212291, 0.0275353, 0.472597, -0.539162, 0.338055, -2.08073, -2.16805, -0.126741, 0.472903, -0.541437, 0.336876, -2.0846, -2.17578, -0.11911, 0.0362765, 0.0977458, 0.0497377, 0.05739, 0.0391724, 0.0206225
0.132116, 1.6973, -1.22375, -1.5387, -0.900965, -1.19841, 1.23361, -1.30263, 0.0915715, 0.0379135, 0.00151273, -0.0562957, -0.0940027, 0.0274271, 0.00613871, 3.30451, 61.2759, 30.6186, 4.34357, 2.63324, 3.07315, -0.0685925, -0.00250298, 0.000257003, 0.000825863, -0.00155384, -0.00951434, -0.00171913, 0.0641212, -0.0185748, -0.0231428, -0.0971281, 0.203896, 0.0204665, 0.472634, -0.539064, 0.338106, -2.08066, -2.1681, -0.126669, 0.472954, -0.541397, 0.336896, -2.08453, -2.17593, -0.118911, 0.0367709, 0.0991221, 0.0504295, 0.0568807, 0.040163, 0.0170893
0.133116, 1.69738, -1.22371, -1.53868, -0.901029, -1.1985, 1.23362, -1.30263, 0.0931832, 0.0381618, 0.00598155, -0.0604902, -0.0898328, 0.0252297, 0.00351687, 3.34419, 61.4227, 30.579, 4.30786, 2.65155, 3.07315, -0.0420422, -0.00256226, 0.000273929, 0.000842024, -0.00155145, -0.00962327, -0.0017843, 0.0615876, -0.0207246, -0.0227744, -0.0959375, 0.20069, 0.0307766, 0.472671, -0.538964, 0.338156, -2.08059, -2.16815, -0.126595, 0.47301, -0.541353, 0.336921, -2.08444, -2.17611, -0.118732, 0.0372668, 0.100504, 0.0511238, 0.0594427, 0.044084, 0.0184699
0.134116, 1.69747, -1.22366, -1.53867, -0.901095, -1.19858, 1.23364, -1.30263, 0.0914012, 0.0412289, 0.00749433, -0.0595114, -0.0866984, 0.0180784, 0.00363373, 3.37989, 61.4584, 30.7297, 4.23248, 2.66986, 3.09512, -0.0685925, -0.00262195, 0.000290549, 0.000858019, -0.00154428, -0.0097355, -0.00184078, 0.0621573, -0.0182135, -0.0213435, -0.0989167, 0.198328, 0.0286235, 0.472708, -0.538862, 0.338208, -2.08052, -2.16821, -0.126521, 0.473066, -0.541307, 0.336947, -2.08436, -2.17629, -0.118541, 0.0377641, 0.101891, 0.0518204, 0.0575115, 0.0445807, 0.0205726
0.135116, 1.69755, -1.22362, -1.53866, -0.901174, -1.19867, 1.23365, -1.30263, 0.0891326, 0.0395231, 0.010745, -0.0645283, -0.0845042, 0.0128267, 0.00641598, 3.45527, 61.6449, 30.8051, 4.26819, 2.69458, 3.11618, -0.0420422, -0.00267963, 0.000307621, 0.000881709, -0.00152649, -0.00983502, -0.00191307, 0.0616421, -0.0174094, -0.0227452, -0.102319, 0.193325, 0.0291893, 0.472746, -0.53876, 0.33826, -2.08044, -2.16826, -0.126446, 0.473122, -0.541257, 0.336966, -2.08425, -2.17647, -0.118353, 0.0382628, 0.103283, 0.0525195, 0.057136, 0.0466609, 0.0199931
0.136116, 1.69763, -1.22356, -1.53865, -0.901244, -1.19874, 1.23365, -1.30262, 0.0851639, 0.0460214, 0.0100628, -0.0687423, -0.0828204, 0.00917434, 0.00882062, 3.49494, 61.6449, 30.8765, 4.19281, 2.7193, 3.13083, -0.0228162, -0.00273997, 0.000321575, 0.000895428, -0.00151933, -0.00994411, -0.00197485, 0.0624329, -0.0148565, -0.0203719, -0.106677, 0.197843, 0.0255468, 0.472785, -0.538656, 0.338313, -2.08036, -2.16831, -0.12637, 0.473177, -0.54121, 0.336996, -2.08416, -2.17664, -0.118164, 0.0387628, 0.10468, 0.0532208, 0.0552109, 0.0468033, 0.0229986
0.137116, 1.69772, -1.22351, -1.53864, -0.901317, -1.19882, 1.23366, -1.30261, 0.0850521, 0.0442855, 0.00711327, -0.0697032, -0.0817276, 0.0113759, 0.00886693, 3.53065, 61.7917, 30.9162, 4.1571, 2.74402, 3.13815, -0.0814099, -0.0028007, 0.000337411, 0.000915566, -0.00151379, -0.0100428, -0.00203354, 0.064459, -0.0145055, -0.022874, -0.107959, 0.197518, 0.0241123, 0.472824, -0.538551, 0.338366, -2.08029, -2.16836, -0.126293, 0.473233, -0.541161, 0.33702, -2.08407, -2.17681, -0.117987, 0.0392642, 0.106082, 0.0539245, 0.0553457, 0.0465722, 0.020931
0.138116, 1.6978, -1.22346, -1.53863, -0.901403, -1.1989, 1.23367, -1.30261, 0.0864513, 0.044521, 0.0092726, -0.0731401, -0.0764198, 0.0086277, 0.00916973, 3.49494, 61.8671, 31.0273, 4.23248, 2.77515, 3.13815, -0.0228162, -0.00285865, 0.000354153, 0.000935761, -0.00150033, -0.0101437, -0.00211387, 0.0624747, -0.015978, -0.0232773, -0.108345, 0.193187, 0.0298784, 0.472864, -0.538444, 0.338421, -2.08021, -2.16842, -0.126215, 0.473291, -0.541108, 0.337044, -2.08395, -2.17701, -0.1178, 0.0397669, 0.107489, 0.0546303, 0.0572292, 0.050065, 0.0214977
0.139116, 1.69788, -1.22341, -1.53861, -0.901483, -1.19897, 1.23367, -1.3026, 0.0835839, 0.0455782, 0.0120024, -0.0758946, -0.0768738, 0.00626337, 0.00819442, 3.49494, 61.9028, 31.1027, 4.19281, 2.79895, 3.14548, -0.0557752, -0.0029193, 0.000367424, 0.000954233, -0.00149049, -0.0102398, -0.00217753, 0.0635857, -0.0144096, -0.0226373, -0.10955, 0.194363, 0.0304402, 0.472904, -0.538336, 0.338476, -2.08013, -2.16847, -0.126136, 0.473346, -0.541056, 0.337071, -2.08385, -2.17718, -0.117618, 0.0402709, 0.108901, 0.0553384, 0.0562371, 0.0502136, 0.0227177
0.140116, 1.69796, -1.22336, -1.5386, -0.901571, -1.19903, 1.23367, -1.3026, 0.0852848, 0.048639, 0.0109187, -0.0828212, -0.0714226, 0.00449144, 0.00536239, 3.45527, 61.9742, 31.1741, 4.23248, 2.79895, 3.1528, -0.0356336, -0.00297516, 0.000385229, 0.000973862, -0.00147892, -0.0103318, -0.00225745, 0.0609191, -0.0164002, -0.0229459, -0.113331, 0.193755, 0.041139, 0.472944, -0.538226, 0.338531, -2.08005, -2.16853, -0.126055, 0.473406, -0.540998, 0.337099, -2.08372, -2.17737, -0.11744, 0.040776, 0.110318, 0.0560486, 0.0586174, 0.0543982, 0.0234704
0.141116, 1.69804, -1.2233, -1.53858, -0.901659, -1.19909, 1.23367, -1.30259, 0.0842975, 0.0549042, 0.0137714, -0.0848829, -0.0681403, 0.00370591, 0.00921777, 3.53065, 62.0139, 31.2137, 4.26819, 2.81726, 3.14548, -0.0484509, -0.00303708, 0.000396106, 0.00099095, -0.00147594, -0.0104227, -0.00232496, 0.0603023, -0.0163549, -0.0190671, -0.110806, 0.197823, 0.0393299, 0.472985, -0.538115, 0.338588, -2.07997, -2.16858, -0.125974, 0.47346, -0.540945, 0.337128, -2.08361, -2.17755, -0.117271, 0.0412824, 0.111739, 0.0567608, 0.0592073, 0.055835, 0.0281102
0.142116, 1.69811, -1.22325, -1.53856, -0.901752, -1.19915, 1.23367, -1.30258, 0.0795479, 0.0518585, 0.015867, -0.089652, -0.065334, 0.0033434, 0.0120931, 3.49494, 61.9742, 31.2494, 4.30786, 2.82367, 3.13083, -0.0621838, -0.0030961, 0.000410603, 0.00100766, -0.0014755, -0.0105128, -0.00239958, 0.0617547, -0.0148772, -0.0210837, -0.11032, 0.193393, 0.0368088, 0.473027, -0.538002, 0.338645, -2.07989, -2.16864, -0.125892, 0.473517, -0.540887, 0.337159, -2.0835, -2.17773, -0.117104, 0.0417899, 0.113165, 0.0574751, 0.0582199, 0.0560698, 0.0266576
0.143116, 1.69818, -1.22319, -1.53854, -0.901847, -1.19921, 1.23367, -1.30258, 0.0754415, 0.0467564, 0.0157233, -0.0930085, -0.0636202, 0.00274789, 0.0111302, 3.49494, 62.0496, 31.3605, 4.34357, 2.84198, 3.1235, 0.0101428, -0.00315988, 0.000419976, 0.0010305, -0.00146758, -0.0105937, -0.00247513, 0.0642056, -0.0129265, -0.0249621, -0.112131, 0.187742, 0.0361216, 0.473069, -0.537889, 0.338703, -2.07981, -2.1687, -0.125809, 0.473571, -0.540833, 0.337185, -2.08337, -2.17792, -0.116938, 0.0422985, 0.114595, 0.0581914, 0.0567278, 0.0555861, 0.0232303
0.144116, 1.69825, -1.22313, -1.53852, -0.901946, -1.19926, 1.23367, -1.30257, 0.0742189, 0.0506507, 0.0184887, -0.0996038, -0.0572126, 0.00093263, 0.0104688, 3.41956, 61.9385, 31.3605, 4.41894, 2.84839, 3.1528, -0.0420422, -0.00321832, 0.000433297, 0.00104538, -0.00146429, -0.0106832, -0.00254884, 0.0618791, -0.0139512, -0.0232321, -0.111467, 0.186792, 0.0436049, 0.473111, -0.537773, 0.338761, -2.07972, -2.16875, -0.125725, 0.473628, -0.540772, 0.337219, -2.08325, -2.1781, -0.116767, 0.0428082, 0.11603, 0.0589097, 0.0582401, 0.0590997, 0.0259828
0.145116, 1.69832, -1.22308, -1.53849, -0.902051, -1.19931, 1.23366, -1.30255, 0.0719957, 0.049521, 0.021254, -0.101145, -0.0565061, 0.000252455, 0.00781618, 3.37989, 61.9742, 31.3248, 4.49432, 2.84198, 3.16653, -0.0420422, -0.00327767, 0.000446752, 0.00106581, -0.00146887, -0.0107561, -0.00262904, 0.0632359, -0.012949, -0.0235937, -0.110365, 0.185594, 0.0458538, 0.473154, -0.537657, 0.338821, -2.07964, -2.16881, -0.12564, 0.473686, -0.54071, 0.337249, -2.08312, -2.17829, -0.116621, 0.0433189, 0.117469, 0.0596298, 0.0577913, 0.05921, 0.0261702
0.146116, 1.69839, -1.22302, -1.53847, -0.90215, -1.19936, 1.23366, -1.30255, 0.068871, 0.0498078, 0.0252328, -0.10225, -0.051961, -0.00081227, 0.00945098, 3.26881, 61.9742, 31.3248, 4.45465, 2.8548, 3.19583, -0.00999879, -0.00334094, 0.000456718, 0.00108432, -0.00147672, -0.0108298, -0.00270642, 0.0639388, -0.0118863, -0.0226276, -0.106273, 0.182319, 0.0443736, 0.473198, -0.537538, 0.338881, -2.07955, -2.16887, -0.125554, 0.473742, -0.540651, 0.33728, -2.08299, -2.17848, -0.116477, 0.0438306, 0.118913, 0.0603519, 0.0573097, 0.0597651, 0.0277734
0.147116, 1.69845, -1.22296, -1.53844, -0.902264, -1.19939, 1.23366, -1.30253, 0.0647708, 0.0573986, 0.0204747, -0.104143, -0.0477761, -0.000463141, 0.00788345, 3.22913, 61.7917, 31.4002, 4.56573, 2.84198, 3.19583, -0.0292249, -0.00340237, 0.000467029, 0.00110028, -0.00148203, -0.0109113, -0.00278319, 0.0661955, -0.00899686, -0.0203996, -0.10839, 0.187933, 0.0413853, 0.473242, -0.537419, 0.338941, -2.07946, -2.16893, -0.125467, 0.473798, -0.540589, 0.337316, -2.08287, -2.17867, -0.116321, 0.0443433, 0.12036, 0.0610757, 0.0551154, 0.0585162, 0.0304452
0.148116, 1.69845, -1.22296, -1.53844, -0.902264, -1.19939, 1.23366, -1.30253, 0.0647708, 0.0573986, 0.0204747, -0.104143, -0.0477761, -0.000463141, 0.00788345, 3.22913, 61.7917, 31.4002, 4.56573, 2.84198, 3.19583, -0.0292249, -0.00352963, 0.000418943, 0.0011443, -0.0015432, -0.0108852, -0.00271798, 0.0677203, -0.00843984, -0.0209162, -0.108936, 0.188892, 0.0402444, 0.473287, -0.537298, 0.339003, -2.07938, -2.16899, -0.125378, 0.473798, -0.540589, 0.337316, -2.08287, -2.17867, -0.116321, 0.044857, 0.121812, 0.0618013, 0.0551154, 0.0585162, 0.0304452
0.149116, 1.69857, -1.22286, -1.53837, -0.902487, -1.19947, 1.23366, -1.30251, 0.0626422, 0.0526513, 0.0266252, -0.103849, -0.0354222, -0.00331446, 0.0136477, 2.96729, 61.8671, 31.2891, 4.49432, 2.84839, 3.18851, -0.0420422, -0.00352581, 0.000492756, 0.00114214, -0.00151496, -0.0110394, -0.00295353, 0.0666948, -0.00863605, -0.0221817, -0.10078, 0.17308, 0.0381219, 0.473332, -0.537175, 0.339065, -2.07929, -2.16905, -0.125289, 0.473917, -0.54046, 0.337378, -2.08259, -2.17906, -0.116068, 0.0453715, 0.123267, 0.0625286, 0.0557392, 0.0611859, 0.0300755
0.150116, 1.69863, -1.2228, -1.53835, -0.90261, -1.19949, 1.23366, -1.3025, 0.0607473, 0.0544669, 0.0273944, -0.106798, -0.0354567, -0.00192923, 0.00773986, 2.89191, 61.756, 31.3605, 4.53003, 2.83649, 3.17386, 0.0229602, -0.00358841, 0.000503912, 0.00116138, -0.00153051, -0.0111079, -0.00304984, 0.068001, -0.00801314, -0.0215535, -0.100462, 0.176723, 0.0439248, 0.473377, -0.537051, 0.339128, -2.0792, -2.16911, -0.125199, 0.473976, -0.540394, 0.337412, -2.08244, -2.17927, -0.115936, 0.0458869, 0.124727, 0.0632577, 0.0557117, 0.0612322, 0.0312454
0.151116, 1.69869, -1.22274, -1.53831, -0.902735, -1.19952, 1.23366, -1.30248, 0.0571621, 0.0541243, 0.0314327, -0.113843, -0.0361871, -0.00121148, 0.0124295, 2.77686, 61.7163, 31.2891, 4.53003, 2.84198, 3.16653, -0.0228162, -0.00364898, 0.000516259, 0.00117969, -0.00155, -0.0111707, -0.00313834, 0.0684372, -0.00777126, -0.0215776, -0.0999936, 0.178553, 0.0424196, 0.473423, -0.536926, 0.339191, -2.07911, -2.16918, -0.125108, 0.474036, -0.540325, 0.337448, -2.0823, -2.17947, -0.115812, 0.0464031, 0.12619, 0.0639883, 0.0560059, 0.0622576, 0.0318942
0.152116, 1.69874, -1.22268, -1.53828, -0.902864, -1.19954, 1.23366, -1.30247, 0.0534785, 0.0529177, 0.0312834, -0.119786, -0.0324972, -0.000955099, 0.0139447, 2.70148, 61.7163, 31.3605, 4.53003, 2.86029, 3.16653, -0.0228162, -0.00371204, 0.000526802, 0.00120311, -0.00156721, -0.0112256, -0.00322955, 0.0692884, -0.0069222, -0.0234903, -0.101103, 0.175843, 0.0425105, 0.47347, -0.536799, 0.339256, -2.07902, -2.16924, -0.125016, 0.474095, -0.540257, 0.337479, -2.08215, -2.17966, -0.115693, 0.0469202, 0.127658, 0.0647206, 0.0556367, 0.0631374, 0.0306359
0.153116, 1.69879, -1.22263, -1.53824, -0.903001, -1.19956, 1.23366, -1.30247, 0.0529823, 0.0511812, 0.033703, -0.125008, -0.0288799, -0.000747317, 0.00774855, 2.66181, 61.756, 31.3248, 4.56573, 2.8548, 3.16653, 0.0495105, -0.00377417, 0.000538103, 0.00122788, -0.00159214, -0.011271, -0.00333909, 0.0684542, -0.00813944, -0.0248696, -0.100261, 0.172518, 0.0540444, 0.473517, -0.53667, 0.339321, -2.07892, -2.1693, -0.124922, 0.474155, -0.540185, 0.33751, -2.08197, -2.17988, -0.115593, 0.047438, 0.129128, 0.0654544, 0.0572857, 0.0656964, 0.030097
0.154116, 1.69883, -1.22258, -1.5382, -0.903134, -1.19957, 1.23366, -1.30244, 0.0486907, 0.050216, 0.0365633, -0.126523, -0.0223134, -7.25237e-05, 0.0133675, 2.66181, 61.7917, 31.3605, 4.49432, 2.87311, 3.1528, -0.0228162, -0.00383906, 0.000546227, 0.00125056, -0.001621, -0.011315, -0.00342449, 0.0697189, -0.00687533, -0.0248956, -0.0948132, 0.167279, 0.0479445, 0.473565, -0.53654, 0.339387, -2.07883, -2.16937, -0.124828, 0.474213, -0.540116, 0.337543, -2.08182, -2.18007, -0.115495, 0.0479565, 0.130603, 0.0661897, 0.0565942, 0.0658689, 0.0306551
0.155116, 1.69888, -1.22252, -1.53815, -0.903281, -1.19958, 1.23366, -1.30244, 0.0494315, 0.0552087, 0.040546, -0.133465, -0.0173402, 0.000431982, 0.00678384, 2.62611, 61.7163, 31.3248, 4.53003, 2.89142, 3.13815, 0.0623279, -0.00389924, 0.00055845, 0.00126708, -0.00165432, -0.0113699, -0.00354436, 0.066611, -0.00951132, -0.0220437, -0.0921472, 0.169788, 0.0636673, 0.473613, -0.536409, 0.339453, -2.07873, -2.16943, -0.124733, 0.474275, -0.540041, 0.337584, -2.08165, -2.18031, -0.115393, 0.0484757, 0.132081, 0.0669265, 0.0597384, 0.0701001, 0.0346004
0.156116, 1.69892, -1.22246, -1.5381, -0.903431, -1.19958, 1.23366, -1.30243, 0.0495035, 0.059846, 0.0428148, -0.137011, -0.0129, 0.000512602, 0.0117997, 2.62611, 61.7163, 31.3248, 4.49432, 2.89142, 3.13083, 0.0165515, -0.00395913, 0.000571768, 0.00128432, -0.00169428, -0.011419, -0.0036546, 0.0652723, -0.0105809, -0.0195415, -0.0898586, 0.171948, 0.0631568, 0.473662, -0.536276, 0.33952, -2.07864, -2.1695, -0.124636, 0.474339, -0.539964, 0.337625, -2.08148, -2.18054, -0.115303, 0.0489955, 0.133562, 0.0676647, 0.0613755, 0.0725709, 0.0379812
0.157116, 1.69897, -1.2224, -1.53805, -0.903591, -1.19958, 1.23366, -1.30241, 0.0473006, 0.061403, 0.046651, -0.144509, -0.00960485, 0.000578013, 0.0143383, 2.58643, 61.6806, 31.3605, 4.53003, 2.89142, 3.1235, -0.00267457, -0.00401658, 0.000585923, 0.00130294, -0.00172954, -0.0114642, -0.00377374, 0.0639688, -0.0114609, -0.0187284, -0.0885491, 0.172159, 0.066765, 0.473711, -0.536142, 0.339588, -2.07854, -2.16956, -0.124539, 0.474404, -0.539883, 0.337665, -2.08129, -2.18077, -0.115212, 0.049516, 0.135047, 0.0684043, 0.0627584, 0.0752589, 0.039696
0.158116, 1.699, -1.22233, -1.538, -0.903754, -1.19958, 1.23366, -1.3024, 0.0469005, 0.064228, 0.0489928, -0.144913, -0.00807242, 0.000630367, 0.0147875, 2.62611, 61.5695, 31.4359, 4.49432, 2.91614, 3.11618, 0.0165515, -0.00407566, 0.000598, 0.00131872, -0.00176768, -0.011513, -0.00389743, 0.0645145, -0.0112783, -0.0168046, -0.0861973, 0.174591, 0.0666956, 0.473761, -0.536006, 0.339657, -2.07844, -2.16963, -0.124441, 0.474468, -0.539802, 0.337709, -2.08111, -2.18101, -0.115119, 0.0500371, 0.136535, 0.0691452, 0.0631988, 0.0759074, 0.04226
0.159116, 1.69904, -1.22227, -1.53793, -0.903918, -1.19958, 1.23366, -1.30239, 0.0428582, 0.0579675, 0.0561016, -0.153006, -0.00638766, 0.000129296, 0.0161952, 2.70148, 61.6806, 31.4002, 4.37927, 2.92804, 3.1235, 0.0101428, -0.00413583, 0.000610568, 0.00133836, -0.00181408, -0.0115493, -0.0040229, 0.0641871, -0.0117021, -0.0194626, -0.08394, 0.167845, 0.0713162, 0.473811, -0.535869, 0.339727, -2.07834, -2.1697, -0.124341, 0.474533, -0.539721, 0.337749, -2.08092, -2.18125, -0.115048, 0.0505588, 0.138026, 0.0698875, 0.0640282, 0.0781457, 0.0404146
0.160116, 1.69907, -1.22222, -1.53786, -0.904101, -1.19957, 1.23366, -1.30239, 0.0388863, 0.0544228, 0.0622558, -0.162144, -0.00424156, 0.000851329, 0.0158747, 2.81654, 61.756, 31.4359, 4.37927, 2.91614, 3.10245, 0.0357776, -0.00419413, 0.000624978, 0.00135843, -0.00186373, -0.0115874, -0.00416388, 0.0634917, -0.0124509, -0.0209042, -0.0815266, 0.164192, 0.0783, 0.473862, -0.53573, 0.339797, -2.07824, -2.16977, -0.124241, 0.474599, -0.539636, 0.33779, -2.08071, -2.18151, -0.114979, 0.0510809, 0.13952, 0.0706309, 0.0652159, 0.0805802, 0.0398172
0.161116, 1.6991, -1.22215, -1.5378, -0.904278, -1.19957, 1.23366, -1.30237, 0.0349703, 0.0556366, 0.060477, -0.165442, -0.00314566, 0.000285215, 0.0129291, 2.85224, 61.7917, 31.5113, 4.23248, 2.91614, 3.10977, 0.0101428, -0.00425379, 0.000637237, 0.00137604, -0.00190616, -0.0116306, -0.00429441, 0.0658005, -0.010092, -0.0216733, -0.0845277, 0.1655, 0.0785939, 0.473913, -0.53559, 0.339868, -2.07814, -2.16984, -0.12414, 0.474665, -0.539551, 0.337834, -2.08052, -2.18176, -0.114895, 0.0516036, 0.141018, 0.0713756, 0.0634485, 0.0798074, 0.0395275
0.162116, 1.69913, -1.22209, -1.53773, -0.904467, -1.19957, 1.23367, -1.30237, 0.0332259, 0.059551, 0.0626578, -0.170684, -0.00209821, 0.000724375, 0.00698809, 2.96729, 61.8274, 31.5867, 4.19281, 2.90973, 3.09512, 0.0824695, -0.00431424, 0.000650052, 0.0013947, -0.00195211, -0.011677, -0.00444141, 0.0655813, -0.0101971, -0.0197395, -0.0842418, 0.170026, 0.087564, 0.473965, -0.535448, 0.33994, -2.07804, -2.16991, -0.124037, 0.474732, -0.539466, 0.337878, -2.0803, -2.18203, -0.114811, 0.0521267, 0.142518, 0.0721215, 0.0641487, 0.0812351, 0.0422144
0.163116, 1.69916, -1.22204, -1.53765, -0.904658, -1.19957, 1.23366, -1.30236, 0.0353224, 0.0580852, 0.0662578, -0.178597, -0.00181501, 0.000205422, 0.00571556, 3.07838, 61.9385, 31.5867, 4.08173, 2.91614, 3.10245, 0.0751453, -0.00437197, 0.000664969, 0.00141493, -0.00200252, -0.0117102, -0.0045887, 0.0631251, -0.0131443, -0.0211123, -0.0861563, 0.169622, 0.0985282, 0.474018, -0.535305, 0.340012, -2.07793, -2.16998, -0.123934, 0.474801, -0.539376, 0.337921, -2.08009, -2.1823, -0.114746, 0.0526502, 0.144021, 0.0728685, 0.0674644, 0.0855073, 0.0418851
0.164116, 1.69919, -1.22198, -1.53758, -0.904851, -1.19957, 1.23366, -1.30235, 0.0336803, 0.0587061, 0.0686743, -0.1866, -0.00110678, -0.00013899, 0.0112556, 3.19343, 61.9742, 31.6977, 3.89526, 2.90973, 3.10977, 0.0165515, -0.0044331, 0.000676981, 0.00143505, -0.00204956, -0.0117495, -0.00472543, 0.0622971, -0.0138466, -0.0214901, -0.0880332, 0.170993, 0.098598, 0.474071, -0.53516, 0.340086, -2.07783, -2.17005, -0.123829, 0.474867, -0.539288, 0.337965, -2.07988, -2.18256, -0.114668, 0.0531742, 0.145527, 0.0736165, 0.0686442, 0.0879208, 0.0423645
0.165116, 1.69921, -1.22193, -1.53749, -0.90506, -1.19956, 1.23366, -1.30235, 0.0325088, 0.057494, 0.0736105, -0.19518, -0.00107581, -0.00538529, 0.00565733, 3.30451, 62.0853, 31.6977, 3.81988, 2.91614, 3.1235, 0.0888782, -0.00448948, 0.000692694, 0.00145752, -0.0020966, -0.0117812, -0.00489694, 0.060369, -0.0144406, -0.0225903, -0.092848, 0.168603, 0.111769, 0.474124, -0.535014, 0.34016, -2.07772, -2.17012, -0.123723, 0.474938, -0.539193, 0.338008, -2.07963, -2.18285, -0.114601, 0.0536985, 0.147036, 0.0743657, 0.0696426, 0.0915281, 0.042304
0.166116, 1.69923, -1.22187, -1.53741, -0.905271, -1.19956, 1.23366, -1.30233, 0.029972, 0.0623662, 0.0773416, -0.201321, -0.000792661, -0.00399119, 0.0114181, 3.49494, 62.0853, 31.8088, 3.59772, 2.91614, 3.1235, 0.0293689, -0.00455096, 0.000704337, 0.00147699, -0.00214794, -0.0118228, -0.00504328, 0.0600748, -0.0146351, -0.0195443, -0.0908898, 0.175138, 0.109511, 0.474178, -0.534866, 0.340234, -2.07762, -2.17019, -0.123617, 0.475006, -0.539102, 0.338053, -2.07942, -2.18312, -0.114525, 0.0542231, 0.148547, 0.0751158, 0.0704755, 0.0928768, 0.0461016
0.167116, 1.69924, -1.22181, -1.53733, -0.905491, -1.19956, 1.23366, -1.30233, 0.0260526, 0.061994, 0.0798073, -0.208199, -0.00150056, -0.00245292, 0.00678636, 3.6457, 62.1249, 31.9556, 3.44696, 2.94086, 3.10977, 0.0751453, -0.00461223, 0.00071643, 0.00149761, -0.0021972, -0.0118662, -0.00520636, 0.0611643, -0.0140208, -0.0200474, -0.0910182, 0.177449, 0.116091, 0.474232, -0.534717, 0.34031, -2.07751, -2.17026, -0.123509, 0.475074, -0.53901, 0.338099, -2.07918, -2.18341, -0.114445, 0.054748, 0.150061, 0.0758669, 0.0704142, 0.0933636, 0.0462101
0.168116, 1.69925, -1.22175, -1.53722, -0.905722, -1.19956, 1.23366, -1.30232, 0.021249, 0.0615702, 0.0890299, -0.212746, -0.00283996, -0.000775775, 0.00565125, 3.87183, 62.1606, 31.8842, 3.30017, 2.98938, 3.08047, 0.0623279, -0.0046704, 0.000730135, 0.00151286, -0.00226264, -0.0119062, -0.00537863, 0.0620672, -0.0135203, -0.0177924, -0.0841522, 0.179628, 0.119282, 0.474287, -0.534566, 0.340386, -2.0774, -2.17034, -0.123401, 0.475145, -0.538914, 0.338151, -2.07894, -2.18372, -0.114386, 0.0552732, 0.151577, 0.0766189, 0.0705711, 0.0936237, 0.0490683
0.169116, 1.69926, -1.22169, -1.53713, -0.905973, -1.19956, 1.23366, -1.30231, 0.0186947, 0.0635307, 0.0886739, -0.223372, 0.000694193, -0.00017773, 0.00571479, 4.06226, 62.2321, 32.031, 3.30017, 3.04523, 3.06674, 0.0229602, -0.00472662, 0.000745884, 0.00153555, -0.00230517, -0.0119525, -0.00555951, 0.0608627, -0.0142641, -0.0186151, -0.0873622, 0.180883, 0.125817, 0.474343, -0.534414, 0.340463, -2.07729, -2.17041, -0.123291, 0.475218, -0.538813, 0.338196, -2.07869, -2.18403, -0.114296, 0.0557986, 0.153096, 0.0773717, 0.0717603, 0.0964916, 0.0491691
0.170116, 1.69926, -1.22163, -1.53703, -0.906215, -1.19956, 1.23366, -1.30231, 0.0138466, 0.0644149, 0.0939111, -0.229049, 0.000151399, -0.000245366, 0.00248135, 4.24873, 62.1964, 32.0707, 3.22479, 3.06354, 3.06674, 0.0687366, -0.00478499, 0.000759017, 0.00155049, -0.00236458, -0.0119981, -0.00574473, 0.0618286, -0.0130366, -0.017326, -0.0855717, 0.183214, 0.130376, 0.474399, -0.53426, 0.340541, -2.07718, -2.17049, -0.12318, 0.475289, -0.538714, 0.33825, -2.07843, -2.18435, -0.114225, 0.0563242, 0.154618, 0.0781255, 0.0711557, 0.0968071, 0.0510903
0.171116, 1.69927, -1.22157, -1.53692, -0.906465, -1.19956, 1.23366, -1.3023, 0.0128299, 0.0635037, 0.0990031, -0.232897, 0.00323912, 0.000283798, 0.00409956, 4.3241, 62.2321, 32.0707, 3.14941, 3.11206, 3.05209, 0.0101428, -0.00484303, 0.000774425, 0.00156934, -0.00242617, -0.0120394, -0.00592633, 0.0611706, -0.0140701, -0.0170338, -0.0815305, 0.181034, 0.133452, 0.474456, -0.534104, 0.340619, -2.07707, -2.17056, -0.123068, 0.475363, -0.538612, 0.3383, -2.07818, -2.18467, -0.114159, 0.05685, 0.156141, 0.07888, 0.0727021, 0.0989846, 0.0522001
0.172116, 1.69926, -1.2215, -1.53681, -0.906725, -1.19956, 1.23366, -1.3023, 0.00517556, 0.0644727, 0.0991571, -0.244395, 0.00597289, -0.000424706, 0.00645301, 4.55024, 62.1964, 32.2175, 3.14941, 3.15509, 3.06674, 0.0431018, -0.00490601, 0.000782162, 0.00158662, -0.00247813, -0.01209, -0.00610965, 0.0620066, -0.0119296, -0.0182404, -0.0855344, 0.181203, 0.133408, 0.474513, -0.533947, 0.340699, -2.07696, -2.17064, -0.122956, 0.47543, -0.538514, 0.338353, -2.07792, -2.18499, -0.114071, 0.0573759, 0.157667, 0.0796352, 0.0710797, 0.0997685, 0.0517094
0.173116, 1.69926, -1.22144, -1.53669, -0.906994, -1.19956, 1.23366, -1.30229, 0.00395637, 0.0649723, 0.105162, -0.251638, 0.0041508, -0.000336665, 0.00535995, 4.58991, 62.1606, 32.2175, 3.11371, 3.1734, 3.06674, 0.0293689, -0.00495915, 0.00079984, 0.00160202, -0.00253805, -0.0121349, -0.00631393, 0.0610304, -0.0131037, -0.0172877, -0.0848245, 0.1845, 0.140734, 0.47457, -0.533789, 0.340779, -2.07684, -2.17071, -0.122842, 0.475507, -0.538405, 0.338409, -2.07764, -2.18533, -0.114, 0.0579019, 0.159194, 0.0803912, 0.0727805, 0.102171, 0.0535168
0.174116, 1.69925, -1.22138, -1.53656, -0.907277, -1.19955, 1.23366, -1.30229, 0.000186621, 0.0625941, 0.114901, -0.258381, 0.00316512, -0.000264589, 0.00398529, 4.74067, 62.2321, 32.1421, 3.11371, 3.17981, 3.06674, 0.0293689, -0.00501396, 0.000816543, 0.00162018, -0.00260681, -0.0121731, -0.00652456, 0.0606683, -0.0135348, -0.0164964, -0.0800972, 0.183878, 0.147508, 0.474629, -0.533629, 0.340859, -2.07673, -2.17079, -0.122727, 0.475583, -0.538296, 0.338463, -2.07736, -2.18568, -0.113945, 0.0584279, 0.160724, 0.0811479, 0.0737582, 0.103959, 0.0550966
0.175116, 1.69924, -1.22133, -1.53644, -0.907555, -1.19956, 1.23366, -1.30228, -0.00304003, 0.0624671, 0.11892, -0.267897, 0.00167101, 6.47659e-05, 0.00221986, 4.77637, 62.2321, 32.2175, 3.03833, 3.20453, 3.05942, 0.0495105, -0.00507323, 0.000829041, 0.00163812, -0.00267029, -0.0122158, -0.00672519, 0.0603535, -0.013838, -0.0168123, -0.0815968, 0.186677, 0.154686, 0.474687, -0.533468, 0.340941, -2.07661, -2.17087, -0.122611, 0.475657, -0.538189, 0.338517, -2.07708, -2.18602, -0.113878, 0.0589541, 0.162256, 0.0819052, 0.0745649, 0.105865, 0.0555807
0.176116, 1.69923, -1.22127, -1.53631, -0.907845, -1.19955, 1.23366, -1.30227, -0.00742372, 0.0633876, 0.122436, -0.271764, 0.000555825, 2.05954e-05, 0.002695, 4.89143, 62.1964, 32.2175, 2.99866, 3.22925, 3.05942, 0.0229602, -0.00513047, 0.000842735, 0.00165409, -0.00273852, -0.012259, -0.0069322, 0.0621334, -0.0120977, -0.0158836, -0.0807471, 0.189504, 0.153391, 0.474746, -0.533304, 0.341023, -2.07649, -2.17095, -0.122494, 0.475732, -0.53808, 0.338575, -2.0768, -2.18637, -0.113815, 0.0594802, 0.16379, 0.0826631, 0.0734691, 0.105419, 0.0570437
0.177116, 1.69921, -1.22121, -1.53617, -0.908138, -1.19955, 1.23365, -1.30227, -0.0115287, 0.0592485, 0.123117, -0.275442, -3.96094e-05, -3.20609e-06, 0.000749768, 5.04218, 62.2321, 32.1818, 2.96295, 3.24756, 3.05942, 0.0559192, -0.00518879, 0.00085486, 0.00167092, -0.00280946, -0.0122964, -0.00714764, 0.0648314, -0.0101465, -0.0189188, -0.0825024, 0.187045, 0.153547, 0.474806, -0.53314, 0.341106, -2.07637, -2.17103, -0.122376, 0.475805, -0.53797, 0.338632, -2.07651, -2.18673, -0.11376, 0.0600063, 0.165325, 0.0834216, 0.072038, 0.104659, 0.0544597
0.178116, 1.69919, -1.22115, -1.53603, -0.908443, -1.19956, 1.23366, -1.30226, -0.0118762, 0.0587316, 0.127424, -0.284386, -0.00118174, 0.000256428, 0.00256298, 5.07789, 62.1606, 32.2175, 2.92328, 3.28418, 3.05209, 0.00373412, -0.00524462, 0.000872038, 0.00168799, -0.00287691, -0.0123458, -0.00736881, 0.0632999, -0.0120122, -0.0194314, -0.0838108, 0.189161, 0.159755, 0.474866, -0.532974, 0.34119, -2.07626, -2.17111, -0.122257, 0.475885, -0.537855, 0.33869, -2.07621, -2.1871, -0.11369, 0.0605324, 0.166863, 0.0841806, 0.0743459, 0.107874, 0.0548838
0.179116, 1.69918, -1.22109, -1.5359, -0.908766, -1.19955, 1.23366, -1.30227, -0.0173773, 0.0594842, 0.127738, -0.292943, 0.00244045, -0.000109842, 0.000348358, 5.19294, 62.1606, 32.2928, 2.96295, 3.32721, 3.05942, 0.0431018, -0.00529856, 0.000889574, 0.0017119, -0.00293295, -0.0123876, -0.00760862, 0.0639, -0.0106017, -0.0203811, -0.0859457, 0.188371, 0.164209, 0.474927, -0.532806, 0.341275, -2.07613, -2.17119, -0.122137, 0.475965, -0.537736, 0.338742, -2.07588, -2.18748, -0.113615, 0.0610583, 0.168402, 0.0849401, 0.0734535, 0.108898, 0.0546633
0.180116, 1.69915, -1.22104, -1.53575, -0.909093, -1.19955, 1.23365, -1.30226, -0.0159738, 0.0591049, 0.13514, -0.303296, 0.00635156, -8.03732e-05, 6.82048e-05, 5.3437, 62.1964, 32.3285, 3.03833, 3.34003, 3.05942, 0.0495105, -0.00535392, 0.000904872, 0.00173523, -0.00299869, -0.0124215, -0.00784584, 0.0594714, -0.0148065, -0.0200208, -0.0833388, 0.186367, 0.178646, 0.474989, -0.532637, 0.34136, -2.07601, -2.17127, -0.122016, 0.476043, -0.537618, 0.338795, -2.07556, -2.18786, -0.113558, 0.0615842, 0.169942, 0.0857, 0.0780113, 0.114957, 0.0563124
0.181116, 1.69913, -1.22098, -1.5356, -0.909429, -1.19955, 1.23365, -1.30225, -0.0179633, 0.0609043, 0.136298, -0.310032, 0.00344275, -0.000567567, 0.00230451, 5.49445, 62.1606, 32.4396, 3.11371, 3.38214, 3.07315, -0.00999879, -0.00540656, 0.000922705, 0.00175541, -0.00306172, -0.0124655, -0.00808472, 0.0600499, -0.0143279, -0.0199738, -0.0873942, 0.191825, 0.178721, 0.47505, -0.532466, 0.341446, -2.07589, -2.17135, -0.121894, 0.476124, -0.537495, 0.338853, -2.07524, -2.18825, -0.113486, 0.0621099, 0.171484, 0.0864603, 0.078089, 0.115898, 0.0570481
0.182116, 1.6991, -1.22092, -1.53543, -0.909753, -1.19956, 1.23365, -1.30226, -0.0209414, 0.0629198, 0.146066, -0.315518, 0.0017184, -0.00146747, -0.000626462, 5.56983, 62.0853, 32.4039, 2.99866, 3.41327, 3.10245, 0.0495105, -0.00546087, 0.000939897, 0.00176811, -0.00314613, -0.0125071, -0.00833658, 0.0593303, -0.0145578, -0.0165401, -0.0830027, 0.195665, 0.186405, 0.475113, -0.532294, 0.341533, -2.07577, -2.17143, -0.121771, 0.476206, -0.537374, 0.338918, -2.07491, -2.18865, -0.113441, 0.0626355, 0.173028, 0.087221, 0.0789606, 0.117645, 0.0613029
0.183116, 1.69908, -1.22087, -1.53526, -0.910095, -1.19956, 1.23364, -1.30225, -0.0220645, 0.0577205, 0.153866, -0.319675, 0.00134034, -0.00176122, 0.00130871, 5.6095, 62.1606, 32.515, 2.92328, 3.41968, 3.1235, 0.00373412, -0.00551148, 0.000961706, 0.00178893, -0.00322474, -0.0125398, -0.00859174, 0.0590828, -0.0155986, -0.0178873, -0.0793769, 0.191562, 0.189555, 0.475176, -0.53212, 0.34162, -2.07564, -2.17152, -0.121646, 0.476292, -0.537246, 0.338977, -2.07457, -2.18906, -0.113398, 0.0631608, 0.174573, 0.087982, 0.0804622, 0.119688, 0.0607357
0.184116, 1.69904, -1.22081, -1.53509, -0.910453, -1.19956, 1.23364, -1.30224, -0.0290589, 0.0607704, 0.162819, -0.330194, 0.000776818, -0.00171894, 0.00667453, 5.76026, 62.0853, 32.515, 2.88757, 3.43158, 3.13815, -0.0228162, -0.00556076, 0.000980952, 0.00180205, -0.00330287, -0.0125855, -0.00885416, 0.0585935, -0.0148339, -0.0145558, -0.0759989, 0.196324, 0.189364, 0.475239, -0.531945, 0.341709, -2.07552, -2.1716, -0.121521, 0.476377, -0.537116, 0.339044, -2.07422, -2.18948, -0.113341, 0.0636859, 0.176119, 0.0887433, 0.0803465, 0.121178, 0.0648895
0.185116, 1.69901, -1.22075, -1.5349, -0.910806, -1.19955, 1.23364, -1.30223, -0.0310136, 0.0607983, 0.168634, -0.337372, 0.000286213, -0.00169019, 0.00388337, 5.91102, 61.9742, 32.4793, 2.81219, 3.4444, 3.1528, 0.00373412, -0.00560985, 0.00100146, 0.00180994, -0.00340054, -0.0126274, -0.00912172, 0.0577835, -0.0156687, -0.0138991, -0.0748013, 0.198075, 0.19797, 0.475303, -0.531768, 0.341798, -2.07539, -2.17169, -0.121395, 0.476463, -0.536985, 0.339118, -2.07388, -2.18991, -0.113309, 0.0642108, 0.177667, 0.0895048, 0.0817023, 0.123467, 0.066395
0.186116, 1.69897, -1.22071, -1.53472, -0.911168, -1.19955, 1.23363, -1.30222, -0.0303874, 0.0594095, 0.173033, -0.341922, -6.77118e-05, -0.000856798, 0.00435974, 5.9864, 62.0496, 32.6658, 2.73682, 3.4563, 3.14548, -0.0356336, -0.00566159, 0.00102196, 0.00183112, -0.00348491, -0.0126578, -0.00938609, 0.057094, -0.0173091, -0.0142657, -0.073302, 0.198619, 0.202958, 0.475368, -0.53159, 0.341888, -2.07526, -2.17177, -0.121268, 0.47655, -0.536854, 0.339178, -2.07353, -2.19033, -0.113273, 0.0647353, 0.179216, 0.0902666, 0.0838239, 0.125832, 0.0668432
