alisrour97/Franka_experiments/Real_Robot_scripts/servo-franka/Data_video/log_dyn_INIT1_ki_0.csv
Time,q1,q2,q3,q4,q5,q6,q7,dq1,dq2,dq3,dq4,dq5,dq6,dq7,t1,t2,t3,t4,t5,t6,t7,ex1,ex2,ex3,ex4,ex5,ex6,ev1,ev2,ev3,ev4,ev5,ev6,xd,yd,zd,uxd,uyd,uzd,x,y,z,ux,uy,uz,vxd,vyd,vzd,vx,vy,vz
2.44141e-07, 1.69136, -1.22494, -1.5377, -0.899801, -1.19174, 1.22828, -1.30261, -0.00286551, 0.0050983, 0.0104051, 0.00301375, 0.00974511, 0.00452647, 0.000903108, -0.43267, 55.0156, 26.0404, 5.98602, 1.47876, 3.22421, -0.140919, 0.0010281, -0.00162089, -0.000403452, -4.78127e-05, -0.000868651, 7.05314e-05, -0.0019206, -0.00137514, 0.0076411, 0.0198666, -0.00165849, 0.00183896, 0.471008, -0.543389, 0.335894, -2.08385, -2.16584, -0.129887, 0.469364, -0.542504, 0.336486, -2.08438, -2.16626, -0.129009, 1.77043e-06, 3.2e-05, 1.02972e-05, 0.00158227, 0.000808252, 0.00781193
0.0120764, 1.69132, -1.22491, -1.53764, -0.899793, -1.19169, 1.22831, -1.30262, -0.00750712, 0.00272889, 0.0105321, 0.000856584, 0.00349099, 0.000626832, 0.00126954, -0.43267, 55.567, 26.1872, 5.98602, 1.5282, 3.20956, -0.205922, 0.00102957, -0.00162529, -0.000451179, -0.000165439, -0.000870121, 6.78883e-05, 0.000566959, 0.00210014, 0.00589393, 0.013174, -0.000760567, -0.00322255, 0.471008, -0.543389, 0.335894, -2.08385, -2.16584, -0.129887, 0.469364, -0.542509, 0.336548, -2.08446, -2.16632, -0.12918, 1.77746e-06, 6.40623e-05, 1.89552e-05, -0.00186263, -0.00148874, 0.00581406
0.0130764, 1.69132, -1.22491, -1.53764, -0.899793, -1.19169, 1.22831, -1.30262, -0.00750712, 0.00272889, 0.0105321, 0.000856584, 0.00349099, 0.000626832, 0.00126954, -0.43267, 55.567, 26.1872, 5.98602, 1.5282, 3.20956, -0.205922, 0.00102956, -0.00162529, -0.000451178, -0.000165442, -0.000870124, 6.78902e-05, 0.000603215, 0.00210129, 0.00588997, 0.0131786, -0.000734028, -0.00321991, 0.471008, -0.543389, 0.335894, -2.08385, -2.16584, -0.129887, 0.469364, -0.542509, 0.336548, -2.08446, -2.16632, -0.12918, 1.77167e-06, 9.92934e-05, 2.84561e-05, -0.00186263, -0.00148874, 0.00581406
0.0140764, 1.69132, -1.22491, -1.53764, -0.899793, -1.19169, 1.22831, -1.30262, -0.00750712, 0.00272889, 0.0105321, 0.000856584, 0.00349099, 0.000626832, 0.00126954, -0.43267, 55.567, 26.1872, 5.98602, 1.5282, 3.20956, -0.205922, 0.00102954, -0.00162529, -0.000451176, -0.000165451, -0.000870134, 6.78951e-05, 0.000642859, 0.00210253, 0.00588566, 0.0131837, -0.000705022, -0.00321702, 0.471008, -0.543389, 0.335894, -2.08385, -2.16584, -0.129887, 0.469364, -0.542509, 0.336548, -2.08446, -2.16632, -0.12918, 1.75167e-06, 0.000137819, 3.88327e-05, -0.00186263, -0.00148874, 0.00581406
0.0150764, 1.69132, -1.22491, -1.53764, -0.899793, -1.19169, 1.22831, -1.30262, -0.00750712, 0.00272889, 0.0105321, 0.000856584, 0.00349099, 0.000626832, 0.00126954, -0.43267, 55.567, 26.1872, 5.98602, 1.5282, 3.20956, -0.205922, 0.00102951, -0.00162529, -0.000451172, -0.000165466, -0.000870153, 6.79048e-05, 0.00068602, 0.00210387, 0.00588097, 0.0131893, -0.000673459, -0.00321387, 0.471008, -0.543389, 0.335894, -2.08385, -2.16584, -0.129887, 0.469364, -0.542509, 0.336548, -2.08446, -2.16632, -0.12918, 1.716e-06, 0.000179762, 5.01169e-05, -0.00186263, -0.00148874, 0.00581406
0.0160764, 1.69132, -1.22491, -1.53764, -0.899793, -1.19169, 1.22831, -1.30262, -0.00750712, 0.00272889, 0.0105321, 0.000856584, 0.00349099, 0.000626832, 0.00126954, -0.43267, 55.567, 26.1872, 5.98602, 1.5282, 3.20956, -0.205922, 0.00102944, -0.00162529, -0.000451165, -0.000165492, -0.000870185, 6.79207e-05, 0.000732824, 0.00210531, 0.0058759, 0.0131954, -0.000639245, -0.00321045, 0.471008, -0.543389, 0.335894, -2.08385, -2.16584, -0.129887, 0.469364, -0.542509, 0.336548, -2.08446, -2.16632, -0.12918, 1.66317e-06, 0.000225248, 6.23407e-05, -0.00186263, -0.00148874, 0.00581406
0.0170764, 1.69132, -1.22491, -1.53764, -0.899793, -1.19169, 1.22831, -1.30262, -0.00750712, 0.00272889, 0.0105321, 0.000856584, 0.00349099, 0.000626832, 0.00126954, -0.43267, 55.567, 26.1872, 5.98602, 1.5282, 3.20956, -0.205922, 0.00102935, -0.0016253, -0.000451154, -0.000165531, -0.000870231, 6.79444e-05, 0.000783396, 0.00210686, 0.00587044, 0.013202, -0.000602292, -0.00320675, 0.471008, -0.543389, 0.335894, -2.08385, -2.16584, -0.129887, 0.469364, -0.542509, 0.336548, -2.08446, -2.16632, -0.12918, 1.59159e-06, 0.000274397, 7.55354e-05, -0.00186263, -0.00148874, 0.00581406
0.0180764, 1.69132, -1.22491, -1.53764, -0.899793, -1.19169, 1.22831, -1.30262, -0.00750712, 0.00272889, 0.0105321, 0.000856584, 0.00349099, 0.000626832, 0.00126954, -0.43267, 55.567, 26.1872, 5.98602, 1.5282, 3.20956, -0.205922, 0.00102921, -0.0016253, -0.000451139, -0.000165584, -0.000870297, 6.79773e-05, 0.000837859, 0.0021085, 0.00586457, 0.0132091, -0.000562511, -0.00320277, 0.471008, -0.543389, 0.335894, -2.08385, -2.16584, -0.129887, 0.469364, -0.542509, 0.336548, -2.08446, -2.16632, -0.12918, 1.49965e-06, 0.00032733, 8.9732e-05, -0.00186263, -0.00148874, 0.00581406
0.0190764, 1.69132, -1.22491, -1.53764, -0.899793, -1.19169, 1.22831, -1.30262, -0.00750712, 0.00272889, 0.0105321, 0.000856584, 0.00349099, 0.000626832, 0.00126954, -0.43267, 55.567, 26.1872, 5.98602, 1.5282, 3.20956, -0.205922, 0.00102903, -0.00162531, -0.00045112, -0.000165656, -0.000870383, 6.80211e-05, 0.000896336, 0.00211025, 0.00585829, 0.0132168, -0.000519814, -0.00319849, 0.471008, -0.543389, 0.335894, -2.08385, -2.16584, -0.129887, 0.469364, -0.542509, 0.336548, -2.08446, -2.16632, -0.12918, 1.38564e-06, 0.000384166, 0.000104961, -0.00186263, -0.00148874, 0.00581406
0.0200764, 1.69132, -1.22491, -1.53764, -0.899793, -1.19169, 1.22831, -1.30262, -0.00750712, 0.00272889, 0.0105321, 0.000856584, 0.00349099, 0.000626832, 0.00126954, -0.43267, 55.567, 26.1872, 5.98602, 1.5282, 3.20956, -0.205922, 0.00102881, -0.00162531, -0.000451095, -0.000165747, -0.000870495, 6.80771e-05, 0.000958947, 0.00211212, 0.00585157, 0.0132251, -0.000474115, -0.0031939, 0.471008, -0.543389, 0.335894, -2.08385, -2.16584, -0.129887, 0.469364, -0.542509, 0.336548, -2.08446, -2.16632, -0.12918, 1.24785e-06, 0.00044502, 0.000121252, -0.00186263, -0.00148874, 0.00581406
0.0210764, 1.69131, -1.22491, -1.53761, -0.899796, -1.19168, 1.22836, -1.30262, -0.0012908, -0.000186405, 0.00302822, -0.000300392, 0.00163943, 0.000823319, -0.000620908, -0.392998, 56.1581, 26.4847, 6.02173, 1.46045, 3.20224, -0.166554, 0.00102957, -0.00161137, -0.000464642, -0.000240445, -0.000885357, 4.50724e-05, 0.000155866, -0.000195205, 0.00100381, 0.00423003, -0.000943123, 0.00166178, 0.471008, -0.543388, 0.335894, -2.08385, -2.16584, -0.129887, 0.469379, -0.542509, 0.336561, -2.08448, -2.16638, -0.129251, 1.08446e-06, 0.000510009, 0.000138634, 0.000237844, 0.000209615, 0.00109975
0.0220764, 1.69131, -1.22492, -1.53761, -0.899803, -1.19168, 1.22837, -1.30262, -0.00174065, -2.69846e-06, 0.00231946, -0.0019614, 0.00136037, 0.00112925, 0.000331985, -0.357292, 56.1581, 26.4847, 6.09711, 1.45404, 3.18851, -0.186696, 0.00102948, -0.00161074, -0.000462096, -0.000238801, -0.000885309, 4.4074e-05, 0.000152046, -0.000208611, 0.000672785, 0.00305041, -0.00014967, 0.00128437, 0.471008, -0.543388, 0.335894, -2.08385, -2.16584, -0.129887, 0.469379, -0.542509, 0.336559, -2.08448, -2.16638, -0.129249, 8.93621e-07, 0.000579243, 0.000157137, 0.000238957, 0.000334119, 0.000791578
0.0230764, 1.69131, -1.22492, -1.53762, -0.899807, -1.19168, 1.22837, -1.30262, -0.000358884, -0.00116534, 0.000843777, -0.00853771, 0.00181107, 0.00134917, -0.000287349, -0.392998, 56.0828, 26.5244, 6.13678, 1.43024, 3.17386, -0.172963, 0.00102874, -0.00160892, -0.000456102, -0.000233964, -0.000883093, 4.08915e-05, -0.00198122, -0.00230392, -0.00150785, -0.00127099, -0.000796131, 0.00848696, 0.471008, -0.543388, 0.335894, -2.08384, -2.16584, -0.129887, 0.469381, -0.542508, 0.336553, -2.08447, -2.16638, -0.129246, 6.73433e-07, 0.000652833, 0.000176787, 0.00217635, 0.0029351, -0.00107405
0.0240764, 1.69132, -1.22493, -1.53762, -0.899804, -1.19168, 1.22838, -1.30263, 0.000663511, -0.00518435, 0.00100826, -0.00445269, -0.0024755, 0.00171969, -0.00283646, -0.43267, 56.0074, 26.3736, 6.0614, 1.38721, 3.1528, -0.101552, 0.00102835, -0.00160675, -0.000453596, -0.000240131, -0.00087723, 3.45306e-05, 9.33968e-05, -0.00164965, -0.00327007, -0.00133842, -0.0013895, 0.007186, 0.471008, -0.543387, 0.335894, -2.08384, -2.16584, -0.129887, 0.469383, -0.542507, 0.33655, -2.08447, -2.16639, -0.12926, 4.21933e-07, 0.000730885, 0.000197611, 0.00153324, 0.00120949, -0.00309554
0.0250764, 1.69132, -1.22494, -1.53762, -0.899806, -1.19168, 1.22838, -1.30263, 0.00359511, -0.00502055, 0.00136341, -0.0065233, -0.000925894, 0.001448, -0.00287434, -0.43267, 56.0471, 26.3379, 6.0614, 1.35608, 3.14548, -0.0750012, 0.00102601, -0.00160609, -0.000443069, -0.000230815, -0.000869166, 3.57589e-05, -0.00216163, -0.00393862, -0.00352336, -0.00195762, -0.00231966, 0.0126257, 0.471008, -0.543387, 0.335895, -2.08384, -2.16584, -0.129887, 0.469383, -0.542508, 0.33654, -2.08446, -2.16638, -0.129257, 1.37109e-07, 0.000813505, 0.000219637, 0.00372919, 0.00365098, -0.00304262
0.0260764, 1.69132, -1.22494, -1.53763, -0.89981, -1.19169, 1.22838, -1.30262, 0.00171882, -0.00465948, 0.000800949, -0.00490716, -0.000701238, 0.000208136, -0.000458185, -0.392998, 56.0828, 26.3379, 6.0614, 1.34967, 3.16653, -0.114369, 0.0010242, -0.00160622, -0.000439339, -0.000225136, -0.000870844, 4.52274e-05, -0.000850474, -0.00221571, -0.0033062, -0.0023187, -0.0028543, 0.00674711, 0.471008, -0.543386, 0.335895, -2.08384, -2.16584, -0.129887, 0.469383, -0.542508, 0.336536, -2.08447, -2.16637, -0.129249, -1.83099e-07, 0.000900793, 0.00024289, 0.00206291, 0.00233994, -0.0029565
0.0270764, 1.69132, -1.22495, -1.53762, -0.899808, -1.19169, 1.22838, -1.30262, 0.000498244, -0.00406582, 0.00698433, -0.00587758, -0.00186138, -0.000386753, -0.00247561, -0.357292, 56.2296, 26.3379, 6.02173, 1.3808, 3.18118, -0.0557752, 0.0010222, -0.00160635, -0.000436762, -0.000225559, -0.000868527, 4.47591e-05, -0.00168126, -0.00258006, -0.000899343, 0.00181443, -0.00188856, 0.0109964, 0.471008, -0.543385, 0.335895, -2.08384, -2.16584, -0.129887, 0.469383, -0.542509, 0.336533, -2.08446, -2.16637, -0.129251, -5.40806e-07, 0.000992849, 0.000267393, 0.00248361, 0.00289663, -0.00043746
0.0280764, 1.69132, -1.22495, -1.53762, -0.899811, -1.19169, 1.22838, -1.30261, 0.00282238, -0.00501703, 0.00672311, -0.00542007, -0.00165903, -0.000787602, -0.000192356, -0.317619, 56.4517, 26.4094, 6.0614, 1.38721, 3.19583, -0.0951428, 0.00102198, -0.00160467, -0.000433853, -0.000227099, -0.000865325, 4.68734e-05, -0.00241397, -0.00369988, -0.00165493, 0.00112564, -0.00308158, 0.0105736, 0.471008, -0.543384, 0.335895, -2.08384, -2.16584, -0.129887, 0.469385, -0.542508, 0.336531, -2.08446, -2.16636, -0.129256, -9.38169e-07, 0.00108977, 0.000293171, 0.00354811, 0.00387901, -0.0010778
0.0290764, 1.69132, -1.22496, -1.53762, -0.899811, -1.1917, 1.22839, -1.30261, 0.00530009, -0.00540386, 0.00242462, -0.00404362, -0.00215711, 2.70427e-05, 0.000583831, -0.317619, 56.6739, 26.5244, 6.0614, 1.41192, 3.18118, -0.114369, 0.00102023, -0.0016022, -0.000428891, -0.000228906, -0.000863356, 4.48101e-05, -0.00188381, -0.004125, -0.00328368, -0.00189918, -0.0023495, 0.00881456, 0.471008, -0.543383, 0.335895, -2.08384, -2.16584, -0.129887, 0.469387, -0.542508, 0.336526, -2.08446, -2.16636, -0.129261, -1.3774e-06, 0.00119164, 0.000320246, 0.0039324, 0.00372558, -0.00275407
0.0300764, 1.69132, -1.22495, -1.53763, -0.899814, -1.1917, 1.22839, -1.30262, 0.00463398, -0.00143169, 0.0027045, -0.00385365, -0.00153974, 0.00411925, -0.00106885, -0.206535, 56.5985, 26.6355, 6.09711, 1.41192, 3.20224, -0.0750012, 0.00101762, -0.00160316, -0.000432417, -0.000229492, -0.000877429, 4.29309e-05, -0.00155756, -0.00450044, -0.000442471, 0.00272818, 0.00315175, 0.0099266, 0.471008, -0.543382, 0.335896, -2.08384, -2.16584, -0.129887, 0.469386, -0.54251, 0.336529, -2.08447, -2.16637, -0.129247, -1.86074e-06, 0.00129855, 0.00034864, 0.00442109, 0.00308844, 1.78463e-05
0.0310764, 1.69133, -1.22496, -1.53762, -0.899812, -1.1917, 1.22839, -1.30261, 0.00459099, -0.00241196, 0.00242711, -0.00281112, -0.000628032, 0.00652067, 0.00145757, -0.242241, 56.6739, 26.6355, 6.09711, 1.39911, 3.23886, -0.133595, 0.00101911, -0.0015986, -0.000430586, -0.000236079, -0.000871731, 4.20027e-05, -0.000893309, -0.00475118, -0.000769626, 0.00543619, 0.00262422, 0.00664445, 0.471008, -0.543381, 0.335896, -2.08384, -2.16584, -0.129887, 0.469391, -0.542507, 0.336528, -2.08447, -2.16637, -0.12926, -2.39049e-06, 0.00141058, 0.000378373, 0.00468293, 0.00260533, -0.000386108
0.0320764, 1.69134, -1.22496, -1.53763, -0.899813, -1.1917, 1.2284, -1.30261, 0.00272529, 0.000384562, 0.000415722, -0.00205559, 0.00020229, 0.0086836, -0.000452444, -0.206535, 56.5985, 26.7069, 6.09711, 1.3808, 3.27456, -0.0951428, 0.00102042, -0.00159362, -0.000431524, -0.000237955, -0.0008803, 3.46427e-05, 0.000491929, -0.0036175, 0.000540173, 0.00684258, 0.00589559, 0.00532169, 0.471008, -0.54338, 0.335896, -2.08384, -2.16584, -0.129887, 0.469396, -0.542504, 0.336529, -2.08446, -2.16639, -0.129255, -2.969e-06, 0.00152782, 0.000409465, 0.00364695, 0.00110703, 0.000757485
0.0330764, 1.69134, -1.22496, -1.53762, -0.899811, -1.1917, 1.2284, -1.30262, 0.00359896, -0.00538779, 0.00229865, -0.000671306, 0.000329326, 0.00540617, -0.00203096, -0.131157, 56.5985, 26.6355, 6.0614, 1.37439, 3.31027, -0.0484509, 0.00101891, -0.00159206, -0.000431431, -0.000242911, -0.000881982, 2.98613e-05, 0.000434379, -0.00364558, -0.00233652, 0.00575853, -0.00170626, 0.00761027, 0.471008, -0.543379, 0.335897, -2.08384, -2.16584, -0.129888, 0.469397, -0.542504, 0.336529, -2.08446, -2.1664, -0.129259, -3.59863e-06, 0.00165034, 0.000441934, 0.00356845, 0.0017303, -0.00204247
0.0340764, 1.69135, -1.22496, -1.53763, -0.899816, -1.1917, 1.22841, -1.30261, 0.00515864, -0.00394756, 0.000125293, -0.00138485, 0.00178108, 0.00352887, 0.000104086, -0.0914839, 56.5985, 26.7069, 6.09711, 1.33136, 3.33133, -0.0878186, 0.00102108, -0.00158528, -0.000429828, -0.000245189, -0.000886961, 2.42107e-05, -0.000504946, -0.00408898, -0.00262201, 0.00246171, -0.00204256, 0.00706384, 0.471008, -0.543377, 0.335897, -2.08384, -2.16584, -0.129888, 0.469404, -0.5425, 0.336528, -2.08446, -2.16641, -0.129257, -4.2818e-06, 0.00177822, 0.000475796, 0.0039667, 0.00284759, -0.00215809
0.0350764, 1.69135, -1.22496, -1.53763, -0.899816, -1.1917, 1.22842, -1.30262, 0.00291747, -0.00289848, -0.00221572, -0.0033363, -0.00442127, 0.0073954, -0.00162603, 0.0949785, 56.5985, 26.6712, 6.0614, 1.33136, 3.33865, -0.0420422, 0.0010187, -0.00158234, -0.000428509, -0.000249843, -0.000894003, 1.81305e-05, 0.00206682, -0.00284258, -0.0026615, 0.000412175, 0.00634848, 0.00506839, 0.471008, -0.543375, 0.335898, -2.08384, -2.16584, -0.129888, 0.469407, -0.5425, 0.336526, -2.08445, -2.16642, -0.129256, -5.02096e-06, 0.00191151, 0.000511068, 0.00281171, 0.000397037, -0.0025234
0.0360764, 1.69135, -1.22496, -1.53763, -0.899822, -1.1917, 1.22843, -1.30262, 0.00223278, -0.00389564, -0.00244192, -0.00430918, -0.00231201, 0.0051829, -0.00108402, 0.245735, 56.6739, 26.7069, 6.13678, 1.30115, 3.3533, -0.0420422, 0.00101956, -0.00157677, -0.000424305, -0.000251044, -0.000894537, 8.80298e-06, 0.00172046, -0.00248344, -0.00363627, -0.00114667, 0.0027175, 0.00532814, 0.471008, -0.543374, 0.335898, -2.08383, -2.16584, -0.129888, 0.469412, -0.542497, 0.336523, -2.08444, -2.16643, -0.129258, -5.81861e-06, 0.00205028, 0.000547764, 0.00240466, 0.00101309, -0.00338463
0.0370764, 1.69137, -1.22497, -1.53764, -0.899822, -1.1917, 1.22844, -1.30261, 0.0036149, -0.00441759, -0.00265313, -0.00218607, -0.00190394, 0.00378037, 0.00124401, 0.325081, 56.7453, 26.7466, 6.09711, 1.30115, 3.36062, -0.0951428, 0.00101902, -0.00156974, -0.000420867, -0.000255984, -0.000900465, 7.88899e-06, 0.00175181, -0.00254254, -0.00393439, -0.00158463, 0.00114522, 0.00256236, 0.471008, -0.543372, 0.335899, -2.08383, -2.16584, -0.129888, 0.469419, -0.542495, 0.33652, -2.08445, -2.16643, -0.129258, -6.67726e-06, 0.00219459, 0.000585897, 0.00245318, 0.00117476, -0.00364752
0.0380764, 1.69137, -1.22497, -1.53764, -0.899822, -1.1917, 1.22845, -1.30262, 0.00294369, -0.00970476, -0.00360487, 0.000124878, -0.00106653, 0.00218763, -0.00184943, 0.475838, 56.781, 26.822, 6.02173, 1.28833, 3.38168, -0.0228162, 0.00101732, -0.00156537, -0.000417703, -0.000256675, -0.000906292, -8.38492e-08, 0.00326272, -0.00137803, -0.0071752, -0.00262604, -0.00564608, 0.00289576, 0.471008, -0.54337, 0.335899, -2.08383, -2.16584, -0.129888, 0.469423, -0.542494, 0.336517, -2.08444, -2.16645, -0.129253, -7.59945e-06, 0.00234449, 0.000625478, 0.00122628, 0.000284245, -0.00700739
0.0390764, 1.69138, -1.22497, -1.53764, -0.899824, -1.19171, 1.22846, -1.30261, 0.00470139, -0.00703857, -0.000694665, -5.24822e-05, -0.00115235, 0.0054921, 0.000225109, 0.6623, 56.781, 26.7466, 6.02173, 1.29474, 3.41006, -0.0621838, 0.00101654, -0.00156046, -0.000418492, -0.000268322, -0.00091192, -1.02856e-06, 0.00208715, -0.00345636, -0.00442136, 0.00263777, -0.00128932, 0.00405339, 0.471008, -0.543367, 0.3359, -2.08383, -2.16584, -0.129888, 0.469428, -0.542492, 0.336518, -2.08445, -2.16645, -0.129261, -8.58778e-06, 0.00250002, 0.000666519, 0.00335831, 0.00126149, -0.00412734
0.0400764, 1.69139, -1.22498, -1.53765, -0.899816, -1.19171, 1.22847, -1.30261, 0.00891248, -0.00771739, -0.00310256, 0.00246167, -0.00691884, 0.00295244, 0.00062479, 0.737679, 56.8921, 26.8577, 5.91064, 1.31305, 3.44668, -0.0750012, 0.00101439, -0.00155419, -0.000409263, -0.00026559, -0.000908377, -1.94535e-06, 0.00257316, -0.0037289, -0.00578577, -0.00384582, 0.00168035, 0.00253724, 0.471008, -0.543365, 0.3359, -2.08383, -2.16584, -0.129889, 0.469434, -0.54249, 0.336509, -2.08444, -2.16645, -0.129262, -9.64483e-06, 0.00266124, 0.000709027, 0.00359755, 0.00116409, -0.00551573
0.0410764, 1.6914, -1.22499, -1.53765, -0.899815, -1.19171, 1.22848, -1.30261, 0.0100668, -0.00889852, -0.00209912, 0.003328, -0.00517058, 0.00272509, -0.000566818, 0.888436, 57.0389, 26.8577, 5.83527, 1.31305, 3.43936, -0.0484509, 0.00101403, -0.00154475, -0.000402774, -0.000274047, -0.000908471, -1.52373e-05, 0.00202287, -0.00453145, -0.00610195, -0.00219345, -0.00102222, 0.00521502, 0.471008, -0.543362, 0.335901, -2.08383, -2.16584, -0.129889, 0.469444, -0.542486, 0.336503, -2.08443, -2.16647, -0.129273, -1.07732e-05, 0.00282817, 0.000753011, 0.00436684, 0.0019558, -0.00572274
0.0420764, 1.69141, -1.225, -1.53765, -0.899812, -1.19172, 1.22849, -1.30261, 0.0101574, -0.0108673, -0.00225769, 0.00383184, -0.00410293, 0.00673785, 0.00135145, 1.07887, 57.1143, 26.8934, 5.76385, 1.31946, 3.44668, -0.0951428, 0.00101122, -0.00153939, -0.00039908, -0.000278873, -0.000913535, -1.27164e-05, 0.00273694, -0.00532727, -0.00691332, 0.001741, -0.00177677, 0.00327614, 0.471008, -0.54336, 0.335902, -2.08382, -2.16584, -0.129889, 0.469449, -0.542486, 0.336499, -2.08444, -2.16647, -0.129273, -1.19756e-05, 0.00300084, 0.000798475, 0.00515666, 0.00158099, -0.00661326
0.0430764, 1.69144, -1.22501, -1.53766, -0.89981, -1.19172, 1.22851, -1.30261, 0.0138937, -0.0102676, -0.00328566, 0.00343963, -0.00372734, 0.0104479, 0.00423841, 1.11457, 57.2253, 26.9687, 5.72418, 1.33777, 3.43204, -0.0557752, 0.00101312, -0.00152559, -0.000391799, -0.000279936, -0.000920923, -3.25972e-05, 0.00161336, -0.00803561, -0.00686883, 0.00355483, 0.000693559, 0.00405694, 0.471008, -0.543357, 0.335903, -2.08382, -2.16584, -0.129889, 0.469462, -0.542479, 0.336493, -2.08442, -2.16649, -0.129269, -1.32547e-05, 0.00317929, 0.000845424, 0.00782164, 0.00297266, -0.00642964
0.0440764, 1.69144, -1.22501, -1.53766, -0.89981, -1.19172, 1.22851, -1.30261, 0.0138937, -0.0102676, -0.00328566, 0.00343963, -0.00372734, 0.0104479, 0.00423841, 1.11457, 57.2253, 26.9687, 5.72418, 1.33777, 3.43204, -0.0557752, 0.0010099, -0.00152568, -0.000391456, -0.000281234, -0.0009225, -3.18242e-05, 0.00180283, -0.00803089, -0.00688823, 0.00358188, 0.000830862, 0.004071, 0.471008, -0.543354, 0.335903, -2.08382, -2.16584, -0.129889, 0.469462, -0.542479, 0.336493, -2.08442, -2.16649, -0.129269, -1.46131e-05, 0.00336352, 0.000893861, 0.00782164, 0.00297266, -0.00642964
0.0450764, 1.69147, -1.22501, -1.53767, -0.899794, -1.19174, 1.22853, -1.30261, 0.012107, -0.00557095, -0.00268509, 0.00581385, -0.00230658, 0.0145719, 0.00333149, 1.49146, 57.261, 27.0084, 5.50201, 1.34418, 3.41739, -0.0685925, 0.00100853, -0.00150914, -0.000387645, -0.000293691, -0.000943241, -3.50976e-05, 0.00306719, -0.0074273, -0.00315119, 0.0101785, 0.00622613, 0.00183843, 0.471008, -0.54335, 0.335904, -2.08382, -2.16584, -0.12989, 0.469479, -0.542476, 0.336489, -2.08443, -2.16651, -0.129262, -1.60536e-05, 0.00355356, 0.000943786, 0.00739754, 0.00131453, -0.00286774
0.0460764, 1.69149, -1.22502, -1.53767, -0.899797, -1.19174, 1.22855, -1.30261, 0.0125967, -0.00649141, -0.00179736, 0.00947018, -0.00167014, 0.0150818, 0.00146244, 1.64619, 57.3721, 27.0084, 5.53772, 1.34418, 3.43204, -0.0420422, 0.0010113, -0.00149369, -0.000381461, -0.000299932, -0.000951833, -5.81405e-05, 0.00396439, -0.00721774, -0.0028704, 0.0133105, 0.00482094, 0.00166494, 0.471008, -0.543347, 0.335905, -2.08381, -2.16583, -0.12989, 0.469494, -0.542468, 0.336484, -2.08441, -2.16655, -0.129263, -1.75788e-05, 0.0037494, 0.000995199, 0.00722896, 0.00057284, -0.00267202
0.0470764, 1.69151, -1.22502, -1.53768, -0.899797, -1.19174, 1.22856, -1.30261, 0.0113811, -0.00446185, -0.00203893, 0.00683717, -5.98551e-05, 0.0105707, 0.000668835, 1.87232, 57.3721, 27.0441, 5.53772, 1.31305, 3.45309, -0.0292249, 0.00101393, -0.00148125, -0.000377562, -0.000301539, -0.000959124, -7.59239e-05, 0.00299951, -0.00639592, -0.00248547, 0.00906084, 0.00365585, 0.00396515, 0.471008, -0.543343, 0.335906, -2.08381, -2.16583, -0.12989, 0.469506, -0.542461, 0.336481, -2.08439, -2.16657, -0.129259, -1.91915e-05, 0.00395105, 0.0010481, 0.00638598, 0.00163418, -0.00206452
0.0480764, 1.69154, -1.22503, -1.53767, -0.899785, -1.19175, 1.22858, -1.30261, 0.0122867, -0.0056737, -0.00282336, 0.00754935, 0.000326419, 0.0127933, 0.00179304, 2.02308, 57.4832, 26.9687, 5.42664, 1.30115, 3.45309, -0.0621838, 0.00101486, -0.00146629, -0.00037422, -0.000321041, -0.000961264, -8.65597e-05, 0.00345594, -0.00707399, -0.00324947, 0.0106164, 0.00340026, 0.00290109, 0.471008, -0.543339, 0.335907, -2.08381, -2.16583, -0.129891, 0.469521, -0.542455, 0.336478, -2.08439, -2.16659, -0.12928, -2.08943e-05, 0.0041585, 0.00110247, 0.0070502, 0.0015364, -0.00285582
0.0490764, 1.69156, -1.22504, -1.53768, -0.899781, -1.19175, 1.22859, -1.30261, 0.0143661, -0.00385798, -0.00716832, 0.00625551, -0.00560804, 0.00911323, -0.000167871, 2.24921, 57.4832, 27.0441, 5.38696, 1.31305, 3.46774, -0.0228162, 0.00101399, -0.00145509, -0.000369144, -0.000321528, -0.000973002, -9.76483e-05, 0.00389349, -0.00638758, -0.00435849, 0.000102535, 0.00886583, 0.00394319, 0.471008, -0.543335, 0.335908, -2.08381, -2.16583, -0.129891, 0.469532, -0.54245, 0.336474, -2.08438, -2.16661, -0.12927, -2.269e-05, 0.00437173, 0.00115833, 0.00633847, 0.00146032, -0.00394228
0.0500764, 1.69159, -1.22504, -1.53769, -0.899778, -1.19176, 1.22861, -1.3026, 0.0195215, -0.00638563, -0.00525357, 0.0052265, -0.00378387, 0.00692065, 0.00189199, 2.32459, 57.5189, 27.0441, 5.35126, 1.30115, 3.46774, -0.0750012, 0.00101813, -0.00143682, -0.0003669, -0.000329148, -0.000988918, -0.000113335, 0.000777079, -0.00969052, -0.00579478, -0.000745786, 0.00405356, 0.00946995, 0.471008, -0.543331, 0.335909, -2.0838, -2.16583, -0.129891, 0.46955, -0.542441, 0.336473, -2.08437, -2.16663, -0.129265, -2.45814e-05, 0.00459073, 0.00121564, 0.00947189, 0.00511225, -0.00491906
0.0510764, 1.69161, -1.22504, -1.53769, -0.899773, -1.19177, 1.22863, -1.3026, 0.019845, -0.00454304, -0.0038584, 0.00448526, -0.00862842, 0.0096994, 0.00131467, 2.55073, 57.5189, 27.0441, 5.31555, 1.31305, 3.47507, -0.0750012, 0.00101638, -0.00142509, -0.000366177, -0.000339821, -0.00100716, -0.000122998, 0.00142459, -0.0102061, -0.00411633, 0.000417238, 0.0113817, 0.0100471, 0.471008, -0.543326, 0.335911, -2.0838, -2.16583, -0.129892, 0.469561, -0.542437, 0.336473, -2.08437, -2.16666, -0.129259, -2.6571e-05, 0.00481547, 0.00127442, 0.0100686, 0.00446047, -0.00331902
0.0520764, 1.69164, -1.22504, -1.53769, -0.899762, -1.19178, 1.22865, -1.30261, 0.0194756, -0.00407838, -0.00283928, 0.00580571, -0.0122544, 0.0164448, -0.000778966, 2.66181, 57.5546, 27.0441, 5.2005, 1.32587, 3.48971, -0.0292249, 0.00101716, -0.00140916, -0.000364484, -0.000351656, -0.00102146, -0.000142627, 0.00337819, -0.010694, -0.00270803, 0.00624117, 0.0181266, 0.00990618, 0.471008, -0.543321, 0.335912, -2.0838, -2.16583, -0.129892, 0.469577, -0.542431, 0.336472, -2.08436, -2.16669, -0.12926, -2.86617e-05, 0.00504591, 0.00133464, 0.0106745, 0.00256546, -0.00218621
0.0530764, 1.69167, -1.22504, -1.53769, -0.89975, -1.19179, 1.22867, -1.3026, 0.021387, -0.00287977, -0.00292833, 0.00739736, -0.0154318, 0.0168259, 0.0056473, 2.81654, 57.5546, 27.0798, 5.05371, 1.34418, 3.49612, -0.0685925, 0.00101458, -0.00139656, -0.000363734, -0.000361493, -0.00104167, -0.000145621, 0.00381582, -0.0110796, -0.00190576, 0.00561657, 0.0222079, 0.00286255, 0.471008, -0.543316, 0.335913, -2.08379, -2.16583, -0.129892, 0.46959, -0.542428, 0.336472, -2.08437, -2.16671, -0.129251, -3.0856e-05, 0.00528201, 0.00139628, 0.011102, 0.0022618, -0.00141197
0.0540764, 1.6917, -1.22504, -1.5377, -0.899748, -1.1918, 1.22868, -1.3026, 0.0223249, -0.00296851, -0.00629611, 0.008187, -0.0165761, 0.0160893, 0.00248183, 2.85224, 57.5943, 27.1195, 5.05371, 1.33777, 3.53274, -0.0228162, 0.0010189, -0.0013777, -0.000361293, -0.000365493, -0.00105894, -0.000171847, 0.00474309, -0.0105707, -0.00318071, 0.00175973, 0.0230495, 0.00427557, 0.471008, -0.543311, 0.335915, -2.08379, -2.16583, -0.129893, 0.469608, -0.542417, 0.336471, -2.08435, -2.16675, -0.129241, -3.31567e-05, 0.00552372, 0.00145934, 0.0105786, 0.00176357, -0.00273645
0.0550764, 1.69173, -1.22504, -1.5377, -0.899732, -1.1918, 1.2287, -1.3026, 0.0242284, -0.000306245, -0.00365417, 0.0123422, -0.0123954, 0.0216739, 0.00365926, 2.96729, 57.5189, 27.0798, 4.90295, 1.33777, 3.53915, -0.0685925, 0.00101849, -0.00136257, -0.00036461, -0.000382604, -0.00107945, -0.000176659, 0.0043291, -0.0126113, 0.00026191, 0.0128136, 0.0247422, 0.0039956, 0.471008, -0.543305, 0.335916, -2.08378, -2.16583, -0.129893, 0.469624, -0.542412, 0.336475, -2.08436, -2.16677, -0.12924, -3.55665e-05, 0.00577098, 0.0015238, 0.0127238, 0.00197307, 0.00072999
0.0560764, 1.69176, -1.22504, -1.5377, -0.899723, -1.19181, 1.22872, -1.30259, 0.0256428, -0.00402163, -0.00609009, 0.0136561, -0.00859395, 0.0211078, 0.00338355, 3.07838, 57.5546, 27.0798, 4.82758, 1.31946, 3.53915, -0.0878186, 0.00101811, -0.00134588, -0.000363469, -0.000399852, -0.0010959, -0.00018963, 0.00440294, -0.01307, -0.00275101, 0.0120979, 0.01792, 0.00470416, 0.471008, -0.5433, 0.335918, -2.08378, -2.16583, -0.129894, 0.46964, -0.542406, 0.336475, -2.08436, -2.1668, -0.129245, -3.8088e-05, 0.00602372, 0.00158964, 0.0130732, 0.0026356, -0.00220452
0.0570764, 1.69179, -1.22505, -1.53771, -0.899718, -1.19182, 1.22874, -1.30259, 0.0275302, -0.0055733, -0.00632019, 0.0128503, -0.012462, 0.0206556, 0.00124288, 3.15376, 57.6657, 27.1552, 4.82758, 1.33777, 3.54648, -0.0557752, 0.0010176, -0.00132755, -0.000356411, -0.000406893, -0.00111243, -0.000207899, 0.00450603, -0.0137726, -0.00402067, 0.008936, 0.0196523, 0.0080502, 0.471008, -0.543294, 0.335919, -2.08378, -2.16583, -0.129894, 0.469658, -0.542398, 0.336469, -2.08435, -2.16683, -0.129238, -4.07237e-05, 0.00628188, 0.00165682, 0.01373, 0.00301626, -0.00342826
0.0580764, 1.69181, -1.22505, -1.53771, -0.899709, -1.19183, 1.22877, -1.30259, 0.0270831, -0.00226542, -0.00198767, 0.0101364, -0.0146411, 0.0198575, 0.00312921, 3.30451, 57.5943, 27.0441, 4.79187, 1.33777, 3.56112, -0.114369, 0.00101652, -0.00131205, -0.000362152, -0.000427584, -0.00114154, -0.000214197, 0.00329748, -0.0144307, -0.000993718, 0.0101085, 0.024477, 0.00941694, 0.471008, -0.543287, 0.335921, -2.08377, -2.16582, -0.129894, 0.469674, -0.542393, 0.336476, -2.08437, -2.16686, -0.129233, -4.34763e-05, 0.00654537, 0.00172534, 0.0144506, 0.00403379, -0.000203162
0.0590764, 1.69185, -1.22505, -1.53772, -0.899698, -1.19184, 1.22879, -1.30259, 0.03132, -0.00644975, -0.00746875, 0.00814356, -0.0158373, 0.0250569, 0.000963294, 3.26881, 57.5546, 27.1552, 4.75616, 1.32587, 3.54648, -0.0814099, 0.00101671, -0.00129169, -0.000359736, -0.000438065, -0.00116654, -0.000235423, 0.00342251, -0.017177, -0.00546152, 0.00736874, 0.0247164, 0.0145615, 0.471008, -0.543281, 0.335923, -2.08377, -2.16582, -0.129895, 0.469694, -0.542385, 0.336475, -2.08436, -2.1669, -0.129222, -4.63483e-05, 0.0068141, 0.00179515, 0.0170335, 0.00497946, -0.00464724
0.0600764, 1.69188, -1.22505, -1.53772, -0.899689, -1.19186, 1.22881, -1.30259, 0.0284388, -0.00489895, -0.00369769, 0.00910248, -0.0132578, 0.0280558, 0.00396378, 3.34419, 57.5546, 27.0798, 4.75616, 1.36249, 3.56112, -0.0420422, 0.00101445, -0.00127499, -0.000360251, -0.000452003, -0.00119451, -0.000253731, 0.00413269, -0.0168127, -0.0026933, 0.0155474, 0.025418, 0.0105569, 0.471008, -0.543274, 0.335924, -2.08376, -2.16582, -0.129895, 0.469711, -0.54238, 0.336476, -2.08435, -2.16694, -0.129211, -4.93422e-05, 0.00708797, 0.00186624, 0.0167921, 0.00411113, -0.00194208
0.0610764, 1.69191, -1.22505, -1.53772, -0.899675, -1.19187, 1.22884, -1.30258, 0.0272559, -0.0037153, -0.00199123, 0.0107697, -0.0153269, 0.0303624, 0.00553116, 3.37989, 57.5546, 27.0441, 4.71649, 1.36249, 3.56845, -0.10796, 0.00101131, -0.00125786, -0.00036153, -0.000473632, -0.00121941, -0.000254819, 0.00561822, -0.0162373, -0.000923945, 0.0192005, 0.0293445, 0.00649273, 0.471007, -0.543267, 0.335926, -2.08376, -2.16582, -0.129896, 0.469728, -0.542376, 0.336478, -2.08437, -2.16696, -0.12921, -5.24605e-05, 0.00736687, 0.00193857, 0.0163315, 0.00262753, -0.000336002
0.0620764, 1.69194, -1.22504, -1.53772, -0.899664, -1.19188, 1.22887, -1.30259, 0.0291601, -0.00490151, -0.00159848, 0.00788189, -0.0160245, 0.0318587, 0.00181882, 3.41956, 57.5189, 27.0441, 4.71649, 1.34418, 3.58951, -0.0484509, 0.00100941, -0.00123973, -0.000363001, -0.000491193, -0.00124774, -0.000275484, 0.00453243, -0.0182299, -0.0018794, 0.0187932, 0.0299705, 0.0146105, 0.471007, -0.543259, 0.335928, -2.08375, -2.16582, -0.129897, 0.469746, -0.54237, 0.336481, -2.08437, -2.167, -0.129204, -5.57056e-05, 0.00765073, 0.00201212, 0.0182449, 0.00421207, -0.0010975
0.0630764, 1.69198, -1.22504, -1.53773, -0.899656, -1.19189, 1.22889, -1.30258, 0.0323904, -0.00116554, -0.00538578, 0.00717967, -0.0168181, 0.0286807, 0.00794661, 3.37989, 57.4078, 27.0798, 4.79187, 1.32587, 3.58951, -0.0951428, 0.00100978, -0.00121898, -0.000365415, -0.000502945, -0.00128257, -0.000289655, 0.00344503, -0.0187893, -0.00160514, 0.0118803, 0.033389, 0.0101528, 0.471007, -0.543252, 0.33593, -2.08374, -2.16582, -0.129897, 0.469767, -0.542361, 0.336485, -2.08437, -2.16704, -0.129184, -5.90798e-05, 0.00793954, 0.00208689, 0.0187711, 0.00555511, -0.000600042
0.0640764, 1.69201, -1.22503, -1.53773, -0.89964, -1.19191, 1.22892, -1.30258, 0.0266569, -0.000314054, -0.00141797, 0.00947319, -0.0184369, 0.0256473, 0.00659459, 3.41956, 57.3721, 26.9687, 4.75616, 1.33777, 3.61148, -0.114369, 0.00100572, -0.00120226, -0.00037025, -0.000527423, -0.00131353, -0.000294979, 0.00606922, -0.0149985, 0.000625182, 0.0140522, 0.0336488, 0.00521228, 0.471007, -0.543244, 0.335932, -2.08374, -2.16582, -0.129898, 0.469784, -0.542357, 0.33649, -2.08439, -2.16707, -0.129181, -6.25855e-05, 0.00823327, 0.00216285, 0.0151563, 0.00275955, 0.00138507
0.0650764, 1.69206, -1.22504, -1.53773, -0.899633, -1.19192, 1.22894, -1.30259, 0.0298719, -0.00132377, -0.000429522, 0.00759356, -0.0135971, 0.0242969, 0.00215621, 3.26881, 57.4078, 26.933, 4.86725, 1.33136, 3.61148, -0.0420422, 0.00100796, -0.00117749, -0.000367781, -0.000540264, -0.00133962, -0.000329893, 0.00318139, -0.0177048, -0.000198247, 0.0145626, 0.0284314, 0.0166117, 0.471007, -0.543236, 0.335935, -2.08373, -2.16581, -0.129898, 0.469809, -0.542345, 0.33649, -2.08437, -2.16713, -0.129172, -6.6225e-05, 0.00853189, 0.00224002, 0.0177223, 0.00614678, 0.0010158
0.0660764, 1.69208, -1.22503, -1.53773, -0.899617, -1.19194, 1.22897, -1.30258, 0.0285583, -0.000256682, 0.0004021, 0.00903974, -0.00934055, 0.0277034, 0.00397045, 3.26881, 57.3721, 26.8934, 4.86725, 1.30755, 3.6188, -0.101552, 0.00100195, -0.00116089, -0.0003704, -0.000564539, -0.00137054, -0.000331113, 0.00374043, -0.0178669, 0.0012627, 0.0212622, 0.0276953, 0.014072, 0.471007, -0.543227, 0.335937, -2.08373, -2.16581, -0.129899, 0.469825, -0.542343, 0.336493, -2.08439, -2.16715, -0.129169, -7.00005e-05, 0.00883538, 0.00231837, 0.0179533, 0.0056801, 0.00244493
0.0670764, 1.69213, -1.22503, -1.53774, -0.899599, -1.19195, 1.229, -1.30257, 0.0311369, 0.000507057, -0.00303857, 0.0130931, -0.012884, 0.0248398, 0.00336839, 3.11805, 57.3364, 26.8934, 4.86725, 1.31946, 3.63986, -0.114369, 0.00100062, -0.00113904, -0.000372273, -0.000578372, -0.00140445, -0.000343575, 0.0051622, -0.0168614, 0.000636611, 0.015761, 0.0301145, 0.0108357, 0.471007, -0.543218, 0.335939, -2.08372, -2.16581, -0.1299, 0.469847, -0.542334, 0.336496, -2.08439, -2.16719, -0.129152, -7.39143e-05, 0.00914373, 0.0023979, 0.0169734, 0.00464011, 0.00171577
0.0680764, 1.69216, -1.22503, -1.53774, -0.899588, -1.19196, 1.22902, -1.30258, 0.0283764, 0.00114828, -0.00661078, 0.013892, -0.0146977, 0.0284279, 0.000735197, 3.15376, 57.2968, 26.933, 4.97833, 1.30755, 3.63986, -0.0685925, 0.000994452, -0.00112256, -0.000372026, -0.000594909, -0.00143532, -0.000357534, 0.00836373, -0.014942, 0.000289922, 0.0158235, 0.0343246, 0.00772882, 0.471007, -0.543209, 0.335941, -2.08371, -2.16581, -0.1299, 0.469864, -0.542331, 0.336497, -2.0844, -2.16723, -0.129141, -7.79688e-05, 0.0094569, 0.0024786, 0.0151545, 0.00176747, 0.00101488
0.0690764, 1.6922, -1.22503, -1.53775, -0.899567, -1.19198, 1.22905, -1.30257, 0.0330599, -0.000250837, -0.00321226, 0.016976, -0.0112789, 0.0264177, 0.00256168, 3.04267, 57.3364, 26.8577, 4.97833, 1.31305, 3.63254, -0.120778, 0.000988329, -0.00110359, -0.000370996, -0.000616563, -0.0014618, -0.000358409, 0.00606141, -0.0175123, 0.00064457, 0.0193159, 0.0290175, 0.0106624, 0.471007, -0.5432, 0.335944, -2.08371, -2.16581, -0.129901, 0.469883, -0.542326, 0.336497, -2.08441, -2.16725, -0.129139, -8.21662e-05, 0.00977487, 0.00256046, 0.0176478, 0.00440907, 0.00172673
0.0700764, 1.69223, -1.22503, -1.53774, -0.899547, -1.19199, 1.22907, -1.30257, 0.0386722, -0.000233476, -0.00493198, 0.0183846, -0.00735794, 0.024727, 0.0062604, 2.96729, 57.3364, 26.822, 5.01404, 1.28284, 3.63254, -0.114369, 0.000983911, -0.00108438, -0.000372611, -0.000640345, -0.00148724, -0.000370993, 0.00372147, -0.0201689, -0.000236917, 0.0180275, 0.0253807, 0.0117851, 0.471007, -0.54319, 0.335947, -2.0837, -2.16581, -0.129902, 0.469902, -0.54232, 0.3365, -2.08442, -2.16729, -0.129141, -8.65087e-05, 0.0100976, 0.00264348, 0.0201809, 0.00728651, 0.0012224
0.0710764, 1.69228, -1.22502, -1.53775, -0.89953, -1.19201, 1.2291, -1.30257, 0.0392979, 0.00239312, -0.00735267, 0.0185516, -0.0115554, 0.0237256, 0.00247201, 2.77686, 57.2253, 26.822, 5.08942, 1.29474, 3.6188, -0.0557752, 0.000982246, -0.00106073, -0.000377973, -0.000659702, -0.00152952, -0.0003964, 0.00480952, -0.019348, 0.00031823, 0.0133416, 0.0313451, 0.0134503, 0.471007, -0.54318, 0.335949, -2.08369, -2.1658, -0.129903, 0.469926, -0.542312, 0.336507, -2.08442, -2.16734, -0.129123, -9.09987e-05, 0.0104251, 0.00272764, 0.0194156, 0.00642081, 0.00171045
0.0720764, 1.69232, -1.22503, -1.53775, -0.899509, -1.19203, 1.22913, -1.30256, 0.040932, 0.00155814, -0.00386813, 0.0194377, -0.0142638, 0.022265, 0.00440692, 2.66181, 57.2253, 26.7466, 5.12909, 1.30115, 3.62521, -0.120778, 0.000977176, -0.00103979, -0.000379874, -0.000686325, -0.00155846, -0.000399539, 0.00442323, -0.0201146, 0.000938548, 0.0140106, 0.0319963, 0.0131633, 0.471007, -0.543169, 0.335952, -2.08368, -2.1658, -0.129903, 0.469947, -0.542306, 0.33651, -2.08443, -2.16737, -0.129125, -9.56382e-05, 0.0107574, 0.00281294, 0.0201852, 0.00707034, 0.00244498
0.0730764, 1.69236, -1.22503, -1.53775, -0.899484, -1.19204, 1.22915, -1.30257, 0.0381636, 0.000175596, -0.00219792, 0.0209925, -0.0211209, 0.0211096, 0.00103137, 2.58643, 57.261, 26.7069, 5.12909, 1.29474, 3.63254, -0.0621838, 0.000970194, -0.0010216, -0.000380077, -0.000706663, -0.00158431, -0.000410178, 0.00748187, -0.0175435, 0.000947094, 0.0123779, 0.035584, 0.0109967, 0.471007, -0.543159, 0.335955, -2.08368, -2.1658, -0.129904, 0.469965, -0.542301, 0.336512, -2.08444, -2.1674, -0.129123, -0.00010043, 0.0110943, 0.00289937, 0.0177225, 0.00428114, 0.0021424
0.0740764, 1.6924, -1.22502, -1.53775, -0.899463, -1.19206, 1.22918, -1.30256, 0.0387562, 0.00269456, -0.00187568, 0.0238381, -0.020755, 0.0206384, 0.00135996, 2.39997, 57.15, 26.7069, 5.2005, 1.28284, 3.63254, -0.0750012, 0.000966515, -0.0010004, -0.000386102, -0.000724485, -0.00162513, -0.00042231, 0.0079823, -0.0171991, 0.00282977, 0.0139509, 0.0375584, 0.00902551, 0.471006, -0.543147, 0.335958, -2.08367, -2.1658, -0.129905, 0.469987, -0.542294, 0.336519, -2.08445, -2.16744, -0.129103, -0.000105375, 0.011436, 0.00298692, 0.0174597, 0.00382471, 0.00402147
0.0750764, 1.69244, -1.22502, -1.53776, -0.899446, -1.19208, 1.2292, -1.30256, 0.0371838, 0.00261587, -0.00248627, 0.0217072, -0.0209273, 0.0201001, 0.00275032, 2.28492, 57.1143, 26.7466, 5.31555, 1.28284, 3.63986, -0.120778, 0.000961425, -0.000979877, -0.000385661, -0.000738609, -0.00165634, -0.000431651, 0.00851796, -0.0165632, 0.00227273, 0.0121493, 0.0377907, 0.00762322, 0.471006, -0.543136, 0.335961, -2.08366, -2.1658, -0.129906, 0.470007, -0.542286, 0.33652, -2.08445, -2.16747, -0.129089, -0.000110477, 0.0117823, 0.00307558, 0.0168186, 0.003702, 0.00349601
0.0760764, 1.69248, -1.22501, -1.53776, -0.89942, -1.19209, 1.22922, -1.30255, 0.0392583, 0.00349536, -0.000960337, 0.0252996, -0.0157295, 0.0246574, 0.00123266, 2.17384, 57.0389, 26.7069, 5.35126, 1.28284, 3.64718, -0.101552, 0.000954814, -0.000960767, -0.000390516, -0.000762456, -0.00168969, -0.000436991, 0.00806158, -0.0185873, 0.00408683, 0.0213832, 0.0365662, 0.0105415, 0.471006, -0.543124, 0.335964, -2.08365, -2.16579, -0.129907, 0.470027, -0.542281, 0.336527, -2.08447, -2.1675, -0.129083, -0.000115737, 0.0121332, 0.00316535, 0.0188842, 0.00430706, 0.00538659
0.0770764, 1.69253, -1.225, -1.53776, -0.899399, -1.19211, 1.22924, -1.30255, 0.0433936, 0.00575507, -0.00174138, 0.0238377, -0.0166884, 0.0285335, 0.000667804, 1.9477, 56.8921, 26.7466, 5.42664, 1.27002, 3.63254, -0.0951428, 0.000951647, -0.000937781, -0.000395446, -0.000777597, -0.00173029, -0.000453184, 0.00669246, -0.0216491, 0.00502396, 0.0225379, 0.0420837, 0.0157631, 0.471006, -0.543112, 0.335967, -2.08364, -2.16579, -0.129908, 0.47005, -0.542272, 0.336533, -2.08447, -2.16755, -0.129062, -0.000121158, 0.0124888, 0.00325621, 0.0219215, 0.00599546, 0.00652273
0.0780764, 1.69256, -1.22501, -1.53776, -0.899376, -1.19213, 1.22927, -1.30255, 0.0401874, 0.00290206, 0.000472467, 0.0206064, -0.0125709, 0.0264781, 0.00121982, 1.98341, 56.9318, 26.6712, 5.46234, 1.27002, 3.62521, -0.114369, 0.000939989, -0.000922867, -0.000396877, -0.000802476, -0.00175956, -0.000449861, 0.00631179, -0.0210939, 0.00363539, 0.023379, 0.035162, 0.0173966, 0.471006, -0.5431, 0.33597, -2.08363, -2.16579, -0.129909, 0.470065, -0.542271, 0.336536, -2.0845, -2.16757, -0.12906, -0.000126741, 0.012849, 0.00334816, 0.0212976, 0.00692264, 0.00531939
0.0790764, 1.69261, -1.225, -1.53777, -0.899354, -1.19214, 1.22929, -1.30255, 0.0458048, 0.00452819, 0.00021759, 0.0203329, -0.00902384, 0.0240648, -0.00131002, 1.83265, 56.8207, 26.6712, 5.53772, 1.25812, 3.63986, -0.0557752, 0.000935506, -0.000901678, -0.000401375, -0.000818977, -0.00179458, -0.000470514, 0.00305119, -0.0241821, 0.00391631, 0.0219062, 0.0331617, 0.026781, 0.471006, -0.543087, 0.335973, -2.08362, -2.16579, -0.129909, 0.470086, -0.542262, 0.336542, -2.08449, -2.16761, -0.129046, -0.00013249, 0.0132137, 0.00344119, 0.0242694, 0.0105897, 0.00610278
0.0800764, 1.69265, -1.225, -1.53777, -0.899328, -1.19216, 1.22931, -1.30254, 0.0433882, 0.00301506, -0.00305242, 0.0233112, -0.0130639, 0.02348, -0.000600804, 1.68189, 56.8207, 26.6712, 5.6131, 1.28284, 3.62521, -0.0621838, 0.000927729, -0.000881083, -0.000401838, -0.000835349, -0.00182812, -0.00047429, 0.00695549, -0.0210477, 0.00232447, 0.018386, 0.034825, 0.0182016, 0.471006, -0.543074, 0.335977, -2.08361, -2.16578, -0.12991, 0.470107, -0.542256, 0.336544, -2.0845, -2.16764, -0.129031, -0.000138406, 0.013583, 0.0035353, 0.0212153, 0.00722143, 0.00411323
0.0810774, 1.6927, -1.225, -1.53777, -0.899302, -1.19218, 1.22933, -1.30254, 0.0427366, 0.00293526, -0.00386718, 0.023308, -0.02035, 0.0272681, -0.00037415, 1.60651, 56.781, 26.5958, 5.6488, 1.27643, 3.62521, -0.0621838, 0.000920036, -0.000861728, -0.000405267, -0.000857304, -0.00185843, -0.000479013, 0.00964127, -0.020408, 0.00232364, 0.0177318, 0.0428938, 0.0145291, 0.471006, -0.54306, 0.33598, -2.0836, -2.16578, -0.129911, 0.470127, -0.54225, 0.33655, -2.08452, -2.16767, -0.129027, -0.00014449, 0.0139569, 0.00363046, 0.0206667, 0.00491782, 0.00380951
0.0820774, 1.69274, -1.22499, -1.53778, -0.899272, -1.19219, 1.22935, -1.30254, 0.0444586, 0.00278996, -0.00485108, 0.0250202, -0.0208488, 0.0212111, 0.00349326, 1.45576, 56.7453, 26.6712, 5.6131, 1.28284, 3.60415, -0.0356336, 0.000910158, -0.000842906, -0.000404036, -0.000869226, -0.00188962, -0.000483137, 0.00946111, -0.0196511, 0.00146565, 0.011978, 0.0404057, 0.0102512, 0.471006, -0.543046, 0.335984, -2.08359, -2.16578, -0.129913, 0.470146, -0.542244, 0.33655, -2.08452, -2.16769, -0.12901, -0.000150747, 0.0143352, 0.00372669, 0.019867, 0.00557525, 0.00310927
0.0830774, 1.69279, -1.22499, -1.53778, -0.899244, -1.19221, 1.22936, -1.30253, 0.044648, 0.00352884, -0.00507434, 0.0291935, -0.0261009, 0.0210254, 0.00493992, 1.34071, 56.6739, 26.5958, 5.57739, 1.27643, 3.59683, -0.0951428, 0.000902085, -0.000822695, -0.000408236, -0.000889976, -0.00192418, -0.000485335, 0.0120035, -0.0181411, 0.0023392, 0.0112626, 0.0452841, 0.00348683, 0.471005, -0.543032, 0.335988, -2.08358, -2.16578, -0.129914, 0.470166, -0.542238, 0.336556, -2.08454, -2.16772, -0.128999, -0.000157176, 0.014718, 0.00382396, 0.0184753, 0.00325179, 0.00371959
0.0840774, 1.69284, -1.22499, -1.53778, -0.899222, -1.19223, 1.22938, -1.30253, 0.049726, 0.00235138, -0.00716394, 0.0288282, -0.0248015, 0.0162368, 0.000919785, 1.15424, 56.6739, 26.5958, 5.68848, 1.27002, 3.58218, -0.0228162, 0.000896517, -0.000798392, -0.000404948, -0.000897886, -0.00195547, -0.000505995, 0.00982946, -0.0199896, 0.00012807, 0.00488245, 0.0412876, 0.0123181, 0.471005, -0.543017, 0.335992, -2.08357, -2.16577, -0.129915, 0.47019, -0.542227, 0.336555, -2.08453, -2.16776, -0.128979, -0.000163782, 0.0151053, 0.00392227, 0.0201568, 0.00620191, 0.0019163
0.0850774, 1.6929, -1.22499, -1.53779, -0.899198, -1.19226, 1.2294, -1.30252, 0.0535355, 0.0015667, -0.00706303, 0.0294836, -0.0246648, 0.0173236, 0.00746636, 0.963814, 56.6739, 26.5244, 5.76385, 1.28833, 3.56845, -0.0750012, 0.000891361, -0.000772673, -0.000404635, -0.000912517, -0.00198976, -0.000515917, 0.00887091, -0.0222192, -0.000348379, 0.00570946, 0.0412644, 0.00909942, 0.471005, -0.543002, 0.335996, -2.08356, -2.16577, -0.129916, 0.470216, -0.542216, 0.336557, -2.08453, -2.16779, -0.128963, -0.000170564, 0.0154971, 0.00402162, 0.022325, 0.00770491, 0.00162647
0.0860774, 1.69295, -1.22499, -1.53779, -0.899168, -1.19228, 1.22941, -1.30252, 0.0512153, 0.00457028, -0.00960814, 0.0296172, -0.0237912, 0.012887, 0.00805232, 0.85273, 56.5231, 26.5601, 5.72418, 1.28833, 3.56845, -0.0164075, 0.000882653, -0.000752821, -0.000407217, -0.000918315, -0.00203, -0.000526572, 0.00995891, -0.0196673, 0.00022567, 0.000778625, 0.0417264, 0.0051498, 0.471005, -0.542986, 0.336, -2.08355, -2.16577, -0.129917, 0.470236, -0.542209, 0.336562, -2.08453, -2.16783, -0.128931, -0.000177527, 0.0158932, 0.00412199, 0.0198294, 0.00683392, 0.00220165
0.0870774, 1.69299, -1.22498, -1.5378, -0.899145, -1.1923, 1.22943, -1.30252, 0.0469759, 0.00388157, -0.00643329, 0.0299691, -0.0232977, 0.014054, 0.0111166, 0.85273, 56.4874, 26.5244, 5.79956, 1.28833, 3.57577, -0.0228162, 0.000872795, -0.000734451, -0.000406426, -0.000925543, -0.00206249, -0.000534458, 0.0117854, -0.018043, 0.00128374, 0.0056323, 0.0411387, -0.00066981, 0.471005, -0.542971, 0.336004, -2.08354, -2.16576, -0.129918, 0.470255, -0.542202, 0.336563, -2.08453, -2.16785, -0.128908, -0.000184671, 0.0162937, 0.00422337, 0.0183039, 0.00520172, 0.0031129
0.0880774, 1.69304, -1.22499, -1.5378, -0.899117, -1.19232, 1.22944, -1.3025, 0.0466736, 0.000486905, -0.00317293, 0.0291395, -0.022545, 0.0162215, 0.0154931, 0.737679, 56.4517, 26.449, 5.79956, 1.28284, 3.5538, -0.0814099, 0.000864209, -0.000712349, -0.000404599, -0.00093561, -0.00209287, -0.000534825, 0.0118091, -0.0191673, 0.000498335, 0.0101548, 0.0383551, -0.00270485, 0.471005, -0.542954, 0.336008, -2.08353, -2.16576, -0.129919, 0.470277, -0.542193, 0.336563, -2.08454, -2.16787, -0.128889, -0.000192, 0.0166987, 0.00432576, 0.0193918, 0.0057505, 0.00240184
0.0890774, 1.6931, -1.22499, -1.53781, -0.899093, -1.19235, 1.22945, -1.30251, 0.049671, -0.00283787, -0.00405539, 0.0265199, -0.0231796, 0.0126246, 0.00884364, 0.626595, 56.4517, 26.3736, 5.87494, 1.30755, 3.53915, -0.00999879, 0.000856806, -0.000688759, -0.000400694, -0.000939229, -0.00212486, -0.000559276, 0.0103748, -0.020604, -0.00264609, 0.00403393, 0.034467, 0.00864449, 0.471004, -0.542938, 0.336012, -2.08351, -2.16576, -0.129921, 0.4703, -0.542182, 0.336562, -2.08452, -2.16791, -0.128865, -0.000199514, 0.0171079, 0.00442916, 0.0206536, 0.00811954, -0.000420332
0.0900774, 1.69315, -1.22498, -1.53782, -0.899065, -1.19237, 1.22946, -1.3025, 0.0510804, 0.000279722, -0.0082605, 0.0265155, -0.0226573, 0.00960455, 0.00700297, 0.551216, 56.3406, 26.449, 5.87494, 1.30755, 3.53274, -0.0164075, 0.000845934, -0.000669393, -0.000399692, -0.0009375, -0.00216481, -0.000559186, 0.0103335, -0.0201011, -0.00268499, -0.00190962, 0.0362774, 0.0100081, 0.471004, -0.54292, 0.336017, -2.0835, -2.16575, -0.129922, 0.47032, -0.542174, 0.336563, -2.08453, -2.16793, -0.128823, -0.000207216, 0.0175215, 0.00453354, 0.0201408, 0.00855932, -0.000332928
0.0910774, 1.6932, -1.22498, -1.53783, -0.899038, -1.19239, 1.22947, -1.30249, 0.0544424, 0.00162961, -0.00845118, 0.0254193, -0.027251, 0.012733, 0.00749117, 0.511544, 56.2653, 26.4094, 5.91064, 1.29474, 3.51077, -0.0750012, 0.000835799, -0.000648805, -0.000399226, -0.000943919, -0.00220057, -0.000559157, 0.0100854, -0.0222223, -0.00205045, -0.00234702, 0.0434465, 0.0121781, 0.471004, -0.542903, 0.336021, -2.08349, -2.16575, -0.129923, 0.47034, -0.542166, 0.336565, -2.08454, -2.16795, -0.128796, -0.000215108, 0.0179394, 0.00463891, 0.0222654, 0.00921161, 0.000373026
0.0920774, 1.69326, -1.22498, -1.53783, -0.899017, -1.19242, 1.22948, -1.30249, 0.055542, 0.00251675, -0.00813789, 0.0238163, -0.0261914, 0.0139457, 0.00256728, 0.400459, 56.1938, 26.3379, 5.98602, 1.30115, 3.5181, 0.00373412, 0.000831328, -0.000622421, -0.00039882, -0.000944799, -0.00223859, -0.000591753, 0.00931842, -0.0235701, -0.00163169, -0.00131554, 0.044527, 0.0201165, 0.471004, -0.542885, 0.336026, -2.08348, -2.16575, -0.129924, 0.470367, -0.542151, 0.336568, -2.08451, -2.16801, -0.128763, -0.000223192, 0.0183616, 0.00474526, 0.0235912, 0.0103819, 0.000970973
0.0930774, 1.69332, -1.22498, -1.53784, -0.898994, -1.19245, 1.22949, -1.30249, 0.0552255, 0.00233299, -0.00862875, 0.0226361, -0.0256143, 0.0103979, 0.00401126, 0.325081, 56.1581, 26.2983, 6.0614, 1.31946, 3.5181, -0.0484509, 0.000822646, -0.000599754, -0.00039454, -0.000938679, -0.00227529, -0.000599802, 0.00918424, -0.0229834, -0.00241426, -0.00501275, 0.0425575, 0.0193839, 0.471003, -0.542867, 0.336031, -2.08346, -2.16574, -0.129926, 0.470389, -0.54214, 0.336566, -2.0845, -2.16803, -0.128721, -0.00023147, 0.0187881, 0.00485258, 0.0229637, 0.0110375, 0.000344002
0.0940774, 1.69338, -1.22497, -1.53785, -0.898968, -1.19248, 1.22949, -1.30249, 0.0530141, 0.00401873, -0.00585545, 0.0236456, -0.0242573, 0.00748623, 0.000304544, 0.21003, 56.0471, 26.2626, 6.0614, 1.31305, 3.52542, 0.0229602, 0.000815064, -0.000576507, -0.000394899, -0.00093482, -0.00231641, -0.000621299, 0.00959632, -0.0215869, -0.00048223, -0.00345409, 0.0416654, 0.021818, 0.471003, -0.542848, 0.336035, -2.08345, -2.16574, -0.129927, 0.470413, -0.542128, 0.33657, -2.08449, -2.16807, -0.128678, -0.000239944, 0.0192188, 0.00496086, 0.0216455, 0.0107063, 0.00233797
0.0950774, 1.69343, -1.22496, -1.53786, -0.898947, -1.1925, 1.2295, -1.30248, 0.0518564, 0.00434111, -0.00613239, 0.0224913, -0.0236355, 0.00615252, 0.00728584, 0.21003, 55.9717, 26.1872, 6.13678, 1.31305, 3.51077, -0.0356336, 0.000805369, -0.000555707, -0.00039429, -0.000933235, -0.00235539, -0.000629541, 0.00998034, -0.0209609, -0.000648449, -0.00482499, 0.0412192, 0.0148064, 0.471003, -0.542829, 0.33604, -2.08343, -2.16574, -0.129929, 0.470433, -0.542117, 0.336572, -2.08448, -2.1681, -0.128639, -0.000248615, 0.0196537, 0.00507009, 0.0210195, 0.0107622, 0.00224212
0.0960774, 1.69349, -1.22496, -1.53787, -0.898922, -1.19253, 1.22951, -1.30248, 0.0546636, 0.00365333, -0.00896591, 0.0258904, -0.022812, 0.00483733, 0.00564158, 0.059273, 55.936, 26.2229, 6.17248, 1.30755, 3.50345, -0.0420422, 0.000797683, -0.000530281, -0.000389828, -0.000924946, -0.00239321, -0.000646165, 0.0105487, -0.0211374, -0.00188869, -0.00686014, 0.0395034, 0.0152046, 0.471003, -0.542809, 0.336045, -2.08342, -2.16573, -0.12993, 0.470459, -0.542103, 0.33657, -2.08447, -2.16813, -0.128595, -0.000257487, 0.0200928, 0.00518027, 0.0211622, 0.0108389, 0.00103373
0.0970774, 1.69355, -1.22496, -1.53788, -0.898903, -1.19256, 1.22951, -1.30248, 0.0539266, 0.00154336, -0.00853657, 0.021029, -0.0235029, 0.00384443, 0.00740283, 0.0196001, 55.9717, 26.1515, 6.24786, 1.33136, 3.49612, -0.00267457, 0.000788093, -0.000508131, -0.000384555, -0.000917101, -0.00242777, -0.000669338, 0.0100358, -0.0216588, -0.0037415, -0.00996809, 0.0381795, 0.0170141, 0.471002, -0.542789, 0.336051, -2.08341, -2.16573, -0.129932, 0.470481, -0.542091, 0.336568, -2.08444, -2.16817, -0.128555, -0.000266561, 0.0205361, 0.00529139, 0.0215881, 0.0120958, -0.000620897
0.0980774, 1.6936, -1.22496, -1.53789, -0.898878, -1.19259, 1.22951, -1.30247, 0.053271, 0.00358463, -0.00988086, 0.0223279, -0.0274336, 0.00333279, 0.00685441, -0.0161054, 55.8606, 26.1515, 6.24786, 1.30755, 3.48239, -0.0356336, 0.000776253, -0.000488688, -0.000384486, -0.000909754, -0.00247094, -0.000673951, 0.0119819, -0.0201862, -0.00288748, -0.0124445, 0.0434628, 0.0138115, 0.471002, -0.542768, 0.336056, -2.08339, -2.16572, -0.129933, 0.4705, -0.542081, 0.336571, -2.08444, -2.16819, -0.128505, -0.000275838, 0.0209836, 0.00540343, 0.0202091, 0.0104301, 7.61988e-05
0.0990774, 1.69367, -1.22495, -1.53789, -0.898857, -1.19262, 1.22951, -1.30247, 0.0557282, 0.00402814, -0.0100338, 0.0224769, -0.0261396, 0.00296031, 0.00387277, -0.166862, 55.7892, 26.1118, 6.28357, 1.31305, 3.46774, -0.00267457, 0.000770062, -0.000461871, -0.000382078, -0.00090211, -0.00251062, -0.000703948, 0.0110897, -0.021567, -0.00286481, -0.0124943, 0.0430627, 0.0194776, 0.471002, -0.542747, 0.336061, -2.08338, -2.16572, -0.129935, 0.470527, -0.542065, 0.336572, -2.08441, -2.16824, -0.128461, -0.000285321, 0.0214351, 0.00551641, 0.0215474, 0.0118159, 0.000308095
0.100077, 1.69372, -1.22495, -1.5379, -0.89884, -1.19265, 1.22951, -1.30247, 0.0554232, 0.00266139, -0.00686617, 0.0185354, -0.0258767, 0.00212047, 0.00273739, -0.242241, 55.7892, 26.0761, 6.35895, 1.33777, 3.46774, 0.00373412, 0.000760828, -0.000438833, -0.000377937, -0.000890342, -0.00254962, -0.000726752, 0.00985288, -0.0227267, -0.00319386, -0.0121992, 0.0415338, 0.0254332, 0.471002, -0.542726, 0.336067, -2.08336, -2.16572, -0.129936, 0.47055, -0.542051, 0.336572, -2.08438, -2.16827, -0.128412, -0.000295012, 0.0218908, 0.00563029, 0.0226395, 0.0135911, 0.000253928
0.101077, 1.69378, -1.22494, -1.53791, -0.89882, -1.19268, 1.22951, -1.30247, 0.0546095, 0.00435469, -0.00926257, 0.0173085, -0.0240772, 0.00206638, 0.00262822, -0.281914, 55.6781, 26.1118, 6.35895, 1.31946, 3.45309, -0.00999879, 0.000748949, -0.000419315, -0.000376266, -0.000875873, -0.00259347, -0.000736617, 0.0102989, -0.0222799, -0.00322204, -0.0137352, 0.0422998, 0.0252692, 0.471001, -0.542704, 0.336072, -2.08334, -2.16571, -0.129938, 0.470569, -0.54204, 0.336573, -2.08437, -2.1683, -0.128354, -0.000304912, 0.0223506, 0.00574509, 0.0221984, 0.0135968, 0.000284808
0.102077, 1.69383, -1.22494, -1.53792, -0.898801, -1.19272, 1.22951, -1.30247, 0.0549645, 0.00465285, -0.00940747, 0.014614, -0.0246287, 0.00196886, 0.000515093, -0.357292, 55.6027, 26.0761, 6.43433, 1.34418, 3.43936, 0.0293689, 0.000737216, -0.000396905, -0.000374677, -0.000866131, -0.00264196, -0.000758775, 0.00991771, -0.0229642, -0.00354172, -0.0154339, 0.043599, 0.0298671, 0.471001, -0.542682, 0.336078, -2.08333, -2.16571, -0.12994, 0.470592, -0.542028, 0.336575, -2.08435, -2.16834, -0.128298, -0.000315023, 0.0228145, 0.00586078, 0.0228464, 0.0145146, 0.000123062
0.103077, 1.69389, -1.22493, -1.53792, -0.89878, -1.19275, 1.22951, -1.30247, 0.0534334, 0.00982524, -0.0104369, 0.0143804, -0.0235149, -0.00917157, 0.00291665, -0.357292, 55.567, 26.0761, 6.43433, 1.33777, 3.46774, -0.0356336, 0.000723429, -0.000379382, -0.000372269, -0.000851493, -0.00268242, -0.000766833, 0.00935239, -0.0199642, -0.00184609, -0.0248487, 0.0427204, 0.0259742, 0.471001, -0.542659, 0.336084, -2.08331, -2.1657, -0.129941, 0.470609, -0.542018, 0.336576, -2.08434, -2.16836, -0.128244, -0.000325348, 0.0232823, 0.00597737, 0.0198814, 0.0151558, 0.00209269
0.104077, 1.69394, -1.22492, -1.53793, -0.898768, -1.19279, 1.22951, -1.30247, 0.0518661, 0.00963253, -0.0103436, 0.0083704, -0.0288446, -0.00658787, 0.00159403, -0.468376, 55.4559, 26.0404, 6.54541, 1.34967, 3.46042, -0.0228162, 0.000711928, -0.000356823, -0.000371804, -0.0008387, -0.00273655, -0.000791363, 0.0100732, -0.0203154, -0.00249039, -0.0275496, 0.0489951, 0.0293066, 0.471, -0.542636, 0.33609, -2.08329, -2.1657, -0.129943, 0.470632, -0.542005, 0.336579, -2.08432, -2.16841, -0.128179, -0.000335889, 0.0237543, 0.00609484, 0.0202241, 0.0150302, 0.00145091
0.105077, 1.694, -1.22492, -1.53794, -0.898751, -1.19282, 1.22951, -1.30247, 0.0538635, 0.00845506, -0.012078, 0.0128451, -0.0318381, -0.00495048, 0.00115592, -0.583427, 55.3845, 26.0761, 6.54541, 1.33777, 3.46042, -0.0228162, 0.000699217, -0.000334914, -0.000368083, -0.000827083, -0.00277994, -0.000811175, 0.0122379, -0.0201108, -0.00317597, -0.0272273, 0.0512102, 0.0260196, 0.471, -0.542612, 0.336096, -2.08328, -2.16569, -0.129945, 0.470654, -0.541992, 0.336579, -2.08429, -2.16845, -0.128126, -0.000346646, 0.0242302, 0.00621319, 0.0200618, 0.0134667, 0.000561471
0.106077, 1.69405, -1.22492, -1.53794, -0.898735, -1.19286, 1.22951, -1.30247, 0.0580899, 0.00683693, -0.00730353, 0.0153434, -0.0297376, -0.00371925, 0.00155262, -0.694511, 55.3448, 26.0007, 6.58508, 1.34967, 3.46042, -0.0420422, 0.000686893, -0.000313562, -0.000367876, -0.000817693, -0.00282676, -0.000827157, 0.0104577, -0.0232445, -0.00224747, -0.0205214, 0.0484233, 0.0306815, 0.471, -0.542588, 0.336102, -2.08326, -2.16569, -0.129946, 0.470675, -0.541979, 0.336582, -2.08428, -2.16848, -0.128071, -0.000357622, 0.0247101, 0.00633241, 0.0231503, 0.0156898, 0.00177875
0.107077, 1.6941, -1.22491, -1.53794, -0.898719, -1.1929, 1.22951, -1.30248, 0.0533511, 0.00643254, -0.00479489, 0.014867, -0.0324326, -0.00252242, -0.00155733, -0.734184, 55.2734, 25.965, 6.58508, 1.33136, 3.45309, 0.0293689, 0.000670618, -0.000295665, -0.000367445, -0.00080967, -0.00287434, -0.000850451, 0.0130936, -0.0210518, -0.00134846, -0.0179888, 0.0509064, 0.0298779, 0.470999, -0.542563, 0.336109, -2.08324, -2.16568, -0.129948, 0.470693, -0.54197, 0.336585, -2.08426, -2.16853, -0.128018, -0.000368819, 0.025194, 0.00645249, 0.0210768, 0.0133429, 0.00244269
0.108077, 1.69415, -1.22491, -1.53794, -0.898707, -1.19294, 1.22951, -1.30247, 0.0524705, 0.00807201, -0.00460263, 0.0128161, -0.0354333, -0.00140864, 0.00117125, -0.884941, 55.2377, 26.0007, 6.65649, 1.33777, 3.43936, -0.0292249, 0.000656958, -0.000272908, -0.000363764, -0.000794965, -0.00292582, -0.000867456, 0.0138888, -0.0208807, -0.000498659, -0.0188543, 0.0560453, 0.0271711, 0.470999, -0.542538, 0.336115, -2.08322, -2.16568, -0.12995, 0.470716, -0.541956, 0.336585, -2.08424, -2.16856, -0.127953, -0.000380238, 0.0256818, 0.00657343, 0.0209541, 0.0129077, 0.00328377
0.109077, 1.6942, -1.2249, -1.53794, -0.898694, -1.19298, 1.22951, -1.30247, 0.0498889, 0.00749235, -0.00266132, 0.0150593, -0.0370161, -0.00138709, -0.000410368, -0.960319, 55.1624, 25.965, 6.69617, 1.33136, 3.44668, 0.00373412, 0.000640405, -0.00025454, -0.000362787, -0.000784242, -0.00297585, -0.000883695, 0.0161729, -0.019104, 0.00025579, -0.0163716, 0.0567284, 0.0246919, 0.470999, -0.542512, 0.336122, -2.0832, -2.16567, -0.129952, 0.470735, -0.541946, 0.336587, -2.08422, -2.1686, -0.127894, -0.000391882, 0.0261735, 0.00669522, 0.0192778, 0.0109553, 0.0038487
0.110077, 1.69425, -1.2249, -1.53794, -0.898681, -1.19302, 1.22951, -1.30247, 0.0529489, 0.00701897, 0.00050316, 0.0171575, -0.0394334, -0.000243477, -1.40939e-05, -1.11108, 55.087, 25.8539, 6.73187, 1.34418, 3.42471, -0.00267457, 0.000625359, -0.000232872, -0.000365728, -0.000783527, -0.00303089, -0.000903272, 0.0159213, -0.0208464, 0.00128651, -0.0131582, 0.0588572, 0.0262422, 0.470998, -0.542486, 0.336128, -2.08318, -2.16567, -0.129954, 0.470757, -0.541934, 0.336594, -2.08421, -2.16865, -0.127841, -0.000403753, 0.0266691, 0.00681784, 0.0210346, 0.0116121, 0.00497467
0.111077, 1.6943, -1.2249, -1.53794, -0.898667, -1.19306, 1.22951, -1.30247, 0.051034, 0.0031117, -0.00157581, 0.0130962, -0.0350116, 9.53655e-06, 0.00146526, -1.22613, 55.1624, 25.9253, 6.73187, 1.34418, 3.41739, -0.0420422, 0.000605499, -0.00021524, -0.000359051, -0.000771877, -0.00307455, -0.000911076, 0.016043, -0.020926, -0.0022326, -0.014575, 0.0522716, 0.0270143, 0.470998, -0.542459, 0.336135, -2.08317, -2.16566, -0.129956, 0.470774, -0.541926, 0.336591, -2.0842, -2.16867, -0.127787, -0.000415851, 0.0271686, 0.0069413, 0.020978, 0.0125382, 0.00160177
0.112077, 1.69434, -1.2249, -1.53794, -0.898661, -1.1931, 1.22951, -1.30247, 0.0494775, 0.00305641, -0.00299439, 0.0137797, -0.0369763, -0.000339469, -0.000706135, -1.33721, 55.1266, 26.0007, 6.84296, 1.34418, 3.42471, 0.00373412, 0.000587462, -0.000196761, -0.000355425, -0.000754566, -0.0031292, -0.000934231, 0.0181101, -0.0193636, -0.00266347, -0.0163814, 0.0540083, 0.025747, 0.470997, -0.542432, 0.336142, -2.08315, -2.16566, -0.129958, 0.470793, -0.541915, 0.336591, -2.08417, -2.16871, -0.127717, -0.000428179, 0.027672, 0.00706559, 0.019464, 0.0110034, 0.00102605
0.113077, 1.69439, -1.2249, -1.53794, -0.898651, -1.19315, 1.22951, -1.30246, 0.0485148, 0.00307566, 0.00130196, 0.0159311, -0.0387493, -1.09655e-05, 0.00174262, -1.45226, 55.087, 25.8539, 6.88263, 1.34967, 3.41739, -0.0557752, 0.000568392, -0.000179819, -0.000356633, -0.00074977, -0.00318133, -0.000943304, 0.0191809, -0.0189518, -0.000795536, -0.0118945, 0.0555033, 0.0219786, 0.470997, -0.542404, 0.336149, -2.08313, -2.16565, -0.12996, 0.47081, -0.541906, 0.336595, -2.08417, -2.16874, -0.127661, -0.000440739, 0.0281791, 0.00719069, 0.019147, 0.0101484, 0.00284082
0.114077, 1.69443, -1.22489, -1.53794, -0.898641, -1.19319, 1.22951, -1.30247, 0.0487248, 0.00296819, -6.884e-05, 0.0146614, -0.039435, 0.000222017, -0.000289312, -1.60302, 55.0513, 25.8896, 6.91833, 1.34418, 3.41006, -0.0164075, 0.000545902, -0.000163537, -0.000353784, -0.000738652, -0.00323787, -0.000958056, 0.0196919, -0.0190758, -0.00155466, -0.0137622, 0.0566558, 0.0244804, 0.470997, -0.542376, 0.336156, -2.08311, -2.16564, -0.129962, 0.470827, -0.541899, 0.336596, -2.08415, -2.16878, -0.127595, -0.000453532, 0.0286901, 0.0073166, 0.0192488, 0.0102775, 0.00213339
0.115077, 1.69447, -1.2249, -1.53793, -0.898643, -1.19323, 1.22951, -1.30247, 0.0464035, 0.00120547, 0.00164115, 0.0100648, -0.0395279, 0.00089645, -0.000933609, -1.78948, 55.087, 25.8143, 7.1048, 1.31305, 3.38901, 0.00373412, 0.000530316, -0.000141374, -0.000348181, -0.000729397, -0.00328247, -0.00099041, 0.0197897, -0.0192415, -0.00248655, -0.0136096, 0.0559071, 0.0277183, 0.470996, -0.542347, 0.336164, -2.08308, -2.16564, -0.129964, 0.470849, -0.541883, 0.336594, -2.08412, -2.16883, -0.127545, -0.00046656, 0.0292049, 0.00744332, 0.0193708, 0.0108467, 0.00131925
0.116077, 1.69451, -1.2249, -1.53793, -0.898626, -1.19328, 1.22951, -1.30246, 0.0410399, -0.000913167, 0.00187217, 0.0161539, -0.0392671, 0.00111658, 0.00131431, -1.82915, 55.1624, 25.7786, 7.02942, 1.28284, 3.37436, -0.0484509, 0.000501977, -0.000131179, -0.000344955, -0.000729354, -0.00332595, -0.000983132, 0.0246433, -0.0150196, -0.00254492, -0.00945302, 0.0533496, 0.01512, 0.470996, -0.542318, 0.336171, -2.08306, -2.16563, -0.129966, 0.470859, -0.541881, 0.336594, -2.08413, -2.16884, -0.127502, -0.000479825, 0.0297235, 0.00757084, 0.0153138, 0.00640927, 0.000761663
0.117077, 1.69455, -1.2249, -1.53793, -0.898618, -1.19332, 1.22951, -1.30247, 0.0375375, 0.000261257, 0.00120525, 0.0113994, -0.0406509, 0.000997959, -0.00129098, -2.01562, 55.1266, 25.7786, 7.06909, 1.28833, 3.36703, 0.0101428, 0.00047987, -0.000113754, -0.000342692, -0.000717612, -0.00338356, -0.00100419, 0.0256164, -0.013798, -0.00262081, -0.01231, 0.056336, 0.0176618, 0.470995, -0.542288, 0.336179, -2.08304, -2.16563, -0.129968, 0.470877, -0.541872, 0.336595, -2.08411, -2.16889, -0.127435, -0.000493328, 0.0302458, 0.00769914, 0.0141127, 0.00593251, 0.000700243
0.118077, 1.69459, -1.2249, -1.53793, -0.898613, -1.19337, 1.22952, -1.30247, 0.0394145, 0.000200284, 0.00738301, 0.0110633, -0.0352462, 0.00116066, 0.000836984, -2.13067, 55.1266, 25.7786, 7.1048, 1.27002, 3.3533, -0.0356336, 0.000454183, -9.99708e-05, -0.000338406, -0.000709157, -0.00343545, -0.0010085, 0.0228793, -0.0166415, -0.000650132, -0.00460986, 0.0519819, 0.0225144, 0.470995, -0.542258, 0.336186, -2.08302, -2.16562, -0.129971, 0.470891, -0.541866, 0.336594, -2.0841, -2.16891, -0.127376, -0.000507072, 0.0307718, 0.00782823, 0.0169123, 0.00897359, 0.00311395
0.119077, 1.69463, -1.2249, -1.53792, -0.898614, -1.19341, 1.22952, -1.30246, 0.0396593, 0.000153107, 0.00721211, 0.0059144, -0.0414579, 0.00103509, 0.00130564, -2.3211, 55.1266, 25.7032, 7.21588, 1.23981, 3.34598, -0.0557752, 0.000433035, -8.18711e-05, -0.000336272, -0.00070092, -0.00349019, -0.00102719, 0.0230437, -0.0171745, -0.0015196, -0.0101456, 0.0578222, 0.0246674, 0.470994, -0.542227, 0.336194, -2.083, -2.16561, -0.129973, 0.470909, -0.541855, 0.336596, -2.08408, -2.16895, -0.127316, -0.000521058, 0.0313016, 0.00795809, 0.0174049, 0.0094976, 0.00234292
0.120077, 1.69466, -1.22489, -1.53792, -0.89861, -1.19346, 1.22952, -1.30247, 0.0369699, 0.00104478, 0.00520322, 0.00703583, -0.0419183, 0.0014964, -0.00109502, -2.39648, 55.087, 25.7032, 7.25555, 1.22699, 3.324, -0.00267457, 0.000405691, -6.94456e-05, -0.000335527, -0.000691888, -0.00355144, -0.00103993, 0.0255948, -0.0150767, -0.0014122, -0.010593, 0.0596566, 0.0223354, 0.470994, -0.542196, 0.336202, -2.08297, -2.16561, -0.129975, 0.470922, -0.54185, 0.336599, -2.08407, -2.16899, -0.127247, -0.000535288, 0.031835, 0.00808872, 0.0153915, 0.00740983, 0.00224571
0.121077, 1.69469, -1.2249, -1.53791, -0.898601, -1.19351, 1.22952, -1.30246, 0.0326422, -0.0010557, 0.00552841, 0.00652232, -0.0472096, 0.000992, 0.000966343, -2.50756, 55.1624, 25.6278, 7.21588, 1.21509, 3.324, -0.0484509, 0.000376407, -5.79623e-05, -0.000332158, -0.00068926, -0.00360107, -0.00103913, 0.0290509, -0.0121706, -0.00246075, -0.0128588, 0.0619316, 0.0149061, 0.470993, -0.542164, 0.33621, -2.08295, -2.1656, -0.129978, 0.470934, -0.541846, 0.336599, -2.08407, -2.16901, -0.127196, -0.000549763, 0.0323721, 0.00822011, 0.012561, 0.00457759, 0.000891644
0.122077, 1.69469, -1.2249, -1.53791, -0.898601, -1.19351, 1.22952, -1.30246, 0.0326422, -0.0010557, 0.00552841, 0.00652232, -0.0472096, 0.000992, 0.000966343, -2.50756, 55.1624, 25.6278, 7.21588, 1.21509, 3.324, -0.0484509, 0.000343156, -5.85e-05, -0.000329057, -0.000702845, -0.00361757, -0.00103177, 0.0296059, -0.0121668, -0.00250647, -0.0127569, 0.0623227, 0.0149486, 0.470993, -0.542132, 0.336219, -2.08293, -2.16559, -0.12998, 0.470934, -0.541846, 0.336599, -2.08407, -2.16901, -0.127196, -0.000564485, 0.0329128, 0.00835225, 0.012561, 0.00457759, 0.000891644
0.123077, 1.69469, -1.2249, -1.53791, -0.898601, -1.19351, 1.22952, -1.30246, 0.0326422, -0.0010557, 0.00552841, 0.00652232, -0.0472096, 0.000992, 0.000966343, -2.50756, 55.1624, 25.6278, 7.21588, 1.21509, 3.324, -0.0484509, 0.000309351, -5.90418e-05, -0.000325911, -0.000716659, -0.00363435, -0.00102429, 0.0301647, -0.0121632, -0.00255234, -0.012654, 0.0627162, 0.0149913, 0.470992, -0.542099, 0.336227, -2.0829, -2.16559, -0.129982, 0.470934, -0.541846, 0.336599, -2.08407, -2.16901, -0.127196, -0.000579456, 0.0334572, 0.00848514, 0.012561, 0.00457759, 0.000891644
0.124077, 1.69478, -1.22489, -1.53791, -0.898606, -1.19365, 1.22953, -1.30246, 0.0321358, 0.00215375, 0.00150899, 0.00183002, -0.0443176, 0.00174566, 0.00200917, -2.77337, 55.0156, 25.6278, 7.33093, 1.19678, 3.26724, -0.0814099, 0.000290823, -2.08605e-05, -0.000325475, -0.000658043, -0.00378431, -0.00106293, 0.0295971, -0.0126232, -0.00269371, -0.0159356, 0.064985, 0.0165785, 0.470991, -0.542066, 0.336235, -2.08288, -2.16558, -0.129985, 0.470972, -0.54183, 0.336603, -2.08406, -2.16911, -0.126985, -0.000594677, 0.0340052, 0.00861877, 0.0129797, 0.0057269, 0.000959401
0.125077, 1.69481, -1.22489, -1.53791, -0.898608, -1.19369, 1.22953, -1.30247, 0.030555, 0.000604099, -0.000663477, 0.00150596, -0.044022, 0.00221316, -0.00106775, -2.80907, 55.0513, 25.7032, 7.33093, 1.19678, 3.23886, -0.0164075, 0.000257988, -1.09182e-05, -0.000318338, -0.000644848, -0.00384123, -0.00107374, 0.0313651, -0.011573, -0.00433921, -0.0172338, 0.0639567, 0.0175011, 0.470991, -0.542032, 0.336244, -2.08286, -2.16557, -0.129987, 0.470982, -0.541827, 0.336599, -2.08404, -2.16914, -0.126916, -0.000610151, 0.0345567, 0.00875313, 0.011919, 0.00474445, -0.000774927
0.126077, 1.69485, -1.22489, -1.53791, -0.898611, -1.19374, 1.22953, -1.30246, 0.0283074, -0.000429871, -0.000371991, -0.00199554, -0.0436643, 0.00255918, 0.00169588, -2.92413, 55.087, 25.7032, 7.33093, 1.19037, 3.20956, -0.0814099, 0.000228676, 3.34378e-06, -0.000313284, -0.000634423, -0.00390001, -0.00107557, 0.0319005, -0.0112658, -0.00522717, -0.0178071, 0.0634295, 0.0159045, 0.47099, -0.541997, 0.336253, -2.08283, -2.16557, -0.12999, 0.470997, -0.54182, 0.336598, -2.08404, -2.16916, -0.126848, -0.000625878, 0.0351119, 0.00888822, 0.0115833, 0.00489592, -0.00159127
0.127077, 1.69487, -1.22489, -1.5379, -0.898619, -1.19379, 1.22953, -1.30246, 0.025971, 0.000550598, 0.00240321, -0.00532655, -0.0434963, 0.00197639, -0.000564665, -2.88445, 55.0513, 25.5921, 7.36664, 1.19037, 3.20224, -0.0356336, 0.00019741, 1.33279e-05, -0.000312542, -0.000627777, -0.00396164, -0.0010885, 0.0317568, -0.0110771, -0.00410602, -0.0168473, 0.0644253, 0.0201916, 0.47099, -0.541962, 0.336262, -2.0828, -2.16556, -0.129992, 0.471007, -0.541815, 0.336601, -2.08403, -2.1692, -0.126782, -0.00064186, 0.0356705, 0.00902402, 0.011415, 0.00541561, -0.000321067
0.128077, 1.6949, -1.22488, -1.53791, -0.898618, -1.19383, 1.22953, -1.30246, 0.025547, 0.00120375, -0.00012154, -0.00627049, -0.0435778, 0.00182547, -0.0010884, -2.88445, 55.0156, 25.6675, 7.33093, 1.18396, 3.18851, -0.0164075, 0.000163597, 2.28323e-05, -0.000308514, -0.000617303, -0.00402037, -0.00109252, 0.0327087, -0.0105562, -0.00478361, -0.0194424, 0.065715, 0.019912, 0.470989, -0.541926, 0.336271, -2.08278, -2.16555, -0.129995, 0.471017, -0.541811, 0.3366, -2.08402, -2.16923, -0.126714, -0.000658099, 0.0362327, 0.00916054, 0.0108882, 0.00512168, -0.000986697
0.129077, 1.69493, -1.22489, -1.5379, -0.898623, -1.19388, 1.22954, -1.30246, 0.0279442, -3.16125e-05, -5.13572e-05, -0.00785649, -0.0438705, 0.00175896, 0.000969918, -2.9995, 55.0513, 25.6675, 7.33093, 1.19678, 3.17386, -0.0621838, 0.000134406, 3.84055e-05, -0.000302372, -0.0006077, -0.00407548, -0.00110363, 0.0319064, -0.0122415, -0.00588424, -0.0206899, 0.0653088, 0.02161, 0.470988, -0.54189, 0.33628, -2.08275, -2.16554, -0.129998, 0.471033, -0.541802, 0.336598, -2.08401, -2.16926, -0.126651, -0.000674597, 0.0367984, 0.00929776, 0.0124855, 0.00671956, -0.00186345
0.130077, 1.69495, -1.22489, -1.53791, -0.898629, -1.19392, 1.22954, -1.30246, 0.0280269, -0.000855466, 0.00148027, -0.00672548, -0.0437135, 0.00117222, -0.00155737, -2.92413, 55.087, 25.7389, 7.36664, 1.19678, 3.17386, -0.00267457, 9.88715e-05, 4.6386e-05, -0.000293985, -0.000592815, -0.00412881, -0.00111325, 0.0324559, -0.0122264, -0.0057721, -0.019229, 0.0642808, 0.0240772, 0.470988, -0.541853, 0.336289, -2.08273, -2.16554, -0.13, 0.471041, -0.541799, 0.336593, -2.08399, -2.16929, -0.126584, -0.000691354, 0.0373675, 0.00943568, 0.0124777, 0.0067287, -0.00170082
0.131077, 1.69498, -1.22489, -1.53791, -0.898629, -1.19396, 1.22953, -1.30246, 0.0271435, -0.00056969, 0.000339076, -0.00631183, -0.0440349, 0.000509896, 0.00164057, -2.92413, 55.087, 25.7786, 7.29126, 1.20868, 3.18118, -0.0750012, 6.42848e-05, 5.57093e-05, -0.00029009, -0.000584293, -0.00418427, -0.00110884, 0.0337661, -0.0112737, -0.00600847, -0.0204756, 0.0649269, 0.019026, 0.470987, -0.541816, 0.336299, -2.0827, -2.16553, -0.130003, 0.471051, -0.541795, 0.336593, -2.08399, -2.1693, -0.126521, -0.000708374, 0.0379402, 0.00957429, 0.011548, 0.00600548, -0.00197146
0.132077, 1.69501, -1.22489, -1.5379, -0.898635, -1.194, 1.22953, -1.30246, 0.0288467, 0.00170637, 0.000436236, -0.00801522, -0.0382622, 0.000339694, 0.000110411, -2.88445, 55.1266, 25.7786, 7.29126, 1.20868, 3.18118, -0.0484509, 3.225e-05, 6.79933e-05, -0.000285335, -0.000577629, -0.00423671, -0.001124, 0.0316921, -0.0131985, -0.00502929, -0.0186236, 0.0629938, 0.0257203, 0.470986, -0.541778, 0.336308, -2.08267, -2.16552, -0.130006, 0.471063, -0.541787, 0.336593, -2.08397, -2.16934, -0.126464, -0.000725657, 0.0385162, 0.00971358, 0.0134143, 0.00855733, -0.000601834
0.133077, 1.69504, -1.22488, -1.53791, -0.898634, -1.19404, 1.22953, -1.30246, 0.0302147, 0.00231709, -0.00131477, -0.00753993, -0.0347775, 0.000226285, -0.00063844, -2.84875, 55.087, 25.8539, 7.21588, 1.2215, 3.18118, -0.0292249, -3.04998e-06, 7.79767e-05, -0.000282323, -0.000568093, -0.00429603, -0.00112618, 0.0314241, -0.0139095, -0.00535559, -0.018453, 0.0612258, 0.027766, 0.470985, -0.541739, 0.336318, -2.08264, -2.16551, -0.130009, 0.471074, -0.541783, 0.336594, -2.08397, -2.16936, -0.126397, -0.000743204, 0.0390957, 0.00985355, 0.0140852, 0.00948163, -0.000764855
0.134077, 1.69506, -1.22488, -1.53791, -0.898645, -1.19408, 1.22953, -1.30245, 0.0271685, 0.00173335, -0.000758287, -0.00677417, -0.0313807, 0.000150724, 0.00055774, -2.77337, 55.087, 25.8539, 7.25555, 1.2215, 3.18118, -0.0557752, -3.43067e-05, 9.18973e-05, -0.000277201, -0.000559539, -0.0043501, -0.00113918, 0.0328651, -0.0125046, -0.00529039, -0.0155539, 0.0580458, 0.0243557, 0.470985, -0.5417, 0.336328, -2.08262, -2.1655, -0.130011, 0.471088, -0.541773, 0.336593, -2.08395, -2.1694, -0.126337, -0.000761018, 0.0396786, 0.00999418, 0.012719, 0.00857424, -0.000742309
0.135077, 1.6951, -1.22488, -1.53791, -0.898646, -1.19411, 1.22953, -1.30245, 0.029031, -0.000466209, -0.00125207, -0.00654049, -0.0291724, 0.000100383, -0.00084886, -2.7337, 55.1624, 25.8896, 7.18018, 1.22699, 3.18118, -0.0228162, -6.67067e-05, 0.000105415, -0.000269829, -0.00055273, -0.00439382, -0.00115248, 0.0325793, -0.0136876, -0.00687745, -0.0152554, 0.0545124, 0.0279851, 0.470984, -0.541661, 0.336338, -2.08259, -2.1655, -0.130014, 0.471102, -0.541764, 0.33659, -2.08392, -2.16943, -0.126289, -0.000779099, 0.0402649, 0.0101355, 0.0138137, 0.00973759, -0.00216051
0.136077, 1.69512, -1.22489, -1.53791, -0.898649, -1.19415, 1.22953, -1.30245, 0.0278438, -0.00363838, 0.0043297, -0.00574106, -0.0340568, -0.00020442, 0.00112953, -2.58294, 55.3091, 25.965, 7.06909, 1.26453, 3.18851, -0.0685925, -0.000105158, 0.000115054, -0.000258211, -0.000545659, -0.00443727, -0.00115381, 0.0340228, -0.0132736, -0.00666359, -0.012501, 0.0551465, 0.0252824, 0.470983, -0.54162, 0.336348, -2.08256, -2.16549, -0.130017, 0.471111, -0.541759, 0.336583, -2.08391, -2.16944, -0.12624, -0.00079745, 0.0408545, 0.0102774, 0.0134421, 0.00885247, -0.00202084
0.137077, 1.69516, -1.22489, -1.53791, -0.898656, -1.19419, 1.22953, -1.30245, 0.0337784, -0.0015108, 0.00174487, -0.00682263, -0.0366918, -0.000407604, -0.000705035, -2.58294, 55.2734, 26.0404, 7.02942, 1.28284, 3.19583, -0.0292249, -0.000136084, 0.000131269, -0.000255007, -0.000536313, -0.00449592, -0.00117444, 0.0325035, -0.0160145, -0.00685491, -0.0172918, 0.0602025, 0.031804, 0.470982, -0.541579, 0.336358, -2.08253, -2.16548, -0.13002, 0.471128, -0.541748, 0.336585, -2.08389, -2.16948, -0.126175, -0.000816072, 0.0414475, 0.01042, 0.0160989, 0.0110887, -0.00191529
0.138077, 1.69518, -1.22489, -1.5379, -0.898664, -1.19421, 1.22953, -1.30245, 0.0356751, -0.00354597, 0.00255749, -0.00776044, -0.0334482, -0.00105167, 0.000242061, -2.47185, 55.3845, 26.0007, 6.99371, 1.29474, 3.21689, -0.0484509, -0.000167956, 0.000146359, -0.000248066, -0.000535543, -0.00453634, -0.00119098, 0.0313091, -0.0177121, -0.00810168, -0.0164271, 0.0557156, 0.0351127, 0.470982, -0.541538, 0.336369, -2.0825, -2.16547, -0.130023, 0.471143, -0.541736, 0.336583, -2.08386, -2.16951, -0.126138, -0.000834967, 0.0420438, 0.0105633, 0.0176863, 0.0131278, -0.00286968
0.139077, 1.69521, -1.22488, -1.53791, -0.898673, -1.19425, 1.22953, -1.30245, 0.0320706, 0.000577332, 0.00181925, -0.00840039, -0.0314534, -0.00124368, 0.000670005, -2.28143, 55.3845, 26.1515, 6.95801, 1.32587, 3.23153, -0.0621838, -0.000203156, 0.000157962, -0.00024274, -0.000524548, -0.00459046, -0.00120104, 0.0326814, -0.0158157, -0.00590315, -0.0155869, 0.058522, 0.0319747, 0.470981, -0.541496, 0.336379, -2.08247, -2.16546, -0.130026, 0.471155, -0.541728, 0.336582, -2.08384, -2.16954, -0.126075, -0.000854135, 0.0426434, 0.0107072, 0.0159041, 0.0119543, -0.000712012
0.140077, 1.69523, -1.22488, -1.53791, -0.898673, -1.19427, 1.22952, -1.30245, 0.0296996, 0.00190351, -0.000849115, -0.00606503, -0.029617, -0.00160904, -0.00223209, -2.091, 55.4559, 26.2626, 6.80725, 1.34967, 3.25259, 0.0101428, -0.000242463, 0.000165676, -0.000235086, -0.000517641, -0.00463235, -0.001208, 0.0350782, -0.013611, -0.0056986, -0.0156804, 0.0584902, 0.0298467, 0.47098, -0.541453, 0.33639, -2.08244, -2.16545, -0.130029, 0.471163, -0.541722, 0.336579, -2.08382, -2.16956, -0.126029, -0.000873578, 0.0432462, 0.0108517, 0.0137773, 0.0100686, -0.000672801
0.141077, 1.69526, -1.22489, -1.53791, -0.898687, -1.1943, 1.22952, -1.30245, 0.0289476, 0.00201095, -0.00192693, -0.00895516, -0.0284768, -0.00161524, 0.000207363, -1.94024, 55.567, 26.3379, 6.84296, 1.3808, 3.26724, -0.0356336, -0.000277171, 0.00017944, -0.000224622, -0.000512072, -0.0046728, -0.00122366, 0.0351666, -0.0137698, -0.00642788, -0.0172201, 0.0584025, 0.0291037, 0.470979, -0.54141, 0.336401, -2.08241, -2.16544, -0.130032, 0.471177, -0.541711, 0.336574, -2.08379, -2.16959, -0.125987, -0.000893298, 0.0438524, 0.0109968, 0.0138927, 0.0107075, -0.00126732
0.142077, 1.69529, -1.22489, -1.53791, -0.898689, -1.19432, 1.22952, -1.30245, 0.0263409, -0.000680084, -0.000982836, -0.00668193, -0.0268773, -0.00158547, 0.000375603, -1.82915, 55.6781, 26.3379, 6.69617, 1.3927, 3.28097, -0.0420422, -0.00031138, 0.000193915, -0.000217735, -0.000516027, -0.00470695, -0.00123757, 0.0373754, -0.0122004, -0.00726808, -0.014253, 0.0545177, 0.0254584, 0.470978, -0.541366, 0.336412, -2.08237, -2.16543, -0.130036, 0.471191, -0.541699, 0.336572, -2.08376, -2.16962, -0.125961, -0.000913297, 0.0444617, 0.0111426, 0.0123544, 0.00920211, -0.00224862
0.143077, 1.69531, -1.22489, -1.53791, -0.898702, -1.19434, 1.22952, -1.30245, 0.0263587, 0.00207607, -0.00302734, -0.00856033, -0.0253506, -0.00132826, -0.000461673, -1.6784, 55.7138, 26.449, 6.69617, 1.3927, 3.2883, -0.0228162, -0.000346257, 0.000206698, -0.000212352, -0.00051529, -0.00474942, -0.00125664, 0.0373249, -0.0124379, -0.00665954, -0.0156444, 0.0568848, 0.0274863, 0.470977, -0.541322, 0.336423, -2.08234, -2.16542, -0.130039, 0.471204, -0.541688, 0.336572, -2.08373, -2.16965, -0.125922, -0.000933575, 0.0450743, 0.0112889, 0.0125922, 0.00978059, -0.00150196
0.144077, 1.69534, -1.22489, -1.53791, -0.898712, -1.19436, 1.22952, -1.30245, 0.0259783, 0.00297734, -0.000323346, -0.00816352, -0.0252182, -0.00169931, -7.04217e-05, -1.63873, 55.7892, 26.5244, 6.62079, 1.42383, 3.31027, -0.0292249, -0.000378643, 0.000223728, -0.000205982, -0.000514845, -0.00478957, -0.00127981, 0.037525, -0.0125385, -0.00517863, -0.0130928, 0.0577045, 0.0277507, 0.470976, -0.541277, 0.336434, -2.08231, -2.16541, -0.130042, 0.471221, -0.541673, 0.336571, -2.08369, -2.16969, -0.125887, -0.000954135, 0.0456901, 0.0114359, 0.0127343, 0.00997403, 7.15676e-05
0.145077, 1.69536, -1.22489, -1.5379, -0.898719, -1.19438, 1.22951, -1.30245, 0.0243166, 4.56503e-05, 0.00583978, -0.0100631, -0.0194116, -0.000861614, -0.000759024, -1.41259, 55.9003, 26.5601, 6.5097, 1.44214, 3.30295, -0.00999879, -0.000418261, 0.00023284, -0.000198933, -0.00052101, -0.00482291, -0.00129171, 0.0362646, -0.0139698, -0.00487676, -0.00505802, 0.05059, 0.0334814, 0.470975, -0.541231, 0.336446, -2.08228, -2.1654, -0.130045, 0.47123, -0.541665, 0.336569, -2.08367, -2.16971, -0.125865, -0.000974976, 0.0463091, 0.0115835, 0.0141086, 0.0118503, 0.000668774
0.146077, 1.69539, -1.2249, -1.5379, -0.89873, -1.19439, 1.22951, -1.30244, 0.0267189, -0.00290883, 0.00213651, -0.0101896, -0.0203214, -0.000845681, 0.00118941, -1.33721, 56.0471, 26.6712, 6.47003, 1.45404, 3.31027, -0.0557752, -0.000454535, 0.000246647, -0.000190548, -0.00052296, -0.00485784, -0.0013055, 0.0370385, -0.0146518, -0.00811401, -0.00925611, 0.0491789, 0.0320277, 0.470974, -0.541185, 0.336457, -2.08224, -2.16539, -0.130049, 0.471244, -0.541653, 0.336567, -2.08364, -2.16974, -0.125836, -0.000996102, 0.0469312, 0.0117316, 0.0146768, 0.012239, -0.00252213
0.147077, 1.69541, -1.2249, -1.53789, -0.898743, -1.1944, 1.22951, -1.30245, 0.0221296, -0.00416687, 0.00122045, -0.00940928, -0.0153239, -0.000563791, 0.00052167, -1.26183, 56.1581, 26.7069, 6.39465, 1.46045, 3.31027, -0.0484509, -0.000489657, 0.000260553, -0.000185758, -0.000532637, -0.00489019, -0.0013283, 0.0393086, -0.0123807, -0.00885347, -0.00639591, 0.0442695, 0.0287904, 0.470973, -0.541138, 0.336469, -2.08221, -2.16538, -0.130052, 0.471258, -0.541639, 0.336568, -2.0836, -2.16978, -0.12582, -0.00101751, 0.0475565, 0.0118804, 0.0124424, 0.0106444, -0.00338907
0.148077, 1.69543, -1.2249, -1.53789, -0.898756, -1.19441, 1.22951, -1.30245, 0.017719, -0.00417024, 0.0061222, -0.0128371, -0.0157475, -0.000104595, -0.001585, -1.15075, 56.2296, 26.7823, 6.35895, 1.44214, 3.30295, 0.00373412, -0.000526609, 0.000273154, -0.000181154, -0.000543592, -0.00492393, -0.00135345, 0.0400054, -0.0115683, -0.00737149, -0.00273863, 0.0451335, 0.0318102, 0.470972, -0.54109, 0.336481, -2.08218, -2.16537, -0.130056, 0.471271, -0.541627, 0.336569, -2.08357, -2.16982, -0.125804, -0.00103921, 0.0481849, 0.0120297, 0.0116898, 0.010322, -0.00186165
0.149077, 1.69544, -1.2249, -1.53788, -0.898775, -1.19443, 1.22951, -1.30245, 0.013471, -0.00394129, 0.00745077, -0.016283, -0.0184898, 0.000201535, 0.000638755, -0.996025, 56.416, 26.822, 6.35895, 1.47876, 3.29562, -0.0420422, -0.000566291, 0.000283988, -0.000174235, -0.000554765, -0.00495713, -0.00136614, 0.0417977, -0.00993326, -0.00703946, -0.00341518, 0.0483002, 0.0281719, 0.470971, -0.541042, 0.336493, -2.08214, -2.16536, -0.130059, 0.471282, -0.541616, 0.336567, -2.08354, -2.16984, -0.125788, -0.0010612, 0.0488164, 0.0121795, 0.0101125, 0.00906547, -0.00161472
0.150077, 1.69545, -1.2249, -1.53787, -0.898798, -1.19443, 1.2295, -1.30245, 0.0122284, -0.00472741, 0.0105915, -0.0227501, -0.0139748, -0.000679447, -0.0017443, -0.920646, 56.5231, 26.8934, 6.39465, 1.48517, 3.31759, 0.0165515, -0.000601459, 0.000297079, -0.000168403, -0.000561832, -0.00498664, -0.00139983, 0.0395159, -0.0115913, -0.00735435, -0.00216775, 0.0441679, 0.0380797, 0.47097, -0.540993, 0.336505, -2.08211, -2.16535, -0.130063, 0.471295, -0.541601, 0.336568, -2.08349, -2.16989, -0.125773, -0.00108347, 0.049451, 0.01233, 0.0116519, 0.0120705, -0.0014709
0.151077, 1.69547, -1.2249, -1.53786, -0.898813, -1.19444, 1.2295, -1.30244, 0.0113274, -0.00253346, 0.0118042, -0.0218094, -0.0103747, -0.000181698, 0.00100727, -0.845268, 56.6342, 26.8934, 6.32324, 1.48517, 3.31027, -0.0420422, -0.000640293, 0.000308294, -0.000167797, -0.000583069, -0.00502003, -0.00140895, 0.0397218, -0.0115426, -0.00546443, 0.00190917, 0.0439116, 0.0354226, 0.470969, -0.540944, 0.336517, -2.08207, -2.16534, -0.130066, 0.471306, -0.541589, 0.336573, -2.08347, -2.16991, -0.125767, -0.00110604, 0.0500886, 0.012481, 0.0116586, 0.0122103, 0.00051393
0.152077, 1.69548, -1.22491, -1.53786, -0.898832, -1.19444, 1.2295, -1.30244, 0.0127447, -0.00363468, 0.00791129, -0.0187437, -0.0129718, 0.000421402, 0.000671514, -0.734184, 56.8564, 27.0798, 6.28357, 1.47876, 3.29562, -0.0420422, -0.000683078, 0.000316377, -0.000155494, -0.0005909, -0.00503987, -0.00142154, 0.0421563, -0.0108108, -0.00712975, -0.000898409, 0.0457283, 0.0317988, 0.470968, -0.540894, 0.33653, -2.08203, -2.16533, -0.13007, 0.471315, -0.541579, 0.336567, -2.08344, -2.16993, -0.12576, -0.0011289, 0.0507293, 0.0126325, 0.0109316, 0.0106764, -0.0013379
0.153077, 1.69549, -1.2249, -1.53784, -0.898856, -1.19444, 1.2295, -1.30244, 0.0109878, -0.00360147, 0.00880934, -0.0205964, -0.00949789, 0.000280934, -2.70417e-05, -0.76989, 56.9318, 27.1195, 6.28357, 1.47327, 3.29562, -0.0292249, -0.000718694, 0.000331169, -0.000152016, -0.000608348, -0.00506867, -0.0014528, 0.0421553, -0.0107611, -0.0070209, 0.000900483, 0.0433577, 0.0340342, 0.470967, -0.540843, 0.336542, -2.082, -2.16532, -0.130073, 0.471329, -0.541562, 0.33657, -2.08339, -2.16997, -0.125758, -0.00115205, 0.051373, 0.0127846, 0.010863, 0.0113027, -0.00107792
0.154077, 1.6955, -1.2249, -1.53783, -0.898879, -1.19444, 1.2295, -1.30244, 0.0140704, -0.00260772, 0.00861362, -0.0210986, -0.00732549, 0.000458556, 0.00120268, -0.734184, 57.0786, 27.1909, 6.24786, 1.47876, 3.2883, -0.0621838, -0.000759818, 0.000340046, -0.000147738, -0.000624884, -0.0050962, -0.00146797, 0.0408287, -0.012825, -0.00677356, 0.00140132, 0.0432696, 0.0369589, 0.470966, -0.540792, 0.336555, -2.08196, -2.16531, -0.130077, 0.471338, -0.54155, 0.336572, -2.08336, -2.17, -0.125753, -0.0011755, 0.0520197, 0.0129373, 0.012862, 0.0133069, -0.000538999
0.155077, 1.6955, -1.2249, -1.53781, -0.898903, -1.19444, 1.2295, -1.30244, 0.00991198, -0.0046108, 0.0117947, -0.0244656, -0.0057136, 0.0010856, -0.000893637, -0.694511, 57.2253, 27.1195, 6.20819, 1.48517, 3.26724, -0.0164075, -0.000799318, 0.000351446, -0.000146787, -0.000654784, -0.00512211, -0.00149828, 0.0416211, -0.012137, -0.00706747, 0.00447095, 0.0406887, 0.0400575, 0.470965, -0.54074, 0.336568, -2.08192, -2.1653, -0.130081, 0.47135, -0.541537, 0.336577, -2.08332, -2.17005, -0.125767, -0.00119924, 0.0526694, 0.0130904, 0.0121692, 0.0131919, -0.00077991
0.156077, 1.6955, -1.22491, -1.53781, -0.898929, -1.19444, 1.2295, -1.30244, 0.00510432, -0.00410509, 0.00800915, -0.0241565, -0.00401614, 0.000994999, -0.000833117, -0.583427, 57.4078, 27.306, 6.17248, 1.47876, 3.25992, -0.00999879, -0.000844767, 0.000357523, -0.000139292, -0.000671981, -0.00514657, -0.00151297, 0.0449235, -0.00887674, -0.00786944, 0.00293942, 0.0403006, 0.0337689, 0.470963, -0.540687, 0.336581, -2.08189, -2.16528, -0.130085, 0.471356, -0.541527, 0.336575, -2.08329, -2.17007, -0.125767, -0.00122328, 0.0533221, 0.0132441, 0.00897969, 0.0105743, -0.00183472
0.157077, 1.6955, -1.2249, -1.53779, -0.898962, -1.19443, 1.2295, -1.30244, 0.00246074, -0.00188919, 0.0120992, -0.0245553, -0.00256995, 0.0009346, 0.000868742, -0.508049, 57.5189, 27.3417, 6.17248, 1.46686, 3.25259, -0.0484509, -0.000885329, 0.000367309, -0.000138483, -0.000697042, -0.00517605, -0.00153466, 0.04529, -0.00831017, -0.00509027, 0.00768111, 0.0414414, 0.0322752, 0.470962, -0.540634, 0.336594, -2.08185, -2.16527, -0.130089, 0.471366, -0.541514, 0.336581, -2.08326, -2.17011, -0.125771, -0.00124762, 0.0539777, 0.0133983, 0.0085068, 0.0104137, 0.0010219
0.158077, 1.6955, -1.2249, -1.53777, -0.898994, -1.19443, 1.2295, -1.30244, 0.0013283, -0.00102074, 0.0141736, -0.0248985, -0.00172593, 0.000894334, -0.00111626, -0.468376, 57.6657, 27.417, 6.17248, 1.46045, 3.24527, -0.00267457, -0.000927146, 0.000377538, -0.000134972, -0.000720026, -0.00520438, -0.0015622, 0.0456772, -0.00818712, -0.00388607, 0.0100686, 0.0419229, 0.0347627, 0.470961, -0.54058, 0.336608, -2.08181, -2.16526, -0.130092, 0.471377, -0.5415, 0.336584, -2.08322, -2.17015, -0.125775, -0.00127226, 0.0546363, 0.013553, 0.00841866, 0.0104984, 0.00230715
0.159077, 1.6955, -1.2249, -1.53775, -0.899028, -1.19443, 1.2295, -1.30244, 0.000512179, 0.00418185, 0.0179177, -0.0274357, -0.000897309, 0.00110485, 0.00047653, -0.43267, 57.7411, 27.417, 6.13678, 1.44855, 3.23153, -0.0356336, -0.00096831, 0.000387973, -0.000137418, -0.000749181, -0.00523994, -0.00158502, 0.0445343, -0.00898562, 0.000156283, 0.0134163, 0.0469537, 0.0366285, 0.47096, -0.540525, 0.336621, -2.08177, -2.16525, -0.130096, 0.471387, -0.541486, 0.336593, -2.08319, -2.1702, -0.125777, -0.0012972, 0.0552977, 0.0137082, 0.00930096, 0.0116939, 0.00660551
0.160077, 1.69549, -1.2249, -1.53773, -0.899065, -1.19443, 1.2295, -1.30244, -0.000240167, 0.00155862, 0.0162465, -0.0316397, 0.00484121, 0.00100783, 0.000555046, -0.392998, 57.9633, 27.4528, 6.0614, 1.43573, 3.22421, -0.0420422, -0.00101099, 0.000398454, -0.000132329, -0.00077556, -0.00526396, -0.00161591, 0.043761, -0.0098879, -0.00258361, 0.0125665, 0.0405296, 0.0407098, 0.470958, -0.54047, 0.336635, -2.08173, -2.16524, -0.1301, 0.471398, -0.541471, 0.336595, -2.08314, -2.17024, -0.12579, -0.00132244, 0.0559621, 0.013864, 0.0100467, 0.013585, 0.00414804
0.161077, 1.69549, -1.2249, -1.53771, -0.899104, -1.19442, 1.2295, -1.30244, -0.00249877, -0.00136603, 0.0139698, -0.0356273, 0.00354745, 0.000943156, -0.00108803, -0.281914, 58.11, 27.5281, 6.02173, 1.43573, 3.21689, -0.00267457, -0.00105508, 0.000405631, -0.000130273, -0.000798845, -0.0052925, -0.00164301, 0.0452792, -0.00901442, -0.00559541, 0.00825664, 0.0395607, 0.042185, 0.470957, -0.540414, 0.336649, -2.08169, -2.16522, -0.130104, 0.471405, -0.541458, 0.3366, -2.0831, -2.17028, -0.125793, -0.00134799, 0.0566293, 0.0140202, 0.00909188, 0.0131858, 0.00111911
0.162077, 1.69548, -1.2249, -1.53769, -0.899147, -1.19442, 1.2295, -1.30244, -0.00323423, -0.000681592, 0.0179373, -0.0379509, 0.0028084, 0.000900038, 0.000970067, -0.206535, 58.2568, 27.6392, 5.95032, 1.43024, 3.20956, -0.0484509, -0.00109925, 0.000414087, -0.000126744, -0.000821306, -0.00532242, -0.00166528, 0.0448475, -0.00971278, -0.00412469, 0.0105564, 0.0412245, 0.0431384, 0.470956, -0.540357, 0.336663, -2.08165, -2.16521, -0.130108, 0.471414, -0.541444, 0.336603, -2.08306, -2.17032, -0.125794, -0.00137384, 0.0572994, 0.0141769, 0.00980312, 0.014083, 0.00277195
0.163077, 1.69547, -1.22489, -1.53766, -0.899189, -1.19442, 1.2295, -1.30244, -0.00470128, 0.000769134, 0.0226244, -0.0414726, 0.00228961, 0.000600025, -0.000302725, -0.0914839, 58.3679, 27.6749, 5.83527, 1.42383, 3.20956, -0.0228162, -0.00114261, 0.000422766, -0.000129186, -0.000851697, -0.00535615, -0.00169731, 0.0440938, -0.0103577, -0.0020999, 0.012964, 0.043385, 0.0481558, 0.470954, -0.5403, 0.336677, -2.08161, -2.1652, -0.130113, 0.471423, -0.54143, 0.336612, -2.08302, -2.17037, -0.125802, -0.0014, 0.0579723, 0.0143341, 0.0104698, 0.0152127, 0.00502435
0.164077, 1.69546, -1.22489, -1.53764, -0.899242, -1.19442, 1.2295, -1.30244, -0.00562304, 0.000848842, 0.0239284, -0.0442088, 0.000305062, 0.000400017, -0.000947802, 0.0196001, 58.5147, 27.8257, 5.83527, 1.46045, 3.20956, -0.00267457, -0.00118683, 0.000431397, -0.000125392, -0.000868617, -0.00539171, -0.00172865, 0.0444763, -0.0104212, -0.00198722, 0.0119968, 0.0456039, 0.0502981, 0.470953, -0.540242, 0.336692, -2.08157, -2.16519, -0.130117, 0.471432, -0.541415, 0.336616, -2.08297, -2.17042, -0.125792, -0.00142646, 0.058648, 0.0144917, 0.0105253, 0.0154964, 0.00522974
0.165077, 1.69545, -1.22489, -1.53762, -0.899295, -1.19441, 1.2295, -1.30243, -0.00635775, 0.000908057, 0.0233857, -0.0443004, 0.000745427, 0.000775304, 0.00180954, 0.134651, 58.6615, 27.9011, 5.76385, 1.44855, 3.19583, -0.0685925, -0.00122953, 0.000441865, -0.00012422, -0.000896514, -0.00542296, -0.00175744, 0.0455312, -0.010054, -0.00213311, 0.0122796, 0.0459913, 0.0468364, 0.470951, -0.540183, 0.336706, -2.08153, -2.16517, -0.130121, 0.471442, -0.541397, 0.336622, -2.08293, -2.17047, -0.125798, -0.00145324, 0.0593266, 0.0146499, 0.0101652, 0.0151416, 0.00508837
0.166077, 1.69544, -1.22489, -1.53759, -0.899351, -1.19441, 1.2295, -1.30243, -0.0107958, 0.000986608, 0.0269547, -0.0475228, 0.00506785, 0.00027951, -0.00096378, 0.285408, 58.8083, 27.9368, 5.68848, 1.46686, 3.20224, -0.00999879, -0.00127202, 0.000452697, -0.000122224, -0.000922427, -0.00545394, -0.00180067, 0.0455863, -0.00930525, -0.00113293, 0.0162684, 0.0426849, 0.0512725, 0.47095, -0.540124, 0.336721, -2.08148, -2.16516, -0.130125, 0.471453, -0.541379, 0.336628, -2.08287, -2.17053, -0.125805, -0.00148032, 0.0600079, 0.0148084, 0.00943043, 0.0155821, 0.00624751
0.167077, 1.69542, -1.22488, -1.53757, -0.899409, -1.19441, 1.2295, -1.30243, -0.0118632, 0.0055966, 0.0263784, -0.0531038, 0.0034258, 0.000694967, 0.00477766, 0.475838, 58.8837, 28.1232, 5.6131, 1.47876, 3.18851, -0.0292249, -0.00131853, 0.000460018, -0.000121389, -0.000942999, -0.00549541, -0.00182955, 0.0451488, -0.00965911, 0.00064223, 0.0134297, 0.0498186, 0.0485048, 0.470949, -0.540064, 0.336735, -2.08144, -2.16515, -0.130129, 0.471461, -0.541365, 0.336634, -2.08283, -2.17058, -0.125793, -0.00150772, 0.0606919, 0.0149675, 0.00980762, 0.0164371, 0.00821476
0.168077, 1.69541, -1.22488, -1.53754, -0.899462, -1.19441, 1.2295, -1.30243, -0.0137057, 0.0044019, 0.0281968, -0.0517182, 0.00125966, 0.000192044, 0.00428953, 0.586922, 59.0305, 28.1986, 5.42664, 1.5163, 3.19583, -0.0484509, -0.00136377, 0.000470158, -0.000119791, -0.000970003, -0.00552909, -0.00186355, 0.0471958, -0.00832509, 0.000784302, 0.0145623, 0.0503428, 0.0461838, 0.470947, -0.540003, 0.33675, -2.0814, -2.16513, -0.130134, 0.471471, -0.541348, 0.33664, -2.08278, -2.17063, -0.125797, -0.00153542, 0.0613787, 0.015127, 0.00852822, 0.0150261, 0.00823355
0.169077, 1.6954, -1.22488, -1.53751, -0.899526, -1.19441, 1.2295, -1.30243, -0.0130359, 0.00437644, 0.0276681, -0.0534361, 0.000436127, -0.00010933, 0.00614811, 0.737679, 59.1415, 28.2343, 5.35126, 1.53461, 3.20224, -0.00267457, -0.00140529, 0.000483029, -0.00012023, -0.000996736, -0.00556574, -0.00191588, 0.0473393, -0.00884694, 0.000234207, 0.0126857, 0.0515438, 0.0460134, 0.470946, -0.539942, 0.336766, -2.08135, -2.16512, -0.130138, 0.471484, -0.541327, 0.336648, -2.08272, -2.1707, -0.125799, -0.00156344, 0.0620682, 0.0152869, 0.00900645, 0.0156818, 0.00780988
0.170077, 1.69538, -1.22487, -1.53748, -0.899587, -1.1944, 1.2295, -1.30242, -0.0134243, 0.00400422, 0.028454, -0.0559961, 5.58354e-05, -7.28865e-05, 0.00691428, 0.928108, 59.1415, 28.3454, 5.2005, 1.54651, 3.20224, -0.0621838, -0.00145046, 0.000492226, -0.000122976, -0.00102255, -0.00560843, -0.00194486, 0.047412, -0.00931198, -8.60145e-05, 0.0121884, 0.0521607, 0.0474167, 0.470944, -0.53988, 0.336781, -2.08131, -2.16511, -0.130143, 0.471493, -0.54131, 0.336659, -2.08268, -2.17075, -0.125792, -0.00159178, 0.0627604, 0.0154473, 0.00943369, 0.016372, 0.0076264
0.171077, 1.69537, -1.22487, -1.53745, -0.899657, -1.1944, 1.22949, -1.30242, -0.0126854, 0.00151151, 0.0289336, -0.0598859, 0.00489544, -0.000591126, 0.00921612, 1.07887, 59.3597, 28.4565, 5.12909, 1.55932, 3.21689, -0.0484509, -0.00149265, 0.000504766, -0.000117425, -0.00104249, -0.00563607, -0.00199617, 0.0457692, -0.0111763, -0.00205912, 0.0123807, 0.0462901, 0.0512064, 0.470942, -0.539817, 0.336796, -2.08126, -2.16509, -0.130147, 0.471505, -0.541287, 0.336662, -2.0826, -2.17082, -0.125796, -0.00162043, 0.0634553, 0.0156081, 0.0111331, 0.019074, 0.00603706
0.172077, 1.69536, -1.22485, -1.53742, -0.89973, -1.1944, 1.22949, -1.30242, -0.0153022, 0.00923403, 0.0305358, -0.0671545, 0.007414, -0.000936619, 0.00494332, 1.22962, 59.2883, 28.5319, 5.08942, 1.60144, 3.23153, 0.00373412, -0.00153373, 0.000517614, -0.000122371, -0.00106275, -0.0056867, -0.00205039, 0.0438714, -0.0116873, 0.00209027, 0.0123906, 0.0527143, 0.0607923, 0.470941, -0.539753, 0.336812, -2.08122, -2.16508, -0.130152, 0.471518, -0.541264, 0.336676, -2.08254, -2.1709, -0.125778, -0.00164939, 0.0641529, 0.0157694, 0.011702, 0.0210204, 0.0105743
0.173077, 1.69534, -1.22485, -1.53738, -0.899799, -1.1944, 1.22949, -1.30242, -0.0141092, 0.00581626, 0.032228, -0.0663273, 0.0053087, -0.00089568, 0.0108611, 1.38038, 59.4708, 28.5715, 4.94263, 1.61426, 3.23886, -0.0557752, -0.00157913, 0.000528337, -0.000118973, -0.00108481, -0.00571993, -0.00208881, 0.0447002, -0.0123061, 0.000692266, 0.0130139, 0.0514007, 0.0555532, 0.470939, -0.539689, 0.336828, -2.08117, -2.16506, -0.130156, 0.471529, -0.541244, 0.33668, -2.08248, -2.17095, -0.125777, -0.00167868, 0.0648531, 0.015931, 0.0122688, 0.0211468, 0.00920456
0.174077, 1.69532, -1.22485, -1.53735, -0.899868, -1.1944, 1.22948, -1.30242, -0.0173146, 0.00601531, 0.033765, -0.0658044, 0.00281336, -0.00059712, 0.00659548, 1.57081, 59.5462, 28.6072, 4.79187, 1.65088, 3.23886, -0.0164075, -0.00162614, 0.000537075, -0.000119127, -0.00110755, -0.00575993, -0.00213236, 0.0471862, -0.0104361, 0.00157781, 0.0143589, 0.0540463, 0.0561506, 0.470937, -0.539624, 0.336844, -2.08113, -2.16505, -0.130161, 0.471538, -0.541225, 0.336689, -2.08242, -2.17102, -0.125771, -0.00170828, 0.065556, 0.0160931, 0.0104966, 0.0191801, 0.00990736
0.175077, 1.69531, -1.22484, -1.53732, -0.899946, -1.1944, 1.22948, -1.30241, -0.0177854, 0.00783307, 0.0379208, -0.0671424, 0.00741911, -0.00515124, 0.00524394, 1.68189, 59.5462, 28.6429, 4.71649, 1.65729, 3.23886, -0.0228162, -0.00166779, 0.000550495, -0.000121172, -0.00112927, -0.00580237, -0.00218721, 0.045289, -0.0108478, 0.00349895, 0.0159043, 0.0501704, 0.0617749, 0.470936, -0.539559, 0.33686, -2.08108, -2.16503, -0.130166, 0.471551, -0.541201, 0.3367, -2.08235, -2.17109, -0.125763, -0.0017382, 0.0662614, 0.0162556, 0.0108817, 0.0214764, 0.0122494
0.176077, 1.69529, -1.22484, -1.53729, -0.900025, -1.19439, 1.22947, -1.30241, -0.0223246, 0.00655157, 0.0333509, -0.071536, 0.00506493, -0.00433888, 0.00564858, 1.83265, 59.6573, 28.7183, 4.64111, 1.6756, 3.25259, -0.0685925, -0.00171366, 0.000560722, -0.00011716, -0.00114586, -0.00583741, -0.00222879, 0.0483676, -0.00840001, 0.000784923, 0.0101818, 0.0522843, 0.0578183, 0.470934, -0.539493, 0.336876, -2.08103, -2.16502, -0.13017, 0.471561, -0.541178, 0.336705, -2.08228, -2.17115, -0.125755, -0.00176845, 0.0669695, 0.0164185, 0.00841761, 0.0194665, 0.00932502
0.177077, 1.69527, -1.22483, -1.53725, -0.900104, -1.19439, 1.22947, -1.30241, -0.0185678, 0.00814997, 0.0355231, -0.0736906, 0.00261805, -0.00318966, 0.00142986, 1.9477, 59.6573, 28.7183, 4.53003, 1.71222, 3.25259, 0.00373412, -0.00175673, 0.000573647, -0.000120375, -0.00116855, -0.00588231, -0.0022919, 0.0467731, -0.0112736, 0.00205086, 0.0106163, 0.0571236, 0.0678865, 0.470932, -0.539426, 0.336892, -2.08098, -2.165, -0.130175, 0.471574, -0.541154, 0.336717, -2.0822, -2.17123, -0.125746, -0.00179901, 0.0676801, 0.0165817, 0.0112469, 0.0216747, 0.0108957
0.178077, 1.69525, -1.22483, -1.53722, -0.900185, -1.19439, 1.22946, -1.3024, -0.0187348, 0.00670244, 0.0339376, -0.0745247, 0.00127817, -0.00289178, 0.00314319, 2.05878, 59.7644, 28.8294, 4.37927, 1.73694, 3.26724, -0.0484509, -0.00180286, 0.000586232, -0.000114951, -0.00118611, -0.00591836, -0.00233659, 0.0481, -0.0110251, 0.000513139, 0.00853524, 0.0576071, 0.0656065, 0.47093, -0.539358, 0.336909, -2.08094, -2.16499, -0.13018, 0.471586, -0.54113, 0.33672, -2.08214, -2.17129, -0.125739, -0.0018299, 0.0683933, 0.0167454, 0.0109588, 0.021308, 0.00933887
0.179077, 1.69524, -1.22482, -1.53719, -0.900267, -1.19438, 1.22946, -1.3024, -0.0181161, 0.00451118, 0.0357635, -0.0791466, 0.00509743, -0.00209496, 0.00228834, 2.13416, 59.8041, 28.8294, 4.26819, 1.76807, 3.26724, -0.0484509, -0.00184565, 0.000601167, -0.000113219, -0.00120631, -0.00595496, -0.00239696, 0.0463399, -0.0133413, -0.000783236, 0.0102671, 0.0535119, 0.0733802, 0.470929, -0.53929, 0.336926, -2.08089, -2.16497, -0.130185, 0.471601, -0.541103, 0.336728, -2.08205, -2.17137, -0.125735, -0.00186112, 0.069109, 0.0169095, 0.0131277, 0.0240608, 0.0084248
0.180077, 1.69521, -1.22481, -1.53715, -0.90036, -1.19438, 1.22945, -1.3024, -0.0205642, 0.00578347, 0.0359139, -0.0814244, 0.00319068, -0.00179323, 0.000720788, 2.32459, 59.8398, 28.8691, 4.23248, 1.79187, 3.27456, -0.0228162, -0.00189082, 0.000611087, -0.000112915, -0.00122134, -0.00599649, -0.00245511, 0.0477434, -0.0123253, -0.000188293, 0.00933058, 0.0571227, 0.0739889, 0.470927, -0.53922, 0.336943, -2.08084, -2.16496, -0.13019, 0.47161, -0.541078, 0.336737, -2.08197, -2.17145, -0.125721, -0.00189266, 0.0698272, 0.0170739, 0.012156, 0.023259, 0.0089859
0.181077, 1.69519, -1.2248, -1.53711, -0.900456, -1.19437, 1.22944, -1.30239, -0.0202691, 0.00640527, 0.0369002, -0.0867746, 0.00725737, -0.00624827, 0.00685391, 2.43568, 59.7644, 28.8691, 4.23248, 1.81018, 3.27456, -0.0621838, -0.00193232, 0.000625473, -0.000113509, -0.00123641, -0.00603917, -0.00251442, 0.0452287, -0.0134883, -0.000681585, 0.00583901, 0.0531476, 0.0747085, 0.470925, -0.539151, 0.33696, -2.08079, -2.16494, -0.130195, 0.471624, -0.541049, 0.336748, -2.08189, -2.17152, -0.125706, -0.00192452, 0.0705479, 0.0172387, 0.0131753, 0.0265878, 0.00902055
0.182077, 1.69517, -1.2248, -1.53708, -0.900551, -1.19437, 1.22943, -1.3024, -0.0195062, 0.00765831, 0.0361799, -0.0858902, 0.00992227, -0.00979636, 0.00260981, 2.51106, 59.7644, 28.9405, 4.1571, 1.8349, 3.2883, 0.00373412, -0.00197577, 0.000640418, -0.000110004, -0.00124779, -0.00608108, -0.00258387, 0.0450265, -0.0132214, -0.000483274, 0.00391327, 0.0509706, 0.0795092, 0.470923, -0.53908, 0.336977, -2.08074, -2.16492, -0.1302, 0.471639, -0.54102, 0.336754, -2.08179, -2.17161, -0.125688, -0.00195671, 0.0712712, 0.0174039, 0.0128774, 0.027469, 0.00941977
0.183077, 1.69515, -1.22479, -1.53704, -0.900652, -1.19436, 1.22942, -1.30239, -0.0166727, 0.00578108, 0.0370896, -0.0881006, 0.00766217, -0.0108611, 0.00186397, 2.62611, 59.7644, 28.9405, 4.08173, 1.8349, 3.25259, 0.0101428, -0.00201802, 0.000655472, -0.000109119, -0.00126493, -0.0061213, -0.00265109, 0.0441802, -0.0150521, -0.00185997, 0.00124141, 0.0511718, 0.0847537, 0.470921, -0.539009, 0.336994, -2.08069, -2.16491, -0.130205, 0.471654, -0.54099, 0.336763, -2.0817, -2.1717, -0.125679, -0.00198923, 0.0719968, 0.0175694, 0.0145901, 0.0293225, 0.0082995
